khanfazel/E-wera--maxon_motor/PD_control (copy)/pd_feedforward_log_filtered.csv
t_s,q_ref_deg,qd_ref_deg_s,qdd_ref_deg_s2,q_link_deg,qd_link_raw_deg_s,qd_link_filt_deg_s,pos_error_deg,vel_error_deg_s,tau_joint_ff_Nm,tau_pd_joint_raw_Nm,tau_pd_joint_limited_Nm,tau_joint_total_Nm,tau_dead_motor_Nm,tau_motor_cmd_before_clamp_Nm,tau_motor_cmd_Nm,tau_motor_actual_Nm,motor_pos_counts,motor_vel_native
0.000000,0.000000,943.265500,0.000000,-0.049438,0.000000,0.000000,0.049438,943.265500,0.000000,16.497603,16.497603,16.497603,0.000000,-0.257775,-0.257775,-0.001068,45,0
0.002000,1.886531,942.799250,0.000000,-0.045044,2.197266,0.219727,1.931575,942.579523,0.027289,17.799610,17.799610,17.826899,0.000000,-0.278545,-0.278545,-0.258456,41,-49
0.004000,3.771197,941.400750,-37.220226,0.074707,59.875488,6.185303,3.696490,935.215447,-1.155722,18.903226,18.903226,17.747504,0.160200,-0.117105,-0.117105,-0.281952,-68,-154
0.006000,5.652134,939.071000,-55.784328,0.305420,115.356445,17.102417,5.346714,921.968583,-1.732228,19.824098,19.824098,18.091870,0.160200,-0.122485,-0.122485,-0.116412,-278,-163
0.008000,7.527481,935.812750,-74.293267,0.476807,85.693359,23.961511,7.050674,911.851239,-2.307108,20.837106,20.837106,18.529997,0.160200,-0.129331,-0.129331,-0.121752,-434,-120
0.010000,9.395385,931.629250,-92.728741,0.619629,71.411133,28.706473,8.775756,902.922777,-2.879822,21.885609,21.885609,19.005786,0.160200,-0.136765,-0.136765,-0.131364,-564,-91
0.012000,11.253998,926.524500,-111.072519,0.741577,60.974121,31.933238,10.512421,894.591262,-3.449831,22.952617,22.952617,19.502787,0.160200,-0.144531,-0.144531,-0.135636,-675,-75
0.014000,13.101483,920.503500,-129.306462,0.836060,47.241211,33.464035,12.265423,887.039465,-4.016595,24.044640,24.044640,20.028046,0.160200,-0.152738,-0.152738,-0.144180,-761,-73
0.016000,14.936012,913.572250,-147.412541,0.920654,42.297363,34.347368,14.015358,879.224882,-4.579577,25.129935,25.129935,20.550357,0.160200,-0.160899,-0.160899,-0.152724,-838,-76
0.018000,16.755772,905.737500,-165.372849,1.011841,45.593262,35.471958,15.743931,870.265542,-5.138244,26.180337,26.180337,21.042093,0.160200,-0.168583,-0.168583,-0.161268,-921,-81
0.020000,18.558962,897.007250,-183.169628,1.103027,45.593262,36.484088,17.455935,860.523162,-5.692061,27.205504,27.205504,21.513443,0.160200,-0.175948,-0.175948,-0.168744,-1004,-81
0.022000,20.343801,887.390000,-200.785278,1.206299,51.635742,37.999253,19.137502,849.390747,-6.240499,28.185162,28.185162,21.944663,0.160200,-0.182685,-0.182685,-0.177288,-1098,-91
0.024000,22.108522,876.895000,-218.202380,1.322754,58.227539,40.022082,20.785768,836.872918,-6.783031,29.117391,29.117391,22.334360,0.160200,-0.188774,-0.188774,-0.182628,-1204,-109
0.026000,23.851381,865.533250,-235.403712,1.453491,65.368652,42.556739,22.397890,822.976511,-7.319132,30.000327,30.000327,22.681195,0.160200,-0.194194,-0.194194,-0.191172,-1323,-100
0.028000,25.570655,853.315500,-252.372264,1.578735,62.622070,44.563272,23.991920,808.752228,-7.848282,30.864909,30.864909,23.016627,0.160200,-0.199435,-0.199435,-0.195444,-1437,-104
0.030000,27.264643,840.253750,-269.091255,1.710571,65.917969,46.698742,25.554072,793.555008,-8.369964,31.690255,31.690255,23.320291,0.160200,-0.204180,-0.204180,-0.197580,-1557,-112
0.032000,28.931670,826.361000,-285.544154,1.870972,80.200195,50.048887,27.060698,776.312113,-8.883667,32.441134,32.441134,23.557466,0.160200,-0.207885,-0.207885,-0.203988,-1703,-132
0.034000,30.570087,811.651500,-301.714692,2.029175,79.101562,52.954155,28.540912,758.697345,-9.388885,33.167082,33.167082,23.778197,0.160200,-0.211334,-0.211334,-0.207192,-1847,-122
0.036000,32.178276,796.139500,-317.586877,2.210449,90.637207,56.722460,29.967827,739.417040,-9.885117,33.826752,33.826752,23.941635,0.160200,-0.213888,-0.213888,-0.214668,-2012,-124
0.038000,33.754645,779.839750,-333.145014,2.380737,85.144043,59.564618,31.373908,720.275132,-10.371868,34.474292,34.474292,24.102424,0.160200,-0.216400,-0.216400,-0.212532,-2167,-139
0.040000,35.297635,762.769000,-348.373719,2.557617,88.439941,62.452151,32.740018,700.316849,-10.848649,35.079679,35.079679,24.231030,0.160200,-0.218410,-0.218410,-0.216804,-2328,-132
0.042000,36.805721,744.944000,-363.257932,2.760864,101.623535,66.369289,34.044857,678.574711,-11.314981,35.611157,35.611157,24.296176,0.160200,-0.219428,-0.219428,-0.225348,-2513,-125
0.044000,38.277411,726.382500,-377.782936,2.964111,101.623535,69.894714,35.313300,656.487786,-11.770390,36.111207,36.111207,24.340817,0.160200,-0.220125,-0.220125,-0.213600,-2698,-131
0.046000,39.711251,707.102750,-391.934367,3.157471,96.679688,72.573211,36.553780,634.529539,-12.214412,36.593982,36.593982,24.379570,0.160200,-0.220731,-0.220731,-0.222144,-2874,-134
0.048000,41.105822,687.123500,-405.698231,3.375000,108.764648,76.192355,37.730822,610.931145,-12.646592,37.003843,37.003843,24.357251,0.160200,-0.220382,-0.220382,-0.218940,-3072,-162
0.050000,42.459745,666.465000,-419.060918,3.595825,110.412598,79.614379,38.863920,586.850621,-13.066483,37.374610,37.374610,24.308127,0.160200,-0.219614,-0.219614,-0.225348,-3273,-169
0.052000,43.771682,645.147500,-432.009215,3.825439,114.807129,83.133654,39.946243,562.013846,-13.473652,37.696730,37.696730,24.223079,0.160200,-0.218286,-0.218286,-0.217872,-3482,-165
0.054000,45.040335,623.191750,-444.530316,4.059448,117.004395,86.520728,40.980887,536.671022,-13.867672,37.976733,37.976733,24.109060,0.160200,-0.216504,-0.216504,-0.215736,-3695,-145
0.056000,46.264449,600.619750,-456.611842,4.290161,115.356445,89.404300,41.974288,511.215450,-14.248133,38.225974,38.225974,23.977841,0.160200,-0.214454,-0.214454,-0.217872,-3905,-173
0.058000,47.442814,577.454250,-468.241844,4.506592,108.215332,91.285403,42.936222,486.168847,-14.614633,38.460385,38.460385,23.845752,0.160200,-0.212390,-0.212390,-0.215736,-4102,-140
0.060000,48.574266,553.717500,-479.408822,4.724121,108.764648,93.033328,43.850145,460.684172,-14.966784,38.653632,38.653632,23.686848,0.160200,-0.209907,-0.209907,-0.212532,-4300,-158
0.062000,49.657684,529.433000,-490.101734,4.952637,114.257812,95.155776,44.705047,434.277224,-15.304213,38.789578,38.789578,23.485366,0.160200,-0.206759,-0.206759,-0.209328,-4508,-146
0.064000,50.691998,504.625250,-500.310006,5.169067,108.215332,96.461732,45.522931,408.163518,-15.626559,38.904798,38.904798,23.278240,0.160200,-0.203522,-0.203522,-0.210396,-4705,-156
0.066000,51.676185,479.318500,-510.023544,5.380005,105.468750,97.362433,46.296180,381.956067,-15.933476,38.987222,38.987222,23.053746,0.160200,-0.200015,-0.200015,-0.206124,-4897,-150
0.068000,52.609272,453.537750,-519.232741,5.585449,102.722168,97.898407,47.023823,355.639343,-16.224636,39.035899,39.035899,22.811263,0.160200,-0.196226,-0.196226,-0.202920,-5084,-121
0.070000,53.490336,427.308250,-527.928493,5.774414,94.482422,97.556808,47.715922,329.751442,-16.499722,39.067246,39.067246,22.567524,0.160200,-0.192418,-0.192418,-0.197580,-5256,-108
0.072000,54.318505,400.656500,-536.102199,5.964478,95.031738,97.304301,48.354027,303.352199,-16.758437,39.051974,39.051974,22.293537,0.160200,-0.188137,-0.188137,-0.193308,-5429,-139
0.074000,55.092962,373.608500,-543.745778,6.157837,96.679688,97.241840,48.935125,276.366660,-17.000500,38.986670,38.986670,21.986170,0.160200,-0.183334,-0.183334,-0.187968,-5605,-135
0.076000,55.812939,346.191000,-550.851670,6.346802,94.482422,96.965898,49.466137,249.225102,-17.225647,38.883677,38.883677,21.658030,0.160200,-0.178207,-0.178207,-0.189036,-5777,-113
0.078000,56.477726,318.431250,-557.412850,6.525879,89.538574,96.223166,49.951847,222.208084,-17.433630,38.751231,38.751231,21.317600,0.160200,-0.172888,-0.172888,-0.182628,-5940,-113
0.080000,57.086664,290.356250,-563.422828,6.693970,84.045410,95.005390,50.392694,195.350860,-17.624223,38.590253,38.590253,20.966030,0.160200,-0.167394,-0.167394,-0.170880,-6093,-112
0.082000,57.639151,261.994500,-568.875663,6.851074,78.552246,93.360076,50.788077,168.634424,-17.797215,38.399992,38.399992,20.602777,0.160200,-0.161718,-0.161718,-0.165540,-6236,-110
0.084000,58.134642,233.373750,-573.765962,6.982910,65.917969,90.615865,51.151732,142.757885,-17.952416,38.202241,38.202241,20.249824,0.160200,-0.156204,-0.156204,-0.161268,-6356,-95
0.086000,58.572646,204.522000,-578.088888,7.120239,68.664551,88.420734,51.452407,116.101266,-18.089655,37.946906,37.946906,19.857251,0.160200,-0.150070,-0.150070,-0.150588,-6481,-81
0.088000,58.952730,175.468250,-581.840169,7.238892,59.326172,85.511278,51.713838,89.956972,-18.208779,37.673115,37.673115,19.464337,0.160200,-0.143930,-0.143930,-0.151656,-6589,-79
0.090000,59.274519,146.240750,-585.016093,7.354248,57.678223,82.727972,51.920271,63.512778,-18.309656,37.355694,37.355694,19.046038,0.160200,-0.137394,-0.137394,-0.147384,-6694,-78
0.092000,59.537693,116.868500,-587.613520,7.464111,54.931641,79.948339,52.073582,36.920161,-18.392176,36.998597,36.998597,18.606421,0.160200,-0.130525,-0.130525,-0.137772,-6794,-74
0.094000,59.741993,87.381000,-589.629883,7.562988,49.438477,76.897353,52.179005,10.483647,-18.456245,36.610791,36.610791,18.154546,0.160200,-0.123465,-0.123465,-0.127092,-6884,-56
0.096000,59.887217,57.807000,-591.063187,7.638794,37.902832,72.997901,52.248423,-15.190901,-18.501794,36.211149,36.211149,17.709355,0.160200,-0.116509,-0.116509,-0.124956,-6953,-55
0.098000,59.973221,28.176000,-591.912014,7.716797,39.001465,69.598257,52.256424,-41.422257,-18.528771,35.758911,35.758911,17.230141,0.160200,-0.109021,-0.109021,-0.115344,-7024,-55
0.100000,59.999921,-1.483000,-592.175526,7.788208,35.705566,66.208988,52.211713,-67.691988,-18.537146,35.269204,35.269204,16.732058,0.160200,-0.101238,-0.101238,-0.115344,-7089,-51
0.102000,59.967289,-31.140750,-591.853461,7.846436,29.113770,62.499466,52.120853,-93.640216,-18.526910,34.752890,34.752890,16.225980,0.160200,-0.093331,-0.093331,-0.101460,-7142,-42
0.104000,59.875358,-60.767500,-590.946139,7.901367,27.465820,58.996102,51.973991,-119.763602,-18.498074,34.194421,34.194421,15.696347,0.160200,-0.085055,-0.085055,-0.095052,-7192,-35
0.106000,59.724219,-90.334250,-589.454456,7.945312,21.972656,55.293757,51.778906,-145.628007,-18.450671,33.606808,33.606808,15.156137,0.160200,-0.076615,-0.076615,-0.087576,-7232,-24
0.108000,59.514021,-119.811500,-587.379888,7.978271,16.479492,51.412331,51.535750,-171.223831,-18.384753,32.990321,32.990321,14.605568,0.160200,-0.068012,-0.068012,-0.070488,-7262,-18
0.110000,59.244973,-149.170500,-584.724485,8.003540,12.634277,47.534525,51.241433,-196.705025,-18.300393,32.340118,32.340118,14.039725,0.160200,-0.059171,-0.059171,-0.067284,-7285,-18
0.112000,58.917339,-178.382000,-581.490875,8.026611,11.535645,43.934637,50.890728,-222.316637,-18.197685,31.648273,31.648273,13.450588,0.160200,-0.049965,-0.049965,-0.058740,-7306,-9
0.114000,58.531445,-207.416750,-577.682254,8.037598,5.493164,40.090490,50.493847,-247.507240,-18.076744,30.931539,30.931539,12.854796,0.160200,-0.040656,-0.040656,-0.052332,-7316,-3
0.116000,58.087672,-236.246500,-573.302388,8.038696,0.549316,36.136372,50.048976,-272.382872,-17.937702,30.186799,30.186799,12.249097,0.160200,-0.031192,-0.031192,-0.041652,-7317,-1
0.118000,57.586459,-264.842750,-568.355609,8.038696,0.000000,32.522735,49.547763,-297.365485,-17.780714,29.400857,29.400857,11.620143,0.160200,-0.021365,-0.021365,-0.032040,-7317,0
0.120000,57.028301,-293.177250,-562.846808,8.037598,-0.549316,29.215530,48.990703,-322.392780,-17.605953,28.575148,28.575148,10.969195,0.160200,-0.011194,-0.011194,-0.019224,-7316,0
0.122000,56.413750,-321.221750,-556.781433,8.036499,-0.549316,26.239045,48.377251,-347.460795,-17.413611,27.709358,27.709358,10.295747,0.160200,-0.000671,-0.000671,-0.007476,-7315,1
0.124000,55.743414,-348.948750,-550.165481,8.034302,-1.098633,23.505278,47.709112,-372.454028,-17.203901,26.806695,26.806695,9.602794,0.160200,0.010156,0.010156,-0.006408,-7313,2
0.126000,55.017955,-376.330500,-543.005495,8.032104,-1.098633,21.044887,46.985851,-397.375387,-16.977051,25.866803,25.866803,8.889752,0.160200,0.021298,0.021298,0.011748,-7311,1
0.128000,54.238092,-403.339750,-535.308555,8.028809,-1.647949,18.775603,46.209283,-422.115353,-16.733311,24.892863,24.892863,8.159552,0.160200,0.032707,0.032707,0.019224,-7308,3
0.130000,53.404596,-429.950500,-527.082272,8.024414,-2.197266,16.678316,45.380182,-446.628816,-16.472945,23.886200,23.886200,7.413255,0.160200,0.044368,0.044368,0.033108,-7304,4
0.132000,52.518290,-456.136500,-518.334780,8.015625,-4.394531,14.571031,44.502665,-470.707531,-16.196238,22.853325,22.853325,6.657087,0.160200,0.056183,0.056183,0.042720,-7296,9
0.134000,51.580050,-481.871000,-509.074730,8.003540,-6.042480,12.509680,43.576510,-494.380680,-15.903488,21.793572,21.793572,5.890084,0.160200,0.068167,0.068167,0.054468,-7285,10
0.136000,50.590806,-507.128750,-499.311279,7.985962,-8.789062,10.379806,42.604844,-517.508556,-15.595013,20.711564,20.711564,5.116551,0.160200,0.080254,0.080254,0.070488,-7269,17
0.138000,49.551535,-531.885500,-489.054081,7.957397,-14.282227,7.913603,41.594138,-539.799103,-15.271143,19.616914,19.616914,4.345772,0.160200,0.092297,0.092297,0.079032,-7243,24
0.140000,48.463264,-556.116250,-478.313278,7.924438,-16.479492,5.474293,40.538826,-561.590543,-14.932225,18.499835,18.499835,3.567610,0.160200,0.104456,0.104456,0.092916,-7213,29
0.142000,47.327070,-579.796750,-467.099493,7.878296,-23.071289,2.619735,39.448774,-582.416485,-14.578622,17.375354,17.375354,2.796732,0.160200,0.116501,0.116501,0.104664,-7171,33
0.144000,46.144077,-602.904250,-455.423814,7.813477,-32.409668,-0.883205,38.330600,-602.021045,-14.210709,16.252558,16.252558,2.041849,-0.160200,-0.192104,-0.192104,0.115344,-7112,43
0.146000,44.915453,-625.415500,-443.297786,7.747559,-32.958984,-4.090783,37.167894,-621.324717,-13.828874,15.103923,15.103923,1.275049,-0.160200,-0.180123,-0.180123,-0.187968,-7052,-21
0.148000,43.642415,-647.308250,-430.733401,7.813477,32.958984,-0.385806,35.828938,-646.922444,-13.433520,13.722391,13.722391,0.288871,0.000000,-0.004514,-0.004514,-0.180492,-7112,-93
0.150000,42.326220,-668.560750,-417.743082,7.978271,82.397461,7.892520,34.347949,-676.453270,-13.025060,12.173055,12.173055,-0.852005,0.160200,0.173513,0.173513,-0.004272,-7262,-101
0.152000,40.968172,-689.152250,-404.339676,8.074951,48.339844,11.937253,32.893221,-701.089503,-12.603919,10.727480,10.727480,-1.876439,0.160200,0.189519,0.189519,0.173016,-7350,0
0.154000,39.569611,-709.062500,-390.536436,8.034302,-20.324707,8.711057,31.535309,-717.773557,-12.170535,9.488287,9.488287,-2.682248,0.160200,0.202110,0.202110,0.187968,-7313,74
0.156000,38.131922,-728.271250,-376.347012,7.890381,-71.960449,0.643906,30.241541,-728.915156,-11.725354,8.390609,8.390609,-3.334745,0.160200,0.212305,0.212305,0.200784,-7182,135
0.158000,36.656526,-746.760000,-361.785435,7.673950,-108.215332,-10.242018,28.982576,-736.517982,-11.268832,7.378991,7.378991,-3.889840,-0.160200,-0.099421,-0.099421,0.213600,-6985,156
0.160000,35.144882,-764.510500,-346.866104,7.479492,-97.229004,-18.940716,27.665390,-745.569784,-10.801433,6.301438,6.301438,-4.499995,-0.160200,-0.089888,-0.089888,-0.100392,-6808,80
0.162000,33.598484,-781.504750,-331.603773,7.417969,-30.761719,-20.122817,26.180515,-761.381933,-10.323633,4.988826,4.988826,-5.334807,-0.160200,-0.076844,-0.076844,-0.089712,-6752,-17
0.164000,32.018863,-797.726250,-316.013534,7.449829,15.930176,-16.517517,24.569034,-781.208733,-9.835912,3.517757,3.517757,-6.318156,-0.160200,-0.061479,-0.061479,-0.077964,-6781,-35
0.166000,30.407579,-813.159000,-300.110802,7.504761,27.465820,-12.119184,22.902818,-801.039816,-9.338760,2.008401,2.008401,-7.330358,-0.160200,-0.045663,-0.045663,-0.065148,-6831,-32
0.168000,28.766227,-827.787250,-283.911305,7.546509,20.874023,-8.819863,21.219718,-818.967387,-8.832671,0.520481,0.520481,-8.312190,-0.160200,-0.030322,-0.030322,-0.046992,-6869,-19
0.170000,27.096430,-841.597500,-267.431059,7.565186,9.338379,-7.004039,19.531244,-834.593461,-8.318146,-0.931023,-0.931023,-9.249169,-0.160200,-0.015682,-0.015682,-0.026700,-6886,-6
0.172000,25.399837,-854.575500,-250.686364,7.567383,1.098633,-6.193772,17.832454,-848.381728,-7.795694,-2.357653,-2.357653,-10.153347,-0.160200,-0.001554,-0.001554,-0.014952,-6888,1
0.174000,23.678128,-866.708000,-233.693775,7.562988,-2.197266,-5.794121,16.115140,-860.913879,-7.265826,-3.775292,-3.775292,-11.041118,-0.160200,0.012317,0.012317,-0.004272,-6884,4
0.176000,21.933005,-877.983750,-216.470097,7.556396,-3.295898,-5.544299,14.376609,-872.439451,-6.729059,-5.190175,-5.190175,-11.919233,-0.160200,0.026038,0.026038,0.010680,-6878,6
0.178000,20.166193,-888.391250,-199.032362,7.547607,-4.394531,-5.429322,12.618586,-882.961928,-6.185913,-6.601158,-6.601158,-12.787071,-0.160200,0.039598,0.039598,0.025632,-6870,7
0.180000,18.379440,-897.920250,-181.397812,7.534424,-6.591797,-5.545569,10.845016,-892.374681,-5.636913,-8.003627,-8.003627,-13.640540,-0.160200,0.052933,0.052933,0.037380,-6858,11
0.182000,16.574512,-906.561500,-163.583885,7.514648,-9.887695,-5.979782,9.059864,-900.581718,-5.082587,-9.393138,-9.393138,-14.475725,-0.160200,0.065983,0.065983,0.051264,-6840,14
0.184000,14.753194,-914.306250,-145.608198,7.492676,-10.986328,-6.480437,7.260518,-907.825813,-4.523464,-10.775752,-10.775752,-15.299216,-0.160200,0.078850,0.078850,0.066216,-6820,16
0.186000,12.917287,-921.146750,-127.488525,7.470703,-10.986328,-6.931026,5.446584,-914.215724,-3.960079,-12.153642,-12.153642,-16.113721,-0.160200,0.091577,0.091577,0.079032,-6800,20
0.188000,11.068607,-927.076250,-109.242785,7.443237,-13.732910,-7.611214,3.625370,-919.465036,-3.392967,-13.516707,-13.516707,-16.909674,-0.160200,0.104014,0.104014,0.089712,-6775,26
0.190000,9.208982,-932.089000,-90.889019,7.408081,-17.578125,-8.607905,1.800901,-923.481095,-2.822664,-14.860520,-14.860520,-17.683183,-0.160200,0.116100,0.116100,0.103596,-6743,25
0.192000,7.340251,-936.180250,-72.445377,7.366333,-20.874023,-9.834517,-0.026082,-926.345733,-2.249709,-16.185992,-16.185992,-18.435700,-0.160200,0.127858,0.127858,0.115344,-6705,27
0.194000,5.464261,-939.345750,-53.930097,7.315796,-25.268555,-11.377921,-1.851535,-927.967829,-1.674642,-17.488709,-17.488709,-19.163351,-0.160200,0.139227,0.139227,0.127092,-6659,34
0.196000,3.582868,-941.582500,-35.361488,7.253174,-31.311035,-13.371232,-3.670306,-928.211268,-1.098003,-18.762700,-18.762700,-19.860702,-0.160200,0.150123,0.150123,0.144180,-6602,46
0.198000,1.697931,-942.888000,-16.757912,7.197144,-28.015137,-14.835623,-5.499213,-928.052377,-0.520334,-20.036744,-20.036744,-20.557079,-0.160200,0.161004,0.161004,0.150588,-6551,48
0.200000,-0.188684,-943.261000,1.862236,7.118042,-39.550781,-17.307139,-7.306726,-925.953861,0.057822,-21.262001,-21.262001,-21.204178,-0.160200,0.171115,0.171115,0.163404,-6479,67
0.202000,-2.075113,-942.701250,20.480542,7.034546,-41.748047,-19.751229,-9.109659,-922.950021,0.635924,-22.468258,-22.468258,-21.832334,-0.160200,0.180930,0.180930,0.167676,-6403,81
0.204000,-3.959489,-941.209500,39.078596,6.941162,-46.691895,-22.445296,-10.900651,-918.764204,1.213430,-23.645551,-23.645551,-22.432120,-0.160200,0.190302,0.190302,0.178356,-6318,87
0.206000,-5.839951,-938.787000,57.638006,6.815918,-62.622070,-26.462973,-12.655869,-912.324027,1.789798,-24.758521,-24.758521,-22.968723,-0.160200,0.198686,0.198686,0.190104,-6204,105
0.208000,-7.714637,-935.436000,76.140422,6.691772,-62.072754,-30.023951,-14.406409,-905.412049,2.364486,-25.859992,-25.859992,-23.495506,-0.160200,0.206917,0.206917,0.199716,-6091,109
0.210000,-9.581695,-931.160250,94.567545,6.535767,-78.002930,-34.821849,-16.117462,-896.338401,2.936954,-26.896167,-26.896167,-23.959213,-0.160200,0.214163,0.214163,0.207192,-5949,107
0.212000,-11.439278,-925.963500,112.901154,6.357788,-88.989258,-40.238590,-17.797066,-885.724910,3.506662,-27.883512,-27.883512,-24.376850,-0.160200,0.220688,0.220688,0.215736,-5787,129
0.214000,-13.285549,-919.851000,131.123121,6.166626,-95.581055,-45.772837,-19.452175,-874.078163,4.073072,-28.835722,-28.835722,-24.762650,-0.160200,0.226716,0.226716,0.220008,-5613,136
0.216000,-15.118682,-912.829250,149.215425,5.958984,-103.820801,-51.577633,-21.077666,-861.251617,4.635647,-29.746663,-29.746663,-25.111017,-0.160200,0.232160,0.232160,0.228552,-5424,136
0.218000,-16.936866,-904.904750,167.160178,5.756836,-101.074219,-56.527292,-22.693702,-848.377458,5.193852,-30.650173,-30.650173,-25.456320,-0.160200,0.237555,0.237555,0.231756,-5240,136
0.220000,-18.738301,-896.085250,184.939632,5.532715,-112.060547,-62.080617,-24.271016,-834.004633,5.747156,-31.500492,-31.500492,-25.753337,-0.160200,0.242196,0.242196,0.236028,-5036,164
0.222000,-20.521207,-886.379750,202.536209,5.296509,-118.103027,-67.682858,-25.817716,-818.696892,6.295027,-32.313122,-32.313122,-26.018095,-0.160200,0.246333,0.246333,0.244572,-4821,178
0.224000,-22.283820,-875.797750,219.932506,5.048218,-124.145508,-73.329123,-27.332038,-802.468627,6.836939,-33.087082,-33.087082,-26.250143,-0.160200,0.249958,0.249958,0.252048,-4595,188
0.226000,-24.024398,-864.349750,237.111321,4.786743,-130.737305,-79.069941,-28.811141,-785.279809,7.372368,-33.819689,-33.819689,-26.447321,-0.160200,0.253039,0.253039,0.248844,-4357,176
0.228000,-25.741219,-852.047000,254.055668,4.515381,-135.681152,-84.731062,-30.256600,-767.315938,7.900794,-34.515281,-34.515281,-26.614487,-0.160200,0.255651,0.255651,0.250980,-4110,168
0.230000,-27.432586,-838.901750,270.748790,4.233032,-141.174316,-90.375388,-31.665618,-748.526362,8.421702,-35.171021,-35.171021,-26.749320,-0.160200,0.257758,0.257758,0.259524,-3853,210
0.232000,-29.096826,-824.926750,287.174181,3.944092,-144.470215,-95.784870,-33.040918,-729.141880,8.934579,-35.792839,-35.792839,-26.858259,-0.160200,0.259460,0.259460,0.257388,-3590,189
0.234000,-30.732293,-810.136250,303.315597,3.697998,-123.046875,-98.511071,-34.430291,-711.625179,9.438921,-36.457080,-36.457080,-27.018159,-0.160200,0.261959,0.261959,0.261660,-3366,181
0.236000,-32.337371,-794.544500,319.157079,3.414551,-141.723633,-102.832327,-35.751922,-691.712173,9.934227,-37.032205,-37.032205,-27.097978,-0.160200,0.263206,0.263206,0.267000,-3108,181
0.238000,-33.910471,-778.167000,334.682960,3.124512,-145.019531,-107.051048,-37.034983,-671.115952,10.420002,-37.568479,-37.568479,-27.148476,-0.160200,0.263995,0.263995,0.264864,-2844,222
0.240000,-35.450039,-761.020250,349.877888,2.817993,-153.259277,-111.671871,-38.268032,-649.348379,10.895761,-38.049394,-38.049394,-27.153633,-0.160200,0.264076,0.264076,0.264864,-2565,193
0.242000,-36.954552,-743.120750,364.726837,2.503784,-157.104492,-116.215133,-39.458336,-626.905617,11.361021,-38.488682,-38.488682,-27.127661,-0.160200,0.263670,0.263670,0.262728,-2279,193
0.244000,-38.422522,-724.486500,379.215124,2.191772,-156.005859,-120.194205,-40.614294,-604.292295,11.815312,-38.901017,-38.901017,-27.085704,-0.160200,0.263014,0.263014,0.264864,-1995,230
0.246000,-39.852498,-705.136000,393.328421,1.916016,-137.878418,-121.962627,-41.768514,-583.173373,12.258170,-39.338219,-39.338219,-27.080049,-0.160200,0.262926,0.262926,0.262728,-1744,230
0.248000,-41.243066,-685.088000,407.052774,1.608398,-153.808594,-125.147223,-42.851464,-559.940777,12.689141,-39.688776,-39.688776,-26.999635,-0.160200,0.261669,0.261669,0.267000,-1464,193
0.250000,-42.592850,-664.362500,420.374610,1.299683,-154.357910,-128.068292,-43.892533,-536.294208,13.107780,-40.002868,-40.002868,-26.895088,-0.160200,0.260036,0.260036,0.265932,-1183,214
0.252000,-43.900516,-642.980250,433.280756,1.046997,-126.342773,-127.895740,-44.947513,-515.084510,13.513652,-40.369204,-40.369204,-26.855552,-0.160200,0.259418,0.259418,0.258456,-953,202
0.254000,-45.164771,-620.962000,445.758450,0.775635,-135.681152,-128.674281,-45.940406,-492.287719,13.906335,-40.664495,-40.664495,-26.758160,-0.160200,0.257896,0.257896,0.260592,-706,224
0.256000,-46.384364,-598.329500,457.795354,0.502075,-136.779785,-129.484832,-46.886439,-468.844668,14.285418,-40.915793,-40.915793,-26.630375,-0.160200,0.255900,0.255900,0.258456,-457,215
0.258000,-47.558089,-575.105750,469.379563,0.221924,-140.075684,-130.543917,-47.780013,-444.561833,14.650500,-41.115809,-41.115809,-26.465310,-0.160200,0.253320,0.253320,0.254184,-202,230
0.260000,-48.684787,-551.313500,480.499624,-0.050537,-136.230469,-131.112572,-48.634250,-420.200928,15.001195,-41.287001,-41.287001,-26.285806,-0.160200,0.250516,0.250516,0.254184,46,226
0.262000,-49.763343,-526.975500,491.144540,-0.338379,-143.920898,-132.393405,-49.424964,-394.582095,15.337132,-41.391891,-41.391891,-26.054759,-0.160200,0.246906,0.246906,0.248844,308,208
0.264000,-50.792689,-502.116500,501.303785,-0.588867,-125.244141,-131.678478,-50.203822,-370.438022,15.657950,-41.514243,-41.514243,-25.856293,-0.160200,0.243805,0.243805,0.246708,536,179
0.266000,-51.771809,-476.761250,510.967313,-0.832764,-121.948242,-130.705455,-50.939045,-346.055795,15.963307,-41.601975,-41.601975,-25.638669,-0.160200,0.240404,0.240404,0.244572,758,214
0.268000,-52.699734,-450.934500,520.125568,-1.093140,-130.187988,-130.653708,-51.606594,-320.280792,16.252873,-41.618154,-41.618154,-25.365281,-0.160200,0.236133,0.236133,0.237096,995,190
0.270000,-53.575547,-424.661750,528.769493,-1.330444,-118.652344,-129.453572,-52.245103,-295.208178,16.526335,-41.626317,-41.626317,-25.099982,-0.160200,0.231987,0.231987,0.237096,1211,167
0.272000,-54.398381,-397.969000,536.890542,-1.569946,-119.750977,-128.483312,-52.828435,-269.485688,16.783398,-41.584618,-41.584618,-24.801220,-0.160200,0.227319,0.227319,0.232824,1429,175
0.274000,-55.167423,-370.883000,544.480683,-1.798462,-114.257812,-127.060762,-53.368961,-243.822238,17.023780,-41.514064,-41.514064,-24.490284,-0.160200,0.222461,0.222461,0.229620,1637,194
0.276000,-55.881913,-343.430000,551.532412,-2.053345,-127.441406,-127.098827,-53.828568,-216.331173,17.247221,-41.355121,-41.355121,-24.107900,-0.160200,0.216486,0.216486,0.218940,1869,159
0.278000,-56.541143,-315.637250,558.038754,-2.311523,-129.089355,-127.297879,-54.229620,-188.339371,17.453476,-41.146559,-41.146559,-23.693083,-0.160200,0.210004,0.210004,0.222144,2104,154
0.280000,-57.144462,-287.532750,563.993277,-2.546631,-117.553711,-126.323463,-54.597831,-161.209287,17.642318,-40.930110,-40.930110,-23.287792,-0.160200,0.203672,0.203672,0.209328,2318,165
0.282000,-57.691274,-259.143750,569.390091,-2.765259,-109.313965,-124.622513,-54.926015,-134.521237,17.813539,-40.693431,-40.693431,-22.879892,-0.160200,0.197298,0.197298,0.207192,2517,137
0.284000,-58.181037,-230.498500,574.223861,-2.959717,-97.229004,-121.883162,-55.221320,-108.615338,17.966951,-40.447449,-40.447449,-22.480498,-0.160200,0.191058,0.191058,0.201852,2694,144
0.286000,-58.613268,-201.625250,578.489806,-3.162964,-101.623535,-119.857199,-55.450304,-81.768051,18.102384,-40.138737,-40.138737,-22.036352,-0.160200,0.184118,0.184118,0.189036,2879,121
0.288000,-58.987538,-172.552500,582.183708,-3.336548,-86.791992,-116.550679,-55.650990,-56.001821,18.219689,-39.829137,-39.829137,-21.609447,-0.160200,0.177448,0.177448,0.186900,3037,120
0.290000,-59.303478,-143.309500,585.301915,-3.521118,-92.285156,-114.124126,-55.782360,-29.185374,18.318736,-39.452815,-39.452815,-21.134079,-0.160200,0.170020,0.170020,0.178356,3205,115
0.292000,-59.560776,-113.924750,587.841342,-3.670532,-74.707031,-110.182417,-55.890244,-3.742333,18.399414,-39.084067,-39.084067,-20.684653,-0.160200,0.162998,0.162998,0.168744,3341,118
0.294000,-59.759177,-84.427000,589.799479,-3.829834,-79.650879,-107.129263,-55.929343,22.702263,18.461635,-38.649818,-38.649818,-20.188183,-0.160200,0.155240,0.155240,0.164472,3486,101
0.296000,-59.898484,-54.846000,591.174389,-3.964966,-67.565918,-103.172929,-55.933518,48.326929,18.505328,-38.205498,-38.205498,-19.700170,-0.160200,0.147615,0.147615,0.151656,3609,105
0.298000,-59.978561,-25.210750,591.964713,-4.098999,-67.016602,-99.557296,-55.879562,74.346546,18.530446,-37.713702,-37.713702,-19.183256,-0.160200,0.139538,0.139538,0.147384,3731,88
0.300000,-59.999327,4.449500,592.169669,-4.228638,-64.819336,-96.083500,-55.770689,100.533000,18.536960,-37.180654,-37.180654,-18.643695,-0.160200,0.131108,0.131108,0.144180,3849,89
0.302000,-59.960763,34.105250,591.789055,-4.346191,-58.776855,-92.352835,-55.614572,126.458085,18.524863,-36.619185,-36.619185,-18.094323,-0.160200,0.122524,0.122524,0.133500,3956,68
0.304000,-59.862906,63.727250,590.823247,-4.453857,-53.833008,-88.500853,-55.409049,152.228103,18.494169,-36.025932,-36.025932,-17.531763,-0.160200,0.113734,0.113734,0.123888,4054,61
0.306000,-59.705854,93.286250,589.273200,-4.543945,-45.043945,-84.155162,-55.161909,177.441412,18.444911,-35.413340,-35.413340,-16.968429,-0.160200,0.104932,0.104932,0.114276,4136,52
0.308000,-59.489761,122.753250,587.140446,-4.623047,-39.550781,-79.694724,-54.866714,202.447974,18.377145,-34.770809,-34.770809,-16.393664,-0.160200,0.095951,0.095951,0.103596,4208,45
0.310000,-59.214841,152.098750,584.427095,-4.688965,-32.958984,-75.021150,-54.525876,227.119900,18.290946,-34.102253,-34.102253,-15.811306,-0.160200,0.086852,0.086852,0.096120,4268,40
0.312000,-58.881366,181.293750,581.135831,-4.747192,-29.113770,-70.430412,-54.134174,251.724162,18.186410,-33.399367,-33.399367,-15.212958,-0.160200,0.077502,0.077502,0.087576,4321,30
0.314000,-58.489666,210.309500,577.269906,-4.787842,-20.324707,-65.419841,-53.701824,275.729341,18.063652,-32.678561,-32.678561,-14.614910,-0.160200,0.068158,0.068158,0.080100,4358,19
0.316000,-58.040128,239.117250,572.833145,-4.817505,-14.831543,-60.361012,-53.222623,299.478262,17.922808,-31.929519,-31.929519,-14.006711,-0.160200,0.058655,0.058655,0.068352,4385,16
0.318000,-57.533197,267.688500,567.829934,-4.835083,-8.789062,-55.203817,-52.698114,322.892317,17.764034,-31.154690,-31.154690,-13.390656,-0.160200,0.049029,0.049029,0.055536,4401,8
0.320000,-56.969374,295.995250,562.265222,-4.843872,-4.394531,-50.122888,-52.125502,346.118138,17.587506,-30.349564,-30.349564,-12.762058,-0.160200,0.039207,0.039207,0.049128,4409,2
0.322000,-56.349216,324.009250,556.144510,-4.843872,0.000000,-45.110599,-51.505344,369.119849,17.393418,-29.515157,-29.515157,-12.121739,-0.160200,0.029202,0.029202,0.037380,4409,0
0.324000,-55.673337,351.702750,549.473852,-4.843872,0.000000,-40.599539,-50.829465,392.302289,17.181983,-28.638694,-28.638694,-11.456711,-0.160200,0.018811,0.018811,0.032040,4409,0
0.326000,-54.942405,379.048500,542.259843,-4.843872,0.000000,-36.539585,-50.098533,415.588085,16.953433,-27.721994,-27.721994,-10.768561,-0.160200,0.008059,0.008059,0.023496,4409,0
0.328000,-54.157143,406.019250,534.509617,-4.841675,1.098633,-32.775764,-49.315468,438.795014,16.708018,-26.770274,-26.770274,-10.062256,-0.160200,-0.002977,-0.002977,0.006408,4407,-1
0.330000,-53.318328,432.588750,526.230838,-4.839478,1.098633,-29.388324,-48.478850,461.977074,16.446005,-25.781601,-25.781601,-9.335596,-0.160200,-0.014331,-0.014331,-0.008544,4405,-3
0.332000,-52.426788,458.730500,517.431693,-4.835083,2.197266,-26.229765,-47.591705,484.960265,16.167680,-24.761125,-24.761125,-8.593445,-0.160200,-0.025927,-0.025927,-0.013884,4401,-5
0.334000,-51.483406,484.418500,508.120883,-4.827393,3.845215,-23.222267,-46.656013,507.640767,15.873343,-23.712039,-23.712039,-7.838696,-0.160200,-0.037720,-0.037720,-0.026700,4394,-7
0.336000,-50.489114,509.627750,498.307614,-4.814209,6.591797,-20.240861,-45.674905,529.868611,15.563313,-22.639147,-22.639147,-7.075835,-0.160200,-0.049640,-0.049640,-0.037380,4382,-10
0.338000,-49.444895,534.332750,488.001591,-4.798828,7.690430,-17.447732,-44.646067,551.780482,15.237922,-21.538448,-21.538448,-6.300526,-0.160200,-0.061754,-0.061754,-0.051264,4368,-12
0.340000,-48.351783,558.509250,477.213005,-4.775757,11.535645,-14.549394,-43.576026,573.058644,14.897520,-20.420045,-20.420045,-5.522525,-0.160200,-0.073911,-0.073911,-0.064080,4347,-22
0.342000,-47.210858,582.133750,465.952524,-4.741699,17.028809,-11.391574,-42.469159,593.525324,14.542468,-19.290095,-19.290095,-4.747627,-0.160200,-0.086018,-0.086018,-0.073692,4316,-30
0.344000,-46.023248,605.182500,454.231283,-4.699951,20.874023,-8.165014,-41.323297,613.347514,14.173145,-18.144170,-18.144170,-3.971025,-0.160200,-0.098153,-0.098153,-0.082236,4278,-31
0.346000,-44.790128,627.633000,442.060872,-4.661499,19.226074,-5.425905,-40.128629,633.058905,13.789940,-16.966106,-16.966106,-3.176166,-0.160200,-0.110572,-0.110572,-0.097188,4243,-30
0.348000,-43.512716,649.462750,429.453327,-4.612061,24.719238,-2.411391,-38.900655,651.874141,13.393256,-15.780431,-15.780431,-2.387174,-0.160200,-0.122900,-0.122900,-0.112140,4198,-38
0.350000,-42.192277,670.650000,416.421115,-4.551636,30.212402,0.850988,-37.640641,669.799012,12.983509,-14.587927,-14.587927,-1.604418,0.160200,0.185269,0.185269,-0.120684,4143,-49
0.352000,-40.830116,691.174250,402.977123,-4.484619,33.508301,4.116720,-36.345497,687.057530,12.561125,-13.382527,-13.382527,-0.821403,0.160200,0.173034,0.173034,0.185832,4082,0
0.354000,-39.427580,711.015250,389.134644,-4.529663,-22.521973,1.452850,-34.897917,709.562400,12.126541,-11.979142,-11.979142,0.147399,0.160200,0.157897,0.157897,0.173016,4123,87
0.356000,-37.986055,730.153000,374.907367,-4.661499,-65.917969,-5.284231,-33.324556,735.437231,11.680205,-10.429128,-10.429128,1.251077,-0.160200,-0.179748,-0.179748,0.154860,4243,110
0.358000,-36.506968,748.568500,360.309360,-4.835083,-86.791992,-13.435008,-31.671885,762.003508,11.222573,-8.811677,-8.811677,2.410897,-0.160200,-0.197870,-0.197870,-0.180492,4401,45
0.360000,-34.991781,766.244000,345.355060,-4.842773,-3.845215,-12.476028,-30.149008,778.720028,10.754114,-7.456749,-7.456749,3.297364,-0.160200,-0.211721,-0.211721,-0.198648,4408,-73
0.362000,-33.441992,783.162000,330.059253,-4.723022,59.875488,-5.240877,-28.718970,788.402877,10.275300,-6.289397,-6.289397,3.985903,-0.160200,-0.222480,-0.222480,-0.212532,4299,-134
0.364000,-31.859133,799.305250,314.437066,-4.550537,86.242676,3.907479,-27.308596,795.397771,9.786613,-5.182687,-5.182687,4.603927,0.160200,0.088264,0.088264,-0.222144,4142,-153
0.366000,-30.244771,814.658000,298.503945,-4.314331,118.103027,15.327034,-25.930440,799.330966,9.288545,-4.151905,-4.151905,5.136640,0.160200,0.079940,0.079940,0.090780,3927,-83
0.368000,-28.600501,829.205500,282.275647,-4.234131,40.100098,17.804340,-24.366370,811.401160,8.781589,-2.849314,-2.849314,5.932276,0.160200,0.067508,0.067508,0.077964,3854,-5
0.370000,-26.927949,842.933000,265.768219,-4.246216,-6.042480,15.419658,-22.681733,827.513342,8.266249,-1.392005,-1.392005,6.874245,0.160200,0.052790,0.052790,0.068352,3865,31
0.372000,-25.228769,855.827000,248.997985,-4.289062,-21.423340,11.735358,-20.939706,844.091642,7.743033,0.113505,0.113505,7.856538,0.160200,0.037442,0.037442,0.052332,3904,25
0.374000,-23.504641,867.874500,231.981527,-4.327515,-19.226074,8.639215,-19.177126,859.235285,7.212451,1.608325,1.608325,8.820776,0.160200,0.022375,0.022375,0.036312,3939,15
0.376000,-21.757271,879.063750,214.735673,-4.350586,-11.535645,6.621729,-17.406685,872.442021,6.675022,3.074827,3.074827,9.749850,0.160200,0.007859,0.007859,0.022428,3960,5
0.378000,-19.988386,889.384000,197.277477,-4.354980,-2.197266,5.739829,-15.633406,883.644171,6.131268,4.508324,4.508324,10.639592,0.160200,-0.006044,-0.006044,0.009612,3964,2
0.380000,-18.199735,898.824500,179.624202,-4.352783,1.098633,5.275710,-13.846952,893.548790,5.581711,5.928372,5.928372,11.510084,0.160200,-0.019645,-0.019645,-0.007476,3962,-3
0.382000,-16.393088,907.376250,161.793304,-4.347290,2.746582,5.022797,-12.045798,902.353453,5.026881,7.339485,7.339485,12.366367,0.160200,-0.033024,-0.033024,-0.021360,3957,-5
0.384000,-14.570230,915.031000,143.802416,-4.338501,4.394531,4.959970,-10.231729,910.071030,4.467309,8.740642,8.740642,13.207950,0.160200,-0.046174,-0.046174,-0.034176,3949,-7
0.386000,-12.732964,921.780750,125.669328,-4.327515,5.493164,5.013290,-8.405449,916.767460,3.903527,10.132500,10.132500,14.036027,0.160200,-0.059113,-0.059113,-0.049128,3939,-12
0.388000,-10.883107,927.618750,107.411971,-4.307739,9.887695,5.500730,-6.575368,922.118020,3.336071,11.503523,11.503523,14.839594,0.160200,-0.071669,-0.071669,-0.061944,3921,-15
0.390000,-9.022489,932.539750,89.048399,-4.282471,12.634277,6.214085,-4.740018,926.325665,2.765479,12.858276,12.858276,15.623755,0.160200,-0.083921,-0.083921,-0.069420,3898,-23
0.392000,-7.152948,936.538750,70.596771,-4.248413,17.028809,7.295557,-2.904535,929.243193,2.192288,14.190605,14.190605,16.382894,0.160200,-0.095783,-0.095783,-0.087576,3867,-28
0.394000,-5.276334,939.611250,52.075334,-4.211060,18.676758,8.433677,-1.065274,931.177573,1.617039,15.508413,15.508413,17.125452,0.160200,-0.107385,-0.107385,-0.097188,3833,-23
0.396000,-3.394503,941.754750,33.502401,-4.178101,16.479492,9.238259,0.783598,932.516491,1.040273,16.822537,16.822537,17.862811,0.160200,-0.118906,-0.118906,-0.107868,3803,-25
0.398000,-1.509315,942.967250,14.896339,-4.145142,16.479492,9.962382,2.635827,933.004868,0.462532,18.124161,18.124161,18.586693,0.160200,-0.130217,-0.130217,-0.119616,3773,-33
0.400000,0.377366,943.247000,-3.724453,-4.105591,19.775391,10.943683,4.482957,932.303317,-0.115644,19.401457,19.401457,19.285813,0.160200,-0.141141,-0.141141,-0.129228,3737,-38
0.402000,2.263673,942.594000,-22.341562,-4.056152,24.719238,12.321239,6.319825,930.272761,-0.693711,20.648393,20.648393,19.954682,0.160200,-0.151592,-0.151592,-0.142044,3692,-46
0.404000,4.147742,941.009250,-40.936579,-3.985840,35.156250,14.604740,8.133582,926.404510,-1.271127,21.847120,21.847120,20.575993,0.160200,-0.161300,-0.161300,-0.150588,3628,-57
0.406000,6.027710,938.493750,-59.491115,-3.897949,43.945312,17.538797,9.925659,920.954953,-1.847351,23.003114,23.003114,21.155762,0.160200,-0.170359,-0.170359,-0.161268,3548,-53
0.408000,7.901717,935.050000,-77.986823,-3.816650,40.649414,19.849859,11.718367,915.200141,-2.421842,24.154220,24.154220,21.732378,0.160200,-0.179368,-0.179368,-0.169812,3474,-66
0.410000,9.767910,930.681750,-96.405414,-3.703491,56.579590,23.522832,13.471401,907.158918,-2.994058,25.237722,25.237722,22.243664,0.160200,-0.187357,-0.187357,-0.180492,3371,-83
0.412000,11.624444,925.393250,-114.728673,-3.569458,67.016602,27.872209,15.193902,897.521041,-3.563460,26.272042,26.272042,22.708582,0.160200,-0.194622,-0.194622,-0.184764,3249,-101
0.414000,13.469483,919.189750,-132.938482,-3.434326,67.565918,31.841580,16.903809,887.348170,-4.129511,27.288232,27.288232,23.158722,0.160200,-0.201655,-0.201655,-0.193308,3126,-93
0.416000,15.301203,912.077500,-151.016834,-3.310181,62.072754,34.864697,18.611384,877.212803,-4.691673,28.303449,28.303449,23.611776,0.160200,-0.208734,-0.208734,-0.198648,3013,-100
0.418000,17.117793,904.063000,-168.945853,-3.171753,69.213867,38.299614,20.289546,865.763386,-5.249412,29.275197,29.275197,24.025785,0.160200,-0.215203,-0.215203,-0.209328,2887,-107
0.420000,18.917455,895.154250,-186.707808,-3.027832,71.960449,41.665698,21.945287,853.488552,-5.802196,30.216886,30.216886,24.414690,0.160200,-0.221280,-0.221280,-0.215736,2756,-139
0.422000,20.698410,885.360750,-204.285136,-2.853149,87.341309,46.233259,23.551559,839.127491,-6.349495,31.087628,31.087628,24.738133,0.160200,-0.226333,-0.226333,-0.220008,2597,-136
0.424000,22.458898,874.691750,-221.660456,-2.660889,96.130371,51.222970,25.119787,823.468780,-6.890782,31.909161,31.909161,25.018378,0.160200,-0.230712,-0.230712,-0.225348,2422,-140
0.426000,24.197177,863.157750,-238.816585,-2.460938,99.975586,56.098232,26.658114,807.059518,-7.425534,32.696721,32.696721,25.271186,0.160200,-0.234662,-0.234662,-0.230688,2240,-150
0.428000,25.911529,850.770250,-255.736559,-2.271973,94.482422,59.936651,28.183502,790.833599,-7.953232,33.478446,33.478446,25.525214,0.160200,-0.238631,-0.238631,-0.234960,2068,-148
0.430000,27.600258,837.541250,-272.403647,-2.066528,102.722168,64.215202,29.666786,773.326048,-8.473359,34.208410,34.208410,25.735050,0.160200,-0.241910,-0.241910,-0.239232,1881,-168
0.432000,29.261694,823.484250,-288.801367,-1.840210,113.159180,69.109600,31.101904,754.374650,-8.985406,34.879547,34.879547,25.894141,0.160200,-0.244396,-0.244396,-0.245640,1675,-178
0.434000,30.894195,808.613000,-304.913503,-1.617188,111.511230,73.349763,32.511382,735.263237,-9.488866,35.529991,35.529991,26.041125,0.160200,-0.246693,-0.246693,-0.244572,1472,-153
0.436000,32.496146,792.941750,-320.724125,-1.383179,117.004395,77.715226,33.879325,715.226524,-9.983241,36.135288,36.135288,26.152047,0.160200,-0.248426,-0.248426,-0.248844,1259,-195
0.438000,34.065962,776.486750,-336.217596,-1.148071,117.553711,81.699075,35.214033,694.787675,-10.468037,36.710365,36.710365,26.242329,0.160200,-0.249836,-0.249836,-0.244572,1045,-176
0.440000,35.602093,759.264000,-351.378597,-0.901978,123.046875,85.833855,36.504071,673.430145,-10.942767,37.238222,37.238222,26.295455,0.160200,-0.250666,-0.250666,-0.253116,821,-198
0.442000,37.103018,741.290000,-366.192135,-0.659180,121.398926,89.390362,37.762198,651.899638,-11.406952,37.740782,37.740782,26.333831,0.160200,-0.251266,-0.251266,-0.253116,600,-183
0.444000,38.567253,722.583250,-380.643561,-0.365845,146.667480,95.118074,38.933098,627.465176,-11.860120,38.131763,38.131763,26.271643,0.160200,-0.250294,-0.250294,-0.253116,333,-207
0.446000,39.993351,703.162250,-394.718586,-0.072510,146.667480,100.273014,40.065861,602.889236,-12.301810,38.493650,38.493650,26.191840,0.160200,-0.249047,-0.249047,-0.244572,66,-205
0.448000,41.379902,683.045750,-408.403291,0.202148,137.329102,103.978623,41.177754,579.067127,-12.731567,38.854123,38.854123,26.122556,0.160200,-0.247965,-0.247965,-0.248844,-184,-175
0.450000,42.725534,662.253500,-421.684145,0.444946,121.398926,105.720653,42.280588,556.532847,-13.148949,39.230749,39.230749,26.081801,0.160200,-0.247328,-0.247328,-0.247776,-405,-196
0.452000,44.028916,640.806500,-434.548013,0.711914,133.483887,108.496977,43.317002,532.309523,-13.553521,39.531526,39.531526,25.978005,0.160200,-0.245706,-0.245706,-0.247776,-648,-180
0.454000,45.288760,618.726000,-446.982176,0.987671,137.878418,111.435121,44.301089,507.290879,-13.944862,39.781891,39.781891,25.837028,0.160200,-0.243504,-0.243504,-0.245640,-899,-188
0.456000,46.503820,596.033500,-458.974338,1.262329,137.329102,114.024519,45.241491,482.008981,-14.322562,39.997163,39.997163,25.674600,0.160200,-0.240966,-0.240966,-0.241368,-1149,-146
0.458000,47.672894,572.751750,-470.512641,1.513916,125.793457,115.201413,46.158978,457.550337,-14.686223,40.210806,40.210806,25.524583,0.160200,-0.238622,-0.238622,-0.242436,-1378,-191
0.460000,48.794827,548.903750,-481.585675,1.795166,140.625000,117.743771,46.999661,431.159979,-15.035459,40.337114,40.337114,25.301655,0.160200,-0.235138,-0.235138,-0.237096,-1634,-186
0.462000,49.868509,524.512750,-492.182489,2.078613,141.723633,120.141758,47.789896,404.370992,-15.369900,40.421246,40.421246,25.051347,0.160200,-0.231227,-0.231227,-0.233892,-1892,-179
0.464000,50.892878,499.603000,-502.292607,2.358765,140.075684,122.135150,48.534113,377.467850,-15.689187,40.471260,40.471260,24.782073,0.160200,-0.227020,-0.227020,-0.230688,-2147,-194
0.466000,51.866921,474.199250,-511.906029,2.630127,135.681152,123.489750,49.236794,350.709500,-15.992979,40.494802,40.494802,24.501823,0.160200,-0.222641,-0.222641,-0.228552,-2394,-168
0.468000,52.789675,448.326750,-521.013250,2.881714,125.793457,123.720121,49.907961,324.606629,-16.280949,40.507784,40.507784,24.226836,0.160200,-0.218344,-0.218344,-0.222144,-2623,-152
0.470000,53.660228,422.011000,-529.605264,3.134399,126.342773,123.982386,50.525829,298.028614,-16.552784,40.475263,40.475263,23.922479,0.160200,-0.213589,-0.213589,-0.220008,-2853,-157
0.472000,54.477719,395.277750,-537.673575,3.366211,115.905762,123.174724,51.111508,272.103026,-16.808191,40.431658,40.431658,23.623467,0.160200,-0.208917,-0.208917,-0.216804,-3064,-164
0.474000,55.241339,368.153750,-545.210204,3.559570,96.679688,120.525220,51.681769,247.628530,-17.046891,40.402614,40.402614,23.355723,0.160200,-0.204733,-0.204733,-0.211464,-3240,-157
0.476000,55.950334,340.665500,-552.207699,3.778198,109.313965,119.404095,52.172136,221.261405,-17.268624,40.284762,40.284762,23.016138,0.160200,-0.199427,-0.199427,-0.199716,-3439,-165
0.478000,56.604001,312.840500,-558.659140,3.991333,106.567383,118.120423,52.612668,194.720077,-17.473147,40.129078,40.129078,22.655931,0.160200,-0.193799,-0.193799,-0.201852,-3633,-141
0.480000,57.201696,284.706250,-564.558147,4.203369,106.018066,116.910188,52.998327,167.796062,-17.660236,39.928406,39.928406,22.268170,0.160200,-0.187740,-0.187740,-0.198648,-3826,-135
0.482000,57.742826,256.290250,-569.898888,4.402222,99.426270,115.161796,53.340604,141.128454,-17.829685,39.701923,39.701923,21.872238,0.160200,-0.181554,-0.181554,-0.191172,-4007,-148
0.484000,58.226857,227.620750,-574.676082,4.575806,86.791992,112.324816,53.651051,115.295934,-17.981306,39.467793,39.467793,21.486487,0.160200,-0.175526,-0.175526,-0.182628,-4165,-142
0.486000,58.653309,198.726500,-578.885003,4.747192,85.693359,109.661670,53.906117,89.064830,-18.114933,39.188043,39.188043,21.073110,0.160200,-0.169067,-0.169067,-0.175152,-4321,-112
0.488000,59.021763,169.635750,-582.521491,4.910889,81.848145,106.880317,54.110874,62.755433,-18.230418,38.871806,38.871806,20.641388,0.160200,-0.162322,-0.162322,-0.168744,-4470,-101
0.490000,59.331852,140.376750,-585.581948,5.059204,74.157715,103.608057,54.272648,36.768693,-18.327632,38.531191,38.531191,20.203559,0.160200,-0.155481,-0.155481,-0.159132,-4605,-98
0.492000,59.583270,110.979500,-588.063350,5.189941,65.368652,99.784117,54.393329,11.195383,-18.406468,38.169103,38.169103,19.762635,0.160200,-0.148591,-0.148591,-0.155928,-4724,-105
0.494000,59.775770,81.472250,-589.963242,5.311890,60.974121,95.903117,54.463880,-14.430867,-18.466839,37.771095,37.771095,19.304257,0.160200,-0.141429,-0.141429,-0.142044,-4835,-95
0.496000,59.909159,51.884250,-591.279745,5.428345,58.227539,92.135559,54.480814,-40.251309,-18.508676,37.332266,37.332266,18.823589,0.160200,-0.133919,-0.133919,-0.142044,-4941,-75
0.498000,59.983307,22.245500,-592.011558,5.536011,53.833008,88.305304,54.447296,-66.059804,-18.531934,36.858422,36.858422,18.326488,0.160200,-0.126151,-0.126151,-0.131364,-5039,-67
0.500000,59.998141,-7.415500,-592.157957,5.638184,51.086426,84.583416,54.359957,-91.998916,-18.536587,36.344726,36.344726,17.808138,0.160200,-0.118052,-0.118052,-0.128160,-5132,-69
0.502000,59.953645,-37.069500,-591.718797,5.733765,47.790527,80.904127,54.219880,-117.973627,-18.522630,35.793589,35.793589,17.270959,0.160200,-0.109659,-0.109659,-0.120684,-5219,-55
0.504000,59.849863,-66.686750,-590.694512,5.820557,43.395996,77.153314,54.029306,-143.840064,-18.490077,35.209089,35.209089,16.719011,0.160200,-0.101035,-0.101035,-0.110004,-5298,-48
0.506000,59.686898,-96.237750,-589.086116,5.896362,37.902832,73.228266,53.790536,-169.466016,-18.438966,34.595138,34.595138,16.156172,0.160200,-0.092240,-0.092240,-0.099324,-5367,-38
0.508000,59.464912,-125.693750,-586.895198,5.957886,30.761719,68.981611,53.507026,-194.675361,-18.369353,33.957225,33.957225,15.587872,0.160200,-0.083360,-0.083360,-0.092916,-5423,-35
0.510000,59.184123,-155.025500,-584.123926,6.006226,24.169922,64.500442,53.177897,-219.525942,-18.281316,33.293725,33.293725,15.012410,0.160200,-0.074369,-0.074369,-0.082236,-5467,-29
0.512000,58.844810,-184.203750,-580.775039,6.049072,21.423340,60.192732,52.795738,-244.396482,-18.174952,32.592855,32.592855,14.417903,0.160200,-0.065080,-0.065080,-0.075828,-5506,-18
0.514000,58.447308,-213.200000,-576.851850,6.073242,12.084961,55.381955,52.374066,-268.581955,-18.050379,31.876356,31.876356,13.825978,0.160200,-0.055831,-0.055831,-0.064080,-5528,-12
0.516000,57.992010,-241.985500,-572.358237,6.086426,6.591797,50.502939,51.905584,-292.488439,-17.907735,31.132048,31.132048,13.224313,0.160200,-0.046430,-0.046430,-0.059808,-5540,-6
0.518000,57.479366,-270.531750,-567.298644,6.093018,3.295898,45.782235,51.386348,-316.313985,-17.747177,30.353718,30.353718,12.606541,0.160200,-0.036777,-0.036777,-0.046992,-5546,-3
0.520000,56.909883,-298.810250,-561.678075,6.094116,0.549316,41.258943,50.815767,-340.069193,-17.568884,29.540771,29.540771,11.971886,0.160200,-0.026861,-0.026861,-0.037380,-5547,0
0.522000,56.284125,-326.793250,-555.502087,6.094116,0.000000,37.133049,50.190009,-363.926299,-17.373051,28.687524,28.687524,11.314473,0.160200,-0.016589,-0.016589,-0.023496,-5547,0
0.524000,55.602710,-354.453500,-548.776788,6.094116,0.000000,33.419744,49.508594,-387.873244,-17.159894,27.793854,27.793854,10.633959,0.160200,-0.005956,-0.005956,-0.020292,-5547,0
0.526000,54.866311,-381.763000,-541.508828,6.093018,-0.549316,30.022838,48.773293,-411.785838,-16.929646,26.863164,26.863164,9.933518,0.160200,0.004989,0.004989,-0.006408,-5546,1
0.528000,54.075658,-408.694750,-533.705393,6.090820,-1.098633,26.910691,47.984838,-435.605441,-16.682559,25.896987,25.896987,9.214428,0.160200,0.016225,0.016225,0.007476,-5544,1
0.530000,53.231532,-435.222750,-525.374201,6.088623,-1.098633,24.109759,47.142909,-459.332509,-16.418902,24.895095,24.895095,8.476193,0.160200,0.027759,0.027759,0.017088,-5542,1
0.532000,52.334767,-461.320250,-516.523489,6.085327,-1.647949,21.533988,46.249440,-482.854238,-16.138961,23.860804,23.860804,7.721842,0.160200,0.039546,0.039546,0.028836,-5539,4
0.534000,51.386251,-486.961250,-507.162010,6.078735,-3.295898,19.050999,45.307516,-506.012249,-15.843041,22.799033,22.799033,6.955992,0.160200,0.051513,0.051513,0.041652,-5533,8
0.536000,50.386922,-512.121000,-497.299021,6.066650,-6.042480,16.541651,44.320272,-528.662651,-15.531459,21.714483,21.714483,6.183023,0.160200,0.063590,0.063590,0.052332,-5522,14
0.538000,49.337767,-536.774500,-486.944275,6.042480,-12.084961,13.678990,43.295287,-550.453490,-15.204552,20.618586,20.618586,5.414035,0.160200,0.075606,0.075606,0.060876,-5500,19
0.540000,48.239824,-560.897000,-476.108012,6.011719,-15.380859,10.773005,42.228105,-571.670005,-14.862668,19.503255,19.503255,4.640587,0.160200,0.087691,0.087691,0.079032,-5472,24
0.542000,47.094179,-584.465000,-464.800946,5.978760,-16.479492,8.047755,41.115419,-592.512755,-14.506172,18.362679,18.362679,3.856507,0.160200,0.099942,0.099942,0.089712,-5442,25
0.544000,45.901964,-607.455000,-453.034259,5.944702,-17.028809,5.540099,39.957262,-612.995099,-14.135443,17.196648,17.196648,3.061206,0.160200,0.112369,0.112369,0.098256,-5411,29
0.546000,44.664359,-629.844250,-440.819586,5.898560,-23.071289,2.678960,38.765799,-632.523210,-13.750872,16.024021,16.024021,2.273149,0.160200,0.124682,0.124682,0.111072,-5369,40
0.548000,43.382587,-651.610500,-428.169007,5.848022,-25.268555,-0.115791,37.534565,-651.494709,-13.352863,14.833342,14.833342,1.480479,0.000000,-0.023132,-0.023132,0.126024,-5323,54
0.550000,42.057917,-672.732500,-415.095030,5.781006,-33.508301,-3.455042,36.276911,-669.277458,-12.941832,13.644966,13.644966,0.703134,-0.160200,-0.171186,-0.171186,-0.021360,-5262,20
0.552000,40.691657,-693.189500,-401.610584,5.771118,-4.943848,-3.603923,34.920539,-689.585577,-12.518208,12.343596,12.343596,-0.174612,-0.160200,-0.157472,-0.157472,-0.170880,-5253,-47
0.554000,39.285159,-712.961000,-387.729003,5.864502,46.691895,1.425659,33.420657,-714.386659,-12.082428,10.863621,10.863621,-1.218808,0.160200,0.179244,0.179244,-0.156996,-5338,-93
0.556000,37.839813,-732.027250,-373.464013,6.001831,68.664551,8.149548,31.837982,-740.176798,-11.634942,9.308582,9.308582,-2.326360,0.160200,0.196549,0.196549,0.178356,-5463,-43
0.558000,36.357050,-750.369750,-358.829722,6.012817,5.493164,7.883910,30.344233,-758.253660,-11.176207,7.950248,7.950248,-3.225959,0.160200,0.210606,0.210606,0.192240,-5473,71
0.560000,34.838334,-767.970500,-343.840600,5.909546,-51.635742,1.931944,28.928788,-769.902444,-10.706690,6.758771,6.758771,-3.947919,0.160200,0.221886,0.221886,0.210396,-5379,138
0.562000,33.285168,-784.811250,-328.511469,5.708496,-100.524902,-8.313740,27.576672,-776.497510,-10.226867,5.699711,5.699711,-4.527156,-0.160200,-0.089463,-0.089463,0.223212,-5196,149
0.564000,31.699089,-800.876250,-312.857488,5.498657,-104.919434,-17.974310,26.200432,-782.901940,-9.737221,4.627135,4.627135,-5.110085,-0.160200,-0.080355,-0.080355,-0.086508,-5005,94
0.566000,30.081663,-816.149500,-296.894136,5.418457,-40.100098,-20.186888,24.663206,-795.962612,-9.238241,3.325998,3.325998,-5.912243,-0.160200,-0.067821,-0.067821,-0.080100,-4932,0
0.568000,28.434491,-830.615500,-280.637198,5.439331,10.437012,-17.124498,22.995160,-813.491002,-8.730424,1.855554,1.855554,-6.874871,-0.160200,-0.052780,-0.052780,-0.068352,-4951,-30
0.570000,26.759201,-844.260000,-264.102750,5.488770,24.719238,-12.940125,21.270431,-831.319875,-8.214274,0.340294,0.340294,-7.873980,-0.160200,-0.037169,-0.037169,-0.045924,-4996,-35
0.572000,25.057451,-857.069750,-247.307143,5.529419,20.324707,-9.613642,19.528032,-847.456108,-7.690297,-1.157761,-1.157761,-8.848058,-0.160200,-0.021949,-0.021949,-0.043788,-5033,-19
0.574000,23.330922,-869.032250,-230.266985,5.548096,9.338379,-7.718439,17.782826,-861.313811,-7.159008,-2.618007,-2.618007,-9.777015,-0.160200,-0.007434,-0.007434,-0.023496,-5050,-3
0.576000,21.581322,-880.135250,-212.999126,5.548096,0.000000,-6.946596,16.033226,-873.188654,-6.620923,-4.046713,-4.046713,-10.667637,-0.160200,0.006482,0.006482,-0.005340,-5050,6
0.578000,19.810381,-890.367750,-195.520641,5.540405,-3.845215,-6.636457,14.269976,-883.731293,-6.076564,-5.461698,-5.461698,-11.538263,-0.160200,0.020085,0.020085,0.005340,-5043,6
0.580000,18.019851,-899.719750,-177.848815,5.530518,-4.943848,-6.467196,12.489333,-893.252554,-5.526457,-6.870999,-6.870999,-12.397455,-0.160200,0.033510,0.033510,0.021360,-5034,7
0.582000,16.211502,-908.182250,-160.001122,5.520630,-4.943848,-6.314862,10.690872,-901.867388,-4.971129,-8.276919,-8.276919,-13.248047,-0.160200,0.046801,0.046801,0.030972,-5025,8
0.584000,14.387122,-915.746750,-141.995211,5.509644,-5.493164,-6.232692,8.877478,-909.514058,-4.411111,-9.676366,-9.676366,-14.087477,-0.160200,0.059917,0.059917,0.049128,-5015,8
0.586000,12.548515,-922.405750,-123.848887,5.497559,-6.042480,-6.213671,7.050956,-916.192079,-3.846938,-11.068072,-11.068072,-14.915010,-0.160200,0.072847,0.072847,0.060876,-5004,11
0.588000,10.697499,-928.152250,-105.580095,5.478882,-9.338379,-6.526142,5.218617,-921.626108,-3.279144,-12.442128,-12.442128,-15.721272,-0.160200,0.085445,0.085445,0.073692,-4987,14
0.590000,8.835906,-932.981250,-87.206899,5.451416,-13.732910,-7.246818,3.384490,-925.734432,-2.708268,-13.794294,-13.794294,-16.502562,-0.160200,0.097653,0.097653,0.085440,-4962,24
0.592000,6.965574,-936.887750,-68.747467,5.412964,-19.226074,-8.444744,1.552610,-928.443006,-2.134847,-15.120461,-15.120461,-17.255308,-0.160200,0.109414,0.109414,0.095052,-4927,25
0.594000,5.088355,-939.867500,-50.220055,5.371216,-20.874023,-9.687672,-0.282861,-930.179828,-1.559422,-16.432175,-16.432175,-17.991597,-0.160200,0.120919,0.120919,0.112140,-4889,31
0.596000,3.206104,-941.918000,-31.642982,5.328369,-21.423340,-10.861239,-2.122265,-931.056761,-0.982534,-17.731627,-17.731627,-18.714161,-0.160200,0.132209,0.132209,0.118548,-4850,37
0.598000,1.320683,-943.037000,-13.034619,5.274536,-26.916504,-12.466765,-3.953853,-930.570235,-0.404725,-19.001825,-19.001825,-19.406549,-0.160200,0.143027,0.143027,0.132432,-4801,40
0.600000,-0.566044,-943.223750,5.586634,5.216309,-29.113770,-14.131466,-5.782353,-929.092284,0.173464,-20.252563,-20.252563,-20.079099,-0.160200,0.153536,0.153536,0.139908,-4748,55
0.602000,-2.452212,-942.477500,24.202362,5.147095,-34.606934,-16.179012,-7.599307,-926.298488,0.751491,-21.472275,-21.472275,-20.720785,-0.160200,0.163562,0.163562,0.155928,-4685,66
0.604000,-4.335954,-940.799250,42.794157,5.065796,-40.649414,-18.626053,-9.401750,-922.173197,1.328812,-22.658618,-22.658618,-21.329806,-0.160200,0.173078,0.173078,0.166608,-4611,75
0.606000,-6.215409,-938.191000,61.343636,4.975708,-45.043945,-21.267842,-11.191117,-916.923158,1.904887,-23.816202,-23.816202,-21.911314,-0.160200,0.182164,0.182164,0.179424,-4529,87
0.608000,-8.088718,-934.654750,79.832454,4.857056,-59.326172,-25.073675,-12.945774,-909.581075,2.479175,-24.913040,-24.913040,-22.433865,-0.160200,0.190329,0.190329,0.181560,-4421,84
0.610000,-9.954028,-930.194250,98.242329,4.718628,-69.213867,-29.487694,-14.672656,-900.706556,3.051133,-25.963741,-25.963741,-22.912608,-0.160200,0.197809,0.197809,0.191172,-4295,107
0.612000,-11.809495,-924.814250,116.555057,4.556030,-81.298828,-34.668808,-16.365525,-890.145442,3.620225,-26.961261,-26.961261,-23.341036,-0.160200,0.204504,0.204504,0.199716,-4147,125
0.614000,-13.653285,-918.519500,134.752529,4.381348,-87.341309,-39.936058,-18.034633,-878.583442,4.185911,-27.924723,-27.924723,-23.738812,-0.160200,0.210719,0.210719,0.206124,-3988,132
0.616000,-15.483573,-911.316250,152.816750,4.217651,-81.848145,-44.127266,-19.701224,-867.188984,4.747655,-28.889352,-28.889352,-24.141698,-0.160200,0.217014,0.217014,0.210396,-3839,139
0.618000,-17.298550,-903.212000,170.729857,4.049561,-84.045410,-48.119081,-21.348111,-855.092919,5.304922,-29.827980,-29.827980,-24.523057,-0.160200,0.222973,0.222973,0.217872,-3686,145
0.620000,-19.096421,-894.214750,188.474137,3.877075,-86.242676,-51.931440,-22.973496,-842.283310,5.857182,-30.739143,-30.739143,-24.881961,-0.160200,0.228581,0.228581,0.223212,-3529,128
0.622000,-20.875409,-884.333250,206.032044,3.678223,-99.426270,-56.680923,-24.553632,-827.652327,6.403903,-31.586927,-31.586927,-25.183024,-0.160200,0.233285,0.233285,0.227484,-3348,138
0.624000,-22.633754,-873.577000,223.386214,3.479370,-99.426270,-60.955458,-26.113124,-812.621542,6.944560,-32.413321,-32.413321,-25.468761,-0.160200,0.237749,0.237749,0.234960,-3167,141
0.626000,-24.369717,-861.957250,240.519488,3.277222,-101.074219,-64.967334,-27.646939,-796.989916,7.478630,-33.211302,-33.211302,-25.732672,-0.160200,0.241873,0.241873,0.238164,-2983,168
0.628000,-26.081583,-849.485000,257.414922,3.031128,-123.046875,-70.775288,-29.112711,-778.709712,8.005594,-33.915555,-33.915555,-25.909961,-0.160200,0.244643,0.244643,0.240300,-2759,183
0.630000,-27.767657,-836.172500,274.055810,2.826782,-102.172852,-73.915044,-30.594439,-762.257456,8.524936,-34.662850,-34.662850,-26.137914,-0.160200,0.248205,0.248205,0.240300,-2573,190
0.632000,-29.426273,-822.033500,290.425697,2.576294,-125.244141,-79.047954,-32.002567,-742.985546,9.036147,-35.309551,-35.309551,-26.273404,-0.160200,0.250322,0.250322,0.246708,-2345,181
0.634000,-31.055791,-807.081500,306.508394,2.289551,-143.371582,-85.480317,-33.345342,-721.601183,9.538721,-35.873757,-35.873757,-26.335036,-0.160200,0.251285,0.251285,0.252048,-2084,189
0.636000,-32.654599,-791.331500,322.287999,2.018188,-135.681152,-90.500400,-34.672787,-700.831100,10.032160,-36.437982,-36.437982,-26.405822,-0.160200,0.252391,0.252391,0.247776,-1837,204
0.638000,-34.221117,-774.798750,337.748907,1.732544,-142.822266,-95.732587,-35.953661,-679.066163,10.515971,-36.952331,-36.952331,-26.436360,-0.160200,0.252868,0.252868,0.250980,-1577,180
0.640000,-35.753794,-757.500000,352.875831,1.440308,-146.118164,-100.771145,-37.194102,-656.728855,10.989668,-37.428462,-37.428462,-26.438795,-0.160200,0.252906,0.252906,0.253116,-1311,189
0.642000,-37.251117,-739.452250,367.653811,1.150269,-145.019531,-105.195983,-38.401386,-634.256267,11.452772,-37.879085,-37.879085,-26.426313,-0.160200,0.252711,0.252711,0.252048,-1047,211
0.644000,-38.711603,-720.673000,382.068234,0.889893,-130.187988,-107.695184,-39.601496,-612.977816,11.904813,-38.345541,-38.345541,-26.440727,-0.160200,0.252936,0.252936,0.254184,-810,203
0.646000,-40.133809,-701.181500,396.104847,0.607544,-141.174316,-111.043097,-40.741353,-590.138403,12.345330,-38.742688,-38.742688,-26.397358,-0.160200,0.252259,0.252259,0.252048,-553,207
0.648000,-41.516329,-680.996500,409.749770,0.320801,-143.371582,-114.275946,-41.837130,-566.720554,12.773869,-39.098966,-39.098966,-26.325097,-0.160200,0.251130,0.251130,0.250980,-292,207
0.650000,-42.857795,-660.137750,422.989509,0.048340,-136.230469,-116.471398,-42.906135,-543.666352,13.189989,-39.442901,-39.442901,-26.252911,-0.160200,0.250002,0.250002,0.253116,-44,187
0.652000,-44.156880,-638.626500,435.810972,-0.217529,-132.934570,-118.117715,-43.939351,-520.508785,13.593257,-39.760046,-39.760046,-26.166788,-0.160200,0.248656,0.248656,0.254184,198,182
0.654000,-45.412301,-616.484000,448.201482,-0.504272,-143.371582,-120.643102,-44.908029,-495.840898,13.983253,-40.005775,-40.005775,-26.022522,-0.160200,0.246402,0.246402,0.246708,459,209
0.656000,-46.622816,-593.731750,460.148784,-0.774536,-135.131836,-122.091975,-45.848280,-471.639775,14.359567,-40.239805,-40.239805,-25.880238,-0.160200,0.244179,0.244179,0.247776,705,213
0.658000,-47.787228,-570.392000,471.641066,-1.022827,-124.145508,-122.297328,-46.764401,-448.094672,14.721802,-40.468438,-40.468438,-25.746636,-0.160200,0.242091,0.242091,0.247776,931,204
0.660000,-48.904384,-546.488500,482.666963,-1.308472,-142.822266,-124.349822,-47.595912,-422.138678,15.069575,-40.595925,-40.595925,-25.526350,-0.160200,0.238649,0.238649,0.243504,1191,184
0.662000,-49.973182,-522.044750,493.215571,-1.577637,-134.582520,-125.373092,-48.395545,-396.671658,15.402516,-40.709691,-40.709691,-25.307175,-0.160200,0.235225,0.235225,0.237096,1436,207
0.664000,-50.992563,-497.084500,503.276461,-1.848999,-135.681152,-126.403898,-49.143564,-370.680602,15.720269,-40.778277,-40.778277,-25.058008,-0.160200,0.231331,0.231331,0.233892,1683,201
0.666000,-51.961520,-471.632750,512.839683,-2.095093,-123.046875,-126.068196,-49.866427,-345.564554,16.022493,-40.844573,-40.844573,-24.822080,-0.160200,0.227645,0.227645,0.231756,1907,177
0.668000,-52.879094,-445.714750,521.895780,-2.371948,-138.427734,-127.304150,-50.507146,-318.410600,16.308863,-40.817953,-40.817953,-24.509090,-0.160200,0.222755,0.222755,0.224280,2159,168
0.670000,-53.744379,-419.356000,530.435797,-2.611450,-119.750977,-126.548832,-51.132929,-292.807168,16.579069,-40.807968,-40.807968,-24.228899,-0.160200,0.218377,0.218377,0.222144,2377,170
0.672000,-54.556518,-392.582500,538.451290,-2.837769,-113.159180,-125.209867,-51.718749,-267.372633,16.832817,-40.773031,-40.773031,-23.940214,-0.160200,0.213866,0.213866,0.218940,2583,146
0.674000,-55.314709,-365.420750,545.934333,-3.062988,-112.609863,-123.949867,-52.251721,-241.470883,17.069832,-40.693045,-40.693045,-23.623212,-0.160200,0.208913,0.208913,0.214668,2788,146
0.676000,-56.018201,-337.897750,552.877525,-3.260742,-98.876953,-121.442575,-52.757459,-216.455175,17.289855,-40.609510,-40.609510,-23.319655,-0.160200,0.204170,0.204170,0.211464,2968,148
0.678000,-56.666300,-310.040500,559.274000,-3.458496,-98.876953,-119.186013,-53.207804,-190.854487,17.492644,-40.477094,-40.477094,-22.984450,-0.160200,0.198932,0.198932,0.202920,3148,151
0.680000,-57.258363,-281.876750,565.117435,-3.651855,-96.679688,-116.935380,-53.606508,-164.941370,17.677978,-40.303172,-40.303172,-22.625194,-0.160200,0.193319,0.193319,0.198648,3324,148
0.682000,-57.793807,-253.434250,570.402050,-3.837524,-92.834473,-114.525290,-53.956283,-138.908960,17.845652,-40.093010,-40.093010,-22.247358,-0.160200,0.187415,0.187415,0.193308,3493,146
0.684000,-58.272100,-224.741000,575.122619,-4.024292,-93.383789,-112.411140,-54.247808,-112.329860,17.995481,-39.832640,-39.832640,-21.837159,-0.160200,0.181006,0.181006,0.183696,3663,141
0.686000,-58.692771,-195.825750,579.274475,-4.207764,-91.735840,-110.343610,-54.485007,-85.482140,18.127300,-39.529656,-39.529656,-21.402355,-0.160200,0.174212,0.174212,0.181560,3830,123
0.688000,-59.055403,-166.716750,582.853512,-4.356079,-74.157715,-106.725020,-54.699324,-59.991730,18.240963,-39.234385,-39.234385,-20.993422,-0.160200,0.167822,0.167822,0.170880,3965,108
0.690000,-59.359638,-137.443000,585.856191,-4.514282,-79.101562,-103.962674,-54.845356,-33.480326,18.336344,-38.873623,-38.873623,-20.537279,-0.160200,0.160695,0.160695,0.170880,4109,108
0.692000,-59.605175,-108.033250,588.279543,-4.679077,-82.397461,-101.806153,-54.926098,-6.227097,18.413338,-38.454333,-38.454333,-20.040996,-0.160200,0.152941,0.152941,0.160200,4259,104
0.694000,-59.791771,-78.516750,590.121171,-4.829590,-75.256348,-99.151173,-54.962181,20.634423,18.471857,-38.010702,-38.010702,-19.538845,-0.160200,0.145094,0.145094,0.158064,4396,100
0.696000,-59.919242,-48.922500,591.379254,-4.951538,-60.974121,-95.333467,-54.967704,46.410967,18.511839,-37.564672,-37.564672,-19.052834,-0.160200,0.137501,0.137501,0.145248,4507,89
0.698000,-59.987461,-19.279750,592.052549,-5.069092,-58.776855,-91.677806,-54.918369,72.398056,18.533237,-37.076670,-37.076670,-18.543433,-0.160200,0.129541,0.129541,0.138840,4614,73
0.700000,-59.996361,10.382000,592.140388,-5.166870,-48.889160,-87.398942,-54.829491,97.780942,18.536029,-36.571606,-36.571606,-18.035577,-0.160200,0.121606,0.121606,0.130296,4703,68
0.702000,-59.945933,40.033500,591.642687,-5.260254,-46.691895,-83.328237,-54.685679,123.361737,18.520211,-36.024738,-36.024738,-17.504527,-0.160200,0.113308,0.113308,0.124956,4788,62
0.704000,-59.836227,69.645250,590.559936,-5.338257,-39.001465,-78.895560,-54.497970,148.540810,18.485801,-35.454234,-35.454234,-16.968434,-0.160200,0.104932,0.104932,0.112140,4859,43
0.706000,-59.667352,99.188000,588.893206,-5.407471,-34.606934,-74.466697,-54.259881,173.654697,18.432837,-34.849697,-34.849697,-16.416860,-0.160200,0.096313,0.096313,0.108936,4922,41
0.708000,-59.439475,128.633000,586.644146,-5.468994,-30.761719,-70.096199,-53.970481,198.729199,18.361377,-34.210025,-34.210025,-15.848647,-0.160200,0.087435,0.087435,0.098256,4978,34
0.710000,-59.152820,157.950750,583.814980,-5.518433,-24.719238,-65.558503,-53.634387,223.509253,18.271502,-33.542894,-33.542894,-15.271391,-0.160200,0.078415,0.078415,0.087576,5023,26
0.712000,-58.807672,187.112000,580.408504,-5.555786,-18.676758,-60.870329,-53.251886,247.982329,18.163312,-32.848722,-32.848722,-14.685410,-0.160200,0.069260,0.069260,0.077964,5057,17
0.714000,-58.404372,216.088500,576.428088,-5.582153,-13.183594,-56.101655,-52.822219,272.190155,18.036925,-32.126251,-32.126251,-14.089326,-0.160200,0.059946,0.059946,0.072624,5081,14
0.716000,-57.943318,244.851250,571.877668,-5.600830,-9.338379,-51.425328,-52.342488,296.276578,17.892482,-31.370948,-31.370948,-13.478466,-0.160200,0.050401,0.050401,0.058740,5098,8
0.718000,-57.424967,273.372000,566.761744,-5.610718,-4.943848,-46.777180,-51.814249,320.149180,17.730143,-30.585513,-30.585513,-12.855370,-0.160200,0.040665,0.040665,0.051264,5107,5
0.720000,-56.849830,301.622500,561.085374,-5.615112,-2.197266,-42.319188,-51.234718,343.941688,17.550087,-29.765666,-29.765666,-12.215579,-0.160200,0.030668,0.030668,0.039516,5111,2
0.722000,-56.218477,329.574500,554.854171,-5.615112,0.000000,-38.087269,-50.603365,367.661769,17.352512,-28.910905,-28.910905,-11.558393,-0.160200,0.020400,0.020400,0.030972,5111,0
0.724000,-55.531532,357.200500,548.074297,-5.614014,0.549316,-34.223611,-49.917518,391.424111,17.137634,-28.017362,-28.017362,-10.879728,-0.160200,0.009796,0.009796,0.020292,5110,0
0.726000,-54.789675,384.473250,540.752457,-5.612915,0.549316,-30.746318,-49.176760,415.219568,16.905691,-27.084906,-27.084906,-10.179216,-0.160200,-0.001150,-0.001150,0.010680,5109,-1
0.728000,-53.993639,411.366250,532.895891,-5.610718,1.098633,-27.561823,-48.382921,438.928073,16.656934,-26.116911,-26.116911,-9.459977,-0.160200,-0.012388,-0.012388,-0.001068,5107,-1
0.730000,-53.144210,437.852250,524.512368,-5.607422,1.647949,-24.640846,-47.536788,462.493096,16.391636,-25.114911,-25.114911,-8.723276,-0.160200,-0.023899,-0.023899,-0.012816,5104,-3
0.732000,-52.242230,463.905250,515.610177,-5.603027,2.197266,-21.957035,-46.639203,485.862285,16.110083,-24.080409,-24.080409,-7.970326,-0.160200,-0.035664,-0.035664,-0.024564,5100,-4
0.734000,-51.288589,489.499500,506.198122,-5.592041,5.493164,-19.212015,-45.696548,508.711515,15.812582,-23.023518,-23.023518,-7.210936,-0.160200,-0.047529,-0.047529,-0.036312,5090,-10
0.736000,-50.284232,514.609750,496.285511,-5.577759,7.141113,-16.576702,-44.706473,531.186452,15.499452,-21.940054,-21.940054,-6.440601,-0.160200,-0.059566,-0.059566,-0.046992,5077,-16
0.738000,-49.230150,539.211000,485.882144,-5.554688,11.535645,-13.765467,-43.675463,552.976467,15.171031,-20.839965,-20.839965,-5.668934,-0.160200,-0.071623,-0.071623,-0.057672,5056,-17
0.740000,-48.127388,563.279000,474.998310,-5.526123,14.282227,-10.960698,-42.601265,574.239698,14.827669,-19.718920,-19.718920,-4.891251,-0.160200,-0.083774,-0.083774,-0.074760,5030,-28
0.742000,-46.977034,586.790500,463.644772,-5.485474,20.324707,-7.832157,-41.491560,594.622657,14.469733,-18.588450,-18.588450,-4.118717,-0.160200,-0.095845,-0.095845,-0.077964,4993,-32
0.744000,-45.780226,609.721250,451.832755,-5.441528,21.972656,-4.851676,-40.338698,614.572926,14.097602,-17.435403,-17.435403,-3.337801,-0.160200,-0.108047,-0.108047,-0.095052,4953,-41
0.746000,-44.538149,632.049000,439.573941,-5.392090,24.719238,-1.894585,-39.146059,633.943585,13.711669,-16.264702,-16.264702,-2.553033,-0.160200,-0.120309,-0.120309,-0.111072,4908,-40
0.748000,-43.252030,653.752250,426.880452,-5.332764,29.663086,1.261182,-37.919266,652.491068,13.312339,-15.084524,-15.084524,-1.772186,0.160200,0.187890,0.187890,-0.115344,4854,-45
0.750000,-41.923140,674.808750,413.764839,-5.265747,33.508301,4.485894,-36.657393,670.322856,12.900029,-13.892347,-13.892347,-0.992318,0.160200,0.175705,0.175705,0.185832,4793,0
0.752000,-40.552795,695.197750,400.240073,-5.316284,-25.268555,1.510449,-35.236511,693.687301,12.475170,-12.492598,-12.492598,-0.017428,0.160200,0.160472,0.160472,0.175152,4839,89
0.754000,-39.142349,714.899500,386.319527,-5.444824,-64.270020,-5.067598,-33.697525,719.967098,12.038199,-10.959514,-10.959514,1.078685,-0.160200,-0.177054,-0.177054,0.161268,4956,132
0.756000,-37.693197,733.894500,372.016967,-5.626099,-90.637207,-13.624558,-32.067098,747.519058,11.589567,-9.340389,-9.340389,2.249178,-0.160200,-0.195343,-0.195343,-0.175152,5121,46
0.758000,-36.206771,752.163500,357.346536,-5.635986,-4.943848,-12.756487,-30.570785,764.919987,11.129733,-7.992062,-7.992062,3.137671,-0.160200,-0.209226,-0.209226,-0.194376,5130,-64
0.760000,-34.684543,769.688750,342.322740,-5.503052,66.467285,-4.834110,-29.181491,774.522860,10.659164,-6.854550,-6.854550,3.804614,-0.160200,-0.219647,-0.219647,-0.210396,5009,-131
0.762000,-33.128016,786.453000,326.960436,-5.278931,112.060547,6.855356,-27.849085,779.597644,10.178337,-5.835784,-5.835784,4.342553,0.160200,0.092348,0.092348,-0.220008,4805,-163
0.764000,-31.538731,802.439500,311.274816,-5.048218,115.356445,17.705465,-26.490513,784.734035,9.687735,-4.797674,-4.797674,4.890060,0.160200,0.083793,0.083793,0.088644,4595,-76
0.766000,-29.918258,817.632750,295.281390,-4.975708,36.254883,19.560406,-24.942550,798.072344,9.187849,-3.484195,-3.484195,5.703654,0.160200,0.071080,0.071080,0.082236,4529,4
0.768000,-28.268200,832.017250,278.995973,-5.000977,-12.634277,16.340938,-23.267223,815.676312,8.679176,-2.007349,-2.007349,6.671827,0.160200,0.055953,0.055953,0.070488,4552,31
0.770000,-26.590189,845.578750,262.434670,-5.044922,-21.972656,12.509579,-21.545267,833.069171,8.162220,-0.501634,-0.501634,7.660586,0.160200,0.040503,0.040503,0.058740,4592,23
0.772000,-24.885885,858.304250,245.613856,-5.080078,-17.578125,9.500808,-19.805807,848.803442,7.637489,0.987353,0.987353,8.624842,0.160200,0.025437,0.025437,0.044856,4624,18
0.774000,-23.156972,870.181250,228.550165,-5.098755,-9.338379,7.616890,-18.058217,862.564360,7.105497,2.447574,2.447574,9.553071,0.160200,0.010933,0.010933,0.030972,4641,5
0.776000,-21.405160,881.197750,211.260472,-5.100952,-1.098633,6.745337,-16.304208,874.452413,6.566761,3.879589,3.879589,10.446350,0.160200,-0.003024,-0.003024,0.010680,4643,0
0.778000,-19.632181,891.342750,193.761872,-5.095459,2.746582,6.345462,-14.536722,884.997288,6.021804,5.297570,5.297570,11.319374,0.160200,-0.016665,-0.016665,-0.001068,4638,-4
0.780000,-17.839789,900.606250,176.071670,-5.091064,2.197266,5.930642,-12.748725,894.675608,5.471150,6.714746,6.714746,12.185896,0.160200,-0.030205,-0.030205,-0.018156,4634,-4
0.782000,-16.029756,908.979500,158.207358,-5.083374,3.845215,5.722099,-10.946382,903.257401,4.915329,8.122799,8.122799,13.038129,0.160200,-0.043521,-0.043521,-0.027768,4627,-9
0.784000,-14.203871,916.453500,140.186602,-5.071289,6.042480,5.754138,-9.132582,910.699362,4.354872,9.518957,9.518957,13.873830,0.160200,-0.056579,-0.056579,-0.045924,4616,-13
0.786000,-12.363942,923.021250,122.027222,-5.050415,10.437012,6.222425,-7.313527,916.798825,3.790313,10.895353,10.895353,14.685666,0.160200,-0.069264,-0.069264,-0.054468,4597,-19
0.788000,-10.511786,928.676750,103.747174,-5.020752,14.831543,7.083337,-5.491034,921.593413,3.222187,12.251374,12.251374,15.473561,0.160200,-0.081574,-0.081574,-0.068352,4570,-30
0.790000,-8.649235,933.413500,85.364535,-4.981201,19.775391,8.352542,-3.668034,925.060958,2.651031,13.584589,13.584589,16.235620,0.160200,-0.093482,-0.093482,-0.084372,4534,-26
0.792000,-6.778132,937.227250,66.897484,-4.943848,18.676758,9.384964,-1.834284,927.842286,2.077386,14.913331,14.913331,16.990717,0.160200,-0.105280,-0.105280,-0.095052,4500,-25
0.794000,-4.900326,940.114500,48.364280,-4.913086,15.380859,9.984553,0.012760,930.129947,1.501790,16.242738,16.242738,17.744528,0.160200,-0.117058,-0.117058,-0.106800,4472,-27
0.796000,-3.017674,942.072000,29.783250,-4.874634,19.226074,10.908705,1.856960,931.163295,0.924786,17.548268,17.548268,18.473054,0.160200,-0.128441,-0.128441,-0.121752,4437,-27
0.798000,-1.132038,943.097750,11.172770,-4.830688,21.972656,12.015100,3.698650,931.082650,0.346914,18.832603,18.832603,19.179517,0.160200,-0.139480,-0.139480,-0.126024,4397,-40
0.800000,0.754717,943.191000,-7.448759,-4.768066,31.311035,13.944694,5.522783,929.246306,-0.231283,20.074038,20.074038,19.842755,0.160200,-0.149843,-0.149843,-0.137772,4340,-56
0.802000,2.640726,942.351500,-26.062922,-4.686768,40.649414,16.615166,7.327494,925.736334,-0.809263,21.272703,21.272703,20.463439,0.160200,-0.159541,-0.159541,-0.148452,4266,-62
0.804000,4.524123,940.580250,-44.651312,-4.588989,48.889160,19.842565,9.113112,920.737685,-1.386485,22.432057,22.432057,21.045572,0.160200,-0.168637,-0.168637,-0.160200,4177,-70
0.806000,6.403047,937.879250,-63.195549,-4.494507,47.241211,22.582430,10.897554,915.296820,-1.962405,23.582871,23.582871,21.620466,0.160200,-0.177620,-0.177620,-0.164472,4091,-85
0.808000,8.275640,934.250250,-81.677295,-4.370361,62.072754,26.531462,12.646001,907.718788,-2.536484,24.671256,24.671256,22.134772,0.160200,-0.185656,-0.185656,-0.176220,3978,-88
0.810000,10.140048,929.697500,-100.078273,-4.238525,65.917969,30.470113,14.378573,899.227387,-3.108181,25.732617,25.732617,22.624436,0.160200,-0.193307,-0.193307,-0.186900,3858,-88
0.812000,11.994430,924.225750,-118.380289,-4.100098,69.213867,34.344488,16.094528,889.881262,-3.676956,26.767458,26.767458,23.090502,0.160200,-0.200589,-0.200589,-0.194376,3732,-106
0.814000,13.836951,917.839750,-136.565243,-3.944092,78.002930,38.710333,17.781043,879.129417,-4.242271,27.757213,27.757213,23.514941,0.160200,-0.207221,-0.207221,-0.197580,3590,-120
0.816000,15.665789,910.546250,-154.615154,-3.795776,74.157715,42.255071,19.461565,868.291179,-4.803592,28.741276,28.741276,23.937684,0.160200,-0.213826,-0.213826,-0.208260,3455,-129
0.818000,17.479136,902.352500,-172.512173,-3.622192,86.791992,46.708763,21.101328,855.643737,-5.360382,29.665307,29.665307,24.304924,0.160200,-0.219564,-0.219564,-0.213600,3297,-130
0.820000,19.275199,893.266250,-190.238603,-3.427734,97.229004,51.760787,22.702933,841.505463,-5.912112,30.536678,30.536678,24.624567,0.160200,-0.224559,-0.224559,-0.217872,3120,-138
0.822000,21.052201,883.296750,-207.776914,-3.236572,95.581055,56.142814,24.288773,827.153936,-6.458250,31.393322,31.393322,24.935072,0.160200,-0.229410,-0.229410,-0.223212,2946,-135
0.824000,22.808386,872.453750,-225.109763,-3.043213,96.679688,60.196501,25.851599,812.257249,-6.998272,32.224384,32.224384,25.226112,0.160200,-0.233958,-0.233958,-0.228552,2770,-163
0.826000,24.542016,860.748000,-242.220011,-2.835571,103.820801,64.558931,27.377587,796.189069,-7.531655,33.009282,33.009282,25.477627,0.160200,-0.237888,-0.237888,-0.232824,2581,-147
0.828000,26.251378,848.191500,-259.090739,-2.607056,114.257812,69.528819,28.858434,778.662681,-8.057879,33.737215,33.737215,25.679336,0.160200,-0.241040,-0.241040,-0.238164,2373,-173
0.830000,27.934782,834.795750,-275.705263,-2.379639,113.708496,73.946787,30.314421,760.848963,-8.576431,34.442778,34.442778,25.866346,0.160200,-0.243962,-0.243962,-0.242436,2166,-163
0.832000,29.590561,820.574500,-292.047155,-2.144531,117.553711,78.307479,31.735092,742.267021,-9.086801,35.110277,35.110277,26.023476,0.160200,-0.246417,-0.246417,-0.246708,1952,-190
0.834000,31.217080,805.542250,-308.100254,-1.898438,123.046875,82.781419,33.115517,722.760831,-9.588484,35.733549,35.733549,26.145065,0.160200,-0.248317,-0.248317,-0.248844,1728,-194
0.836000,32.812730,789.713000,-323.848686,-1.633667,132.385254,87.741802,34.446397,701.971198,-10.080982,36.299830,36.299830,26.218848,0.160200,-0.249469,-0.249469,-0.247776,1487,-195
0.838000,34.375932,773.103000,-339.276878,-1.371094,131.286621,92.096284,35.747026,681.006716,-10.563804,36.841941,36.841941,26.278138,0.160200,-0.250396,-0.250396,-0.248844,1248,-200
0.840000,35.905142,755.728750,-354.369575,-1.132690,119.201660,94.806822,37.037832,660.921928,-11.036463,37.392549,37.392549,26.356086,0.160200,-0.251614,-0.251614,-0.252048,1031,-174
0.842000,37.398847,737.607000,-369.111851,-0.877808,127.441406,98.070280,38.276655,639.536720,-11.498482,37.884167,37.884167,26.385686,0.160200,-0.252076,-0.252076,-0.252048,799,-210
0.844000,38.855570,718.755750,-383.489129,-0.617432,130.187988,101.282051,39.473002,617.473699,-11.949391,38.334303,38.334303,26.384912,0.160200,-0.252064,-0.252064,-0.254184,562,-204
0.846000,40.273870,699.193750,-397.487191,-0.329590,143.920898,105.545936,40.603460,593.647814,-12.388730,38.707671,38.707671,26.318941,0.160200,-0.251033,-0.251033,-0.252048,300,-221
0.848000,41.652345,678.940500,-411.092196,-0.043945,142.822266,109.273569,41.696290,569.666931,-12.816048,39.052066,39.052066,26.236018,0.160200,-0.249738,-0.249738,-0.253116,40,-218
0.850000,42.989632,658.015750,-424.290690,0.230713,137.329102,112.079122,42.758919,545.936628,-13.230901,39.379749,39.379749,26.148847,0.160200,-0.248376,-0.248376,-0.254184,-210,-180
0.852000,44.284408,636.440500,-437.069622,0.504272,136.779785,114.549188,43.780136,521.891312,-13.632861,39.673022,39.673022,26.040161,0.160200,-0.246678,-0.246678,-0.249912,-459,-209
0.854000,45.535394,614.235750,-449.416355,0.782227,138.977051,116.991975,44.753167,497.243775,-14.021507,39.922146,39.922146,25.900639,0.160200,-0.244497,-0.244497,-0.244572,-712,-204
0.856000,46.741351,591.423500,-461.318679,1.033813,125.793457,117.872123,45.707538,473.551377,-14.396430,40.174912,40.174912,25.778482,0.160200,-0.242589,-0.242589,-0.245640,-941,-203
0.858000,47.901088,568.026750,-472.764826,1.272217,119.201660,118.005077,46.628871,450.021673,-14.757236,40.407453,40.407453,25.650217,0.160200,-0.240585,-0.240585,-0.240300,-1158,-148
0.860000,49.013458,544.068250,-483.743477,1.496338,112.060547,117.410624,47.517120,426.657626,-15.103543,40.619788,40.619788,25.516246,0.160200,-0.238491,-0.238491,-0.239232,-1362,-187
0.862000,50.077361,519.571500,-494.243776,1.755615,129.638672,118.633428,48.321746,400.938072,-15.434981,40.732632,40.732632,25.297651,0.160200,-0.235076,-0.235076,-0.238164,-1598,-176
0.864000,51.091744,494.561000,-504.255338,2.015991,130.187988,119.788884,49.075753,374.772116,-15.751196,40.802346,40.802346,25.051150,0.160200,-0.231224,-0.231224,-0.236028,-1835,-190
0.866000,52.055605,469.061500,-513.768265,2.276367,130.187988,120.828795,49.779238,348.232705,-16.051849,40.830271,40.830271,24.778422,0.160200,-0.226963,-0.226963,-0.230688,-2072,-176
0.868000,52.967990,443.098250,-522.773149,2.532349,127.990723,121.544988,50.435641,321.553262,-16.336616,40.822883,40.822883,24.486267,0.160200,-0.222398,-0.222398,-0.229620,-2305,-163
0.870000,53.827998,416.697000,-531.261085,2.763062,115.356445,120.926133,51.064936,295.770867,-16.605189,40.812226,40.812226,24.207038,0.160200,-0.218035,-0.218035,-0.222144,-2515,-182
0.872000,54.634778,389.883250,-539.223681,2.990479,113.708496,120.204370,51.644299,269.678880,-16.857276,40.761307,40.761307,23.904031,0.160200,-0.213300,-0.213300,-0.221076,-2722,-163
0.874000,55.387531,362.684250,-546.653063,3.210205,109.863281,119.170261,52.177326,243.513989,-17.092603,40.676766,40.676766,23.584163,0.160200,-0.208303,-0.208303,-0.214668,-2922,-149
0.876000,56.085515,335.126750,-553.541883,3.415649,102.722168,117.525452,52.669866,217.601298,-17.310913,40.568362,40.568362,23.257449,0.160200,-0.203198,-0.203198,-0.208260,-3109,-150
0.878000,56.728038,307.237500,-559.883330,3.648560,116.455078,117.418414,53.079478,189.819086,-17.511967,40.369435,40.369435,22.857468,0.160200,-0.196948,-0.196948,-0.199716,-3321,-162
0.880000,57.314465,279.044500,-565.671134,3.857300,104.370117,116.113584,53.457165,162.930916,-17.695543,40.163823,40.163823,22.468279,0.160200,-0.190867,-0.190867,-0.196512,-3511,-165
0.882000,57.844216,250.575750,-570.899570,4.075928,109.313965,115.433623,53.768288,135.142127,-17.861441,39.896022,39.896022,22.034581,0.160200,-0.184090,-0.184090,-0.189036,-3710,-132
0.884000,58.316768,221.859250,-575.563469,4.273682,98.876953,113.777956,54.043086,108.081294,-18.009476,39.615566,39.615566,21.606090,0.160200,-0.177395,-0.177395,-0.182628,-3890,-153
0.886000,58.731653,192.923000,-579.658219,4.465942,96.130371,112.013197,54.265711,80.909803,-18.139486,39.296755,39.296755,21.157270,0.160200,-0.170382,-0.170382,-0.180492,-4065,-125
0.888000,59.088460,163.796250,-583.179770,4.630737,82.397461,109.051624,54.457723,54.744626,-18.251326,38.974137,38.974137,20.722811,0.160200,-0.163594,-0.163594,-0.173016,-4215,-122
0.890000,59.386838,134.507750,-586.124640,4.790039,79.650879,106.111549,54.596799,28.396201,-18.344873,38.611363,38.611363,20.266491,0.160200,-0.156464,-0.156464,-0.165540,-4360,-115
0.892000,59.626491,105.085750,-588.489918,4.948242,79.101562,103.410550,54.678249,1.675200,-18.420022,38.201857,38.201857,19.781835,0.160200,-0.148891,-0.148891,-0.156996,-4504,-107
0.894000,59.807181,75.560000,-590.273264,5.085571,68.664551,99.935950,54.721610,-24.375950,-18.476691,37.777450,37.777450,19.300759,0.160200,-0.141374,-0.141374,-0.147384,-4629,-82
0.896000,59.928731,45.960000,-591.472915,5.214111,64.270020,96.369357,54.714620,-50.409357,-18.514815,37.318201,37.318201,18.803386,0.160200,-0.133603,-0.133603,-0.140976,-4746,-83
0.898000,59.991021,16.314000,-592.087684,5.328369,57.128906,92.445312,54.662652,-76.131312,-18.534354,36.832988,36.832988,18.298634,0.160200,-0.125716,-0.125716,-0.134568,-4850,-74
0.900000,59.993987,-13.348000,-592.116964,5.421753,46.691895,87.869970,54.572234,-101.217970,-18.535285,36.332020,36.332020,17.796735,0.160200,-0.117874,-0.117874,-0.127092,-4935,-72
0.902000,59.937629,-42.996750,-591.560726,5.515137,46.691895,83.752163,54.422492,-126.748913,-18.517606,35.781881,35.781881,17.264275,0.160200,-0.109554,-0.109554,-0.117480,-5020,-63
0.904000,59.822000,-72.603250,-590.419519,5.592041,38.452148,79.222161,54.229959,-151.825411,-18.481338,35.209800,35.209800,16.728462,0.160200,-0.101182,-0.101182,-0.108936,-5090,-53
0.906000,59.647216,-102.137500,-588.694473,5.661255,34.606934,74.760639,53.985961,-176.898139,-18.426522,34.601856,34.601856,16.175334,0.160200,-0.092540,-0.092540,-0.100392,-5153,-47
0.908000,59.413450,-131.570750,-586.387293,5.726074,32.409668,70.525542,53.687376,-202.096292,-18.353217,33.953613,33.953613,15.600396,0.160200,-0.083556,-0.083556,-0.089712,-5212,-41
0.910000,59.120933,-160.874250,-583.500260,5.785400,29.663086,66.439296,53.335533,-227.313546,-18.261506,33.267856,33.267856,15.006351,0.160200,-0.074274,-0.074274,-0.082236,-5266,-32
0.912000,58.769953,-190.018750,-580.036229,5.824951,19.775391,61.772905,52.945002,-251.791655,-18.151490,32.567991,32.567991,14.416501,0.160200,-0.065058,-0.065058,-0.072624,-5302,-25
0.914000,58.360858,-218.975000,-575.998627,5.856812,15.930176,57.188633,52.504046,-276.163633,-18.023291,31.834775,31.834775,13.811484,0.160200,-0.055604,-0.055604,-0.065148,-5331,-14
0.916000,57.894053,-247.714750,-571.391445,5.876587,9.887695,52.458539,52.017466,-300.173289,-17.877051,31.076030,31.076030,13.198979,0.160200,-0.046034,-0.046034,-0.056604,-5349,-8
0.918000,57.369999,-276.209500,-566.219239,5.886475,4.943848,47.707070,51.483524,-323.916570,-17.712932,30.288870,30.288870,12.575938,0.160200,-0.036299,-0.036299,-0.048060,-5358,-4
0.920000,56.789215,-304.431250,-560.487123,5.889771,1.647949,43.101158,50.899444,-347.532408,-17.531114,29.468931,29.468931,11.937817,0.160200,-0.026328,-0.026328,-0.037380,-5361,0
0.922000,56.152274,-332.352250,-554.200767,5.889771,0.000000,38.791042,50.262503,-371.143292,-17.331799,28.612175,28.612175,11.280376,0.160200,-0.016056,-0.016056,-0.026700,-5361,0
0.924000,55.459806,-359.944250,-547.366387,5.889771,0.000000,34.911938,49.570035,-394.856188,-17.115204,27.714873,27.714873,10.599669,0.160200,-0.005420,-0.005420,-0.014952,-5361,0
0.926000,54.712497,-387.180250,-539.990739,5.888672,-0.549316,31.365812,48.823825,-418.546062,-16.881567,26.780453,26.780453,9.898886,0.160200,0.005530,0.005530,-0.006408,-5360,1
0.928000,53.911085,-414.033500,-532.081119,5.886475,-1.098633,28.119368,48.024610,-442.152868,-16.631144,25.810480,25.810480,9.179335,0.160200,0.016773,0.016773,0.004272,-5358,2
0.930000,53.056363,-440.477500,-523.645347,5.883179,-1.647949,25.142636,47.173184,-465.620136,-16.364207,24.806491,24.806491,8.442284,0.160200,0.028289,0.028289,0.014952,-5355,3
0.932000,52.149175,-466.485750,-514.691766,5.878784,-2.197266,22.408646,46.270391,-488.894396,-16.081046,23.770010,23.770010,7.688964,0.160200,0.040060,0.040060,0.027768,-5351,5
0.934000,51.190420,-492.032750,-505.229228,5.869995,-4.394531,19.728328,45.320425,-511.761078,-15.781967,22.707710,22.707710,6.925743,0.160200,0.051985,0.051985,0.040584,-5343,11
0.936000,50.181044,-517.093250,-495.267092,5.853516,-8.239746,16.931521,44.327528,-534.024771,-15.467293,21.625962,21.625962,6.158669,0.160200,0.063971,0.063971,0.053400,-5328,17
0.938000,49.122047,-541.642250,-484.815208,5.828247,-12.634277,13.974941,43.293800,-555.617191,-15.137361,20.527425,20.527425,5.390063,0.160200,0.075980,0.075980,0.064080,-5305,19
0.940000,48.014475,-565.655750,-473.883912,5.795288,-16.479492,10.929498,42.219187,-576.585248,-14.792526,19.411242,19.411242,4.618716,0.160200,0.088033,0.088033,0.075828,-5275,29
0.942000,46.859424,-589.109750,-462.484012,5.754639,-20.324707,7.804077,41.104785,-596.913827,-14.433152,18.278442,18.278442,3.845290,0.160200,0.100117,0.100117,0.088644,-5238,30
0.944000,45.658036,-611.981500,-450.626783,5.705200,-24.719238,4.551746,39.952836,-616.533246,-14.059623,17.131806,17.131806,3.072183,0.160200,0.112197,0.112197,0.098256,-5193,35
0.946000,44.411498,-634.248000,-438.323949,5.662354,-21.423340,1.954237,38.749144,-636.202237,-13.672332,15.948182,15.948182,2.275851,0.160200,0.124640,0.124640,0.113208,-5154,37
0.948000,43.121044,-655.887250,-425.587675,5.601929,-30.212402,-1.262427,37.519115,-654.624823,-13.271685,14.767925,14.767925,1.496241,-0.160200,-0.183579,-0.183579,0.124956,-5099,48
0.950000,41.787949,-676.878000,-412.430557,5.541504,-30.212402,-4.157424,36.246445,-672.720576,-12.858101,13.563603,13.563603,0.705502,-0.160200,-0.171223,-0.171223,-0.184764,-5044,0
0.952000,40.413532,-697.199250,-398.865605,5.579956,19.226074,-1.819075,34.833576,-695.380175,-12.432010,12.181750,12.181750,-0.250260,-0.160200,-0.156290,-0.156290,-0.173016,-5079,-87
0.954000,38.999152,-716.831250,-384.906231,5.712891,66.467285,5.009561,33.286261,-721.840811,-11.993853,10.639695,10.639695,-1.354158,0.160200,0.181359,0.181359,-0.152724,-5200,-110
0.956000,37.546207,-735.754250,-370.566241,5.877686,82.397461,12.748351,31.668521,-748.502601,-11.544080,9.044964,9.044964,-2.499116,0.160200,0.199249,0.199249,0.181560,-5350,-44
0.958000,36.056135,-753.949750,-355.859815,5.879883,1.098633,11.583380,30.176252,-765.533130,-11.083151,7.705925,7.705925,-3.377226,0.160200,0.212969,0.212969,0.199716,-5352,65
0.960000,34.530408,-771.399750,-340.801494,5.746948,-66.467285,3.778313,28.783460,-775.178063,-10.611535,6.565236,6.565236,-4.046299,0.160200,0.223423,0.223423,0.210396,-5231,135
0.962000,32.970536,-788.087000,-325.406170,5.549194,-98.876953,-6.487214,27.421342,-781.599786,-10.129708,5.502218,5.502218,-4.627490,-0.160200,-0.087895,-0.087895,0.224280,-5051,156
0.964000,31.378060,-803.994750,-309.689066,5.311890,-118.652344,-17.703727,26.066170,-786.291023,-9.638156,4.474253,4.474253,-5.163903,-0.160200,-0.079514,-0.079514,-0.088644,-4835,88
0.966000,29.754557,-819.107500,-293.665724,5.229492,-41.198730,-20.053227,24.525065,-799.054273,-9.137368,3.175597,3.175597,-5.961771,-0.160200,-0.067047,-0.067047,-0.077964,-4760,11
0.968000,28.101630,-833.410500,-277.351990,5.238281,4.394531,-17.608451,22.863349,-815.802049,-8.627845,1.723197,1.723197,-6.904648,-0.160200,-0.052315,-0.052315,-0.069420,-4768,-29
0.970000,26.420915,-846.889250,-260.763994,5.277832,19.775391,-13.870067,21.143083,-833.019183,-8.110088,0.221729,0.221729,-7.888359,-0.160200,-0.036944,-0.036944,-0.051264,-4804,-35
0.972000,24.714073,-859.530750,-243.918140,5.311890,17.028809,-10.780179,19.402183,-848.750571,-7.584608,-1.268213,-1.268213,-8.852821,-0.160200,-0.021875,-0.021875,-0.034176,-4835,-18
0.974000,22.982792,-871.322000,-226.831086,5.330566,9.338379,-8.768324,17.652226,-862.553676,-7.051918,-2.730823,-2.730823,-9.782741,-0.160200,-0.007345,-0.007345,-0.023496,-4852,-6
0.976000,21.228785,-882.251500,-209.519729,5.333862,1.647949,-7.726696,15.894923,-874.524804,-6.512536,-4.166588,-4.166588,-10.679124,-0.160200,0.006661,0.006661,-0.009612,-4855,-2
0.978000,19.453786,-892.308750,-192.001187,5.329468,-2.197266,-7.173753,14.124318,-885.134997,-5.966986,-5.587886,-5.587886,-11.554872,-0.160200,0.020345,0.020345,0.011748,-4851,6
0.980000,17.659550,-901.483750,-174.292784,5.320679,-4.394531,-6.895831,12.338871,-894.587919,-5.415792,-6.999347,-6.999347,-12.415139,-0.160200,0.033787,0.033787,0.025632,-4843,8
0.982000,15.847851,-909.767250,-156.412030,5.310791,-4.943848,-6.700633,10.537060,-903.066617,-4.859483,-8.405230,-8.405230,-13.264714,-0.160200,0.047061,0.047061,0.030972,-4834,11
0.984000,14.020481,-917.151250,-138.376607,5.294312,-8.239746,-6.854544,8.726169,-910.296706,-4.298592,-9.795659,-9.795659,-14.094251,-0.160200,0.060023,0.060023,0.044856,-4819,18
0.986000,12.179246,-923.628250,-120.204350,5.270142,-12.084961,-7.377586,6.909104,-916.250664,-3.733652,-11.168126,-11.168126,-14.901778,-0.160200,0.072640,0.072640,0.059808,-4797,16
0.988000,10.325968,-929.191750,-101.913228,5.243774,-13.183594,-7.958187,5.082194,-921.233563,-3.165198,-12.530518,-12.530518,-15.695717,-0.160200,0.085046,0.085046,0.070488,-4773,15
0.990000,8.462479,-933.836500,-83.521328,5.225098,-9.338379,-8.096206,3.237381,-925.740294,-2.593770,-13.897098,-13.897098,-16.490867,-0.160200,0.097470,0.097470,0.083304,-4756,15
0.992000,6.590622,-937.557750,-65.046838,5.200928,-12.084961,-8.495081,1.389694,-929.062669,-2.019905,-15.245013,-15.245013,-17.264918,-0.160200,0.109564,0.109564,0.092916,-4734,20
0.994000,4.712248,-940.352000,-46.508026,5.170166,-15.380859,-9.183659,-0.457918,-931.168341,-1.444144,-16.571641,-16.571641,-18.015785,-0.160200,0.121297,0.121297,0.112140,-4706,27
0.996000,2.829214,-942.216500,-27.923224,5.131714,-19.226074,-10.187901,-2.302500,-932.028599,-0.867029,-17.874416,-17.874416,-18.741445,-0.160200,0.132635,0.132635,0.123888,-4671,30
0.998000,0.943382,-943.149000,-9.310810,5.077881,-26.916504,-11.860761,-4.134499,-931.288239,-0.289100,-19.140471,-19.140471,-19.429571,-0.160200,0.143387,0.143387,0.133500,-4622,46
1.000000,-0.943382,-943.149000,9.310810,5.011963,-32.958984,-13.970583,-5.955345,-929.178417,0.289100,-20.374838,-20.374838,-20.085738,-0.160200,0.153640,0.153640,0.142044,-4562,60
1.002000,-2.829214,-942.216500,27.923224,4.926270,-42.846680,-16.858193,-7.755484,-925.358307,0.867029,-21.564898,-21.564898,-20.697869,-0.160200,0.163204,0.163204,0.152724,-4484,67
1.004000,-4.712248,-940.352000,46.508026,4.837280,-44.494629,-19.621837,-9.549528,-920.730163,1.444144,-22.736601,-22.736601,-21.292457,-0.160200,0.172495,0.172495,0.161268,-4403,78
1.006000,-6.590622,-937.557750,65.046838,4.720825,-58.227539,-23.482407,-11.311447,-914.075343,2.019905,-23.850504,-23.850504,-21.830599,-0.160200,0.180903,0.180903,0.174084,-4297,76
1.008000,-8.462479,-933.836500,83.521328,4.617554,-51.635742,-26.297740,-13.080033,-907.538760,2.593770,-24.971125,-24.971125,-22.377355,-0.160200,0.189446,0.189446,0.181560,-4203,99
1.010000,-10.325968,-929.191750,101.913228,4.473633,-71.960449,-30.864011,-14.799601,-898.327739,3.165198,-26.010847,-26.010847,-22.845649,-0.160200,0.196763,0.196763,0.187968,-4072,94
1.012000,-12.179246,-923.628250,120.204350,4.318726,-77.453613,-35.522971,-16.497972,-888.105279,3.733652,-27.018118,-27.018118,-23.284466,-0.160200,0.203620,0.203620,0.197580,-3931,102
1.014000,-14.020481,-917.151250,138.376607,4.148438,-85.144043,-40.485079,-18.168919,-876.666171,4.298592,-27.985009,-27.985009,-23.686417,-0.160200,0.209900,0.209900,0.205056,-3776,125
1.016000,-15.847851,-909.767250,156.412030,3.995728,-76.354980,-44.072069,-19.843579,-865.695181,4.859483,-28.962662,-28.962662,-24.103179,-0.160200,0.216412,0.216412,0.206124,-3637,113
1.018000,-17.659550,-901.483750,174.292784,3.828735,-83.496094,-48.014471,-21.488285,-853.469279,5.415792,-29.897502,-29.897502,-24.481710,-0.160200,0.222327,0.222327,0.216804,-3485,123
1.020000,-19.453786,-892.308750,192.001187,3.627686,-100.524902,-53.265514,-23.081472,-839.043236,5.966986,-30.757974,-30.757974,-24.790988,-0.160200,0.227159,0.227159,0.217872,-3302,152
1.022000,-21.228785,-882.251500,209.519729,3.432129,-97.778320,-57.716795,-24.660914,-824.534705,6.512536,-31.607411,-31.607411,-25.094875,-0.160200,0.231907,0.231907,0.228552,-3124,162
1.024000,-22.982792,-871.322000,226.831086,3.222290,-104.919434,-62.437059,-26.205082,-808.884941,7.051918,-32.412304,-32.412304,-25.360386,-0.160200,0.236056,0.236056,0.236028,-2933,154
1.026000,-24.714073,-859.530750,243.918140,2.992676,-114.807129,-67.674066,-27.706749,-791.856684,7.584608,-33.163466,-33.163466,-25.578858,-0.160200,0.239470,0.239470,0.233892,-2724,162
1.028000,-26.420915,-846.889250,260.763994,2.763062,-114.807129,-72.387372,-29.183977,-774.501878,8.110088,-33.891867,-33.891867,-25.781779,-0.160200,0.242640,0.242640,0.237096,-2515,151
1.030000,-28.101630,-833.410500,277.351990,2.534546,-114.257812,-76.574416,-30.636176,-756.836084,8.627845,-34.597367,-34.597367,-25.969522,-0.160200,0.245574,0.245574,0.243504,-2307,160
1.032000,-29.754557,-819.107500,293.665724,2.269775,-132.385254,-82.155500,-32.024332,-736.952000,9.137368,-35.219440,-35.219440,-26.082072,-0.160200,0.247332,0.247332,0.245640,-2066,195
1.034000,-31.378060,-803.994750,309.689066,1.996216,-136.779785,-87.617928,-33.374276,-716.376822,9.638156,-35.802774,-35.802774,-26.164619,-0.160200,0.248622,0.248622,0.244572,-1817,189
1.036000,-32.970536,-788.087000,325.406170,1.746826,-124.694824,-91.325618,-34.717362,-696.761382,10.129708,-36.398071,-36.398071,-26.268363,-0.160200,0.250243,0.250243,0.247776,-1590,171
1.038000,-34.530408,-771.399750,340.801494,1.474365,-136.230469,-95.816103,-36.004773,-675.583647,10.611535,-36.927233,-36.927233,-26.315698,-0.160200,0.250983,0.250983,0.247776,-1342,198
1.040000,-36.056135,-753.949750,355.859815,1.216187,-129.089355,-99.143428,-37.272322,-654.806322,11.083151,-37.449515,-37.449515,-26.366364,-0.160200,0.251774,0.251774,0.250980,-1107,183
1.042000,-37.546207,-735.754250,370.566241,0.959106,-128.540039,-102.083089,-38.505313,-633.671161,11.544080,-37.941428,-37.941428,-26.397348,-0.160200,0.252259,0.252259,0.250980,-873,181
1.044000,-38.999152,-716.831250,384.906231,0.696533,-131.286621,-105.003443,-39.695685,-611.827807,11.993853,-38.391226,-38.391226,-26.397373,-0.160200,0.252259,0.252259,0.252048,-634,194
1.046000,-40.413532,-697.199250,398.865605,0.410889,-142.822266,-108.785325,-40.824421,-588.413925,12.432010,-38.770583,-38.770583,-26.338572,-0.160200,0.251340,0.251340,0.254184,-374,184
1.048000,-41.787949,-676.878000,412.430557,0.106567,-152.160645,-113.122857,-41.894516,-563.755143,12.858101,-39.087273,-39.087273,-26.229172,-0.160200,0.249631,0.249631,0.249912,-97,210
1.050000,-43.121044,-655.887250,425.587675,-0.169189,-137.878418,-115.598413,-42.951855,-540.288837,13.271685,-39.415870,-39.415870,-26.144186,-0.160200,0.248303,0.248303,0.247776,154,182
1.052000,-44.411498,-634.248000,438.323949,-0.442749,-136.779785,-117.716550,-43.968749,-516.531450,13.672332,-39.711152,-39.711152,-26.038820,-0.160200,0.246657,0.246657,0.250980,403,218
1.054000,-45.658036,-611.981500,450.626783,-0.733887,-145.568848,-120.501780,-44.924149,-491.479720,14.059623,-39.940912,-39.940912,-25.881289,-0.160200,0.244195,0.244195,0.245640,668,179
1.056000,-46.859424,-589.109750,462.484012,-1.003052,-134.582520,-121.909854,-45.856372,-467.199896,14.433152,-40.167964,-40.167964,-25.734811,-0.160200,0.241906,0.241906,0.244572,913,183
1.058000,-48.014475,-565.655750,473.883912,-1.279907,-138.427734,-123.561642,-46.734568,-442.094108,14.792526,-40.342881,-40.342881,-25.550356,-0.160200,0.239024,0.239024,0.243504,1165,182
1.060000,-49.122047,-541.642250,484.815208,-1.536987,-128.540039,-124.059482,-47.585060,-417.582768,15.137361,-40.508833,-40.508833,-25.371471,-0.160200,0.236229,0.236229,0.238164,1399,204
1.062000,-50.181044,-517.093250,495.267092,-1.785278,-124.145508,-124.068084,-48.395766,-393.025166,15.467293,-40.646201,-40.646201,-25.178909,-0.160200,0.233220,0.233220,0.234960,1625,190
1.064000,-51.190420,-492.032750,505.229228,-2.067627,-141.174316,-125.778707,-49.122793,-366.254043,15.781967,-40.686518,-40.686518,-24.904551,-0.160200,0.228934,0.228934,0.229620,1882,168
1.066000,-52.149175,-466.485750,514.691766,-2.317017,-124.694824,-125.670319,-49.832158,-340.815431,16.081046,-40.737761,-40.737761,-24.656715,-0.160200,0.225061,0.225061,0.229620,2109,171
1.068000,-53.056363,-440.477500,523.645347,-2.567505,-125.244141,-125.627701,-50.488858,-314.849799,16.364207,-40.743038,-40.743038,-24.378831,-0.160200,0.220719,0.220719,0.228552,2337,170
1.070000,-53.911085,-414.033500,532.081119,-2.798218,-115.356445,-124.600576,-51.112867,-289.432924,16.631144,-40.735070,-40.735070,-24.103926,-0.160200,0.216424,0.216424,0.220008,2547,175
1.072000,-54.712497,-387.180250,539.990739,-3.039917,-120.849609,-124.225479,-51.672580,-262.954771,16.881567,-40.663693,-40.663693,-23.782125,-0.160200,0.211396,0.211396,0.217872,2767,157
1.074000,-55.459806,-359.944250,547.366387,-3.267334,-113.708496,-123.173781,-52.192472,-236.770469,17.115204,-40.569644,-40.569644,-23.454439,-0.160200,0.206276,0.206276,0.209328,2974,147
1.076000,-56.152274,-332.352250,554.200767,-3.478271,-105.468750,-121.403278,-52.674003,-210.948972,17.331799,-40.455145,-40.455145,-23.123346,-0.160200,0.201102,0.201102,0.206124,3166,163
1.078000,-56.789215,-304.431250,560.487123,-3.703491,-112.609863,-120.523936,-53.085724,-183.907314,17.531114,-40.270615,-40.270615,-22.739501,-0.160200,0.195105,0.195105,0.196512,3371,141
1.080000,-57.369999,-276.209500,566.219239,-3.904541,-100.524902,-118.524033,-53.465458,-157.685467,17.712932,-40.078062,-40.078062,-22.365130,-0.160200,0.189255,0.189255,0.195444,3554,148
1.082000,-57.894053,-247.714750,571.391445,-4.112183,-103.820801,-117.053710,-53.781870,-130.661040,17.877051,-39.827294,-39.827294,-21.950243,-0.160200,0.182773,0.182773,0.190104,3743,137
1.084000,-58.360858,-218.975000,575.998627,-4.296753,-92.285156,-114.576854,-54.064105,-104.398146,18.023291,-39.565957,-39.565957,-21.542666,-0.160200,0.176404,0.176404,0.178356,3911,121
1.086000,-58.769953,-190.018750,580.036229,-4.500000,-101.623535,-113.281522,-54.269953,-76.737228,18.151490,-39.226892,-39.226892,-21.075402,-0.160200,0.169103,0.169103,0.175152,4096,118
