khanfazel/E-wera--maxon_motor/PD_control (copy)/pd_feedforward_log_filtered.csv
t_s,q_ref_deg,qd_ref_deg_s,qdd_ref_deg_s2,q_link_deg,qd_link_raw_deg_s,qd_link_filt_deg_s,pos_error_deg,vel_error_deg_s,tau_joint_ff_Nm,tau_pd_joint_raw_Nm,tau_pd_joint_limited_Nm,tau_joint_total_Nm,tau_dead_motor_Nm,tau_motor_cmd_before_clamp_Nm,tau_motor_cmd_Nm,tau_motor_actual_Nm,motor_pos_counts,motor_vel_native
0.000000,0.000000,943.265500,0.000000,-4.487915,0.000000,0.000000,4.487915,943.265500,0.000000,19.596244,19.596244,19.596244,0.160200,0.405153,0.405153,0.002136,-4085,0
0.002000,1.886531,942.799250,0.000000,-4.481323,3.295898,0.329590,6.367854,942.469660,0.027289,20.894800,20.894800,20.922089,0.160200,0.421726,0.421726,0.404772,-4079,70
0.004000,3.771197,941.400750,-37.220226,-4.320923,80.200195,8.316650,8.092120,933.084100,-1.155722,21.934755,21.934755,20.779033,0.160200,0.419938,0.419938,0.420792,-3933,181
0.006000,5.652134,939.071000,-55.784328,-4.012207,154.357910,22.920776,9.664341,916.150224,-1.732228,22.736821,22.736821,21.004593,0.160200,0.422757,0.422757,0.414384,-3652,265
0.008000,7.527481,935.812750,-74.293267,-3.693604,159.301758,36.558875,11.221085,899.253875,-2.307108,23.528736,23.528736,21.221628,0.160200,0.425470,0.425470,0.421860,-3362,310
0.010000,9.395385,931.629250,-92.728741,-3.329956,181.823730,51.085360,12.725341,880.543890,-2.879822,24.252354,24.252354,21.372532,0.160200,0.427357,0.427357,0.425064,-3031,340
0.012000,11.253998,926.524500,-111.072519,-2.928955,200.500488,66.026873,14.182953,860.497627,-3.449831,24.920086,24.920086,21.470255,0.160200,0.428578,0.428578,0.428268,-2666,343
0.014000,13.101483,920.503500,-129.306462,-2.475220,226.867676,82.110953,15.576703,838.392547,-4.016595,25.507300,25.507300,21.490706,0.160200,0.428834,0.428834,0.425064,-2253,360
0.016000,14.936012,913.572250,-147.412541,-1.984131,245.544434,98.454301,16.920143,815.117949,-4.579577,26.038980,26.038980,21.459403,0.160200,0.428443,0.428443,0.429336,-1806,391
0.018000,16.755772,905.737500,-165.372849,-1.510620,236.755371,112.284408,18.266392,793.453092,-5.138244,26.600716,26.600716,21.462473,0.160200,0.428481,0.428481,0.428268,-1375,407
0.020000,18.558962,897.007250,-183.169628,-0.963501,273.559570,128.411924,19.522463,768.595326,-5.692061,27.043769,27.043769,21.351708,0.160200,0.427096,0.427096,0.430404,-877,418
0.022000,20.343801,887.390000,-200.785278,-0.402100,280.700684,143.640800,20.745901,743.749200,-6.240499,27.464243,27.464243,21.223744,0.160200,0.425497,0.425497,0.425064,-366,420
0.024000,22.108522,876.895000,-218.202380,0.108765,255.432129,154.819933,21.999757,722.075067,-6.783031,27.961315,27.961315,21.178284,0.160200,0.424929,0.424929,0.419724,99,418
0.026000,23.851381,865.533250,-235.403712,0.625122,258.178711,165.155811,23.226259,700.377439,-7.319132,28.438880,28.438880,21.119748,0.160200,0.424197,0.424197,0.425064,569,447
0.028000,25.570655,853.315500,-252.372264,1.145874,260.375977,174.677828,24.424781,678.637672,-7.848282,28.896176,28.896176,21.047894,0.160200,0.423299,0.423299,0.422928,1043,415
0.030000,27.264643,840.253750,-269.091255,1.669922,262.023926,183.412437,25.594721,656.841313,-8.369964,29.332530,29.332530,20.962566,0.160200,0.422232,0.422232,0.422928,1520,427
0.032000,28.931670,826.361000,-285.544154,2.390625,360.351562,201.106350,26.541045,625.254650,-8.883667,29.441897,29.441897,20.558230,0.160200,0.417178,0.417178,0.425064,2176,436
0.034000,30.570087,811.651500,-301.714692,2.976196,292.785645,210.274279,27.593891,601.377221,-9.388885,29.760182,29.760182,20.371297,0.160200,0.414841,0.414841,0.415452,2709,414
0.036000,32.178276,796.139500,-317.586877,3.572754,298.278809,219.074732,28.605522,577.064768,-9.885117,30.042102,30.042102,20.156985,0.160200,0.412162,0.412162,0.414384,3252,445
0.038000,33.754645,779.839750,-333.145014,4.167114,297.180176,226.885277,29.587531,552.954473,-10.371868,30.306869,30.306869,19.935002,0.160200,0.409388,0.409388,0.409044,3793,422
0.040000,35.297635,762.769000,-348.373719,4.812012,322.448730,236.441622,30.485623,526.327378,-10.848649,30.469126,30.469126,19.620476,0.160200,0.405456,0.405456,0.406908,4380,418
0.042000,36.805721,744.944000,-363.257932,5.400879,294.433594,242.240819,31.404842,502.703181,-11.314981,30.698541,30.698541,19.383561,0.160200,0.402495,0.402495,0.405840,4916,423
0.044000,38.277411,726.382500,-377.782936,5.985352,292.236328,247.240370,32.292059,479.142130,-11.770390,30.906718,30.906718,19.136328,0.160200,0.399404,0.399404,0.401568,5448,444
0.046000,39.711251,707.102750,-391.934367,6.562134,288.391113,251.355444,33.149117,455.747306,-12.214412,31.096741,31.096741,18.882329,0.160200,0.396229,0.396229,0.399432,5973,399
0.048000,41.105822,687.123500,-405.698231,7.143311,290.588379,255.278738,33.962511,431.844762,-12.646592,31.247419,31.247419,18.600827,0.160200,0.392710,0.392710,0.398364,6502,400
0.050000,42.459745,666.465000,-419.060918,7.810181,333.435059,263.094370,34.649564,403.370630,-13.066483,31.230105,31.230105,18.163622,0.160200,0.387245,0.387245,0.389820,7109,406
0.052000,43.771682,645.147500,-432.009215,8.483643,336.730957,270.458029,35.288039,374.689471,-13.473652,31.175264,31.175264,17.701612,0.160200,0.381470,0.381470,0.383412,7722,415
0.054000,45.040335,623.191750,-444.530316,9.008789,262.573242,269.669550,36.031546,353.522200,-13.867672,31.324891,31.324891,17.457218,0.160200,0.378415,0.378415,0.386616,8200,393
0.056000,46.264449,600.619750,-456.611842,9.576782,283.996582,271.102253,36.687667,329.517497,-14.248133,31.363988,31.363988,17.115856,0.160200,0.374148,0.374148,0.377004,8717,380
0.058000,47.442814,577.454250,-468.241844,10.110718,266.967773,270.688805,37.332096,306.765445,-14.614633,31.416787,31.416787,16.802154,0.160200,0.370227,0.370227,0.371664,9203,371
0.060000,48.574266,553.717500,-479.408822,10.657837,273.559570,270.975882,37.916429,282.741618,-14.966784,31.405433,31.405433,16.438649,0.160200,0.365683,0.365683,0.374868,9701,394
0.062000,49.657684,529.433000,-490.101734,11.252197,297.180176,273.596311,38.405487,255.836689,-15.304213,31.277280,31.277280,15.973068,0.160200,0.359863,0.359863,0.369528,10242,359
0.064000,50.691998,504.625250,-500.310006,11.755371,251.586914,271.395371,38.936627,233.229879,-15.626559,31.253523,31.253523,15.626964,0.160200,0.355537,0.355537,0.356712,10700,343
0.066000,51.676185,479.318500,-510.023544,12.318970,281.799316,272.435766,39.357215,206.882734,-15.933476,31.087305,31.087305,15.153828,0.160200,0.349623,0.349623,0.358848,11213,368
0.068000,52.609272,453.537750,-519.232741,12.796875,238.952637,269.087453,39.812397,184.450297,-16.224636,31.013561,31.013561,14.788926,0.160200,0.345062,0.345062,0.349236,11648,336
0.070000,53.490336,427.308250,-527.928493,13.369263,286.193848,270.798092,40.121073,156.510158,-16.499722,30.741411,30.741411,14.241689,0.160200,0.338221,0.338221,0.344964,12169,355
0.072000,54.318505,400.656500,-536.102199,13.870239,250.488281,268.767111,40.448266,131.889389,-16.758437,30.540121,30.540121,13.781683,0.160200,0.332471,0.332471,0.341760,12625,310
0.074000,55.092962,373.608500,-543.745778,14.336060,232.910156,265.181416,40.756902,108.427084,-17.000500,30.346095,30.346095,13.345595,0.160200,0.327020,0.327020,0.334284,13049,296
0.076000,55.812939,346.191000,-550.851670,14.813965,238.952637,262.558538,40.998974,83.632462,-17.225647,30.082345,30.082345,12.856699,0.160200,0.320909,0.320909,0.326808,13484,275
0.078000,56.477726,318.431250,-557.412850,15.258911,222.473145,258.549999,41.218815,59.881251,-17.433630,29.821286,29.821286,12.387656,0.160200,0.315046,0.315046,0.320400,13889,294
0.080000,57.086664,290.356250,-563.422828,15.710449,225.769043,255.271903,41.376215,35.084347,-17.624223,29.498385,29.498385,11.874161,0.160200,0.308627,0.308627,0.316128,14300,279
0.082000,57.639151,261.994500,-568.875663,16.131226,210.388184,250.783531,41.507925,11.210969,-17.797215,29.173667,29.173667,11.376452,0.160200,0.302406,0.302406,0.308652,14683,257
0.084000,58.134642,233.373750,-573.765962,16.494873,181.823730,243.887551,41.639769,-10.513801,-17.952416,28.886542,28.886542,10.934126,0.160200,0.296877,0.296877,0.300108,15014,255
0.086000,58.572646,204.522000,-578.088888,16.887085,196.105957,239.109392,41.685561,-34.587392,-18.089655,28.498348,28.498348,10.408693,0.160200,0.290309,0.290309,0.296904,15371,269
0.088000,58.952730,175.468250,-581.840169,17.261719,187.316895,233.930142,41.691011,-58.461892,-18.208779,28.085464,28.085464,9.876685,0.160200,0.283659,0.283659,0.289428,15712,244
0.090000,59.274519,146.240750,-585.016093,17.618774,178.527832,228.389911,41.655745,-82.149161,-18.309656,27.647422,27.647422,9.337766,0.160200,0.276922,0.276922,0.287292,16037,233
0.092000,59.537693,116.868500,-587.613520,17.989014,185.119629,224.062883,41.548679,-107.194383,-18.392176,27.135555,27.135555,8.743379,0.160200,0.269492,0.269492,0.275544,16374,259
0.094000,59.741993,87.381000,-589.629883,18.321899,166.442871,218.300882,41.420094,-130.919882,-18.456245,26.631697,26.631697,8.175452,0.160200,0.262393,0.262393,0.268068,16677,206
0.096000,59.887217,57.807000,-591.063187,18.632812,155.456543,212.016448,41.254404,-154.209448,-18.501794,26.109545,26.109545,7.607751,0.160200,0.255297,0.255297,0.260592,16960,201
0.098000,59.973221,28.176000,-591.912014,18.936035,151.611328,205.975936,41.037186,-177.799936,-18.528771,25.546166,25.546166,7.017395,0.160200,0.247917,0.247917,0.254184,17236,212
0.100000,59.999921,-1.483000,-592.175526,19.209595,136.779785,199.056321,40.790326,-200.539321,-18.537146,24.976948,24.976948,6.439803,-0.160200,-0.079702,-0.079702,0.248844,17485,214
0.102000,59.967289,-31.140750,-591.853461,19.518311,154.357910,194.586480,40.448978,-225.727230,-18.526910,24.299031,24.299031,5.772121,-0.160200,-0.088048,-0.088048,-0.079032,17766,105
0.104000,59.875358,-60.767500,-590.946139,19.635864,58.776855,181.005517,40.239494,-241.773017,-18.498074,23.872731,23.872731,5.374657,-0.160200,-0.093017,-0.093017,-0.087576,17873,10
0.106000,59.724219,-90.334250,-589.454456,19.619385,-8.239746,162.080991,40.104834,-252.415241,-18.450671,23.592979,23.592979,5.142308,-0.160200,-0.095921,-0.095921,-0.092916,17858,-39
0.108000,59.514021,-119.811500,-587.379888,19.557861,-30.761719,142.796720,39.956160,-262.608220,-18.384753,23.311284,23.311284,4.926531,-0.160200,-0.098618,-0.098618,-0.095052,17802,-56
0.110000,59.244973,-149.170500,-584.724485,19.461182,-48.339844,123.683064,39.783791,-272.853564,-18.300393,23.012133,23.012133,4.711740,-0.160200,-0.101303,-0.101303,-0.099324,17714,-44
0.112000,58.917339,-178.382000,-581.490875,19.388672,-36.254883,107.689269,39.528667,-286.071269,-18.197685,22.603330,22.603330,4.405645,-0.160200,-0.105129,-0.105129,-0.100392,17648,-42
0.114000,58.531445,-207.416750,-577.682254,19.313965,-37.353516,93.184990,39.217480,-300.601740,-18.076744,22.132476,22.132476,4.055732,-0.160200,-0.109503,-0.109503,-0.103596,17580,-41
0.116000,58.087672,-236.246500,-573.302388,19.237061,-38.452148,80.021277,38.850611,-316.267777,-17.937702,21.602929,21.602929,3.665228,-0.160200,-0.114385,-0.114385,-0.110004,17510,-47
0.118000,57.586459,-264.842750,-568.355609,19.164551,-36.254883,68.393661,38.421908,-333.236411,-17.780714,21.007480,21.007480,3.226766,-0.160200,-0.119865,-0.119865,-0.113208,17444,-48
0.120000,57.028301,-293.177250,-562.846808,19.088745,-37.902832,57.764011,37.939556,-350.941261,-17.605953,20.361726,20.361726,2.755774,-0.160200,-0.125753,-0.125753,-0.118548,17375,-49
0.122000,56.413750,-321.221750,-556.781433,19.020630,-34.057617,48.581849,37.393120,-369.803599,-17.413611,19.651032,19.651032,2.237421,-0.160200,-0.132232,-0.132232,-0.126024,17313,-53
0.124000,55.743414,-348.948750,-550.165481,18.938232,-41.198730,39.603791,36.805182,-388.552541,-17.203901,18.913343,18.913343,1.709442,-0.160200,-0.138832,-0.138832,-0.134568,17238,-56
0.126000,55.017955,-376.330500,-543.005495,18.862427,-37.902832,31.853128,36.155528,-408.183628,-16.977051,18.117172,18.117172,1.140121,-0.160200,-0.145948,-0.145948,-0.135636,17169,-50
0.128000,54.238092,-403.339750,-535.308555,18.781128,-40.649414,24.602874,35.456964,-427.942624,-16.733311,17.284623,17.284623,0.551312,-0.160200,-0.153309,-0.153309,-0.147384,17095,-71
0.130000,53.404596,-429.950500,-527.082272,18.673462,-53.833008,16.759286,34.731134,-446.709786,-16.472945,16.450349,16.450349,-0.022596,-0.160200,-0.160482,-0.160482,-0.154860,16997,-65
0.132000,52.518290,-456.136500,-518.334780,18.573486,-49.987793,10.084578,33.944804,-466.221078,-16.196238,15.560851,15.560851,-0.635387,-0.160200,-0.168142,-0.168142,-0.160200,16906,-78
0.134000,51.580050,-481.871000,-509.074730,18.443848,-64.819336,2.594187,33.136202,-484.465187,-15.903488,14.677921,14.677921,-1.225568,-0.160200,-0.175520,-0.175520,-0.167676,16788,-90
0.136000,50.590806,-507.128750,-499.311279,18.308716,-67.565918,-4.421824,32.282090,-502.706926,-15.595013,13.763259,13.763259,-1.831753,-0.160200,-0.183097,-0.183097,-0.171948,16665,-84
0.138000,49.551535,-531.885500,-489.054081,18.172485,-68.115234,-10.791165,31.379050,-521.094335,-15.271143,12.811897,12.811897,-2.459245,-0.160200,-0.190941,-0.190941,-0.181560,16541,-106
0.140000,48.463264,-556.116250,-478.313278,17.990112,-91.186523,-18.830701,30.473152,-537.285549,-14.932225,11.896871,11.896871,-3.035354,-0.160200,-0.198142,-0.198142,-0.191172,16375,-112
0.142000,47.327070,-579.796750,-467.099493,17.830811,-79.650879,-24.912719,29.496259,-554.884031,-14.578622,10.907720,10.907720,-3.670902,-0.160200,-0.206086,-0.206086,-0.198648,16230,-117
0.144000,46.144077,-602.904250,-455.423814,17.646240,-92.285156,-31.649962,28.497837,-571.254288,-14.210709,9.924975,9.924975,-4.285734,-0.160200,-0.213772,-0.213772,-0.210396,16062,-130
0.146000,44.915453,-625.415500,-443.297786,17.468262,-88.989258,-37.383892,27.447191,-588.031608,-13.828874,8.898667,8.898667,-4.930207,-0.160200,-0.221828,-0.221828,-0.209328,15900,-133
0.148000,43.642415,-647.308250,-430.733401,17.272705,-97.778320,-43.423335,26.369710,-603.884915,-13.433520,7.869750,7.869750,-5.563769,-0.160200,-0.229747,-0.229747,-0.221076,15722,-128
0.150000,42.326220,-668.560750,-417.743082,17.084839,-93.933105,-48.474312,25.241381,-620.086438,-13.025060,6.799258,6.799258,-6.225801,-0.160200,-0.238023,-0.238023,-0.227484,15551,-133
0.152000,40.968172,-689.152250,-404.339676,16.876099,-104.370117,-54.063892,24.092073,-635.088358,-12.603919,5.735057,5.735057,-6.868862,-0.160200,-0.246061,-0.246061,-0.239232,15361,-164
0.154000,39.569611,-709.062500,-390.536436,16.646484,-114.807129,-60.138216,22.923127,-648.924284,-12.170535,4.677496,4.677496,-7.493039,-0.160200,-0.253863,-0.253863,-0.244572,15152,-172
0.156000,38.131922,-728.271250,-376.347012,16.390503,-127.990723,-66.923467,21.741419,-661.347783,-11.725354,3.635678,3.635678,-8.089676,-0.160200,-0.261321,-0.261321,-0.256320,14919,-170
0.158000,36.656526,-746.760000,-361.785435,16.119141,-135.681152,-73.799235,20.537385,-672.960765,-11.268832,2.592419,2.592419,-8.676413,-0.160200,-0.268655,-0.268655,-0.261660,14672,-194
0.160000,35.144882,-764.510500,-346.866104,15.833496,-142.822266,-80.701538,19.311386,-683.808962,-10.801433,1.547173,1.547173,-9.254261,-0.160200,-0.275878,-0.275878,-0.267000,14412,-214
0.162000,33.598484,-781.504750,-331.603773,15.532471,-150.512695,-87.682654,18.066013,-693.822096,-10.323633,0.502977,0.502977,-9.820657,-0.160200,-0.282958,-0.282958,-0.274476,14138,-223
0.164000,32.018863,-797.726250,-316.013534,15.239136,-146.667480,-93.581137,16.779727,-704.145113,-9.835912,-0.575191,-0.575191,-10.411104,-0.160200,-0.290339,-0.290339,-0.285156,13871,-198
0.166000,30.407579,-813.159000,-300.110802,14.926025,-156.555176,-99.878541,15.481554,-713.280459,-9.338760,-1.640929,-1.640929,-10.979689,-0.160200,-0.297446,-0.297446,-0.290496,13586,-238
0.168000,28.766227,-827.787250,-283.911305,14.632690,-146.667480,-104.557435,14.133537,-723.229815,-8.832671,-2.755672,-2.755672,-11.588342,-0.160200,-0.305054,-0.305054,-0.297972,13319,-228
0.170000,27.096430,-841.597500,-267.431059,14.295410,-168.640137,-110.965705,12.801020,-730.631795,-8.318146,-3.815133,-3.815133,-12.133279,-0.160200,-0.311866,-0.311866,-0.302244,13012,-274
0.172000,25.399837,-854.575500,-250.686364,13.943848,-175.781250,-117.447259,11.455989,-737.128241,-7.795694,-4.867525,-4.867525,-12.663220,-0.160200,-0.318490,-0.318490,-0.310788,12692,-238
0.174000,23.678128,-866.708000,-233.693775,13.609863,-166.992188,-122.401752,10.068265,-744.306248,-7.265826,-5.961620,-5.961620,-13.227446,-0.160200,-0.325543,-0.325543,-0.316128,12388,-242
0.176000,21.933005,-877.983750,-216.470097,13.273682,-168.090820,-126.970659,8.659323,-751.013091,-6.729059,-7.062303,-7.062303,-13.791362,-0.160200,-0.332592,-0.332592,-0.326808,12082,-285
0.178000,20.166193,-888.391250,-199.032362,12.838623,-217.529297,-136.026523,7.327570,-752.364727,-6.185913,-8.015633,-8.015633,-14.201546,-0.160200,-0.337719,-0.337719,-0.332148,11686,-256
0.180000,18.379440,-897.920250,-181.397812,12.440918,-198.852539,-142.309124,5.938522,-755.611126,-5.636913,-9.042032,-9.042032,-14.678944,-0.160200,-0.343687,-0.343687,-0.339624,11324,-312
0.182000,16.574512,-906.561500,-163.583885,12.062988,-188.964844,-146.974696,4.511524,-759.586804,-5.082587,-10.107653,-10.107653,-15.190239,-0.160200,-0.350078,-0.350078,-0.344964,10980,-317
0.184000,14.753194,-914.306250,-145.608198,11.625732,-218.627930,-154.140020,3.127462,-760.166230,-4.523464,-11.084024,-11.084024,-15.607488,-0.160200,-0.355294,-0.355294,-0.351372,10582,-322
0.186000,12.917287,-921.146750,-127.488525,11.166504,-229.614258,-161.687443,1.750783,-759.459307,-3.960079,-12.032788,-12.032788,-15.992868,-0.160200,-0.360111,-0.360111,-0.349236,10164,-302
0.188000,11.068607,-927.076250,-109.242785,10.705078,-230.712891,-168.589988,0.363529,-758.486262,-3.392967,-12.984292,-12.984292,-16.377258,-0.160200,-0.364916,-0.364916,-0.359916,9744,-321
0.190000,9.208982,-932.089000,-90.889019,10.270020,-217.529297,-173.483919,-1.061038,-758.605081,-2.822664,-13.980900,-13.980900,-16.803564,-0.160200,-0.370245,-0.370245,-0.360984,9348,-336
0.192000,7.340251,-936.180250,-72.445377,9.772339,-248.840332,-181.019560,-2.432088,-755.160690,-2.249709,-14.877958,-14.877958,-17.127667,-0.160200,-0.374296,-0.374296,-0.369528,8895,-333
0.194000,5.464261,-939.345750,-53.930097,9.280151,-246.093750,-187.526979,-3.815890,-751.818771,-1.674642,-15.785707,-15.785707,-17.460348,-0.160200,-0.378454,-0.378454,-0.373800,8447,-344
0.196000,3.582868,-941.582500,-35.361488,8.796753,-241.699219,-192.944203,-5.213885,-748.638297,-1.098003,-16.706182,-16.706182,-17.804184,-0.160200,-0.382752,-0.382752,-0.382344,8007,-335
0.198000,1.697931,-942.888000,-16.757912,8.308960,-243.896484,-198.039431,-6.611029,-744.848569,-0.520334,-17.615429,-17.615429,-18.135763,-0.160200,-0.386897,-0.386897,-0.380208,7563,-348
0.200000,-0.188684,-943.261000,1.862236,7.780518,-264.221191,-204.657607,-7.969202,-738.603393,0.057822,-18.454613,-18.454613,-18.396791,-0.160200,-0.390160,-0.390160,-0.386616,7082,-397
0.202000,-2.075113,-942.701250,20.480542,7.193848,-293.334961,-213.525343,-9.268961,-729.175907,0.635924,-19.197476,-19.197476,-18.561551,-0.160200,-0.392219,-0.392219,-0.390888,6548,-372
0.204000,-3.959489,-941.209500,39.078596,6.675293,-259.277344,-218.100543,-10.634782,-723.108957,1.213430,-20.045111,-20.045111,-18.831680,-0.160200,-0.395596,-0.395596,-0.388752,6076,-410
0.206000,-5.839951,-938.787000,57.638006,6.147949,-263.671875,-222.657676,-11.987900,-716.129324,1.789798,-20.867948,-20.867948,-19.078150,-0.160200,-0.398677,-0.398677,-0.396228,5596,-372
0.208000,-7.714637,-935.436000,76.140422,5.578857,-284.545898,-228.846498,-13.293494,-706.589502,2.364486,-21.612923,-21.612923,-19.248437,-0.160200,-0.400805,-0.400805,-0.398364,5078,-411
0.210000,-9.581695,-931.160250,94.567545,5.076782,-251.037598,-231.065608,-14.658477,-700.094642,2.936954,-22.452504,-22.452504,-19.515550,-0.160200,-0.404144,-0.404144,-0.401568,4621,-400
0.212000,-11.439278,-925.963500,112.901154,4.591187,-242.797852,-232.238833,-16.030465,-693.724667,3.506662,-23.299155,-23.299155,-19.792493,-0.160200,-0.407606,-0.407606,-0.398364,4179,-418
0.214000,-13.285549,-919.851000,131.123121,4.066040,-262.573242,-235.272274,-17.351589,-684.578726,4.073072,-24.061847,-24.061847,-19.988775,-0.160200,-0.410060,-0.410060,-0.410112,3701,-389
0.216000,-15.118682,-912.829250,149.215425,3.550781,-257.629395,-237.507986,-18.669463,-675.321264,4.635647,-24.820324,-24.820324,-20.184677,-0.160200,-0.412508,-0.412508,-0.410112,3232,-424
0.218000,-16.936866,-904.904750,167.160178,3.039917,-255.432129,-239.300400,-19.976783,-665.604350,5.193852,-25.563413,-25.563413,-20.369560,-0.160200,-0.414820,-0.414820,-0.404772,2767,-427
0.220000,-18.738301,-896.085250,184.939632,2.444458,-297.729492,-245.143309,-21.182759,-650.941941,5.747156,-26.149436,-26.149436,-20.402280,-0.160200,-0.415228,-0.415228,-0.413316,2225,-414
0.222000,-20.521207,-886.379750,202.536209,1.870972,-286.743164,-249.303295,-22.392179,-637.076455,6.295027,-26.751772,-26.751772,-20.456744,-0.160200,-0.415909,-0.415909,-0.416520,1703,-407
0.224000,-22.283820,-875.797750,219.932506,1.294189,-288.391113,-253.212077,-23.578009,-622.585673,6.836939,-27.326726,-27.326726,-20.489787,-0.160200,-0.416322,-0.416322,-0.411180,1178,-437
0.226000,-24.024398,-864.349750,237.111321,0.791016,-251.586914,-253.049560,-24.815414,-611.300190,7.372368,-27.993628,-27.993628,-20.621260,-0.160200,-0.417966,-0.417966,-0.419724,720,-445
0.228000,-25.741219,-852.047000,254.055668,0.086792,-352.111816,-262.955786,-25.828011,-589.091214,7.900794,-28.312935,-28.312935,-20.412140,-0.160200,-0.415352,-0.415352,-0.414384,79,-449
0.230000,-27.432586,-838.901750,270.748790,-0.464722,-275.756836,-264.235891,-26.967864,-574.665859,8.421702,-28.856932,-28.856932,-20.435231,-0.160200,-0.415640,-0.415640,-0.419724,-423,-428
0.232000,-29.096826,-824.926750,287.174181,-1.084351,-309.814453,-268.793747,-28.012475,-556.133003,8.934579,-29.262749,-29.262749,-20.328170,-0.160200,-0.414302,-0.414302,-0.416520,-987,-449
0.234000,-30.732293,-810.136250,303.315597,-1.613892,-264.770508,-268.391423,-29.118401,-541.744827,9.438921,-29.783710,-29.783710,-20.344789,-0.160200,-0.414510,-0.414510,-0.417588,-1469,-438
0.236000,-32.337371,-794.544500,319.157079,-2.143433,-264.770508,-268.029332,-30.193938,-526.515168,9.934227,-30.268769,-30.268769,-20.334542,-0.160200,-0.414382,-0.414382,-0.415452,-1951,-430
0.238000,-33.910471,-778.167000,334.682960,-2.737793,-297.180176,-270.944416,-31.172678,-507.222584,10.420002,-30.615339,-30.615339,-20.195336,-0.160200,-0.412642,-0.412642,-0.410112,-2492,-441
0.240000,-35.450039,-761.020250,349.877888,-3.332153,-297.180176,-273.567992,-32.117886,-487.452258,10.895761,-30.930161,-30.930161,-20.034400,-0.160200,-0.410630,-0.410630,-0.413316,-3033,-454
0.242000,-36.954552,-743.120750,364.726837,-3.993530,-330.688477,-279.280040,-32.961022,-463.840710,11.361021,-31.106682,-31.106682,-19.745661,-0.160200,-0.407021,-0.407021,-0.409044,-3635,-444
0.244000,-38.422522,-724.486500,379.215124,-4.524170,-265.319824,-277.884019,-33.898352,-446.602481,11.815312,-31.460198,-31.460198,-19.644886,-0.160200,-0.405761,-0.405761,-0.412248,-4118,-452
0.246000,-39.852498,-705.136000,393.328421,-5.087769,-281.799316,-278.275549,-34.764729,-426.860451,12.258170,-31.720480,-31.720480,-19.462310,-0.160200,-0.403479,-0.403479,-0.407976,-4631,-418
0.248000,-41.243066,-685.088000,407.052774,-5.672241,-292.236328,-279.671627,-35.570825,-405.416373,12.689141,-31.908971,-31.908971,-19.219830,-0.160200,-0.400448,-0.400448,-0.409044,-5163,-439
0.250000,-42.592850,-664.362500,420.374610,-6.265503,-296.630859,-281.367550,-36.327347,-382.994950,13.107780,-32.045795,-32.045795,-18.938016,-0.160200,-0.396925,-0.396925,-0.402636,-5703,-428
0.252000,-43.900516,-642.980250,433.280756,-6.853271,-293.884277,-282.619223,-37.047245,-360.361027,13.513652,-32.153342,-32.153342,-18.639690,-0.160200,-0.393196,-0.393196,-0.394092,-6238,-418
0.254000,-45.164771,-620.962000,445.758450,-7.432251,-289.489746,-283.306275,-37.732520,-337.655725,13.906335,-32.235473,-32.235473,-18.329137,-0.160200,-0.389314,-0.389314,-0.388752,-6765,-404
0.256000,-46.384364,-598.329500,457.795354,-8.043091,-305.419922,-285.517640,-38.341273,-312.811860,14.285418,-32.226855,-32.226855,-17.941438,-0.160200,-0.384468,-0.384468,-0.388752,-7321,-405
0.258000,-47.558089,-575.105750,469.379563,-8.625366,-291.137695,-286.079645,-38.932723,-289.026105,14.650500,-32.224625,-32.224625,-17.574125,-0.160200,-0.379877,-0.379877,-0.383412,-7851,-433
0.260000,-48.684787,-551.313500,480.499624,-9.212036,-293.334961,-286.805177,-39.472751,-264.508323,15.001195,-32.173720,-32.173720,-17.172525,-0.160200,-0.374857,-0.374857,-0.379140,-8385,-399
0.262000,-49.763343,-526.975500,491.144540,-9.819580,-303.771973,-288.501856,-39.943763,-238.473644,15.337132,-32.048157,-32.048157,-16.711026,-0.160200,-0.369088,-0.369088,-0.377004,-8938,-386
0.264000,-50.792689,-502.116500,501.303785,-10.378784,-279.602051,-287.611876,-40.413905,-214.504624,15.657950,-31.958040,-31.958040,-16.300090,-0.160200,-0.363951,-0.363951,-0.372732,-9447,-400
0.266000,-51.771809,-476.761250,510.967313,-10.917114,-269.165039,-285.767192,-40.854695,-190.994058,15.963307,-31.855433,-31.855433,-15.892126,-0.160200,-0.358852,-0.358852,-0.366324,-9937,-384
0.268000,-52.699734,-450.934500,520.125568,-11.409302,-246.093750,-281.799848,-41.290432,-169.134652,16.252873,-31.778116,-31.778116,-15.525244,-0.160200,-0.354266,-0.354266,-0.360984,-10385,-386
0.270000,-53.575547,-424.661750,528.769493,-11.970703,-280.700684,-281.689931,-41.604844,-142.971819,16.526335,-31.540989,-31.540989,-15.014654,-0.160200,-0.347883,-0.347883,-0.354576,-10896,-354
0.272000,-54.398381,-397.969000,536.890542,-12.468384,-248.840332,-278.404972,-41.929997,-119.564028,16.783398,-31.359446,-31.359446,-14.576049,-0.160200,-0.342401,-0.342401,-0.350304,-11349,-364
0.274000,-55.167423,-370.883000,544.480683,-12.903442,-217.529297,-272.317404,-42.263981,-98.565596,17.023780,-31.226119,-31.226119,-14.202338,-0.160200,-0.337729,-0.337729,-0.344964,-11745,-351
0.276000,-55.881913,-343.430000,551.532412,-13.502197,-299.377441,-275.023408,-42.379716,-68.406592,17.247221,-30.780543,-30.780543,-13.533322,-0.160200,-0.329367,-0.329367,-0.338556,-12290,-328
0.278000,-56.541143,-315.637250,558.038754,-14.041626,-269.714355,-274.492503,-42.499517,-41.144747,17.453476,-30.388371,-30.388371,-12.934895,-0.160200,-0.321886,-0.321886,-0.330012,-12781,-334
0.280000,-57.144462,-287.532750,563.993277,-14.641479,-299.926758,-277.035928,-42.502983,-10.496822,17.642318,-29.855884,-29.855884,-12.213566,-0.160200,-0.312870,-0.312870,-0.323604,-13327,-324
0.282000,-57.691274,-259.143750,569.390091,-15.205078,-281.799316,-277.512267,-42.486196,18.368517,17.813539,-29.340369,-29.340369,-11.526830,-0.160200,-0.304285,-0.304285,-0.311856,-13840,-302
0.284000,-58.181037,-230.498500,574.223861,-15.634644,-214.782715,-271.239312,-42.546393,40.740812,17.966951,-28.991925,-28.991925,-11.024974,-0.160200,-0.298012,-0.298012,-0.301176,-14231,-268
0.286000,-58.613268,-201.625250,578.489806,-16.188354,-276.855469,-271.800927,-42.424914,70.175677,18.102384,-28.393380,-28.393380,-10.290996,-0.160200,-0.288837,-0.288837,-0.299040,-14735,-259
0.288000,-58.987538,-172.552500,582.183708,-16.590454,-201.049805,-264.725815,-42.397084,92.173315,18.219689,-27.990020,-27.990020,-9.770331,-0.160200,-0.282329,-0.282329,-0.289428,-15101,-228
0.290000,-59.303478,-143.309500,585.301915,-17.057373,-233.459473,-261.599181,-42.246105,118.289681,18.318736,-27.428801,-27.428801,-9.110065,-0.160200,-0.274076,-0.274076,-0.283020,-15526,-234
0.292000,-59.560776,-113.924750,587.841342,-17.430908,-186.767578,-254.116021,-42.129868,140.191271,18.399414,-26.965397,-26.965397,-8.565983,-0.160200,-0.267275,-0.267275,-0.275544,-15866,-224
0.294000,-59.759177,-84.427000,589.799479,-17.787964,-178.527832,-246.557202,-41.971213,162.130202,18.461635,-26.471729,-26.471729,-8.010094,-0.160200,-0.260326,-0.260326,-0.262728,-16191,-206
0.296000,-59.898484,-54.846000,591.174389,-18.146118,-179.077148,-239.809196,-41.752366,184.963196,18.505328,-25.920433,-25.920433,-7.415105,-0.160200,-0.252889,-0.252889,-0.260592,-16517,-227
0.298000,-59.978561,-25.210750,591.964713,-18.451538,-152.709961,-231.099273,-41.527023,205.888523,18.530446,-25.397899,-25.397899,-6.867453,-0.160200,-0.246043,-0.246043,-0.248844,-16795,-181
0.300000,-59.999327,4.449500,592.169669,-18.729492,-138.977051,-221.887051,-41.269835,226.336551,18.536960,-24.861462,-24.861462,-6.324502,0.160200,0.081144,0.081144,-0.245640,-17048,-196
0.302000,-59.960763,34.105250,591.789055,-18.982178,-126.342773,-212.332623,-40.978585,246.437873,18.524863,-24.307297,-24.307297,-5.782434,0.160200,0.087920,0.087920,0.081168,-17278,-110
0.304000,-59.862906,63.727250,590.823247,-19.088745,-53.283691,-196.427730,-40.774161,260.154980,18.494169,-23.925173,-23.925173,-5.431005,0.160200,0.092312,0.092312,0.087576,-17375,18
0.306000,-59.705854,93.286250,589.273200,-19.053589,17.578125,-175.027144,-40.652265,268.313394,18.444911,-23.697683,-23.697683,-5.252772,0.160200,0.094540,0.094540,0.093984,-17343,43
0.308000,-59.489761,122.753250,587.140446,-18.989868,31.860352,-154.338395,-40.499893,277.091645,18.377145,-23.438098,-23.438098,-5.060952,0.160200,0.096938,0.096938,0.092916,-17285,39
0.310000,-59.214841,152.098750,584.427095,-18.929443,30.212402,-135.883315,-40.285398,287.982065,18.290946,-23.098278,-23.098278,-4.807332,0.160200,0.100108,0.100108,0.096120,-17230,35
0.312000,-58.881366,181.293750,581.135831,-18.875610,26.916504,-119.603333,-40.005756,300.897083,18.186410,-22.677641,-22.677641,-4.491232,0.160200,0.104060,0.104060,0.100392,-17181,34
0.314000,-58.489666,210.309500,577.269906,-18.830566,22.521973,-105.390803,-39.659100,315.700303,18.063652,-22.177265,-22.177265,-4.113613,0.160200,0.108780,0.108780,0.098256,-17140,35
0.316000,-58.040128,239.117250,572.833145,-18.777832,26.367188,-92.215004,-39.262296,331.332254,17.922808,-21.627415,-21.627415,-3.704607,0.160200,0.113892,0.113892,0.108936,-17092,38
0.318000,-57.533197,267.688500,567.829934,-18.725098,26.367188,-80.356784,-38.808099,348.045284,17.764034,-21.018628,-21.018628,-3.254594,0.160200,0.119518,0.119518,0.113208,-17044,37
0.320000,-56.969374,295.995250,562.265222,-18.677856,23.620605,-69.959045,-38.291518,365.954295,17.587506,-20.345415,-20.345415,-2.757909,0.160200,0.125726,0.125726,0.117480,-17001,41
0.322000,-56.349216,324.009250,556.144510,-18.616333,30.761719,-59.886969,-37.732883,383.896219,17.393418,-19.642269,-19.642269,-2.248851,0.160200,0.132089,0.132089,0.124956,-16945,45
0.324000,-55.673337,351.702750,549.473852,-18.559204,28.564453,-51.041827,-37.114133,402.744577,17.181983,-18.881334,-18.881334,-1.699351,0.160200,0.138958,0.138958,0.130296,-16893,48
0.326000,-54.942405,379.048500,542.259843,-18.468018,45.593262,-41.378318,-36.474387,420.426818,16.953433,-18.126094,-18.126094,-1.172661,0.160200,0.145542,0.145542,0.136704,-16810,57
0.328000,-54.157143,406.019250,534.509617,-18.392212,37.902832,-33.450203,-35.764931,439.469453,16.708018,-17.298443,-17.298443,-0.590425,0.160200,0.152820,0.152820,0.144180,-16741,55
0.330000,-53.318328,432.588750,526.230838,-18.295532,48.339844,-25.271198,-35.022796,457.859948,16.446005,-16.459360,-16.459360,-0.013355,0.160200,0.160033,0.160033,0.152724,-16653,77
0.332000,-52.426788,458.730500,517.431693,-18.193359,51.086426,-17.635436,-34.233429,476.365936,16.167680,-15.585288,-15.585288,0.582392,0.160200,0.167480,0.167480,0.162336,-16560,78
0.334000,-51.483406,484.418500,508.120883,-18.086792,53.283691,-10.543523,-33.396614,494.962023,15.873343,-14.676518,-14.676518,1.196825,0.160200,0.175160,0.175160,0.168744,-16463,88
0.336000,-50.489114,509.627750,498.307614,-17.952759,67.016602,-2.787511,-32.536355,512.415261,15.563313,-13.771328,-13.771328,1.791985,0.160200,0.182600,0.182600,0.174084,-16341,90
0.338000,-49.444895,534.332750,488.001591,-17.795654,78.552246,5.346465,-31.649241,528.986285,15.237922,-12.862786,-12.862786,2.375136,0.160200,0.189889,0.189889,0.185832,-16198,105
0.340000,-48.351783,558.509250,477.213005,-17.661621,67.016602,11.513479,-30.690162,546.995771,14.897520,-11.878898,-11.878898,3.018622,0.160200,0.197933,0.197933,0.190104,-16076,95
0.342000,-47.210858,582.133750,465.952524,-17.492432,84.594727,18.821603,-29.718426,563.312147,14.542468,-10.915724,-10.915724,3.626744,0.160200,0.205534,0.205534,0.196512,-15922,101
0.344000,-46.023248,605.182500,454.231283,-17.335327,78.552246,24.794668,-28.687921,580.387832,14.173145,-9.898268,-9.898268,4.274877,0.160200,0.213636,0.213636,0.203988,-15779,124
0.346000,-44.790128,627.633000,442.060872,-17.176025,79.650879,30.280289,-27.614103,597.352711,13.789940,-8.852509,-8.852509,4.937431,0.160200,0.221918,0.221918,0.213600,-15634,127
0.348000,-43.512716,649.462750,429.453327,-17.022217,76.904297,34.942690,-26.490499,614.520060,13.393256,-7.768459,-7.768459,5.624798,0.160200,0.230510,0.230510,0.222144,-15494,125
0.350000,-42.192277,670.650000,416.421115,-16.845337,88.439941,40.292415,-25.346940,630.357585,12.983509,-6.693687,-6.693687,6.289822,0.160200,0.238823,0.238823,0.229620,-15333,118
0.352000,-40.830116,691.174250,402.977123,-16.664062,90.637207,45.326894,-24.166053,645.847356,12.561125,-5.598925,-5.598925,6.962200,0.160200,0.247227,0.247227,0.242436,-15168,158
0.354000,-39.427580,711.015250,389.134644,-16.435547,114.257812,52.219986,-22.992033,658.795264,12.126541,-4.553321,-4.553321,7.573220,0.160200,0.254865,0.254865,0.245640,-14960,154
0.356000,-37.986055,730.153000,374.907367,-16.207031,114.257812,58.423769,-21.779024,671.729231,11.680205,-3.480740,-3.480740,8.199464,0.160200,0.262693,0.262693,0.256320,-14752,185
0.358000,-36.506968,748.568500,360.309360,-15.998291,104.370117,63.018403,-20.508677,685.550097,11.222573,-2.352651,-2.352651,8.869922,0.160200,0.271074,0.271074,0.262728,-14562,193
0.360000,-34.991781,766.244000,345.355060,-15.717041,140.625000,70.779063,-19.274740,695.464937,10.754114,-1.318154,-1.318154,9.435960,0.160200,0.278149,0.278149,0.271272,-14306,183
0.362000,-33.441992,783.162000,330.059253,-15.477539,119.750977,75.676254,-17.964453,707.485746,10.275300,-0.193598,-0.193598,10.081701,0.160200,0.286221,0.286221,0.279816,-14088,215
0.364000,-31.859133,799.305250,314.437066,-15.156738,160.400391,84.148668,-16.702395,715.156582,9.786613,0.821366,0.821366,10.607979,0.160200,0.292800,0.292800,0.286224,-13796,230
0.366000,-30.244771,814.658000,298.503945,-14.869995,143.371582,90.070959,-15.374776,724.587041,9.288545,1.912811,1.912811,11.201356,0.160200,0.300217,0.300217,0.292632,-13535,237
0.368000,-28.600501,829.205500,282.275647,-14.601929,134.033203,94.467184,-13.998572,734.738316,8.781589,3.050756,3.050756,11.832345,0.160200,0.308104,0.308104,0.297972,-13291,208
0.370000,-26.927949,842.933000,265.768219,-14.276733,162.597656,101.280231,-12.651216,741.652769,8.266249,4.112068,4.112068,12.378318,0.160200,0.314929,0.314929,0.305448,-12995,211
0.372000,-25.228769,855.827000,248.997985,-13.948242,164.245605,107.576768,-11.280527,748.250232,7.743033,5.184137,5.184137,12.927169,0.160200,0.321790,0.321790,0.310788,-12696,270
0.374000,-23.504641,867.874500,231.981527,-13.593384,177.429199,114.562012,-9.911257,753.312488,7.212451,6.228420,6.228420,13.440872,0.160200,0.328211,0.328211,0.323604,-12373,265
0.376000,-21.757271,879.063750,214.735673,-13.211060,191.162109,122.222021,-8.546211,756.841729,6.675022,7.242999,7.242999,13.918021,0.160200,0.334175,0.334175,0.326808,-12025,276
0.378000,-19.988386,889.384000,197.277477,-12.780396,215.332031,131.533022,-7.207990,757.850978,6.131268,8.194868,8.194868,14.326136,0.160200,0.339277,0.339277,0.338556,-11633,308
0.380000,-18.199735,898.824500,179.624202,-12.416748,181.823730,136.562093,-5.782987,762.262407,5.581711,9.266702,9.266702,14.848413,0.160200,0.345805,0.345805,0.340692,-11302,280
0.382000,-16.393088,907.376250,161.793304,-12.038818,188.964844,141.802368,-4.354270,765.573882,5.026881,10.321931,10.321931,15.348813,0.160200,0.352060,0.352060,0.344964,-10958,313
0.384000,-14.570230,915.031000,143.802416,-11.568604,235.107422,151.132874,-3.001626,763.898126,4.467309,11.237007,11.237007,15.704316,0.160200,0.356504,0.356504,0.354576,-10530,304
0.386000,-12.732964,921.780750,125.669328,-11.119263,224.670410,158.486627,-1.613701,763.294123,3.903527,12.195420,12.195420,16.098947,0.160200,0.361437,0.361437,0.354576,-10121,340
0.388000,-10.883107,927.618750,107.411971,-10.613892,252.685547,167.906519,-0.269215,759.712231,3.336071,13.071532,13.071532,16.407603,0.160200,0.365295,0.365295,0.363120,-9661,350
0.390000,-9.022489,932.539750,89.048399,-10.135986,238.952637,175.011131,1.113497,757.528619,2.765479,13.998736,13.998736,16.764215,0.160200,0.369753,0.369753,0.363120,-9226,333
0.392000,-7.152948,936.538750,70.596771,-9.633911,251.037598,182.613778,2.480963,753.924972,2.192288,14.890512,14.890512,17.082800,0.160200,0.373735,0.373735,0.368460,-8769,326
0.394000,-5.276334,939.611250,52.075334,-9.158203,237.854004,188.137800,3.881869,751.473450,1.617039,15.825742,15.825742,17.442781,0.160200,0.378235,0.378235,0.373800,-8336,380
0.396000,-3.394503,941.754750,33.502401,-8.602295,277.954102,197.119430,5.207792,744.635320,1.040273,16.632063,16.632063,17.672336,0.160200,0.381104,0.381104,0.380208,-7830,380
0.398000,-1.509315,942.967250,14.896339,-8.044189,279.052734,205.312761,6.534874,737.654489,0.462532,17.436703,17.436703,17.899234,0.160200,0.383940,0.383940,0.380208,-7322,397
0.400000,0.377366,943.247000,-3.724453,-7.568481,237.854004,208.566885,7.945847,734.680115,-0.115644,18.369835,18.369835,18.254191,0.160200,0.388377,0.388377,0.379140,-6889,391
0.402000,2.263673,942.594000,-22.341562,-6.992798,287.841797,216.494376,9.256471,726.099624,-0.693711,19.135065,19.135065,18.441354,0.160200,0.390717,0.390717,0.390888,-6365,400
0.404000,4.147742,941.009250,-40.936579,-6.400635,296.081543,224.453093,10.548377,716.556157,-1.271127,19.870420,19.870420,18.599293,0.160200,0.392691,0.392691,0.397296,-5826,414
0.406000,6.027710,938.493750,-59.491115,-5.765625,317.504883,233.758272,11.793335,704.735478,-1.847351,20.533255,20.533255,18.685904,0.160200,0.393774,0.393774,0.390888,-5248,415
0.408000,7.901717,935.050000,-77.986823,-5.113037,326.293945,243.011839,13.014754,692.038161,-2.421842,21.164357,21.164357,18.742515,0.160200,0.394481,0.394481,0.393024,-4654,422
0.410000,9.767910,930.681750,-96.405414,-4.485718,313.659668,250.076622,14.253628,680.605128,-2.994058,21.829710,21.829710,18.835652,0.160200,0.395646,0.395646,0.398364,-4083,425
0.412000,11.624444,925.393250,-114.728673,-3.962769,261.474609,251.216421,15.587213,674.176829,-3.563460,22.648533,22.648533,19.085072,0.160200,0.398763,0.398763,0.397296,-3607,403
0.414000,13.469483,919.189750,-132.938482,-3.399170,281.799316,254.274710,16.868653,664.915040,-4.129511,23.381498,23.381498,19.251987,0.160200,0.400850,0.400850,0.397296,-3094,438
0.416000,15.301203,912.077500,-151.016834,-2.796021,301.574707,259.004710,18.097224,653.072790,-4.691673,24.032516,24.032516,19.340843,0.160200,0.401961,0.401961,0.398364,-2545,425
0.418000,17.117793,904.063000,-168.945853,-2.161011,317.504883,264.854727,19.278804,639.208273,-5.249412,24.615433,24.615433,19.366021,0.160200,0.402275,0.402275,0.399432,-1967,419
0.420000,18.917455,895.154250,-186.707808,-1.623779,268.615723,265.230827,20.541234,629.923423,-5.802196,25.334725,25.334725,19.532528,0.160200,0.404357,0.404357,0.400500,-1478,443
0.422000,20.698410,885.360750,-204.285136,-0.983276,320.251465,270.732891,21.681686,614.627859,-6.349495,25.863952,25.863952,19.514457,0.160200,0.404131,0.404131,0.403704,-895,420
0.424000,22.458898,874.691750,-221.660456,-0.403198,290.039062,272.663508,22.862096,602.028242,-6.890782,26.468129,26.468129,19.577347,0.160200,0.404917,0.404917,0.405840,-367,420
0.426000,24.197177,863.157750,-238.816585,0.213135,308.166504,276.213807,23.984042,586.943943,-7.425534,26.988125,26.988125,19.562590,0.160200,0.404732,0.404732,0.401568,194,434
0.428000,25.911529,850.770250,-255.736559,0.844849,315.856934,280.178120,25.066680,570.592130,-7.953232,27.458556,27.458556,19.505324,0.160200,0.404017,0.404017,0.407976,769,428
0.430000,27.600258,837.541250,-272.403647,1.478760,316.955566,283.855865,26.121498,553.685385,-8.473359,27.899879,27.899879,19.426520,0.160200,0.403031,0.403031,0.406908,1346,461
0.432000,29.261694,823.484250,-288.801367,2.034668,277.954102,283.265688,27.227026,540.218562,-8.985406,28.436643,28.436643,19.451237,0.160200,0.403340,0.403340,0.400500,1852,455
0.434000,30.894195,808.613000,-304.913503,2.566406,265.869141,281.526034,28.327789,527.086966,-9.488866,28.975930,28.975930,19.487064,0.160200,0.403788,0.403788,0.398364,2336,441
0.436000,32.496146,792.941750,-320.724125,3.138794,286.193848,281.992815,29.357352,510.948935,-9.983241,29.413039,29.413039,19.429798,0.160200,0.403072,0.403072,0.407976,2857,434
0.438000,34.065962,776.486750,-336.217596,3.737549,299.377441,283.731278,30.328413,492.755472,-10.468037,29.773432,29.773432,19.305395,0.160200,0.401517,0.401517,0.401568,3402,431
0.440000,35.602093,759.264000,-351.378597,4.297852,280.151367,283.373287,31.304241,475.890713,-10.942767,30.160343,30.160343,19.217576,0.160200,0.400420,0.400420,0.397296,3912,437
0.442000,37.103018,741.290000,-366.192135,4.887817,294.982910,284.534249,32.215201,456.755751,-11.406952,30.462345,30.462345,19.055393,0.160200,0.398392,0.398392,0.405840,4449,460
0.444000,38.567253,722.583250,-380.643561,5.474487,293.334961,285.414320,33.092766,437.168930,-11.860120,30.733146,30.733146,18.873026,0.160200,0.396113,0.396113,0.402636,4983,455
0.446000,39.993351,703.162250,-394.718586,6.123779,324.645996,289.337488,33.869572,413.824762,-12.301810,30.868026,30.868026,18.566217,0.160200,0.392278,0.392278,0.397296,5574,423
0.448000,41.379902,683.045750,-408.403291,6.732422,304.321289,290.835868,34.647480,392.209882,-12.731567,31.033858,31.033858,18.302291,0.160200,0.388979,0.388979,0.391956,6128,448
0.450000,42.725534,662.253500,-421.684145,7.309204,288.391113,290.591392,35.416330,371.662108,-13.148949,31.211990,31.211990,18.063041,0.160200,0.385988,0.385988,0.393024,6653,415
0.452000,44.028916,640.806500,-434.548013,7.904663,297.729492,291.305202,36.124253,349.501298,-13.553521,31.319435,31.319435,17.765913,0.160200,0.382274,0.382274,0.383412,7195,442
0.454000,45.288760,618.726000,-446.982176,8.442993,269.165039,289.091186,36.845767,329.634814,-13.944862,31.476411,31.476411,17.531548,0.160200,0.379344,0.379344,0.381276,7685,401
0.456000,46.503820,596.033500,-458.974338,8.951660,254.333496,285.615417,37.552160,310.418083,-14.322562,31.634171,31.634171,17.311609,0.160200,0.376595,0.376595,0.378072,8148,407
0.458000,47.672894,572.751750,-470.512641,9.517456,282.897949,285.343670,38.155438,287.408080,-14.686223,31.653738,31.653738,16.967515,0.160200,0.372294,0.372294,0.379140,8663,417
0.460000,48.794827,548.903750,-481.585675,10.111816,297.180176,286.527321,38.683011,262.376429,-15.035459,31.585169,31.585169,16.549709,0.160200,0.367071,0.367071,0.374868,9204,425
0.462000,49.868509,524.512750,-492.182489,10.601807,244.995117,282.374100,39.266702,242.138650,-15.369900,31.639446,31.639446,16.269547,0.160200,0.363569,0.363569,0.367392,9650,424
0.464000,50.892878,499.603000,-502.292607,11.171997,285.095215,282.646212,39.720881,216.956788,-15.689187,31.517016,31.517016,15.827829,0.160200,0.358048,0.358048,0.359916,10169,420
0.466000,51.866921,474.199250,-511.906029,11.710327,269.165039,281.298095,40.156594,192.901155,-15.992979,31.401351,31.401351,15.408372,0.160200,0.352805,0.352805,0.356712,10659,398
0.468000,52.789675,448.326750,-521.013250,12.223389,256.530762,278.821361,40.566286,169.505389,-16.280949,31.279038,31.279038,14.998089,0.160200,0.347676,0.347676,0.351372,11126,361
0.470000,53.660228,422.011000,-529.605264,12.749634,263.122559,277.251481,40.910594,144.759519,-16.552784,31.087513,31.087513,14.534729,0.160200,0.341884,0.341884,0.344964,11605,362
0.472000,54.477719,395.277750,-537.673575,13.290161,270.263672,276.552700,41.187558,118.725050,-16.808191,30.826483,30.826483,14.018292,0.160200,0.335429,0.335429,0.340692,12097,372
0.474000,55.241339,368.153750,-545.210204,13.852661,281.250000,277.022430,41.388678,91.131320,-17.046891,30.485290,30.485290,13.438398,0.160200,0.328180,0.328180,0.335352,12609,371
0.476000,55.950334,340.665500,-552.207699,14.293213,220.275879,271.347775,41.657121,69.317725,-17.268624,30.291979,30.291979,13.023355,0.160200,0.322992,0.322992,0.328944,13010,367
0.478000,56.604001,312.840500,-558.659140,14.712891,209.838867,265.196884,41.891110,47.643616,-17.473147,30.077050,30.077050,12.603903,0.160200,0.317749,0.317749,0.320400,13392,366
0.480000,57.201696,284.706250,-564.558147,15.210571,248.840332,263.561229,41.991125,21.145021,-17.660236,29.684386,29.684386,12.024150,0.160200,0.310502,0.310502,0.320400,13845,316
0.482000,57.742826,256.290250,-569.898888,15.615967,202.697754,257.474881,42.126859,-1.184631,-17.829685,29.389420,29.389420,11.559736,0.160200,0.304697,0.304697,0.310788,14214,344
0.484000,58.226857,227.620750,-574.676082,16.046631,215.332031,253.260596,42.180226,-25.639846,-17.981306,28.999853,28.999853,11.018547,0.160200,0.297932,0.297932,0.302244,14606,301
0.486000,58.653309,198.726500,-578.885003,16.414673,184.020996,246.336636,42.238636,-47.610136,-18.114933,28.657177,28.657177,10.542244,0.160200,0.291978,0.291978,0.296904,14941,319
0.488000,59.021763,169.635750,-582.521491,16.794800,190.063477,240.709320,42.226963,-71.073570,-18.230418,28.239514,28.239514,10.009096,0.160200,0.285314,0.285314,0.293700,15287,306
0.490000,59.331852,140.376750,-585.581948,17.135376,170.288086,233.667197,42.196476,-93.290447,-18.327632,27.830472,27.830472,9.502840,0.160200,0.278986,0.278986,0.286224,15597,288
0.492000,59.583270,110.979500,-588.063350,17.513306,188.964844,229.196962,42.069964,-118.217462,-18.406468,27.307092,27.307092,8.900624,0.160200,0.271458,0.271458,0.278748,15941,292
0.494000,59.775770,81.472250,-589.963242,17.886841,186.767578,224.954023,41.888929,-143.481773,-18.466839,26.739760,26.739760,8.272921,0.160200,0.263612,0.263612,0.273408,16281,272
0.496000,59.909159,51.884250,-591.279745,18.298828,205.993652,223.057986,41.610331,-171.173736,-18.508676,26.061946,26.061946,7.553270,0.160200,0.254616,0.254616,0.260592,16656,234
0.498000,59.983307,22.245500,-592.011558,18.597656,149.414062,215.693594,41.385651,-193.448094,-18.531934,25.516329,25.516329,6.984394,0.160200,0.247505,0.247505,0.255252,16928,246
0.500000,59.998141,-7.415500,-592.157957,18.877808,140.075684,208.131803,41.120333,-215.547303,-18.536587,24.945398,24.945398,6.408811,-0.160200,-0.080090,-0.080090,0.249912,17183,247
0.502000,59.953645,-37.069500,-591.718797,19.192017,157.104492,203.029072,40.761628,-240.098572,-18.522630,24.266474,24.266474,5.743844,-0.160200,-0.088402,-0.088402,-0.075828,17469,160
0.504000,59.849863,-66.686750,-590.694512,19.341431,74.707031,190.196868,40.508432,-256.883618,-18.490077,23.796756,23.796756,5.306678,-0.160200,-0.093867,-0.093867,-0.086508,17605,18
0.506000,59.686898,-96.237750,-589.086116,19.338135,-1.647949,171.012386,40.348763,-267.250136,-18.438966,23.504356,23.504356,5.065390,-0.160200,-0.096883,-0.096883,-0.093984,17602,-40
0.508000,59.464912,-125.693750,-586.895198,19.277710,-30.212402,150.889907,40.187202,-276.583657,-18.369353,23.228664,23.228664,4.859311,-0.160200,-0.099459,-0.099459,-0.099324,17547,-55
0.510000,59.184123,-155.025500,-584.123926,19.212891,-32.409668,132.559950,39.971232,-287.585450,-18.281316,22.885871,22.885871,4.604556,-0.160200,-0.102643,-0.102643,-0.098256,17488,-47
0.512000,58.844810,-184.203750,-580.775039,19.149170,-31.860352,116.117920,39.695640,-300.321670,-18.174952,22.471183,22.471183,4.296231,-0.160200,-0.106497,-0.106497,-0.101460,17430,-58
0.514000,58.447308,-213.200000,-576.851850,19.078857,-35.156250,100.990503,39.368451,-314.190503,-18.050379,22.000705,22.000705,3.950326,-0.160200,-0.110821,-0.110821,-0.103596,17366,-58
0.516000,57.992010,-241.985500,-572.358237,19.014038,-32.409668,87.650486,38.977972,-329.635986,-17.907735,21.458525,21.458525,3.550790,-0.160200,-0.115815,-0.115815,-0.108936,17307,-59
0.518000,57.479366,-270.531750,-567.298644,18.944824,-34.606934,75.424744,38.534542,-345.956494,-17.747177,20.864105,20.864105,3.116928,-0.160200,-0.121238,-0.121238,-0.115344,17244,-50
0.520000,56.909883,-298.810250,-561.678075,18.882202,-31.311035,64.751166,38.027681,-363.561416,-17.568884,20.202986,20.202986,2.634102,-0.160200,-0.127274,-0.127274,-0.121752,17187,-52
0.522000,56.284125,-326.793250,-555.502087,18.817383,-32.409668,55.035082,37.466742,-381.828332,-17.373051,19.492559,19.492559,2.119507,-0.160200,-0.133706,-0.133706,-0.127092,17128,-60
0.524000,55.602710,-354.453500,-548.776788,18.738281,-39.550781,45.576496,36.864429,-400.029996,-17.159894,18.754386,18.754386,1.594492,-0.160200,-0.140269,-0.140269,-0.134568,17056,-59
0.526000,54.866311,-381.763000,-541.508828,18.664673,-36.804199,37.338426,36.201638,-419.101426,-16.929646,17.958811,17.958811,1.029165,-0.160200,-0.147335,-0.147335,-0.143112,16989,-70
0.528000,54.075658,-408.694750,-533.705393,18.585571,-39.550781,29.649506,35.490087,-438.344256,-16.682559,17.126204,17.126204,0.443645,-0.160200,-0.154654,-0.154654,-0.147384,16917,-66
0.530000,53.231532,-435.222750,-525.374201,18.500977,-42.297363,22.454819,34.730555,-457.677569,-16.418902,16.258521,16.258521,-0.160381,-0.160200,-0.162205,-0.162205,-0.152724,16840,-74
0.532000,52.334767,-461.320250,-516.523489,18.408691,-46.142578,15.595079,33.926076,-476.915329,-16.138961,15.361126,15.361126,-0.777835,-0.160200,-0.169923,-0.169923,-0.166608,16756,-81
0.534000,51.386251,-486.961250,-507.162010,18.282349,-63.171387,7.718433,33.103902,-494.679683,-15.843041,14.477094,14.477094,-1.365946,-0.160200,-0.177274,-0.177274,-0.168744,16641,-90
0.536000,50.386922,-512.121000,-497.299021,18.165894,-58.227539,1.123835,32.221028,-513.244835,-15.531459,13.536709,13.536709,-1.994750,-0.160200,-0.185134,-0.185134,-0.178356,16535,-91
0.538000,49.337767,-536.774500,-486.944275,18.049438,-58.227539,-4.811302,31.288329,-531.963198,-15.204552,12.558865,12.558865,-2.645687,-0.160200,-0.193271,-0.193271,-0.185832,16429,-98
0.540000,48.239824,-560.897000,-476.108012,17.906616,-71.411133,-11.471285,30.333208,-549.425715,-14.862668,11.587286,11.587286,-3.275381,-0.160200,-0.201142,-0.201142,-0.200784,16299,-106
0.542000,47.094179,-584.465000,-464.800946,17.740723,-82.946777,-18.618834,29.353456,-565.846166,-14.506172,10.616700,10.616700,-3.889472,-0.160200,-0.208818,-0.208818,-0.199716,16148,-132
0.544000,45.901964,-607.455000,-453.034259,17.575928,-82.397461,-24.996697,28.326036,-582.458303,-14.135443,9.609489,9.609489,-4.525954,-0.160200,-0.216774,-0.216774,-0.208260,15998,-131
0.546000,44.664359,-629.844250,-440.819586,17.418823,-78.552246,-30.352252,27.245536,-599.491998,-13.750872,8.557863,8.557863,-5.193008,-0.160200,-0.225113,-0.225113,-0.217872,15855,-150
0.548000,43.382587,-651.610500,-428.169007,17.228760,-95.031738,-36.820201,26.153827,-614.790299,-13.352863,7.528701,7.528701,-5.824162,-0.160200,-0.233002,-0.233002,-0.225348,15682,-136
0.550000,42.057917,-672.732500,-415.095030,17.025513,-101.623535,-43.300534,25.032404,-629.431966,-12.941832,6.490255,6.490255,-6.451577,-0.160200,-0.240845,-0.240845,-0.232824,15497,-147
0.552000,40.691657,-693.189500,-401.610584,16.781616,-121.948242,-51.165305,23.910041,-642.024195,-12.518208,5.486921,5.486921,-7.031287,-0.160200,-0.248091,-0.248091,-0.244572,15275,-165
0.554000,39.285159,-712.961000,-387.729003,16.545410,-118.103027,-57.859077,22.739749,-655.101923,-12.082428,4.441654,4.441654,-7.640774,-0.160200,-0.255710,-0.255710,-0.249912,15060,-181
0.556000,37.839813,-732.027250,-373.464013,16.265259,-140.075684,-66.080738,21.574554,-665.946512,-11.634942,3.438921,3.438921,-8.196021,-0.160200,-0.262650,-0.262650,-0.256320,14805,-185
0.558000,36.357050,-750.369750,-358.829722,15.981812,-141.723633,-73.645027,20.375238,-676.724723,-11.176207,2.413525,2.413525,-8.762682,-0.160200,-0.269734,-0.269734,-0.262728,14547,-198
0.560000,34.838334,-767.970500,-343.840600,15.692871,-144.470215,-80.727546,19.145463,-687.242954,-10.706690,1.371402,1.371402,-9.335288,-0.160200,-0.276891,-0.276891,-0.270204,14284,-200
0.562000,33.285168,-784.811250,-328.511469,15.384155,-154.357910,-88.090582,17.901013,-696.720668,-10.226867,0.337195,0.337195,-9.889672,-0.160200,-0.283821,-0.283821,-0.276612,14003,-245
0.564000,31.699089,-800.876250,-312.857488,15.073242,-155.456543,-94.827178,16.625847,-706.049072,-9.737221,-0.715850,-0.715850,-10.453071,-0.160200,-0.290863,-0.290863,-0.283020,13720,-247
0.566000,30.081663,-816.149500,-296.894136,14.763428,-154.907227,-100.835183,15.318235,-715.314317,-9.238241,-1.790444,-1.790444,-11.028685,-0.160200,-0.298059,-0.298059,-0.293700,13438,-212
0.568000,28.434491,-830.615500,-280.637198,14.429443,-166.992188,-107.450884,14.005048,-723.164616,-8.730424,-2.844236,-2.844236,-11.574660,-0.160200,-0.304883,-0.304883,-0.300108,13134,-223
0.570000,26.759201,-844.260000,-264.102750,14.071289,-179.077148,-114.613510,12.687912,-729.646490,-8.214274,-3.876900,-3.876900,-12.091174,-0.160200,-0.311340,-0.311340,-0.302244,12808,-279
0.572000,25.057451,-857.069750,-247.307143,13.715332,-177.978516,-120.950011,11.342119,-736.119739,-7.690297,-4.929420,-4.929420,-12.619718,-0.160200,-0.317946,-0.317946,-0.311856,12484,-247
0.574000,23.330922,-869.032250,-230.266985,13.356079,-179.626465,-126.817656,9.974843,-742.214594,-7.159008,-5.990334,-5.990334,-13.149342,-0.160200,-0.324567,-0.324567,-0.310788,12157,-276
0.576000,21.581322,-880.135250,-212.999126,12.968262,-193.908691,-133.526760,8.613060,-746.608490,-6.620923,-7.017726,-7.017726,-13.638649,-0.160200,-0.330683,-0.330683,-0.320400,11804,-309
0.578000,19.810381,-890.367750,-195.520641,12.577148,-195.556641,-139.729748,7.233233,-750.638002,-6.076564,-8.051356,-8.051356,-14.127920,-0.160200,-0.336799,-0.336799,-0.330012,11448,-313
0.580000,18.019851,-899.719750,-177.848815,12.189331,-193.908691,-145.147642,5.830520,-754.572108,-5.526457,-9.099297,-9.099297,-14.625754,-0.160200,-0.343022,-0.343022,-0.337488,11095,-308
0.582000,16.211502,-908.182250,-160.001122,11.699341,-244.995117,-155.132390,4.512161,-753.049860,-4.971129,-9.993117,-9.993117,-14.964245,-0.160200,-0.347253,-0.347253,-0.342828,10649,-329
0.584000,14.387122,-915.746750,-141.995211,11.299438,-199.951172,-159.614268,3.087684,-756.132482,-4.411111,-11.041392,-11.041392,-15.452503,-0.160200,-0.353356,-0.353356,-0.341760,10285,-320
0.586000,12.548515,-922.405750,-123.848887,10.846802,-226.318359,-166.284677,1.701713,-756.121073,-3.846938,-12.008782,-12.008782,-15.855720,-0.160200,-0.358397,-0.358397,-0.351372,9873,-322
0.588000,10.697499,-928.152250,-105.580095,10.415039,-215.881348,-171.244344,0.282460,-756.907906,-3.279144,-13.013341,-13.013341,-16.292485,-0.160200,-0.363856,-0.363856,-0.359916,9480,-352
0.590000,8.835906,-932.981250,-87.206899,9.970093,-222.473145,-176.367224,-1.134187,-756.614026,-2.708268,-13.997218,-13.997218,-16.705485,-0.160200,-0.369019,-0.369019,-0.364188,9075,-383
0.592000,6.965574,-936.887750,-68.747467,9.513062,-228.515625,-181.582064,-2.547488,-755.305686,-2.134847,-14.961053,-14.961053,-17.095900,-0.160200,-0.373899,-0.373899,-0.371664,8659,-367
0.594000,5.088355,-939.867500,-50.220055,9.054932,-229.064941,-186.330352,-3.966577,-753.537148,-1.559422,-15.920897,-15.920897,-17.480319,-0.160200,-0.378704,-0.378704,-0.372732,8242,-370
0.596000,3.206104,-941.918000,-31.642982,8.542969,-255.981445,-193.295461,-5.336865,-748.622539,-0.982534,-16.791763,-16.791763,-17.774297,-0.160200,-0.382379,-0.382379,-0.379140,7776,-408
0.598000,1.320683,-943.037000,-13.034619,7.994751,-274.108887,-201.376804,-6.674068,-741.660196,-0.404725,-17.603791,-17.603791,-18.008516,-0.160200,-0.385306,-0.385306,-0.382344,7277,-400
0.600000,-0.566044,-943.223750,5.586634,7.416870,-288.940430,-210.133166,-7.982914,-733.090584,0.173464,-18.367970,-18.367970,-18.194505,-0.160200,-0.387631,-0.387631,-0.388752,6751,-391
0.602000,-2.452212,-942.477500,24.202362,6.889526,-263.671875,-215.487037,-9.341738,-726.990463,0.751491,-19.210141,-19.210141,-18.458650,-0.160200,-0.390933,-0.390933,-0.387684,6271,-402
0.604000,-4.335954,-940.799250,42.794157,6.265503,-312.011719,-225.139505,-10.601457,-715.659745,1.328812,-19.891832,-19.891832,-18.563020,-0.160200,-0.392238,-0.392238,-0.391956,5703,-433
0.606000,-6.215409,-938.191000,61.343636,5.490967,-387.268066,-241.352362,-11.706376,-696.838638,1.904887,-20.334721,-20.334721,-18.429833,-0.160200,-0.390573,-0.390573,-0.395160,4998,-451
0.608000,-8.088718,-934.654750,79.832454,4.705444,-392.761230,-256.493248,-12.794162,-678.161502,2.479175,-20.768161,-20.768161,-18.288987,-0.160200,-0.388812,-0.388812,-0.389820,4283,-421
0.610000,-9.954028,-930.194250,98.242329,4.060547,-322.448730,-263.088797,-14.014575,-667.105453,3.051133,-21.427206,-21.427206,-18.376072,-0.160200,-0.389901,-0.389901,-0.385548,3696,-409
0.612000,-11.809495,-924.814250,116.555057,3.480469,-290.039062,-265.783823,-15.289964,-659.030427,3.620225,-22.176659,-22.176659,-18.556434,-0.160200,-0.392155,-0.392155,-0.387684,3168,-427
0.614000,-13.653285,-918.519500,134.752529,2.807007,-336.730957,-272.878537,-16.460292,-645.640963,4.185911,-22.760012,-22.760012,-18.574101,-0.160200,-0.392376,-0.392376,-0.394092,2555,-419
0.616000,-15.483573,-911.316250,152.816750,2.180786,-313.110352,-276.901718,-17.664359,-634.414532,4.747655,-23.404671,-23.404671,-18.657017,-0.160200,-0.393413,-0.393413,-0.389820,1985,-444
0.618000,-17.298550,-903.212000,170.729857,1.634766,-273.010254,-276.512572,-18.933316,-626.699428,5.304922,-24.155916,-24.155916,-18.850994,-0.160200,-0.395837,-0.395837,-0.395160,1488,-414
0.620000,-19.096421,-894.214750,188.474137,1.101929,-266.418457,-275.503160,-20.198350,-618.711590,5.857182,-24.899663,-24.899663,-19.042481,-0.160200,-0.398231,-0.398231,-0.396228,1003,-429
0.622000,-20.875409,-884.333250,206.032044,0.500977,-300.476074,-278.000452,-21.376386,-606.332798,6.403903,-25.506036,-25.506036,-19.102133,-0.160200,-0.398977,-0.398977,-0.396228,456,-438
0.624000,-22.633754,-873.577000,223.386214,-0.131836,-316.406250,-281.841031,-22.501918,-591.735969,6.944560,-26.037043,-26.037043,-19.092483,-0.160200,-0.398856,-0.398856,-0.401568,-120,-434
0.626000,-24.369717,-861.957250,240.519488,-0.838257,-353.210449,-288.977973,-23.531460,-572.979277,7.478630,-26.428433,-26.428433,-18.949803,-0.160200,-0.397073,-0.397073,-0.396228,-763,-454
0.628000,-26.081583,-849.485000,257.414922,-1.483154,-322.448730,-292.325049,-24.598429,-557.159951,8.005594,-26.897218,-26.897218,-18.891625,-0.160200,-0.396345,-0.396345,-0.398364,-1350,-452
0.630000,-27.767657,-836.172500,274.055810,-2.162109,-339.477539,-297.040298,-25.605548,-539.132202,8.524936,-27.285677,-27.285677,-18.760741,-0.160200,-0.394709,-0.394709,-0.394092,-1968,-443
0.632000,-29.426273,-822.033500,290.425697,-2.730103,-283.996582,-295.735926,-26.696170,-526.297574,9.036147,-27.823068,-27.823068,-18.786922,-0.160200,-0.395037,-0.395037,-0.382344,-2485,-445
0.634000,-31.055791,-807.081500,306.508394,-3.364014,-316.955566,-297.857890,-27.691777,-509.223610,9.538721,-28.220136,-28.220136,-18.681415,-0.160200,-0.393718,-0.393718,-0.391956,-3062,-459
0.636000,-32.654599,-791.331500,322.287999,-4.012207,-324.096680,-300.481769,-28.642392,-490.849731,10.032160,-28.563106,-28.563106,-18.530946,-0.160200,-0.391837,-0.391837,-0.389820,-3652,-457
0.638000,-34.221117,-774.798750,337.748907,-4.592285,-290.039062,-299.437499,-29.628832,-475.361251,10.515971,-28.981446,-28.981446,-18.465475,-0.160200,-0.391018,-0.391018,-0.393024,-4180,-428
0.640000,-35.753794,-757.500000,352.875831,-5.262451,-335.083008,-303.002050,-30.491343,-454.497950,10.989668,-29.219459,-29.219459,-18.229791,-0.160200,-0.388072,-0.388072,-0.394092,-4790,-446
0.642000,-37.251117,-739.452250,367.653811,-5.887573,-312.561035,-303.957948,-31.363544,-435.494302,11.452772,-29.496694,-29.496694,-18.043922,-0.160200,-0.385749,-0.385749,-0.387684,-5359,-424
0.644000,-38.711603,-720.673000,382.068234,-6.522583,-317.504883,-305.312642,-32.189020,-415.360358,11.904813,-29.721581,-29.721581,-17.816768,-0.160200,-0.382910,-0.382910,-0.387684,-5937,-450
0.646000,-40.133809,-701.181500,396.104847,-7.072998,-275.207520,-302.302129,-33.060811,-398.879371,12.345330,-30.042559,-30.042559,-17.697229,-0.160200,-0.381415,-0.381415,-0.385548,-6438,-445
0.648000,-41.516329,-680.996500,409.749770,-7.628906,-277.954102,-299.867327,-33.887423,-381.129173,12.773869,-30.309843,-30.309843,-17.535974,-0.160200,-0.379400,-0.379400,-0.378072,-6944,-438
0.650000,-42.857795,-660.137750,422.989509,-8.232056,-301.574707,-300.038065,-34.625739,-360.099685,13.189989,-30.458251,-30.458251,-17.268262,-0.160200,-0.376053,-0.376053,-0.379140,-7493,-439
0.652000,-44.156880,-638.626500,435.810972,-8.806641,-287.292480,-298.763506,-35.350239,-339.862994,13.593257,-30.610851,-30.610851,-17.017594,-0.160200,-0.372920,-0.372920,-0.379140,-8016,-432
0.654000,-45.412301,-616.484000,448.201482,-9.475708,-334.533691,-302.340525,-35.936593,-314.143475,13.983253,-30.571313,-30.571313,-16.588060,-0.160200,-0.367551,-0.367551,-0.375936,-8625,-413
0.656000,-46.622816,-593.731750,460.148784,-10.060181,-292.236328,-301.330105,-36.562635,-292.401645,14.359567,-30.628906,-30.628906,-16.269340,-0.160200,-0.363567,-0.363567,-0.368460,-9157,-402
0.658000,-47.787228,-570.392000,471.641066,-10.586426,-263.122559,-297.509350,-37.200802,-272.882650,14.721802,-30.733760,-30.733760,-16.011958,-0.160200,-0.360349,-0.360349,-0.363120,-9636,-394
0.660000,-48.904384,-546.488500,482.666963,-11.154419,-283.996582,-296.158074,-37.749965,-250.330426,15.069575,-30.723537,-30.723537,-15.653962,-0.160200,-0.355875,-0.355875,-0.359916,-10153,-380
0.662000,-49.973182,-522.044750,493.215571,-11.687256,-266.418457,-293.184112,-38.285926,-228.860638,15.402516,-30.722990,-30.722990,-15.320474,-0.160200,-0.351706,-0.351706,-0.356712,-10638,-382
0.664000,-50.992563,-497.084500,503.276461,-12.270630,-291.687012,-293.034402,-38.721933,-204.050098,15.720269,-30.594355,-30.594355,-14.874086,-0.160200,-0.346126,-0.346126,-0.352440,-11169,-379
0.666000,-51.961520,-471.632750,512.839683,-12.823242,-276.306152,-291.361577,-39.138278,-180.271173,16.022493,-30.469998,-30.469998,-14.447505,-0.160200,-0.340794,-0.340794,-0.347100,-11672,-360
0.668000,-52.879094,-445.714750,521.895780,-13.354980,-265.869141,-288.812333,-39.524114,-156.902417,16.308863,-30.331500,-30.331500,-14.022637,-0.160200,-0.335483,-0.335483,-0.341760,-12156,-370
0.670000,-53.744379,-419.356000,530.435797,-13.829590,-237.304688,-283.661569,-39.914789,-135.694431,16.579069,-30.234094,-30.234094,-13.655025,-0.160200,-0.330888,-0.330888,-0.332148,-12588,-379
0.672000,-54.556518,-392.582500,538.451290,-14.311890,-241.149902,-279.410402,-40.244628,-113.172098,16.832817,-30.071277,-30.071277,-13.238459,-0.160200,-0.325681,-0.325681,-0.332148,-13027,-337
0.674000,-55.314709,-365.420750,545.934333,-14.750244,-219.177246,-273.387086,-40.564465,-92.033664,17.069832,-29.925629,-29.925629,-12.855797,-0.160200,-0.320897,-0.320897,-0.327876,-13426,-348
0.676000,-56.018201,-337.897750,552.877525,-15.218262,-234.008789,-269.449257,-40.799939,-68.448493,17.289855,-29.678383,-29.678383,-12.388528,-0.160200,-0.315057,-0.315057,-0.321468,-13852,-332
0.678000,-56.666300,-310.040500,559.274000,-15.653320,-217.529297,-264.257261,-41.012980,-45.783239,17.492644,-29.431530,-29.431530,-11.938885,-0.160200,-0.309436,-0.309436,-0.316128,-14248,-322
0.680000,-57.258363,-281.876750,565.117435,-16.066406,-206.542969,-258.485832,-41.191957,-23.390918,17.677978,-29.165659,-29.165659,-11.487681,-0.160200,-0.303796,-0.303796,-0.308652,-14624,-291
0.682000,-57.793807,-253.434250,570.402050,-16.484985,-209.289551,-253.566203,-41.308822,0.131953,17.845652,-28.836695,-28.836695,-10.991043,-0.160200,-0.297588,-0.297588,-0.303312,-15005,-307
0.684000,-58.272100,-224.741000,575.122619,-16.890381,-202.697754,-248.479359,-41.381719,23.738359,17.995481,-28.475577,-28.475577,-10.480096,-0.160200,-0.291201,-0.291201,-0.301176,-15374,-278
0.686000,-58.692771,-195.825750,579.274475,-17.283691,-196.655273,-243.296950,-41.409080,47.471200,18.127300,-28.080462,-28.080462,-9.953162,-0.160200,-0.284615,-0.284615,-0.291564,-15732,-305
0.688000,-59.055403,-166.716750,582.853512,-17.690186,-203.247070,-239.291962,-41.365217,72.575212,18.240963,-27.611693,-27.611693,-9.370730,-0.160200,-0.277334,-0.277334,-0.283020,-16102,-267
0.690000,-59.359638,-137.443000,585.856191,-18.079102,-194.458008,-234.808567,-41.280536,97.365567,18.336344,-27.119901,-27.119901,-8.783557,-0.160200,-0.269994,-0.269994,-0.278748,-16456,-264
0.692000,-59.605175,-108.033250,588.279543,-18.500977,-210.937500,-232.421460,-41.104198,124.388210,18.413338,-26.525160,-26.525160,-8.111823,-0.160200,-0.261598,-0.261598,-0.273408,-16840,-227
0.694000,-59.791771,-78.516750,590.121171,-18.820679,-159.851074,-225.164421,-40.971092,146.647671,18.471857,-26.043734,-26.043734,-7.571876,-0.160200,-0.254848,-0.254848,-0.259524,-17131,-252
0.696000,-59.919242,-48.922500,591.379254,-19.096436,-137.878418,-216.435821,-40.822806,167.513321,18.511839,-25.576036,-25.576036,-7.064198,-0.160200,-0.248502,-0.248502,-0.255252,-17382,-205
0.698000,-59.987461,-19.279750,592.052549,-19.411743,-157.653809,-210.557620,-40.575718,191.277870,18.533237,-24.988766,-24.988766,-6.455529,-0.160200,-0.240894,-0.240894,-0.248844,-17669,-226
0.700000,-59.996361,10.382000,592.140388,-19.716064,-152.160645,-204.717922,-40.280297,215.099922,18.536029,-24.366750,-24.366750,-5.830721,0.160200,0.087316,0.087316,-0.241368,-17946,-220
0.702000,-59.945933,40.033500,591.642687,-19.990723,-137.329102,-197.979040,-39.955210,238.012540,18.520211,-23.739896,-23.739896,-5.219685,0.160200,0.094954,0.094954,0.085440,-18196,-122
0.704000,-59.836227,69.645250,590.559936,-20.112671,-60.974121,-184.278548,-39.723556,253.923798,18.485801,-23.300467,-23.300467,-4.814667,0.160200,0.100017,0.100017,0.093984,-18307,-7
0.706000,-59.667352,99.188000,588.893206,-20.092896,9.887695,-164.861924,-39.574456,264.049924,18.432837,-23.019642,-23.019642,-4.586806,0.160200,0.102865,0.102865,0.101460,-18289,41
0.708000,-59.439475,128.633000,586.644146,-20.019287,36.804199,-144.695312,-39.420188,273.328312,18.361377,-22.750004,-22.750004,-4.388627,0.160200,0.105342,0.105342,0.100392,-18222,53
0.710000,-59.152820,157.950750,583.814980,-19.935791,41.748047,-126.050976,-39.217029,284.001726,18.271502,-22.421886,-22.421886,-4.150384,0.160200,0.108320,0.108320,0.103596,-18146,52
0.712000,-58.807672,187.112000,580.408504,-19.857788,39.001465,-109.545732,-38.949884,296.657732,18.163312,-22.014495,-22.014495,-3.851183,0.160200,0.112060,0.112060,0.102528,-18075,54
0.714000,-58.404372,216.088500,576.428088,-19.785278,36.254883,-94.965670,-38.619094,311.054170,18.036925,-21.532294,-21.532294,-3.495369,0.160200,0.116508,0.116508,0.111072,-18009,54
0.716000,-57.943318,244.851250,571.877668,-19.710571,37.353516,-81.733752,-38.232747,326.585002,17.892482,-20.991509,-20.991509,-3.099027,0.160200,0.121462,0.121462,0.116412,-17941,50
0.718000,-57.424967,273.372000,566.761744,-19.646851,31.860352,-70.374341,-37.778116,343.746341,17.730143,-20.374595,-20.374595,-2.644452,0.160200,0.127144,0.127144,0.121752,-17883,42
0.720000,-56.849830,301.622500,561.085374,-19.583130,31.860352,-60.150872,-37.266700,361.773372,17.550087,-19.702928,-19.702928,-2.152841,0.160200,0.133289,0.133289,0.126024,-17825,46
0.722000,-56.218477,329.574500,554.854171,-19.516113,33.508301,-50.784955,-36.702364,380.359455,17.352512,-18.984559,-18.984559,-1.632047,0.160200,0.139799,0.139799,0.133500,-17764,56
0.724000,-55.531532,357.200500,548.074297,-19.456787,29.663086,-42.740151,-36.074745,399.940651,17.137634,-18.204642,-18.204642,-1.067007,0.160200,0.146862,0.146862,0.137772,-17710,47
0.726000,-54.789675,384.473250,540.752457,-19.380981,37.902832,-34.675852,-35.408694,419.149102,16.905691,-17.404400,-17.404400,-0.498709,0.160200,0.153966,0.153966,0.147384,-17641,57
0.728000,-53.993639,411.366250,532.895891,-19.305176,37.902832,-27.417984,-34.688463,438.784234,16.656934,-16.558886,-16.558886,0.098048,0.160200,0.161426,0.161426,0.151656,-17572,64
0.730000,-53.144210,437.852250,524.512368,-19.222778,41.198730,-20.556313,-33.921432,458.408563,16.391636,-15.680888,-15.680888,0.710748,0.160200,0.169084,0.169084,0.162336,-17497,66
0.732000,-52.242230,463.905250,515.610177,-19.139282,41.748047,-14.325877,-33.102948,478.231127,16.110083,-14.763509,-14.763509,1.346574,0.160200,0.177032,0.177032,0.169812,-17421,66
0.734000,-51.288589,489.499500,506.198122,-19.053589,42.846680,-8.608621,-32.235000,498.108121,15.812582,-13.810649,-13.810649,2.001933,0.160200,0.185224,0.185224,0.179424,-17343,72
0.736000,-50.284232,514.609750,496.285511,-18.954712,49.438477,-2.803911,-31.329520,517.413661,15.499452,-12.841559,-12.841559,2.657893,0.160200,0.193424,0.193424,0.183696,-17253,81
0.738000,-49.230150,539.211000,485.882144,-18.826172,64.270020,3.903482,-30.403978,535.307518,15.171031,-11.883102,-11.883102,3.287929,0.160200,0.201299,0.201299,0.196512,-17136,104
0.740000,-48.127388,563.279000,474.998310,-18.692139,67.016602,10.214794,-29.435249,553.064206,14.827669,-10.896889,-10.896889,3.930780,0.160200,0.209335,0.209335,0.201852,-17014,120
0.742000,-46.977034,586.790500,463.644772,-18.542725,74.707031,16.664018,-28.434309,570.126482,14.469733,-9.900309,-9.900309,4.569425,0.160200,0.217318,0.217318,0.207192,-16878,123
0.744000,-45.780226,609.721250,451.832755,-18.368042,87.341309,23.731747,-27.412184,585.989503,14.097602,-8.909868,-8.909868,5.187733,0.160200,0.225047,0.225047,0.216804,-16719,143
0.746000,-44.538149,632.049000,439.573941,-18.166992,100.524902,31.411062,-26.371157,600.637938,13.711669,-7.927431,-7.927431,5.784238,0.160200,0.232503,0.232503,0.223212,-16536,135
0.748000,-43.252030,653.752250,426.880452,-17.951660,107.666016,39.036558,-25.300370,614.715692,13.312339,-6.934177,-6.934177,6.378161,0.160200,0.239927,0.239927,0.233892,-16340,145
0.750000,-41.923140,674.808750,413.764839,-17.738525,106.567383,45.789640,-24.184615,629.019110,12.900029,-5.905592,-5.905592,6.994438,0.160200,0.247630,0.247630,0.240300,-16146,185
0.752000,-40.552795,695.197750,400.240073,-17.524292,107.116699,51.922346,-23.028503,643.275404,12.475170,-4.849654,-4.849654,7.625516,0.160200,0.255519,0.255519,0.250980,-15951,198
0.754000,-39.142349,714.899500,386.319527,-17.265015,129.638672,59.693979,-21.877334,655.205521,12.038199,-3.837767,-3.837767,8.200432,0.160200,0.262705,0.262705,0.258456,-15715,178
0.756000,-37.693197,733.894500,372.016967,-16.936523,164.245605,70.149141,-20.756674,663.745359,11.589567,-2.906350,-2.906350,8.683217,0.160200,0.268740,0.268740,0.263796,-15416,215
0.758000,-36.206771,752.163500,357.346536,-16.648682,143.920898,77.526317,-19.558089,674.637183,11.129733,-1.879482,-1.879482,9.250251,0.160200,0.275828,0.275828,0.259524,-15154,206
0.760000,-34.684543,769.688750,342.322740,-16.374023,137.329102,83.506595,-18.310520,686.182155,10.659164,-0.807016,-0.807016,9.852148,0.160200,0.283352,0.283352,0.275544,-14904,199
0.762000,-33.128016,786.453000,326.960436,-16.057617,158.203125,90.976248,-17.070399,695.476752,10.178337,0.220973,0.220973,10.399309,0.160200,0.290191,0.290191,0.283020,-14616,227
0.764000,-31.538731,802.439500,311.274816,-15.722534,167.541504,98.632774,-15.816197,703.806726,9.687735,1.241956,1.241956,10.929691,0.160200,0.296821,0.296821,0.292632,-14311,234
0.766000,-29.918258,817.632750,295.281390,-15.384155,169.189453,105.688442,-14.534103,711.944308,9.187849,2.279054,2.279054,11.466903,0.160200,0.303536,0.303536,0.291564,-14003,252
0.768000,-28.268200,832.017250,278.995973,-15.068848,157.653809,110.884979,-13.199352,721.132271,8.679176,3.371246,3.371246,12.050422,0.160200,0.310830,0.310830,0.300108,-13716,257
0.770000,-26.590189,845.578750,262.434670,-14.753540,157.653809,115.561862,-11.836649,730.016888,8.162220,4.477658,4.477658,12.639878,0.160200,0.318198,0.318198,0.311856,-13429,279
0.772000,-24.885885,858.304250,245.613856,-14.389893,181.823730,122.188048,-10.495992,736.116202,7.637489,5.520066,5.520066,13.157555,0.160200,0.324669,0.324669,0.319332,-13098,260
0.774000,-23.156972,870.181250,228.550165,-14.039429,175.231934,127.492437,-9.117543,742.688813,7.105497,6.597119,6.597119,13.702616,0.160200,0.331483,0.331483,0.322536,-12779,275
0.776000,-21.405160,881.197750,211.260472,-13.648315,195.556641,134.298857,-7.756845,746.898893,6.566761,7.620546,7.620546,14.187307,0.160200,0.337541,0.337541,0.333216,-12423,307
0.778000,-19.632181,891.342750,193.761872,-13.258301,195.007324,140.369704,-6.373880,750.973046,6.021804,8.657144,8.657144,14.678948,0.160200,0.343687,0.343687,0.338556,-12068,337
0.780000,-17.839789,900.606250,176.071670,-12.796875,230.712891,149.404023,-5.042914,751.202227,5.471150,9.590334,9.590334,15.061484,0.160200,0.348469,0.348469,0.341760,-11648,299
0.782000,-16.029756,908.979500,158.207358,-12.332153,232.360840,157.699704,-3.697603,751.279796,4.915329,10.530892,10.530892,15.446222,0.160200,0.353278,0.353278,0.348168,-11225,316
0.784000,-14.203871,916.453500,140.186602,-11.875122,228.515625,164.781296,-2.328749,751.672204,4.354872,11.493381,11.493381,15.848254,0.160200,0.358303,0.358303,0.354576,-10809,342
0.786000,-12.363942,923.021250,122.027222,-11.391724,241.699219,172.473089,-0.972218,750.548161,3.790313,12.420800,12.420800,16.211113,0.160200,0.362839,0.362839,0.359916,-10369,351
0.788000,-10.511786,928.676750,103.747174,-10.912720,239.501953,179.175975,0.400934,749.500775,3.222187,13.361161,13.361161,16.583347,0.160200,0.367492,0.367492,0.364188,-9933,368
0.790000,-8.649235,933.413500,85.364535,-10.422729,244.995117,185.757889,1.773494,747.655611,2.651031,14.287185,14.287185,16.938216,0.160200,0.371928,0.371928,0.369528,-9487,379
0.792000,-6.778132,937.227250,66.897484,-9.892090,265.319824,193.714083,3.113958,743.513167,2.077386,15.150705,15.150705,17.228091,0.160200,0.375551,0.375551,0.369528,-9004,365
0.794000,-4.900326,940.114500,48.364280,-9.380127,255.981445,199.940819,4.479801,740.173681,1.501790,16.045959,16.045959,17.547749,0.160200,0.379547,0.379547,0.379140,-8538,408
0.796000,-3.017674,942.072000,29.783250,-8.908813,235.656738,203.512411,5.891139,738.559589,0.924786,17.003088,17.003088,17.927874,0.160200,0.384298,0.384298,0.379140,-8109,411
0.798000,-1.132038,943.097750,11.172770,-8.368286,270.263672,210.187537,7.236248,732.910213,0.346914,17.843551,17.843551,18.190465,0.160200,0.387581,0.387581,0.384480,-7617,412
0.800000,0.754717,943.191000,-7.448759,-7.793701,287.292480,217.898031,8.548418,725.292969,-0.231283,18.626672,18.626672,18.395389,0.160200,0.390142,0.390142,0.388752,-7094,402
0.802000,2.640726,942.351500,-26.062922,-7.244385,274.658203,223.574049,9.885111,718.777451,-0.809263,19.446142,19.446142,18.636879,0.160200,0.393161,0.393161,0.390888,-6594,401
0.804000,4.524123,940.580250,-44.651312,-6.608276,318.054199,233.022064,11.132399,707.558186,-1.386485,20.121101,20.121101,18.734616,0.160200,0.394383,0.394383,0.388752,-6015,442
0.806000,6.403047,937.879250,-63.195549,-6.002930,302.673340,239.987191,12.405977,697.892059,-1.962405,20.841520,20.841520,18.879114,0.160200,0.396189,0.396189,0.396228,-5464,442
0.808000,8.275640,934.250250,-81.677295,-5.367920,317.504883,247.738960,13.643560,686.511290,-2.536484,21.506884,21.506884,18.970400,0.160200,0.397330,0.397330,0.394092,-4886,441
0.810000,10.140048,929.697500,-100.078273,-4.846069,260.925293,249.057594,14.986117,680.639906,-3.108181,22.341691,22.341691,19.233510,0.160200,0.400619,0.400619,0.397296,-4411,441
0.812000,11.994430,924.225750,-118.380289,-4.272583,286.743164,252.826151,16.267013,671.399599,-3.676956,23.074651,23.074651,19.397695,0.160200,0.402671,0.402671,0.400500,-3889,425
0.814000,13.836951,917.839750,-136.565243,-3.732056,270.263672,254.569903,17.569007,663.269847,-4.242271,23.841723,23.841723,19.599452,0.160200,0.405193,0.405193,0.402636,-3397,451
0.816000,15.665789,910.546250,-154.615154,-3.188232,271.911621,256.304075,18.854021,654.242175,-4.803592,24.581270,24.581270,19.777678,0.160200,0.407421,0.407421,0.404772,-2902,447
0.818000,17.479136,902.352500,-172.512173,-2.611450,288.391113,259.512779,20.090586,642.839721,-5.360382,25.245545,25.245545,19.885162,0.160200,0.408765,0.408765,0.403704,-2377,476
0.820000,19.275199,893.266250,-190.238603,-1.987427,312.011719,264.762673,21.262626,628.503577,-5.912112,25.813570,25.813570,19.901458,0.160200,0.408968,0.408968,0.406908,-1809,460
0.822000,21.052201,883.296750,-207.776914,-1.413940,286.743164,266.960722,22.466141,616.336028,-6.458250,26.441419,26.441419,19.983168,0.160200,0.409990,0.409990,0.405840,-1287,468
0.824000,22.808386,872.453750,-225.109763,-0.752563,330.688477,273.333497,23.560949,599.120253,-6.998272,26.905267,26.905267,19.906994,0.160200,0.409037,0.409037,0.410112,-685,486
0.826000,24.542016,860.748000,-242.220011,-0.182373,285.095215,274.509669,24.724389,586.238331,-7.531655,27.492669,27.492669,19.961014,0.160200,0.409713,0.409713,0.404772,-166,475
0.828000,26.251378,848.191500,-259.090739,0.394409,288.391113,275.897813,25.856969,572.293687,-8.057879,28.039979,28.039979,19.982099,0.160200,0.409976,0.409976,0.413316,359,475
0.830000,27.934782,834.795750,-275.705263,0.974487,290.039062,277.311938,26.960295,557.483812,-8.576431,28.551764,28.551764,19.975333,0.160200,0.409892,0.409892,0.414384,887,481
0.832000,29.590561,820.574500,-292.047155,1.585327,305.419922,280.122737,28.005234,540.451763,-9.086801,28.984004,28.984004,19.897203,0.160200,0.408915,0.408915,0.414384,1443,480
0.834000,31.217080,805.542250,-308.100254,2.256592,335.632324,285.673695,28.960488,519.868555,-9.588484,29.291653,29.291653,19.703169,0.160200,0.406490,0.406490,0.411180,2054,485
0.836000,32.812730,789.713000,-323.848686,2.914673,329.040527,290.010379,29.898057,499.702621,-10.080982,29.594238,29.594238,19.513255,0.160200,0.404116,0.404116,0.406908,2653,494
0.838000,34.375932,773.103000,-339.276878,3.527710,306.518555,291.661196,30.848222,481.441804,-10.563804,29.938866,29.938866,19.375063,0.160200,0.402388,0.402388,0.404772,3211,490
0.840000,35.905142,755.728750,-354.369575,4.111084,291.687012,291.663778,31.794058,464.064972,-11.036463,30.295902,30.295902,19.259439,0.160200,0.400943,0.400943,0.399432,3742,495
0.842000,37.398847,737.607000,-369.111851,4.695557,292.236328,291.721033,32.703290,445.885967,-11.498482,30.613382,30.613382,19.114900,0.160200,0.399136,0.399136,0.399432,4274,494
0.844000,38.855570,718.755750,-383.489129,5.292114,298.278809,292.376810,33.563456,426.378940,-11.949391,30.873429,30.873429,18.924038,0.160200,0.396750,0.396750,0.400500,4817,481
0.846000,40.273870,699.193750,-397.487191,5.883179,295.532227,292.692352,34.390691,406.501398,-12.388730,31.104020,31.104020,18.715289,0.160200,0.394141,0.394141,0.394092,5355,471
0.848000,41.652345,678.940500,-411.092196,6.484131,300.476074,293.470724,35.168214,385.469776,-12.816048,31.279762,31.279762,18.463714,0.160200,0.390996,0.390996,0.398364,5902,462
0.850000,42.989632,658.015750,-424.290690,7.177368,346.618652,298.785517,35.812264,359.230233,-13.230901,31.271427,31.271427,18.040526,0.160200,0.385707,0.385707,0.387684,6533,470
0.852000,44.284408,636.440500,-437.069622,7.807983,315.307617,300.437727,36.476425,336.002773,-13.632861,31.329703,31.329703,17.696842,0.160200,0.381411,0.381411,0.385548,7107,452
0.854000,45.535394,614.235750,-449.416355,8.430908,311.462402,301.540195,37.104486,312.695555,-14.021507,31.361385,31.361385,17.339878,0.160200,0.376948,0.376948,0.383412,7674,473
0.856000,46.741351,591.423500,-461.318679,9.023071,296.081543,300.994329,37.718280,290.429171,-14.396430,31.401272,31.401272,17.004842,0.160200,0.372761,0.372761,0.373800,8213,466
0.858000,47.901088,568.026750,-472.764826,9.703125,340.026855,304.897582,38.197963,263.129168,-14.757236,31.259679,31.259679,16.502443,0.160200,0.366481,0.366481,0.372732,8832,462
0.860000,49.013458,544.068250,-483.743477,10.343628,320.251465,306.432970,38.669830,237.635280,-15.103543,31.144152,31.144152,16.040610,0.160200,0.360708,0.360708,0.363120,9415,436
0.862000,50.077361,519.571500,-494.243776,10.959961,308.166504,306.606324,39.117400,212.965176,-15.434981,31.026041,31.026041,15.591060,0.160200,0.355088,0.355088,0.360984,9976,428
0.864000,51.091744,494.561000,-504.255338,11.502686,271.362305,303.081922,39.589058,191.479078,-15.751196,30.980317,30.980317,15.229121,0.160200,0.350564,0.350564,0.353508,10470,441
0.866000,52.055605,469.061500,-513.768265,12.069580,283.447266,301.118456,39.986025,167.943044,-16.051849,30.846671,30.846671,14.794822,0.160200,0.345135,0.345135,0.353508,10986,406
0.868000,52.967990,443.098250,-522.773149,12.560669,245.544434,295.561054,40.407321,147.537196,-16.336616,30.784642,30.784642,14.448026,0.160200,0.340800,0.340800,0.346032,11433,390
0.870000,53.827998,416.697000,-531.261085,13.163818,301.574707,296.162419,40.664180,120.534581,-16.605189,30.492678,30.492678,13.887489,0.160200,0.333794,0.333794,0.339624,11982,385
0.872000,54.634778,389.883250,-539.223681,13.753784,294.982910,296.044468,40.880994,93.838782,-16.857276,30.178113,30.178113,13.320837,0.160200,0.326710,0.326710,0.333216,12519,405
0.874000,55.387531,362.684250,-546.653063,14.305298,275.756836,294.015705,41.082233,68.668545,-17.092603,29.879302,29.879302,12.786698,0.160200,0.320034,0.320034,0.326808,13021,390
0.876000,56.085515,335.126750,-553.541883,14.856812,275.756836,292.189818,41.228703,42.936932,-17.310913,29.532456,29.532456,12.221543,0.160200,0.312969,0.312969,0.318264,13523,373
0.878000,56.728038,307.237500,-559.883330,15.390747,266.967773,289.667614,41.337291,17.569886,-17.511967,29.165526,29.165526,11.653559,0.160200,0.305869,0.305869,0.312924,14009,363
0.880000,57.314465,279.044500,-565.671134,15.978516,293.884277,290.089280,41.335949,-11.044780,-17.695543,28.665169,28.665169,10.969626,0.160200,0.297320,0.297320,0.308652,14544,346
0.882000,57.844216,250.575750,-570.899570,16.454224,237.854004,284.865752,41.389992,-34.290002,-17.861441,28.297192,28.297192,10.435752,0.160200,0.290647,0.290647,0.293700,14977,310
0.884000,58.316768,221.859250,-575.563469,16.853027,199.401855,276.319363,41.463741,-54.460113,-18.009476,27.996644,27.996644,9.987167,0.160200,0.285040,0.285040,0.295836,15340,323
0.886000,58.731653,192.923000,-579.658219,17.248535,197.753906,268.462817,41.483118,-75.539817,-18.139486,27.642261,27.642261,9.502775,0.160200,0.278985,0.278985,0.285156,15700,275
0.888000,59.088460,163.796250,-583.179770,17.694580,223.022461,263.918781,41.393880,-100.122531,-18.251326,27.150912,27.150912,8.899586,0.160200,0.271445,0.271445,0.278748,16106,273
0.890000,59.386838,134.507750,-586.124640,18.097778,201.599121,257.686815,41.289060,-123.179065,-18.344873,26.675321,26.675321,8.330449,0.160200,0.264331,0.264331,0.273408,16473,253
0.892000,59.626491,105.085750,-588.489918,18.466919,184.570312,250.375165,41.159572,-145.289415,-18.420022,26.199023,26.199023,7.779001,0.160200,0.257438,0.257438,0.267000,16809,238
0.894000,59.807181,75.560000,-590.273264,18.819580,176.330566,242.970705,40.987601,-167.410705,-18.476691,25.692876,25.692876,7.216185,0.160200,0.250402,0.250402,0.259524,17130,228
0.896000,59.928731,45.960000,-591.472915,19.178833,179.626465,236.636281,40.749898,-190.676281,-18.514815,25.120867,25.120867,6.606051,0.160200,0.242776,0.242776,0.248844,17457,243
0.898000,59.991021,16.314000,-592.087684,19.502930,162.048340,229.177487,40.488091,-212.863487,-18.534354,24.550851,24.550851,6.016497,0.160200,0.235406,0.235406,0.243504,17752,228
0.900000,59.993987,-13.348000,-592.116964,19.816040,156.555176,221.915256,40.177947,-235.263256,-18.535285,23.943380,23.943380,5.408096,-0.160200,-0.092599,-0.092599,0.234960,18037,240
0.902000,59.937629,-42.996750,-591.560726,20.119263,151.611328,214.884863,39.818366,-257.881613,-18.517606,23.297581,23.297581,4.779974,-0.160200,-0.100450,-0.100450,-0.090780,18313,133
0.904000,59.822000,-72.603250,-590.419519,20.256592,68.664551,200.262832,39.565408,-272.866082,-18.481338,22.859454,22.859454,4.378116,-0.160200,-0.105474,-0.105474,-0.097188,18438,16
0.906000,59.647216,-102.137500,-588.694473,20.250000,-3.295898,179.906959,39.397216,-282.044459,-18.426522,22.581841,22.581841,4.155319,-0.160200,-0.108259,-0.108259,-0.105732,18432,-40
0.908000,59.413450,-131.570750,-586.387293,20.181885,-34.057617,158.510501,39.231565,-290.081251,-18.353217,22.325926,22.325926,3.972709,-0.160200,-0.110541,-0.110541,-0.106800,18370,-54
0.910000,59.120933,-160.874250,-583.500260,20.102783,-39.550781,138.704373,39.018150,-299.578623,-18.261506,22.011174,22.011174,3.749668,-0.160200,-0.113329,-0.113329,-0.115344,18298,-66
0.912000,58.769953,-190.018750,-580.036229,20.024780,-39.001465,120.933789,38.745173,-310.952539,-18.151490,21.622088,21.622088,3.470598,-0.160200,-0.116818,-0.116818,-0.115344,18227,-65
0.914000,58.360858,-218.975000,-575.998627,19.944580,-40.100098,104.830401,38.416278,-323.805401,-18.023291,21.168151,21.168151,3.144860,-0.160200,-0.120889,-0.120889,-0.115344,18154,-60
0.916000,57.894053,-247.714750,-571.391445,19.856689,-43.945312,89.952829,38.037364,-337.667579,-17.877051,20.661678,20.661678,2.784627,-0.160200,-0.125392,-0.125392,-0.121752,18074,-61
0.918000,57.369999,-276.209500,-566.219239,19.777588,-39.550781,77.002468,37.592411,-353.211968,-17.712932,20.079742,20.079742,2.366810,-0.160200,-0.130615,-0.130615,-0.123888,18002,-55
0.920000,56.789215,-304.431250,-560.487123,19.706177,-35.705566,65.731665,37.083038,-370.162915,-17.531114,19.428283,19.428283,1.897169,-0.160200,-0.136485,-0.136485,-0.131364,17937,-55
0.922000,56.152274,-332.352250,-554.200767,19.624878,-40.649414,55.093557,36.527396,-387.445807,-17.331799,18.738728,18.738728,1.406929,-0.160200,-0.142613,-0.142613,-0.136704,17863,-63
0.924000,55.459806,-359.944250,-547.366387,19.529297,-47.790527,44.805148,35.930509,-404.749398,-17.115204,18.020018,18.020018,0.904814,-0.160200,-0.148890,-0.148890,-0.139908,17776,-77
0.926000,54.712497,-387.180250,-539.990739,19.429321,-49.987793,35.325854,35.283176,-422.506104,-16.881567,17.258181,17.258181,0.376613,-0.160200,-0.155492,-0.155492,-0.147384,17685,-75
0.928000,53.911085,-414.033500,-532.081119,19.317261,-56.030273,26.190242,34.593824,-440.223742,-16.631144,16.467692,16.467692,-0.163452,-0.160200,-0.162243,-0.162243,-0.153792,17583,-85
0.930000,53.056363,-440.477500,-523.645347,19.209595,-53.833008,18.187917,33.846768,-458.665417,-16.364207,15.624280,15.624280,-0.739927,-0.160200,-0.169449,-0.169449,-0.162336,17485,-82
0.932000,52.149175,-466.485750,-514.691766,19.073364,-68.115234,9.557601,33.075811,-476.043351,-16.081046,14.782748,14.782748,-1.298298,-0.160200,-0.176429,-0.176429,-0.170880,17361,-97
0.934000,51.190420,-492.032750,-505.229228,18.948120,-62.622070,2.339634,32.242300,-494.372384,-15.781967,13.880946,13.880946,-1.901021,-0.160200,-0.183963,-0.183963,-0.174084,17247,-96
0.936000,50.181044,-517.093250,-495.267092,18.805298,-71.411133,-5.035442,31.375746,-512.057808,-15.467293,12.967308,12.967308,-2.499984,-0.160200,-0.191450,-0.191450,-0.184764,17117,-126
0.938000,49.122047,-541.642250,-484.815208,18.631714,-86.791992,-13.211097,30.490333,-528.431153,-15.137361,12.063405,12.063405,-3.073957,-0.160200,-0.198624,-0.198624,-0.190104,16959,-134
0.940000,48.014475,-565.655750,-473.883912,18.438354,-96.679688,-21.557956,29.576121,-544.097794,-14.792526,11.151729,11.151729,-3.640796,-0.160200,-0.205710,-0.205710,-0.198648,16783,-131
0.942000,46.859424,-589.109750,-462.484012,18.239502,-99.426270,-29.344788,28.619922,-559.764962,-14.433152,10.210733,10.210733,-4.222419,-0.160200,-0.212980,-0.212980,-0.207192,16602,-154
0.944000,45.658036,-611.981500,-450.626783,18.021973,-108.764648,-37.286774,27.636063,-574.694726,-14.059623,9.263297,9.263297,-4.796326,-0.160200,-0.220154,-0.220154,-0.209328,16404,-149
0.946000,44.411498,-634.248000,-438.323949,17.813232,-104.370117,-43.995108,26.598266,-590.252892,-13.672332,8.267236,8.267236,-5.405096,-0.160200,-0.227764,-0.227764,-0.218940,16214,-150
0.948000,43.121044,-655.887250,-425.587675,17.619873,-96.679688,-49.263566,25.501171,-606.623684,-13.271685,7.215595,7.215595,-6.056089,-0.160200,-0.235901,-0.235901,-0.228552,16038,-149
0.950000,41.787949,-676.878000,-412.430557,17.388062,-115.905762,-55.927786,24.399887,-620.950214,-12.858101,6.196709,6.196709,-6.661392,-0.160200,-0.243467,-0.243467,-0.234960,15827,-168
0.952000,40.413532,-697.199250,-398.865605,17.152954,-117.553711,-62.090378,23.260578,-635.108872,-12.432010,5.154206,5.154206,-7.277804,-0.160200,-0.251173,-0.251173,-0.240300,15613,-198
0.954000,38.999152,-716.831250,-384.906231,16.892578,-130.187988,-68.900139,22.106574,-647.931111,-11.993853,4.124769,4.124769,-7.869084,-0.160200,-0.258564,-0.258564,-0.250980,15376,-209
0.956000,37.546207,-735.754250,-370.566241,16.587158,-152.709961,-77.281121,20.959049,-658.473129,-11.544080,3.139652,3.139652,-8.404428,-0.160200,-0.265255,-0.265255,-0.260592,15098,-214
0.958000,36.056135,-753.949750,-355.859815,16.274048,-156.555176,-85.208527,19.782087,-668.741223,-11.083151,2.138766,2.138766,-8.944385,-0.160200,-0.272005,-0.272005,-0.267000,14813,-211
0.960000,34.530408,-771.399750,-340.801494,15.992798,-140.625000,-90.750174,18.537610,-680.649576,-10.611535,1.062117,1.062117,-9.549418,-0.160200,-0.279568,-0.279568,-0.276612,14557,-245
0.962000,32.970536,-788.087000,-325.406170,15.684082,-154.357910,-97.110948,17.286454,-690.976052,-10.129708,0.008414,0.008414,-10.121294,-0.160200,-0.286716,-0.286716,-0.279816,14276,-225
0.964000,31.378060,-803.994750,-309.689066,15.327026,-178.527832,-105.252636,16.051034,-698.742114,-9.638156,-0.989615,-0.989615,-10.627771,-0.160200,-0.293047,-0.293047,-0.291564,13951,-277
0.966000,29.754557,-819.107500,-293.665724,14.985352,-170.837402,-111.811113,14.769205,-707.296387,-9.137368,-2.033800,-2.033800,-11.171169,-0.160200,-0.299840,-0.299840,-0.294768,13640,-235
0.968000,28.101630,-833.410500,-277.351990,14.622803,-181.274414,-118.757443,13.478827,-714.653057,-8.627845,-3.063052,-3.063052,-11.690897,-0.160200,-0.306336,-0.306336,-0.301176,13310,-252
0.970000,26.420915,-846.889250,-260.763994,14.240479,-191.162109,-125.997910,12.180436,-720.891340,-8.110088,-4.078379,-4.078379,-12.188467,-0.160200,-0.312556,-0.312556,-0.306516,12962,-307
0.972000,24.714073,-859.530750,-243.918140,13.870239,-185.119629,-131.910081,10.843834,-727.620669,-7.584608,-5.128952,-5.128952,-12.713560,-0.160200,-0.319120,-0.319120,-0.316128,12625,-284
0.974000,22.982792,-871.322000,-226.831086,13.451660,-209.289551,-139.648028,9.531132,-731.673972,-7.051918,-6.116135,-6.116135,-13.168053,-0.160200,-0.324801,-0.324801,-0.321468,12244,-285
0.976000,21.228785,-882.251500,-209.519729,13.034180,-208.740234,-146.557249,8.194605,-735.694251,-6.512536,-7.119373,-7.119373,-13.631910,-0.160200,-0.330599,-0.330599,-0.325740,11864,-334
0.978000,19.453786,-892.308750,-192.001187,12.663940,-185.119629,-150.413487,6.789846,-741.895263,-5.966986,-8.208309,-8.208309,-14.175294,-0.160200,-0.337391,-0.337391,-0.334284,11527,-328
0.980000,17.659550,-901.483750,-174.292784,12.283813,-190.063477,-154.378486,5.375737,-747.105264,-5.415792,-9.286475,-9.286475,-14.702266,-0.160200,-0.343978,-0.343978,-0.339624,11181,-306
0.982000,15.847851,-909.767250,-156.412030,11.817993,-232.910156,-162.231653,4.029858,-747.535597,-4.859483,-10.233586,-10.233586,-15.093069,-0.160200,-0.348863,-0.348863,-0.347100,10757,-329
0.984000,14.020481,-917.151250,-138.376607,11.356567,-230.712891,-169.079777,2.663914,-748.071473,-4.298592,-11.196548,-11.196548,-15.495140,-0.160200,-0.353889,-0.353889,-0.350304,10337,-372
0.986000,12.179246,-923.628250,-120.204350,10.891846,-232.360840,-175.407883,1.287400,-748.220367,-3.733652,-12.160134,-12.160134,-15.893786,-0.160200,-0.358872,-0.358872,-0.349236,9914,-377
0.988000,10.325968,-929.191750,-101.913228,10.426025,-232.910156,-181.158110,-0.100057,-748.033640,-3.165198,-13.125503,-13.125503,-16.290702,-0.160200,-0.363834,-0.363834,-0.357780,9490,-392
0.990000,8.462479,-933.836500,-83.521328,9.949219,-238.403320,-186.882631,-1.486740,-746.953869,-2.593770,-14.074745,-14.074745,-16.668514,-0.160200,-0.368556,-0.368556,-0.369528,9056,-384
0.992000,6.590622,-937.557750,-65.046838,9.446045,-251.586914,-193.353060,-2.855423,-744.204690,-2.019905,-14.982283,-14.982283,-17.002188,-0.160200,-0.372727,-0.372727,-0.368460,8598,-412
0.994000,4.712248,-940.352000,-46.508026,8.907715,-269.165039,-200.934258,-4.195467,-739.417742,-1.444144,-15.834263,-15.834263,-17.278407,-0.160200,-0.376180,-0.376180,-0.371664,8108,-406
0.996000,2.829214,-942.216500,-27.923224,8.427612,-240.051270,-204.845959,-5.598398,-737.370541,-0.867029,-16.777963,-16.777963,-17.644992,-0.160200,-0.380762,-0.380762,-0.373800,7671,-396
0.998000,0.943382,-943.149000,-9.310810,7.890381,-268.615723,-211.222935,-6.946999,-731.926065,-0.289100,-17.624440,-17.624440,-17.913540,-0.160200,-0.384119,-0.384119,-0.381276,7182,-413
1.000000,-0.943382,-943.149000,9.310810,7.326782,-281.799316,-218.280573,-8.270164,-724.868427,0.289100,-18.425005,-18.425005,-18.135905,-0.160200,-0.386899,-0.386899,-0.388752,6669,-434
1.002000,-2.829214,-942.216500,27.923224,6.776367,-275.207520,-223.973268,-9.605581,-718.243232,0.867029,-19.241670,-19.241670,-18.374641,-0.160200,-0.389883,-0.389883,-0.391956,6168,-427
1.004000,-4.712248,-940.352000,46.508026,6.189697,-293.334961,-230.909437,-10.901945,-709.442563,1.444144,-19.993102,-19.993102,-18.548958,-0.160200,-0.392062,-0.392062,-0.390888,5634,-448
1.006000,-6.590622,-937.557750,65.046838,5.516235,-336.730957,-241.491589,-12.106857,-696.066161,2.019905,-20.600827,-20.600827,-18.580922,-0.160200,-0.392462,-0.392462,-0.395160,5021,-431
1.008000,-8.462479,-933.836500,83.521328,4.803223,-356.506348,-252.993065,-13.265702,-680.843435,2.593770,-21.144166,-21.144166,-18.550397,-0.160200,-0.392080,-0.392080,-0.389820,4372,-440
1.010000,-10.325968,-929.191750,101.913228,4.261597,-270.812988,-254.775057,-14.587565,-674.416693,3.165198,-21.954833,-21.954833,-18.789635,-0.160200,-0.395070,-0.395070,-0.391956,3879,-459
1.012000,-12.179246,-923.628250,120.204350,3.677124,-292.236328,-258.521184,-15.856370,-665.107066,3.733652,-22.678143,-22.678143,-18.944491,-0.160200,-0.397006,-0.397006,-0.393024,3347,-462
1.014000,-14.020481,-917.151250,138.376607,3.020142,-328.491211,-265.518187,-17.040623,-651.633063,4.298592,-23.269741,-23.269741,-18.971149,-0.160200,-0.397339,-0.397339,-0.397296,2749,-466
1.016000,-15.847851,-909.767250,156.412030,2.422485,-298.828125,-268.849181,-18.270336,-640.918069,4.859483,-23.941232,-23.941232,-19.081748,-0.160200,-0.398722,-0.398722,-0.391956,2205,-474
1.018000,-17.659550,-901.483750,174.292784,1.808350,-307.067871,-272.671050,-19.467900,-628.812700,5.415792,-24.566010,-24.566010,-19.150218,-0.160200,-0.399578,-0.399578,-0.398364,1646,-455
1.020000,-19.453786,-892.308750,192.001187,1.219482,-294.433594,-274.847304,-20.673268,-617.461446,5.966986,-25.209399,-25.209399,-19.242413,-0.160200,-0.400730,-0.400730,-0.402636,1110,-458
1.022000,-21.228785,-882.251500,209.519729,0.641602,-288.940430,-276.256617,-21.870387,-605.994883,6.512536,-25.845016,-25.845016,-19.332480,-0.160200,-0.401856,-0.401856,-0.397296,584,-468
1.024000,-22.982792,-871.322000,226.831086,-0.057129,-349.365234,-283.567479,-22.925663,-587.754521,7.051918,-26.263384,-26.263384,-19.211466,-0.160200,-0.400343,-0.400343,-0.403704,-52,-490
1.026000,-24.714073,-859.530750,243.918140,-0.673462,-308.166504,-286.027381,-24.040611,-573.503369,7.584608,-26.793035,-26.793035,-19.208427,-0.160200,-0.400305,-0.400305,-0.399432,-613,-481
1.028000,-26.420915,-846.889250,260.763994,-1.365601,-346.069336,-292.031577,-25.055314,-554.857673,8.110088,-27.176003,-27.176003,-19.065914,-0.160200,-0.398524,-0.398524,-0.399432,-1243,-485
1.030000,-28.101630,-833.410500,277.351990,-2.019287,-326.843262,-295.512745,-26.082343,-537.897755,8.627845,-27.596997,-27.596997,-18.969152,-0.160200,-0.397314,-0.397314,-0.396228,-1838,-488
1.032000,-29.754557,-819.107500,293.665724,-2.630127,-305.419922,-296.503463,-27.124430,-522.604037,9.137368,-28.057586,-28.057586,-18.920217,-0.160200,-0.396703,-0.396703,-0.399432,-2394,-475
1.034000,-31.378060,-803.994750,309.689066,-3.267334,-318.603516,-298.713468,-28.110726,-505.281282,9.638156,-28.443811,-28.443811,-18.805655,-0.160200,-0.395271,-0.395271,-0.401568,-2974,-487
1.036000,-32.970536,-788.087000,325.406170,-3.903442,-318.054199,-300.647541,-29.067094,-487.439459,10.129708,-28.800083,-28.800083,-18.670375,-0.160200,-0.393580,-0.393580,-0.390888,-3553,-492
1.038000,-34.530408,-771.399750,340.801494,-4.627441,-361.999512,-306.782738,-29.902967,-464.617012,10.611535,-28.985306,-28.985306,-18.373771,-0.160200,-0.389872,-0.389872,-0.394092,-4212,-491
1.040000,-36.056135,-753.949750,355.859815,-5.260254,-316.406250,-307.745089,-30.795881,-446.204661,11.083151,-29.287321,-29.287321,-18.204170,-0.160200,-0.387752,-0.387752,-0.388752,-4788,-474
1.042000,-37.546207,-735.754250,370.566241,-5.902954,-321.350098,-309.105590,-31.643253,-426.648660,11.544080,-29.537582,-29.537582,-17.993502,-0.160200,-0.385119,-0.385119,-0.386616,-5373,-485
1.044000,-38.999152,-716.831250,384.906231,-6.499512,-298.278809,-308.022912,-32.499640,-408.808338,11.993853,-29.824081,-29.824081,-17.830228,-0.160200,-0.383078,-0.383078,-0.388752,-5916,-457
1.046000,-40.413532,-697.199250,398.865605,-7.118042,-309.265137,-308.147135,-33.295490,-389.052115,12.432010,-30.034877,-30.034877,-17.602867,-0.160200,-0.380236,-0.380236,-0.383412,-6479,-445
1.048000,-41.787949,-676.878000,412.430557,-7.700317,-291.137695,-306.446191,-34.087632,-370.431809,12.858101,-30.262911,-30.262911,-17.404810,-0.160200,-0.377760,-0.377760,-0.377004,-7009,-472
1.050000,-43.121044,-655.887250,425.587675,-8.250732,-275.207520,-303.322324,-34.870312,-352.564926,13.271685,-30.497489,-30.497489,-17.225804,-0.160200,-0.375523,-0.375523,-0.375936,-7510,-471
1.052000,-44.411498,-634.248000,438.323949,-8.825317,-287.292480,-301.719339,-35.586181,-332.528661,13.672332,-30.647561,-30.647561,-16.975229,-0.160200,-0.372390,-0.372390,-0.373800,-8033,-432
1.054000,-45.658036,-611.981500,450.626783,-9.406494,-290.588379,-300.606243,-36.251542,-311.375257,14.059623,-30.742874,-30.742874,-16.683251,-0.160200,-0.368741,-0.368741,-0.374868,-8562,-449
1.056000,-46.859424,-589.109750,462.484012,-10.045898,-319.702148,-302.515834,-36.813526,-286.593916,14.433152,-30.702697,-30.702697,-16.269544,-0.160200,-0.363569,-0.363569,-0.375936,-9144,-420
1.058000,-48.014475,-565.655750,473.883912,-10.623779,-288.940430,-301.158293,-37.390696,-264.497457,14.792526,-30.719981,-30.719981,-15.927456,-0.160200,-0.359293,-0.359293,-0.365256,-9670,-444
1.060000,-49.122047,-541.642250,484.815208,-11.256592,-316.406250,-302.683089,-37.865455,-238.959161,15.137361,-30.605699,-30.605699,-15.468337,-0.160200,-0.353554,-0.353554,-0.360984,-10246,-431
1.062000,-50.181044,-517.093250,495.267092,-11.853149,-298.278809,-302.242661,-38.327895,-214.850589,15.467293,-30.507768,-30.507768,-15.040476,-0.160200,-0.348206,-0.348206,-0.355644,-10789,-437
1.064000,-51.190420,-492.032750,505.229228,-12.427734,-287.292480,-300.747643,-38.762686,-191.285107,15.781967,-30.400015,-30.400015,-14.618048,-0.160200,-0.342926,-0.342926,-0.347100,-11312,-417
1.066000,-52.149175,-466.485750,514.691766,-12.930908,-251.586914,-295.831570,-39.218267,-170.654180,16.081046,-30.357993,-30.357993,-14.276947,-0.160200,-0.338662,-0.338662,-0.343896,-11770,-390
1.068000,-53.056363,-440.477500,523.645347,-13.448364,-258.728027,-292.121216,-39.607999,-148.356284,16.364207,-30.240905,-30.240905,-13.876698,-0.160200,-0.333659,-0.333659,-0.335352,-12241,-414
1.070000,-53.911085,-414.033500,532.081119,-13.974609,-263.122559,-289.221350,-39.936476,-124.812150,16.631144,-30.059303,-30.059303,-13.428158,-0.160200,-0.328052,-0.328052,-0.333216,-12720,-403
