khanfazel/E-wera--maxon_motor/PD_control (another copy)/pd_feedforward_log.csv
t_s,q_ref_deg,qd_ref_deg_s,qdd_ref_deg_s2,q_model_deg,qdd_model_deg_s2,q_link_deg,qd_link_deg_s,pos_error_deg,vel_error_deg_s,tau_inertia_joint_Nm,tau_gravity_joint_Nm,tau_joint_ff_Nm,tau_pd_joint_Nm,tau_joint_total_Nm,tau_dead_motor_Nm,tau_motor_cmd_Nm,tau_motor_actual_Nm,motor_pos_counts,motor_vel_native
0.000000,0.000000,943.265500,0.000000,0.000000,0.000000,10.068970,0.000000,-10.068970,943.265500,0.000000,0.000000,0.000000,4.716811,-4.716811,0.000000,0.058960,-0.002136,9165,0
0.002000,1.886531,942.799250,0.000000,1.886531,0.000000,10.068970,0.525000,-8.182439,942.274250,0.000000,0.027289,0.027289,5.366684,-5.339395,0.000000,0.066742,0.056604,9165,7
0.004000,3.771197,941.400750,-37.220226,3.771197,-37.220226,10.079956,0.450000,-6.308759,940.950750,-1.210244,0.054522,-1.155722,6.009172,-7.164894,0.000000,0.089561,0.067284,9175,6
0.006000,5.652134,939.071000,-55.784328,5.652134,-55.784328,10.087646,0.600000,-4.435512,938.471000,-1.813869,0.081641,-1.732228,6.641419,-8.373646,0.000000,0.104671,0.092916,9182,8
0.008000,7.527481,935.812750,-74.293267,7.527481,-74.293267,10.098633,0.975000,-2.571152,934.837750,-2.415701,0.108593,-2.307108,7.260497,-9.567605,0.000000,0.119595,0.105732,9192,13
0.010000,9.395385,931.629250,-92.728741,9.395385,-92.728741,10.122803,1.500000,-0.727418,930.129250,-3.015145,0.135322,-2.879822,7.862992,-10.742815,0.000000,0.134285,0.118548,9214,20
0.012000,11.253998,926.524500,-111.072519,11.253998,-111.072519,10.157959,2.475000,1.096039,924.049500,-3.611606,0.161776,-3.449831,8.446443,-11.896274,0.000000,0.148703,0.135636,9246,33
0.014000,13.101483,920.503500,-129.306462,13.101483,-129.306462,10.210693,3.075000,2.890790,917.428500,-4.204497,0.187902,-4.016595,9.015150,-13.031744,0.000000,0.162897,0.148452,9294,41
0.016000,14.936012,913.572250,-147.412541,14.936012,-147.412541,10.268921,3.525000,4.667091,910.047250,-4.793230,0.213652,-4.579577,9.570783,-14.150360,0.000000,0.176879,0.161268,9347,47
0.018000,16.755772,905.737500,-165.372849,16.755772,-165.372849,10.339233,4.275000,6.416539,901.462500,-5.377223,0.238979,-5.138244,10.106539,-15.244783,0.000000,0.190560,0.179424,9411,57
0.020000,18.558962,897.007250,-183.169628,18.558962,-183.169628,10.424927,5.550000,8.134035,891.457250,-5.955898,0.263837,-5.692061,10.618746,-16.310807,0.000000,0.203885,0.189036,9489,74
0.022000,20.343801,887.390000,-200.785278,20.343801,-200.785278,10.526001,6.450000,9.817800,880.940000,-6.528684,0.288185,-6.240499,11.114710,-17.355210,0.000000,0.216940,0.202920,9581,86
0.024000,22.108522,876.895000,-218.202380,22.108522,-218.202380,10.646851,7.650000,11.461671,869.245000,-7.095015,0.311983,-6.783031,11.586472,-18.369503,0.000000,0.229619,0.216804,9691,102
0.026000,23.851381,865.533250,-235.403712,23.851381,-235.403712,10.787476,9.375000,13.063905,856.158250,-7.654329,0.335197,-7.319132,12.031553,-19.350685,0.000000,0.241884,0.231756,9819,125
0.028000,25.570655,853.315500,-252.372264,25.570655,-252.372264,10.956665,10.950000,14.613990,842.365500,-8.206074,0.357792,-7.848282,12.452271,-20.300552,0.000000,0.253757,0.238164,9973,146
0.030000,27.264643,840.253750,-269.091255,27.264643,-269.091255,11.184082,11.700000,16.080561,828.553750,-8.749705,0.379741,-8.369964,12.843670,-21.213634,0.000000,0.265170,0.254184,10180,156
0.032000,28.931670,826.361000,-285.544154,28.931670,-285.544154,11.400513,13.725000,17.531157,812.636000,-9.284683,0.401016,-8.883667,13.211115,-22.094783,0.000000,0.276185,0.262728,10377,183
0.034000,30.570087,811.651500,-301.714692,30.570087,-301.714692,11.661987,13.275000,18.908100,798.376500,-9.810480,0.421595,-9.388885,13.567321,-22.956207,0.000000,0.286953,0.276612,10615,177
0.036000,32.178276,796.139500,-317.586877,32.178276,-317.586877,11.889404,14.250000,20.288872,781.889500,-10.326576,0.441459,-9.885117,13.905425,-23.790542,0.000000,0.297382,0.289428,10822,190
0.038000,33.754645,779.839750,-333.145014,33.754645,-333.145014,12.160767,14.925000,21.593878,764.914750,-10.832461,0.460593,-10.371868,14.212826,-24.584694,0.000000,0.307309,0.294768,11069,199
0.040000,35.297635,762.769000,-348.373719,35.297635,-348.373719,12.450806,18.375000,22.846829,744.394000,-11.327633,0.478984,-10.848649,14.471111,-25.319760,0.000000,0.316497,0.308652,11333,245
0.042000,36.805721,744.944000,-363.257932,36.805721,-363.257932,12.750732,16.875000,24.054989,728.069000,-11.811605,0.496624,-11.314981,14.750376,-26.065357,0.000000,0.325817,0.315060,11606,225
0.044000,38.277411,726.382500,-377.782936,38.277411,-377.782936,13.108887,20.850000,25.168524,705.532500,-12.283896,0.513506,-11.770390,14.942405,-26.712795,0.000000,0.333910,0.327876,11932,278
0.046000,39.711251,707.102750,-391.934367,39.711251,-391.934367,13.469238,21.225000,26.242013,685.877750,-12.744041,0.529629,-12.214412,15.145603,-27.360015,0.000000,0.342000,0.336420,12260,283
0.048000,41.105822,687.123500,-405.698231,41.105822,-405.698231,13.873535,22.950000,27.232287,664.173500,-13.191583,0.544991,-12.646592,15.301869,-27.948460,0.000000,0.349356,0.340692,12628,306
0.050000,42.459745,666.465000,-419.060918,42.459745,-419.060918,14.314087,21.225000,28.145658,645.240000,-13.626081,0.559598,-13.066483,15.455469,-28.521953,0.000000,0.356524,0.348168,13029,283
0.052000,43.771682,645.147500,-432.009215,43.771682,-432.009215,14.752441,22.425000,29.019241,622.722500,-14.047105,0.573453,-13.473652,15.563905,-29.037557,0.000000,0.362969,0.354576,13428,299
0.054000,45.040335,623.191750,-444.530316,45.040335,-444.530316,15.157837,25.425000,29.882498,597.766750,-14.454238,0.586565,-13.867672,15.647459,-29.515131,0.000000,0.368939,0.363120,13797,339
0.056000,46.264449,600.619750,-456.611842,46.264449,-456.611842,15.684082,25.275000,30.580367,575.344750,-14.847077,0.598945,-14.248133,15.695392,-29.943525,0.000000,0.374294,0.368460,14276,337
0.058000,47.442814,577.454250,-468.241844,47.442814,-468.241844,16.141113,27.075000,31.301701,550.379250,-15.225236,0.610603,-14.614633,15.729320,-30.343952,0.000000,0.379299,0.371664,14692,361
0.060000,48.574266,553.717500,-479.408822,48.574266,-479.408822,16.654175,25.725000,31.920091,527.992500,-15.588338,0.621555,-14.966784,15.749818,-30.716601,0.000000,0.383958,0.380208,15159,343
0.062000,49.657684,529.433000,-490.101734,49.657684,-490.101734,17.152954,26.475000,32.504730,502.958000,-15.936027,0.631814,-15.304213,15.735428,-31.039640,0.000000,0.387996,0.383412,15613,353
0.064000,50.691998,504.625250,-500.310006,50.691998,-500.310006,17.590210,29.625000,33.101788,475.000250,-16.267956,0.641398,-15.626559,15.699863,-31.326421,0.000000,0.391580,0.389820,16011,395
0.066000,51.676185,479.318500,-510.023544,51.676185,-510.023544,18.099976,30.450000,33.576209,448.868500,-16.583799,0.650323,-15.933476,15.637425,-31.570901,0.000000,0.394636,0.395160,16475,406
0.068000,52.609272,453.537750,-519.232741,52.609272,-519.232741,18.563599,28.200000,34.045673,425.337750,-16.883243,0.658607,-16.224636,15.595954,-31.820590,0.000000,0.397757,0.393024,16897,376
0.070000,53.490336,427.308250,-527.928493,53.490336,-527.928493,19.067871,29.775000,34.422465,397.533250,-17.165992,0.666270,-16.499722,15.484839,-31.984561,0.000000,0.399807,0.401568,17356,397
0.072000,54.318505,400.656500,-536.102199,54.318505,-536.102199,19.605103,29.850000,34.713402,370.806500,-17.431766,0.673329,-16.758437,15.353161,-32.111598,0.000000,0.401395,0.399432,17845,398
0.074000,55.092962,373.608500,-543.745778,55.092962,-543.745778,20.145630,29.850000,34.947332,343.758500,-17.680303,0.679803,-17.000500,15.198779,-32.199279,0.000000,0.402491,0.401568,18337,398
0.076000,55.812939,346.191000,-550.851670,55.812939,-550.851670,20.685059,30.600000,35.127880,315.591000,-17.911356,0.685710,-17.225647,15.015994,-32.241641,0.000000,0.403021,0.405840,18828,408
0.078000,56.477726,318.431250,-557.412850,56.477726,-557.412850,21.191528,31.050000,35.286198,287.381250,-18.124698,0.691068,-17.433630,14.825081,-32.258712,0.000000,0.403234,0.401568,19289,414
0.080000,57.086664,290.356250,-563.422828,57.086664,-563.422828,21.894653,31.350000,35.192011,259.006250,-18.320117,0.695894,-17.624223,14.544585,-32.168808,0.000000,0.402110,0.403704,19929,418
0.082000,57.639151,261.994500,-568.875663,57.639151,-568.875663,22.479126,31.425000,35.160025,230.569500,-18.497420,0.700205,-17.797215,14.285262,-32.082478,0.000000,0.401031,0.403704,20461,419
0.084000,58.134642,233.373750,-573.765962,58.134642,-573.765962,23.132812,32.250000,35.001829,201.123750,-18.656432,0.704016,-17.952416,13.973079,-31.925495,0.000000,0.399069,0.399432,21056,430
0.086000,58.572646,204.522000,-578.088888,58.572646,-578.088888,23.757935,31.800000,34.814711,172.722000,-18.796995,0.707340,-18.089655,13.659911,-31.749565,0.000000,0.396870,0.423996,21625,424
0.088000,58.952730,175.468250,-581.840169,58.952730,-581.840169,24.344604,31.575000,34.608126,143.893250,-18.918971,0.710192,-18.208779,13.336220,-31.544999,0.000000,0.394312,0.395160,22159,421
0.090000,59.274519,146.240750,-585.016093,59.274519,-585.016093,24.933472,33.600000,34.341047,112.640750,-19.022238,0.712582,-18.309656,12.970263,-31.279919,0.000000,0.390999,0.399432,22695,448
0.092000,59.537693,116.868500,-587.613520,59.537693,-587.613520,25.582764,32.100000,33.954929,84.768500,-19.106696,0.714520,-18.392176,12.592251,-30.984427,0.000000,0.387305,0.391956,23286,428
0.094000,59.741993,87.381000,-589.629883,59.741993,-589.629883,26.122192,33.000000,33.619801,54.381000,-19.172259,0.716014,-18.456245,12.210088,-30.666333,0.000000,0.383329,0.387684,23777,440
0.096000,59.887217,57.807000,-591.063187,59.887217,-591.063187,26.694580,30.750000,33.192637,27.057000,-19.218864,0.717070,-18.501794,11.822533,-30.324327,0.000000,0.379054,0.375936,24298,410
0.098000,59.973221,28.176000,-591.912014,59.973221,-591.912014,27.324097,30.675000,32.649124,-2.499000,-19.246464,0.717694,-18.528771,11.374886,-29.903657,0.000000,0.373796,0.378072,24871,409
0.100000,59.999921,-1.483000,-592.175526,59.999921,-592.175526,27.941528,30.375000,32.058393,-31.858000,-19.255033,0.717887,-18.537146,10.912477,-29.449622,-0.000000,0.368120,0.369528,25433,405
0.102000,59.967289,-31.140750,-591.853461,59.967289,-591.853461,28.539185,31.350000,31.428104,-62.490750,-19.244560,0.717651,-18.526910,10.425143,-28.952053,-0.000000,0.361901,0.369528,25977,418
0.104000,59.875358,-60.767500,-590.946139,59.875358,-590.946139,29.120361,30.300000,30.754997,-91.067500,-19.215058,0.716984,-18.498074,9.940805,-28.438879,-0.000000,0.355486,0.360984,26506,404
0.106000,59.724219,-90.334250,-589.454456,59.724219,-589.454456,29.699341,28.725000,30.024878,-119.059250,-19.166555,0.715884,-18.450671,9.441672,-27.892343,-0.000000,0.348654,0.354576,27033,383
0.108000,59.514021,-119.811500,-587.379888,59.514021,-587.379888,30.238770,28.725000,29.275251,-148.536500,-19.099099,0.714346,-18.384753,8.922765,-27.307518,-0.000000,0.341344,0.351372,27524,383
0.110000,59.244973,-149.170500,-584.724485,59.244973,-584.724485,30.827637,26.025000,28.417336,-175.195500,-19.012756,0.712363,-18.300393,8.390653,-26.691045,-0.000000,0.333638,0.342828,28060,347
0.112000,58.917339,-178.382000,-581.490875,58.917339,-581.490875,31.361572,26.550000,27.555767,-204.932000,-18.907613,0.709928,-18.197685,7.830408,-26.028093,-0.000000,0.325351,0.335352,28546,354
0.114000,58.531445,-207.416750,-577.682254,58.531445,-577.682254,31.897705,23.700000,26.633740,-231.116750,-18.783773,0.707029,-18.076744,7.280055,-25.356799,-0.000000,0.316960,0.323604,29034,316
0.116000,58.087672,-236.246500,-573.302388,58.087672,-573.302388,32.372314,22.575000,25.715358,-258.821500,-18.641358,0.703657,-17.937702,6.717709,-24.655411,-0.000000,0.308193,0.319332,29466,301
0.118000,57.586459,-264.842750,-568.355609,57.586459,-568.355609,32.819458,22.725000,24.767001,-287.567750,-18.480510,0.699796,-17.780714,6.135812,-23.916526,-0.000000,0.298957,0.309720,29873,303
0.120000,57.028301,-293.177250,-562.846808,57.028301,-562.846808,33.296265,22.575000,23.732036,-315.752250,-18.301387,0.695435,-17.605953,5.528585,-23.134538,-0.000000,0.289182,0.301176,30307,301
0.122000,56.413750,-321.221750,-556.781433,56.413750,-556.781433,33.708252,23.475000,22.705498,-344.696750,-18.104167,0.690556,-17.413611,4.917667,-22.331278,-0.000000,0.279141,0.293700,30682,313
0.124000,55.743414,-348.948750,-550.165481,55.743414,-550.165481,34.049927,19.050000,21.693487,-367.998750,-17.889044,0.685144,-17.203901,4.361061,-21.564961,-0.000000,0.269562,0.280884,30993,254
0.126000,55.017955,-376.330500,-543.005495,55.017955,-543.005495,34.402588,18.225000,20.615367,-394.555500,-17.656232,0.679181,-16.977051,3.752974,-20.730025,-0.000000,0.259125,0.270204,31314,243
0.128000,54.238092,-403.339750,-535.308555,54.238092,-535.308555,34.702515,18.900000,19.535577,-422.239750,-17.405960,0.672650,-16.733311,3.134466,-19.867777,-0.000000,0.248347,0.260592,31587,252
0.130000,53.404596,-429.950500,-527.082272,53.404596,-527.082272,35.003540,14.775000,18.401056,-444.725500,-17.138477,0.665531,-16.472945,2.542218,-19.015163,-0.000000,0.237690,0.246708,31861,197
0.132000,52.518290,-456.136500,-518.334780,52.518290,-518.334780,35.318848,16.425000,17.199442,-472.561500,-16.854045,0.657807,-16.196238,1.879861,-18.076099,-0.000000,0.225951,0.239232,32148,219
0.134000,51.580050,-481.871000,-509.074730,51.580050,-509.074730,35.567139,14.775000,16.012911,-496.646000,-16.552948,0.649459,-15.903488,1.255507,-17.158995,-0.000000,0.214487,0.227484,32374,197
0.136000,50.590806,-507.128750,-499.311279,50.590806,-499.311279,35.845093,14.775000,14.745713,-521.903750,-16.235482,0.640469,-15.595013,0.592756,-16.187768,-0.000000,0.202347,0.213600,32627,197
0.138000,49.551535,-531.885500,-489.054081,49.551535,-489.054081,36.070312,13.500000,13.481223,-545.385500,-15.901961,0.630819,-15.271143,-0.053552,-15.217591,-0.000000,0.190220,0.202920,32832,180
0.140000,48.463264,-556.116250,-478.313278,48.463264,-478.313278,36.304321,10.125000,12.158943,-566.241250,-15.552716,0.620491,-14.932225,-0.697115,-14.235110,-0.000000,0.177939,0.189036,33045,135
0.142000,47.327070,-579.796750,-467.099493,47.327070,-467.099493,36.499878,10.350000,10.827192,-590.146750,-15.188091,0.609469,-14.578622,-1.370599,-13.208023,-0.000000,0.165100,0.176220,33223,138
0.144000,46.144077,-602.904250,-455.423814,46.144077,-455.423814,36.693237,9.450000,9.450840,-612.354250,-14.808448,0.597739,-14.210709,-2.044834,-12.165875,-0.000000,0.152073,0.164472,33399,126
0.146000,44.915453,-625.415500,-443.297786,44.915453,-443.297786,36.849243,6.975000,8.066210,-632.390500,-14.414161,0.585287,-13.828874,-2.703010,-11.125864,-0.000000,0.139073,0.152724,33541,93
0.148000,43.642415,-647.308250,-430.733401,43.642415,-430.733401,36.994263,6.375000,6.648152,-653.683250,-14.005621,0.572101,-13.433520,-3.383820,-10.049700,-0.000000,0.125621,0.136704,33673,85
0.150000,42.326220,-668.560750,-417.743082,42.326220,-417.743082,37.110718,5.025000,5.215502,-673.585750,-13.583231,0.558171,-13.025060,-4.057591,-8.967469,-0.000000,0.112093,0.131364,33779,67
0.152000,40.968172,-689.152250,-404.339676,40.968172,-404.339676,37.200806,4.575000,3.767366,-693.727250,-13.147409,0.543489,-12.603919,-4.738853,-7.865066,-0.000000,0.098313,0.112140,33861,61
0.154000,39.569611,-709.062500,-390.536436,39.569611,-390.536436,37.285400,3.675000,2.284211,-712.737500,-12.698586,0.528051,-12.170535,-5.422468,-6.748067,-0.000000,0.084351,0.095052,33938,49
0.156000,38.131922,-728.271250,-376.347012,38.131922,-376.347012,37.344727,2.175000,0.787195,-730.446250,-12.237206,0.511852,-11.725354,-6.099563,-5.625791,-0.000000,0.070322,0.084372,33992,29
0.158000,36.656526,-746.760000,-361.785435,36.656526,-361.785435,37.386475,1.500000,-0.729949,-748.260000,-11.763726,0.494894,-11.268832,-6.784600,-4.484231,-0.000000,0.056053,0.071556,34030,20
0.160000,35.144882,-764.510500,-346.866104,35.144882,-346.866104,37.410645,0.900000,-2.265763,-765.410500,-11.278612,0.477179,-10.801433,-7.470367,-3.331066,-0.000000,0.041638,0.054468,34052,12
0.162000,33.598484,-781.504750,-331.603773,33.598484,-331.603773,37.424927,0.375000,-3.826443,-781.879750,-10.782346,0.458713,-10.323633,-8.158868,-2.164765,-0.000000,0.027060,0.039516,34065,5
0.164000,32.018863,-797.726250,-316.013534,32.018863,-316.013534,37.427124,0.000000,-5.408261,-797.726250,-10.275418,0.439505,-9.835912,-8.849314,-0.986598,-0.000000,0.012332,0.028836,34067,0
0.166000,30.407579,-813.159000,-300.110802,30.407579,-300.110802,37.427124,0.000000,-7.019545,-813.159000,-9.758328,0.419569,-9.338760,-9.546434,0.207675,-0.000000,-0.002596,0.013884,34067,0
0.168000,28.766227,-827.787250,-283.911305,28.766227,-283.911305,37.424927,-0.150000,-8.658700,-827.637250,-9.231590,0.398919,-8.832671,-10.244954,1.412283,-0.000000,-0.017654,-0.001068,34065,-2
0.170000,27.096430,-841.597500,-267.431059,27.096430,-267.431059,37.420532,-0.375000,-10.324102,-841.222500,-8.695722,0.377576,-8.318146,-10.944843,2.626696,-0.000000,-0.032834,-0.019224,34061,-5
0.172000,25.399837,-854.575500,-250.686364,25.399837,-250.686364,37.412842,-0.600000,-12.013005,-853.975500,-8.151256,0.355562,-7.795694,-11.645672,3.849978,-0.000000,-0.048125,-0.032040,34054,-8
0.174000,23.678128,-866.708000,-233.693775,23.678128,-233.693775,37.400757,-0.975000,-13.722629,-865.733000,-7.598729,0.332903,-7.265826,-12.345047,5.079221,-0.000000,-0.063490,-0.046992,34043,-13
0.176000,21.933005,-877.983750,-216.470097,21.933005,-216.470097,37.378784,-1.650000,-15.445779,-876.333750,-7.038688,0.309629,-6.729059,-13.039049,6.309990,-0.000000,-0.078875,-0.059808,34023,-22
0.178000,20.166193,-888.391250,-199.032362,20.166193,-199.032362,37.346924,-2.175000,-17.180731,-886.216250,-6.471687,0.285774,-6.185913,-13.730902,7.544989,-0.000000,-0.094312,-0.083304,33994,-29
0.180000,18.379440,-897.920250,-181.397812,18.379440,-181.397812,37.300781,-2.475000,-18.921341,-895.445250,-5.898286,0.261373,-5.636913,-14.419028,8.782115,-0.000000,-0.109776,-0.097188,33952,-33
0.182000,16.574512,-906.561500,-163.583885,16.574512,-163.583885,37.255737,-3.600000,-20.681225,-902.961500,-5.319053,0.236467,-5.082587,-15.098935,10.016349,-0.000000,-0.125204,-0.108936,33911,-48
0.184000,14.753194,-914.306250,-145.608198,14.753194,-145.608198,37.196411,-3.900000,-22.443217,-910.406250,-4.734560,0.211096,-4.523464,-15.778954,11.255490,-0.000000,-0.140694,-0.123888,33857,-52
0.186000,12.917287,-921.146750,-127.488525,12.917287,-127.488525,37.125000,-5.100000,-24.207713,-916.046750,-4.145385,0.185306,-3.960079,-16.444102,12.484022,-0.000000,-0.156050,-0.142044,33792,-68
0.188000,11.068607,-927.076250,-109.242785,11.068607,-109.242785,37.039307,-5.025000,-25.970700,-922.051250,-3.552111,0.159144,-3.392967,-17.111899,13.718933,-0.000000,-0.171487,-0.154860,33714,-67
0.190000,9.208982,-932.089000,-90.889019,9.208982,-90.889019,36.920654,-6.375000,-27.711672,-925.714000,-2.955325,0.132661,-2.822664,-17.751577,14.928913,-0.000000,-0.186611,-0.169812,33606,-85
0.192000,7.340251,-936.180250,-72.445377,7.340251,-72.445377,36.786621,-7.800000,-29.446370,-928.380250,-2.355616,0.105907,-2.249709,-18.380368,16.130660,-0.000000,-0.201633,-0.191172,33484,-104
0.194000,5.464261,-939.345750,-53.930097,5.464261,-53.930097,36.643799,-9.675000,-31.179538,-929.670750,-1.753578,0.078936,-1.674642,-18.996620,17.321978,-0.000000,-0.216525,-0.209328,33354,-129
0.196000,3.582868,-941.582500,-35.361488,3.582868,-35.361488,36.489990,-8.700000,-32.907122,-932.882500,-1.149805,0.051803,-1.098003,-19.627688,18.529685,-0.000000,-0.231621,-0.216804,33214,-116
0.198000,1.697931,-942.888000,-16.757912,1.697931,-16.757912,36.320801,-10.950000,-34.622870,-931.938000,-0.544896,0.024562,-0.520334,-20.218355,19.698020,-0.000000,-0.246225,-0.230688,33060,-146
0.200000,-0.188684,-943.261000,1.862236,-0.188684,1.862236,36.119751,-13.650000,-36.308435,-929.611000,0.060552,-0.002730,0.057822,-20.786421,20.844243,-0.000000,-0.260553,-0.246708,32877,-182
0.202000,-2.075113,-942.701250,20.480542,-2.075113,20.480542,35.897827,-14.100000,-37.972940,-928.601250,0.665940,-0.030016,0.635924,-21.358631,21.994556,-0.000000,-0.274932,-0.259524,32675,-188
0.204000,-3.959489,-941.209500,39.078596,-3.959489,39.078596,35.662720,-13.350000,-39.622209,-927.859500,1.270670,-0.057240,1.213430,-21.927862,23.141292,-0.000000,-0.289266,-0.276612,32461,-178
0.206000,-5.839951,-938.787000,57.638006,-5.839951,57.638006,35.386963,-16.725000,-41.226914,-922.062000,1.874143,-0.084345,1.789798,-22.437417,24.227215,-0.000000,-0.302840,-0.288360,32210,-223
0.208000,-7.714637,-935.436000,76.140422,-7.714637,76.140422,35.123291,-16.350000,-42.837928,-919.086000,2.475763,-0.111277,2.364486,-22.973796,25.338282,-0.000000,-0.316729,-0.305448,31970,-218
0.210000,-9.581695,-931.160250,94.567545,-9.581695,94.567545,34.794800,-17.325000,-44.376495,-913.835250,3.074935,-0.137981,2.936954,-23.465036,26.401990,-0.000000,-0.330025,-0.317196,31671,-231
0.212000,-11.439278,-925.963500,112.901154,-11.439278,112.901154,34.356445,-20.850000,-45.795723,-905.113500,3.671066,-0.164404,3.506662,-23.884328,27.390990,-0.000000,-0.342387,-0.330012,31272,-278
0.214000,-13.285549,-919.851000,131.123121,-13.285549,131.123121,34.008179,-21.300000,-47.293728,-898.551000,4.263567,-0.190495,4.073072,-24.349962,28.423034,-0.000000,-0.355288,-0.342828,30955,-284
0.216000,-15.118682,-912.829250,149.215425,-15.118682,149.215425,33.590698,-25.725000,-48.709380,-887.104250,4.851852,-0.216205,4.635647,-24.744226,29.379873,-0.000000,-0.367248,-0.357780,30575,-343
0.218000,-16.936866,-904.904750,167.160178,-16.936866,167.160178,33.110596,-23.625000,-50.047462,-881.279750,5.435339,-0.241486,5.193852,-25.160476,30.354329,-0.000000,-0.379429,-0.368460,30138,-315
0.220000,-18.738301,-896.085250,184.939632,-18.738301,184.939632,32.699707,-27.000000,-51.438008,-869.085250,6.013451,-0.266295,5.747156,-25.539452,31.286607,-0.000000,-0.391083,-0.378072,29764,-360
0.222000,-20.521207,-886.379750,202.536209,-20.521207,202.536209,32.222900,-27.525000,-52.744107,-858.854750,6.585617,-0.290590,6.295027,-25.906088,32.201115,-0.000000,-0.402514,-0.390888,29330,-367
0.224000,-22.283820,-875.797750,219.932506,-22.283820,219.932506,31.661499,-29.100000,-53.945319,-846.697750,7.151271,-0.314332,6.836939,-26.219300,33.056240,-0.000000,-0.413203,-0.395160,28819,-388
0.226000,-24.024398,-864.349750,237.111321,-24.024398,237.111321,31.155029,-32.700000,-55.179427,-831.649750,7.709853,-0.337485,7.372368,-26.518767,33.891135,-0.000000,-0.423639,-0.416520,28358,-436
0.228000,-25.741219,-852.047000,254.055668,-25.741219,254.055668,30.613403,-31.500000,-56.354622,-820.547000,8.260811,-0.360017,7.900794,-26.832098,34.732892,-0.000000,-0.434161,-0.421860,27865,-420
0.230000,-27.432586,-838.901750,270.748790,-27.432586,270.748790,30.059692,-35.475000,-57.492278,-803.426750,8.803601,-0.381899,8.421702,-27.079812,35.501514,-0.000000,-0.443769,-0.430404,27361,-473
0.232000,-29.096826,-824.926750,287.174181,-29.096826,287.174181,29.502686,-36.750000,-58.599512,-788.176750,9.337684,-0.403105,8.934579,-27.333228,36.267807,-0.000000,-0.453348,-0.437880,26854,-490
0.234000,-30.732293,-810.136250,303.315597,-30.732293,303.315597,28.795166,-37.875000,-59.527459,-772.261250,9.862535,-0.423614,9.438921,-27.518254,36.957175,-0.000000,-0.461965,-0.453900,26210,-505
0.236000,-32.337371,-794.544500,319.157079,-32.337371,319.157079,28.148071,-39.675000,-60.485442,-754.869500,10.377632,-0.443406,9.934227,-27.700881,37.635108,-0.000000,-0.470439,-0.464580,25621,-529
0.238000,-33.910471,-778.167000,334.682960,-33.910471,334.682960,27.508667,-40.950000,-61.419138,-737.217000,10.882468,-0.462466,10.420002,-27.872756,38.292758,-0.000000,-0.478659,-0.472056,25039,-546
0.240000,-35.450039,-761.020250,349.877888,-35.450039,349.877888,26.760498,-42.375000,-62.210537,-718.645250,11.376543,-0.480782,10.895761,-27.986937,38.882697,-0.000000,-0.486034,-0.479532,24358,-565
0.242000,-36.954552,-743.120750,364.726837,-36.954552,364.726837,26.054077,-43.950000,-63.008629,-699.170750,11.859367,-0.498346,11.361021,-28.095577,39.456598,-0.000000,-0.493207,-0.487008,23715,-586
0.244000,-38.422522,-724.486500,379.215124,-38.422522,379.215124,25.268555,-45.675000,-63.691077,-678.811500,12.330465,-0.515153,11.815312,-28.156128,39.971440,-0.000000,-0.499643,-0.495552,23000,-609
0.246000,-39.852498,-705.136000,393.328421,-39.852498,393.328421,24.432495,-48.300000,-64.284993,-656.836000,12.789369,-0.531199,12.258170,-28.171671,40.429842,-0.000000,-0.500000,-0.501960,22239,-644
0.248000,-41.243066,-685.088000,407.052774,-41.243066,407.052774,23.451416,-49.425000,-64.694482,-635.663000,13.235627,-0.546486,12.689141,-28.129841,40.818982,-0.000000,-0.500000,-0.495552,21346,-659
0.250000,-42.592850,-664.362500,420.374610,-42.592850,420.374610,22.563721,-49.725000,-65.156571,-614.637500,13.668797,-0.561017,13.107780,-28.107658,41.215438,-0.000000,-0.500000,-0.504096,20538,-663
0.252000,-43.900516,-642.980250,433.280756,-43.900516,433.280756,21.556274,-51.000000,-65.456790,-591.980250,14.088450,-0.574797,13.513652,-28.014732,41.528385,-0.000000,-0.500000,-0.498756,19621,-680
0.254000,-45.164771,-620.962000,445.758450,-45.164771,445.758450,20.592773,-51.600000,-65.757544,-569.362000,14.494171,-0.587836,13.906335,-27.922334,41.828669,-0.000000,-0.500000,-0.505164,18744,-688
0.256000,-46.384364,-598.329500,457.795354,-46.384364,457.795354,19.547974,-52.950000,-65.932338,-545.379500,14.885560,-0.600143,14.285418,-27.774061,42.059479,-0.000000,-0.500000,-0.499824,17793,-706
0.258000,-47.558089,-575.105750,469.379563,-47.558089,469.379563,18.600952,-53.625000,-66.159041,-521.480750,15.262230,-0.611730,14.650500,-27.644640,42.295140,-0.000000,-0.500000,-0.498756,16931,-715
0.260000,-48.684787,-551.313500,480.499624,-48.684787,480.499624,17.536377,-53.475000,-66.221164,-497.838500,15.623807,-0.622611,15.001195,-27.460007,42.461203,-0.000000,-0.500000,-0.504096,15962,-713
0.262000,-49.763343,-526.975500,491.144540,-49.763343,491.144540,16.527832,-54.075000,-66.291175,-472.900500,15.969934,-0.632802,15.337132,-27.266821,42.603952,-0.000000,-0.500000,-0.500892,15044,-721
0.264000,-50.792689,-502.116500,501.303785,-50.792689,501.303785,15.595093,-54.225000,-66.387782,-447.891500,16.300270,-0.642320,15.657950,-27.082298,42.740248,-0.000000,-0.500000,-0.497688,14195,-723
0.266000,-51.771809,-476.761250,510.967313,-51.771809,510.967313,14.503052,-54.225000,-66.274861,-422.536250,16.614486,-0.651180,15.963307,-26.821615,42.784922,-0.000000,-0.500000,-0.494484,13201,-723
0.268000,-52.699734,-450.934500,520.125568,-52.699734,520.125568,13.515381,-55.575000,-66.215115,-395.359500,16.912274,-0.659401,16.252873,-26.563598,42.816470,-0.000000,-0.500000,-0.490212,12302,-741
0.270000,-53.575547,-424.661750,528.769493,-53.575547,528.769493,12.456299,-55.950000,-66.031846,-368.711750,17.193338,-0.667003,16.526335,-26.267079,42.793415,-0.000000,-0.500000,-0.498756,11338,-746
0.272000,-54.398381,-397.969000,536.890542,-54.398381,536.890542,11.418091,-54.975000,-65.816472,-342.994000,17.457400,-0.674002,16.783398,-25.967470,42.750868,-0.000000,-0.500000,-0.497688,10393,-733
0.274000,-55.167423,-370.883000,544.480683,-55.167423,544.480683,10.352417,-55.125000,-65.519840,-315.758000,17.704199,-0.680418,17.023780,-25.626247,42.650028,-0.000000,-0.500000,-0.498756,9423,-735
0.276000,-55.881913,-343.430000,551.532412,-55.881913,551.532412,9.310913,-55.575000,-65.192826,-287.855000,17.933491,-0.686270,17.247221,-25.268598,42.515820,-0.000000,-0.500000,-0.505164,8475,-741
0.278000,-56.541143,-315.637250,558.038754,-56.541143,558.038754,8.199097,-54.750000,-64.740240,-260.887250,18.145050,-0.691574,17.453476,-24.875278,42.328754,-0.000000,-0.500000,-0.499824,7463,-730
0.280000,-57.144462,-287.532750,563.993277,-57.144462,563.993277,7.090576,-55.725000,-64.235038,-231.807750,18.338666,-0.696348,17.642318,-24.445162,42.087480,-0.000000,-0.500000,-0.503028,6454,-743
0.282000,-57.691274,-259.143750,569.390091,-57.691274,569.390091,6.090820,-54.750000,-63.782094,-204.393750,18.514147,-0.700608,17.813539,-24.047823,41.861362,-0.000000,-0.500000,-0.504096,5544,-730
0.284000,-58.181037,-230.498500,574.223861,-58.181037,574.223861,5.091064,-55.125000,-63.272101,-175.373500,18.671321,-0.704370,17.966951,-23.616552,41.583503,-0.000000,-0.500000,-0.500892,4634,-735
0.286000,-58.613268,-201.625250,578.489806,-58.613268,578.489806,4.041870,-55.875000,-62.655138,-145.750250,18.810031,-0.707647,18.102384,-23.142680,41.245064,-0.000000,-0.500000,-0.500892,3679,-745
0.288000,-58.987538,-172.552500,582.183708,-58.987538,582.183708,2.971802,-55.950000,-61.959340,-116.602500,18.930141,-0.710452,18.219689,-22.645438,40.865128,-0.000000,-0.500000,-0.503028,2705,-746
0.290000,-59.303478,-143.309500,585.301915,-59.303478,585.301915,1.880859,-55.500000,-61.184337,-87.809500,19.031532,-0.712796,18.318736,-22.123645,40.442381,-0.000000,-0.500000,-0.499824,1712,-740
0.292000,-59.560776,-113.924750,587.841342,-59.560776,587.841342,0.900879,-54.975000,-60.461655,-58.949750,19.114103,-0.714689,18.399414,-21.619533,40.018947,-0.000000,-0.500000,-0.500892,820,-733
0.294000,-59.759177,-84.427000,589.799479,-59.759177,589.799479,-0.036255,-55.050000,-59.722922,-29.377000,19.177774,-0.716139,18.461635,-21.103595,39.565230,-0.000000,-0.494565,-0.503028,-33,-734
0.296000,-59.898484,-54.846000,591.174389,-59.898484,591.174389,-1.145874,-55.725000,-58.752610,0.879000,19.222480,-0.717152,18.505328,-20.500859,39.006187,-0.000000,-0.487577,-0.488076,-1043,-743
0.298000,-59.978561,-25.210750,591.964713,-59.978561,591.964713,-2.136841,-54.675000,-57.841720,29.464250,19.248178,-0.717732,18.530446,-19.933445,38.463891,-0.000000,-0.480799,-0.485940,-1945,-729
0.300000,-59.999327,4.449500,592.169669,-59.999327,592.169669,-3.234375,-54.975000,-56.764952,59.424500,19.254842,-0.717883,18.536960,-19.296130,37.833089,0.000000,-0.472914,-0.484872,-2944,-733
0.302000,-59.960763,34.105250,591.789055,-59.960763,591.789055,-4.104492,-54.300000,-55.856271,88.405250,19.242466,-0.717603,18.524863,-18.726035,37.250898,0.000000,-0.465636,-0.468852,-3736,-724
0.304000,-59.862906,63.727250,590.823247,-59.862906,590.823247,-5.281128,-51.825000,-54.581778,115.552250,19.211062,-0.716894,18.494169,-18.044251,36.538420,0.000000,-0.456730,-0.466716,-4807,-691
0.306000,-59.705854,93.286250,589.273200,-59.705854,589.273200,-6.222656,-51.675000,-53.483198,144.961250,19.160661,-0.715750,18.444911,-17.404132,35.849044,0.000000,-0.448113,-0.451764,-5664,-689
0.308000,-59.489761,122.753250,587.140446,-59.489761,587.140446,-7.253174,-50.625000,-52.236587,173.378250,19.091313,-0.714168,18.377145,-16.720998,35.098143,0.000000,-0.438727,-0.448560,-6602,-675
0.310000,-59.214841,152.098750,584.427095,-59.214841,584.427095,-8.118896,-49.350000,-51.095945,201.448750,19.003087,-0.712140,18.290946,-16.077877,34.368823,0.000000,-0.429610,-0.437880,-7390,-658
0.312000,-58.881366,181.293750,581.135831,-58.881366,581.135831,-9.136230,-46.950000,-49.745136,228.243750,18.896069,-0.709659,18.186410,-15.372526,33.558935,0.000000,-0.419487,-0.430404,-8316,-626
0.314000,-58.489666,210.309500,577.269906,-58.489666,577.269906,-9.947021,-46.575000,-48.542645,256.884500,18.770365,-0.706714,18.063652,-14.702839,32.766491,0.000000,-0.409581,-0.414384,-9054,-621
0.316000,-58.040128,239.117250,572.833145,-58.040128,572.833145,-10.767700,-44.550000,-47.272428,283.667250,18.626101,-0.703293,17.922808,-14.025726,31.948534,0.000000,-0.399357,-0.410112,-9801,-594
0.318000,-57.533197,267.688500,567.829934,-57.533197,567.829934,-11.566406,-43.125000,-45.966791,310.813500,18.463417,-0.699383,17.764034,-13.333077,31.097112,0.000000,-0.388714,-0.394092,-10528,-575
0.320000,-56.969374,295.995250,562.265222,-56.969374,562.265222,-12.284912,-40.950000,-44.684462,336.945250,18.282477,-0.694970,17.587506,-12.657418,30.244924,0.000000,-0.378062,-0.393024,-11182,-546
0.322000,-56.349216,324.009250,556.144510,-56.349216,556.144510,-13.023193,-39.675000,-43.326023,363.684250,18.083457,-0.690039,17.393418,-11.949891,29.343309,0.000000,-0.366791,-0.374868,-11854,-529
0.324000,-55.673337,351.702750,549.473852,-55.673337,549.473852,-13.806519,-37.950000,-41.866818,389.652750,17.866556,-0.684573,17.181983,-11.213915,28.395898,0.000000,-0.354949,-0.367392,-12567,-506
0.326000,-54.942405,379.048500,542.259843,-54.942405,542.259843,-14.444824,-35.850000,-40.497581,414.898500,17.631987,-0.678554,16.953433,-10.515650,27.469083,0.000000,-0.343364,-0.354576,-13148,-478
0.328000,-54.157143,406.019250,534.509617,-54.157143,534.509617,-15.079834,-32.775000,-39.077309,438.794250,17.379982,-0.671964,16.708018,-9.811352,26.519370,0.000000,-0.331492,-0.339624,-13726,-437
0.330000,-53.318328,432.588750,526.230838,-53.318328,526.230838,-15.711548,-31.650000,-37.606780,464.238750,17.110791,-0.664786,16.446005,-9.075995,25.522000,0.000000,-0.319025,-0.334284,-14301,-422
0.332000,-52.426788,458.730500,517.431693,-52.426788,517.431693,-16.281738,-28.875000,-36.145050,487.605500,16.824681,-0.657001,16.167680,-8.361842,24.529522,0.000000,-0.306619,-0.321468,-14820,-385
0.334000,-51.483406,484.418500,508.120883,-51.483406,508.120883,-16.850830,-26.325000,-34.632576,510.743500,16.521933,-0.648590,15.873343,-7.631972,23.505315,0.000000,-0.293816,-0.304380,-15338,-351
0.336000,-50.489114,509.627750,498.307614,-50.489114,498.307614,-17.346313,-27.150000,-33.142801,536.777750,16.202847,-0.639534,15.563313,-6.884750,22.448063,0.000000,-0.280601,-0.292632,-15789,-362
0.338000,-49.444895,534.332750,488.001591,-49.444895,488.001591,-17.839600,-26.175000,-31.605295,560.507750,15.867739,-0.629817,15.237922,-6.140976,21.378899,0.000000,-0.267236,-0.284088,-16238,-349
0.340000,-48.351783,558.509250,477.213005,-48.351783,477.213005,-18.239502,-21.900000,-30.112281,580.409250,15.516940,-0.619420,14.897520,-5.446143,20.343662,0.000000,-0.254296,-0.267000,-16602,-292
0.342000,-47.210858,582.133750,465.952524,-47.210858,465.952524,-18.640503,-18.825000,-28.570355,600.958750,15.150797,-0.608328,14.542468,-4.728581,19.271049,0.000000,-0.240888,-0.255252,-16967,-251
0.344000,-46.023248,605.182500,454.231283,-46.023248,454.231283,-19.027222,-17.625000,-26.996026,622.807500,14.769672,-0.596527,14.173145,-3.988370,18.161515,0.000000,-0.227019,-0.243504,-17319,-235
0.346000,-44.790128,627.633000,442.060872,-44.790128,442.060872,-19.371094,-16.350000,-25.419034,643.983000,14.373942,-0.584002,13.789940,-3.253105,17.043045,0.000000,-0.213038,-0.230688,-17632,-218
0.348000,-43.512716,649.462750,429.453327,-43.512716,429.453327,-19.655640,-15.600000,-23.857076,665.062750,13.963998,-0.570742,13.393256,-2.523923,15.917180,0.000000,-0.198965,-0.214668,-17891,-208
0.350000,-42.192277,670.650000,416.421115,-42.192277,416.421115,-19.948975,-14.925000,-22.243302,685.575000,13.540246,-0.556737,12.983509,-1.781607,14.765116,0.000000,-0.184564,-0.199716,-18158,-199
0.352000,-40.830116,691.174250,402.977123,-40.830116,402.977123,-20.203857,-10.875000,-20.626259,702.049250,13.103104,-0.541980,12.561125,-1.073387,13.634512,0.000000,-0.170431,-0.183696,-18390,-145
0.354000,-39.427580,711.015250,389.134644,-39.427580,389.134644,-20.393921,-11.400000,-19.033659,722.415250,12.653006,-0.526465,12.126541,-0.339738,12.466279,0.000000,-0.155828,-0.173016,-18563,-152
0.356000,-37.986055,730.153000,374.907367,-37.986055,374.907367,-20.566406,-9.525000,-17.419649,739.678000,12.190395,-0.510191,11.680205,0.374304,11.305901,0.000000,-0.141324,-0.154860,-18720,-127
0.358000,-36.506968,748.568500,360.309360,-36.506968,360.309360,-20.704834,-6.825000,-15.802134,755.393500,11.715730,-0.493156,11.222573,1.076067,10.146507,0.000000,-0.126831,-0.147384,-18846,-91
0.360000,-34.991781,766.244000,345.355060,-34.991781,345.355060,-20.835571,-5.400000,-14.156210,771.644000,11.229480,-0.475366,10.754114,1.792415,8.961699,0.000000,-0.112021,-0.127092,-18965,-72
0.362000,-33.441992,783.162000,330.059253,-33.441992,330.059253,-20.927856,-4.575000,-12.514136,787.737000,10.732125,-0.456825,10.275300,2.506045,7.769255,0.000000,-0.097116,-0.113208,-19049,-61
0.364000,-31.859133,799.305250,314.437066,-31.859133,314.437066,-21.012451,-3.300000,-10.846682,802.605250,10.224158,-0.437544,9.786613,3.217846,6.568768,0.000000,-0.082110,-0.096120,-19126,-44
0.366000,-30.244771,814.658000,298.503945,-30.244771,298.503945,-21.060791,-1.950000,-9.183980,816.608000,9.706080,-0.417536,9.288545,3.920435,5.368109,0.000000,-0.067101,-0.081168,-19170,-26
0.368000,-28.600501,829.205500,282.275647,-28.600501,282.275647,-21.090454,-0.975000,-7.510047,830.180500,9.178405,-0.396816,8.781589,4.623191,4.158399,0.000000,-0.051980,-0.067284,-19197,-13
0.370000,-26.927949,842.933000,265.768219,-26.927949,265.768219,-21.104736,-0.225000,-5.823213,843.158000,8.641654,-0.375404,8.266249,5.325257,2.940993,0.000000,-0.036762,-0.049128,-19210,-3
0.372000,-25.228769,855.827000,248.997985,-25.228769,248.997985,-21.104736,0.000000,-4.124033,855.827000,8.096357,-0.353324,7.743033,6.028941,1.714092,0.000000,-0.021426,-0.035244,-19210,0
0.374000,-23.504641,867.874500,231.981527,-23.504641,231.981527,-21.104736,0.000000,-2.399905,867.874500,7.543054,-0.330603,7.212451,6.735909,0.476542,0.000000,-0.005957,-0.022428,-19210,0
0.376000,-21.757271,879.063750,214.735673,-21.757271,214.735673,-21.102539,0.075000,-0.654732,878.988750,6.982292,-0.307269,6.675022,7.442079,-0.767057,0.000000,0.009588,-0.008544,-19208,1
0.378000,-19.988386,889.384000,197.277477,-19.988386,197.277477,-21.100342,0.150000,1.111956,889.234000,6.414626,-0.283358,6.131268,8.148176,-2.016909,0.000000,0.025211,0.009612,-19206,2
0.380000,-18.199735,898.824500,179.624202,-18.199735,179.624202,-21.098145,0.150000,2.898410,898.674500,5.840616,-0.258905,5.581711,8.854150,-3.272439,0.000000,0.040905,0.026700,-19204,2
0.382000,-16.393088,907.376250,161.793304,-16.393088,161.793304,-21.092651,0.375000,4.699563,907.001250,5.260831,-0.233950,5.026881,9.555536,-4.528655,0.000000,0.056608,0.040584,-19199,5
0.384000,-14.570230,915.031000,143.802416,-14.570230,143.802416,-21.084961,0.825000,6.514731,914.206000,4.675844,-0.208535,4.467309,10.252022,-5.784714,0.000000,0.072309,0.055536,-19192,11
0.386000,-12.732964,921.780750,125.669328,-12.732964,125.669328,-21.064087,1.650000,8.331123,920.130750,4.086233,-0.182706,3.903527,10.937766,-7.034239,0.000000,0.087928,0.074760,-19173,22
0.388000,-10.883107,927.618750,107.411971,-10.883107,107.411971,-21.032227,2.250000,10.149120,925.368750,3.492581,-0.156510,3.336071,11.618077,-8.282005,0.000000,0.103525,0.089712,-19144,30
0.390000,-9.022489,932.539750,89.048399,-9.022489,89.048399,-20.984985,3.150000,11.962496,929.389750,2.895476,-0.129997,2.765479,12.286155,-9.520676,0.000000,0.119008,0.108936,-19101,42
0.392000,-7.152948,936.538750,70.596771,-7.152948,70.596771,-20.934448,3.600000,13.781500,932.938750,2.295507,-0.103219,2.192288,12.952078,-10.759789,0.000000,0.134497,0.117480,-19055,48
0.394000,-5.276334,939.611250,52.075334,-5.276334,52.075334,-20.872925,3.375000,15.596591,936.236250,1.693269,-0.076229,1.617039,13.614440,-11.997400,0.000000,0.149968,0.135636,-18999,45
0.396000,-3.394503,941.754750,33.502401,-3.394503,33.502401,-20.808105,4.425000,17.413602,937.329750,1.089356,-0.049082,1.040273,14.258239,-13.217966,0.000000,0.165225,0.149520,-18940,59
0.398000,-1.509315,942.967250,14.896339,-1.509315,14.896339,-20.713623,6.000000,19.204308,936.967250,0.484366,-0.021834,0.462532,14.880150,-14.417618,0.000000,0.180220,0.167676,-18854,80
0.400000,0.377366,943.247000,-3.724453,0.377366,-3.724453,-20.620239,6.375000,20.997605,936.872000,-0.121103,0.005460,-0.115644,15.505297,-15.620941,0.000000,0.195262,0.184764,-18769,85
0.402000,2.263673,942.594000,-22.341562,2.263673,-22.341562,-20.501587,8.175000,22.765260,934.419000,-0.726453,0.032742,-0.693711,16.100919,-16.794630,0.000000,0.209933,0.194376,-18661,109
0.404000,4.147742,941.009250,-40.936579,4.147742,-40.936579,-20.351074,8.925000,24.498816,932.084250,-1.331084,0.059956,-1.271127,16.685670,-17.956797,0.000000,0.224460,0.211464,-18524,119
0.406000,6.027710,938.493750,-59.491115,6.027710,-59.491115,-20.193970,10.725000,26.221680,927.768750,-1.934398,0.087047,-1.847351,17.249403,-19.096754,0.000000,0.238709,0.225348,-18381,143
0.408000,7.901717,935.050000,-77.986823,7.901717,-77.986823,-19.996216,12.375000,27.897933,922.675000,-2.535800,0.113959,-2.421842,17.790074,-20.211916,0.000000,0.252649,0.239232,-18201,165
0.410000,9.767910,930.681750,-96.405414,9.767910,-96.405414,-19.776489,12.225000,29.544399,918.456750,-3.134695,0.140637,-2.994058,18.327988,-21.322046,0.000000,0.266526,0.252048,-18001,163
0.412000,11.624444,925.393250,-114.728673,11.624444,-114.728673,-19.513916,15.300000,31.138360,910.093250,-3.730489,0.167029,-3.563460,18.811400,-22.374860,0.000000,0.279686,0.269136,-17762,204
0.414000,13.469483,919.189750,-132.938482,13.469483,-132.938482,-19.276611,14.250000,32.746094,904.939750,-4.322595,0.193084,-4.129511,19.327632,-23.457143,0.000000,0.293214,0.278748,-17546,190
0.416000,15.301203,912.077500,-151.016834,15.301203,-151.016834,-18.934937,16.350000,34.236140,895.727500,-4.910426,0.218753,-4.691673,19.767364,-24.459037,0.000000,0.305738,0.293700,-17235,218
0.418000,17.117793,904.063000,-168.945853,17.117793,-168.945853,-18.637207,17.775000,35.755000,886.288000,-5.493401,0.243989,-5.249412,20.215171,-25.464584,0.000000,0.318307,0.309720,-16964,237
0.420000,18.917455,895.154250,-186.707808,18.917455,-186.707808,-18.318604,21.300000,37.236059,873.854250,-6.070945,0.268749,-5.802196,20.623653,-26.425850,0.000000,0.330323,0.321468,-16674,284
0.422000,20.698410,885.360750,-204.285136,20.698410,-204.285136,-17.936279,20.250000,38.634689,865.110750,-6.642485,0.292990,-6.349495,21.035566,-27.385061,0.000000,0.342313,0.330012,-16326,270
0.424000,22.458898,874.691750,-221.660456,22.458898,-221.660456,-17.582520,23.625000,40.041418,851.066750,-7.207456,0.316674,-6.890782,21.404050,-28.294832,0.000000,0.353685,0.341760,-16004,315
0.426000,24.197177,863.157750,-238.816585,24.197177,-238.816585,-17.169434,25.875000,41.366611,837.282750,-7.765301,0.339766,-7.425534,21.746341,-29.171876,0.000000,0.364648,0.353508,-15628,345
0.428000,25.911529,850.770250,-255.736559,25.911529,-255.736559,-16.765137,25.050000,42.676666,825.720250,-8.315467,0.362235,-7.953232,22.102735,-30.055967,0.000000,0.375700,0.362052,-15260,334
0.430000,27.600258,837.541250,-272.403647,27.600258,-272.403647,-16.355347,28.800000,43.955605,808.741250,-8.857409,0.384050,-8.473359,22.400999,-30.874359,0.000000,0.385929,0.377004,-14887,384
0.432000,29.261694,823.484250,-288.801367,29.261694,-288.801367,-15.888428,28.500000,45.150122,794.984250,-9.390594,0.405188,-8.985406,22.697912,-31.683318,0.000000,0.396041,0.386616,-14462,380
0.434000,30.894195,808.613000,-304.913503,30.894195,-304.913503,-15.428101,29.775000,46.322296,778.838000,-9.914492,0.425625,-9.488866,22.966175,-32.455042,0.000000,0.405688,0.397296,-14043,397
0.436000,32.496146,792.941750,-320.724125,32.496146,-320.724125,-14.920532,31.950000,47.416678,760.991750,-10.428586,0.445345,-9.983241,23.192449,-33.175690,0.000000,0.414696,0.402636,-13581,426
0.438000,34.065962,776.486750,-336.217596,34.065962,-336.217596,-14.420654,31.200000,48.486616,745.286750,-10.932368,0.464331,-10.468037,23.428876,-33.896913,0.000000,0.423711,0.412248,-13126,416
0.440000,35.602093,759.264000,-351.378597,35.602093,-351.378597,-13.888916,32.475000,49.491009,726.789000,-11.425339,0.482573,-10.942767,23.618052,-34.560818,0.000000,0.432010,0.425064,-12642,433
0.442000,37.103018,741.290000,-366.192135,37.103018,-366.192135,-13.207764,35.400000,50.310782,705.890000,-11.907013,0.500061,-11.406952,23.721828,-35.128780,0.000000,0.439110,0.431472,-12022,472
0.444000,38.567253,722.583250,-380.643561,38.567253,-380.643561,-12.558472,38.475000,51.125725,684.108250,-12.376912,0.516792,-11.860120,23.816215,-35.676335,0.000000,0.445954,0.440016,-11431,513
0.446000,39.993351,703.162250,-394.718586,39.993351,-394.718586,-11.845459,38.850000,51.838810,664.312250,-12.834572,0.532762,-12.301810,23.892376,-36.194186,0.000000,0.452427,0.450696,-10782,518
0.448000,41.379902,683.045750,-408.403291,41.379902,-408.403291,-11.213745,40.725000,52.593647,642.320750,-13.279540,0.547973,-12.731567,23.963952,-36.695519,0.000000,0.458694,0.450696,-10207,543
0.450000,42.725534,662.253500,-421.684145,42.725534,-421.684145,-10.473267,41.775000,53.198801,620.478500,-13.711377,0.562429,-13.148949,23.984581,-37.133530,0.000000,0.464169,0.463512,-9533,557
0.452000,44.028916,640.806500,-434.548013,44.028916,-434.548013,-9.743774,43.725000,53.772690,597.081500,-14.129655,0.576134,-13.553521,23.980729,-37.534250,0.000000,0.469178,0.461376,-8869,583
0.454000,45.288760,618.726000,-446.982176,45.288760,-446.982176,-8.864868,45.750000,54.153628,572.976000,-14.533962,0.589099,-13.944862,23.903341,-37.848204,0.000000,0.473103,0.472056,-8069,610
0.456000,46.503820,596.033500,-458.974338,46.503820,-458.974338,-8.012329,45.450000,54.516149,550.583500,-14.923896,0.601333,-14.322562,23.834473,-38.157036,0.000000,0.476963,0.467784,-7293,606
0.458000,47.672894,572.751750,-470.512641,47.672894,-470.512641,-7.178467,46.800000,54.851361,525.951750,-15.299072,0.612849,-14.686223,23.736532,-38.422755,0.000000,0.480284,0.477396,-6534,624
0.460000,48.794827,548.903750,-481.585675,48.794827,-481.585675,-6.265503,48.450000,55.060330,500.453750,-15.659120,0.623661,-15.035459,23.586964,-38.622423,0.000000,0.482780,0.478464,-5703,646
0.462000,49.868509,524.512750,-492.182489,49.868509,-492.182489,-5.450317,49.275000,55.318826,475.237750,-16.003684,0.633784,-15.369900,23.457145,-38.827045,0.000000,0.485338,0.480600,-4961,657
0.464000,50.892878,499.603000,-502.292607,50.892878,-502.292607,-4.561523,50.100000,55.454401,449.503000,-16.332422,0.643235,-15.689187,23.279891,-38.969079,0.000000,0.487113,0.482736,-4152,668
0.466000,51.866921,474.199250,-511.906029,51.866921,-511.906029,-3.651855,50.550000,55.518776,423.649250,-16.645010,0.652030,-15.992979,23.076746,-39.069725,0.000000,0.488372,0.477396,-3324,674
0.468000,52.789675,448.326750,-521.013250,52.789675,-521.013250,-2.769653,51.600000,55.559328,396.726750,-16.941138,0.660189,-16.280949,22.855958,-39.136907,0.000000,0.489211,0.491280,-2521,688
0.470000,53.660228,422.011000,-529.605264,53.660228,-529.605264,-1.894043,52.650000,55.554271,369.361000,-17.220513,0.667729,-16.552784,22.615382,-39.168166,0.000000,0.489602,0.487008,-1724,702
0.472000,54.477719,395.277750,-537.673575,54.477719,-537.673575,-0.987671,52.875000,55.465390,342.402750,-17.482861,0.674670,-16.808191,22.349101,-39.157292,0.000000,0.489466,0.491280,-899,705
0.474000,55.241339,368.153750,-545.210204,55.241339,-545.210204,0.079102,53.850000,55.162237,314.303750,-17.727920,0.681029,-17.046891,21.998071,-39.044962,0.000000,0.488062,0.491280,72,718
0.476000,55.950334,340.665500,-552.207699,55.950334,-552.207699,0.943726,53.700000,55.006608,286.965500,-17.955449,0.686824,-17.268624,21.705175,-38.973799,0.000000,0.487172,0.485940,859,716
0.478000,56.604001,312.840500,-558.659140,56.604001,-558.659140,1.986328,54.150000,54.617673,258.690500,-18.165222,0.692075,-17.473147,21.322665,-38.795812,0.000000,0.484948,0.484872,1808,722
0.480000,57.201696,284.706250,-564.558147,57.201696,-564.558147,2.903687,54.075000,54.298009,230.631250,-18.357033,0.696797,-17.660236,20.966218,-38.626454,0.000000,0.482831,0.482736,2643,721
0.482000,57.742826,256.290250,-569.898888,57.742826,-569.898888,3.911133,54.825000,53.831693,201.465250,-18.530691,0.701006,-17.829685,20.548922,-38.378606,0.000000,0.479733,0.484872,3560,731
0.484000,58.226857,227.620750,-574.676082,58.226857,-574.676082,4.921875,54.375000,53.304982,173.245750,-18.686025,0.704719,-17.981306,20.118803,-38.100109,0.000000,0.476251,0.481668,4480,725
0.486000,58.653309,198.726500,-578.885003,58.653309,-578.885003,6.019409,55.425000,52.633900,143.301500,-18.822881,0.707948,-18.114933,19.623238,-37.738172,0.000000,0.471727,0.477396,5479,739
0.488000,59.021763,169.635750,-582.521491,59.021763,-582.521491,6.963135,54.150000,52.058628,115.485750,-18.941124,0.710707,-18.230418,19.179693,-37.410110,0.000000,0.467626,0.468852,6338,722
0.490000,59.331852,140.376750,-585.581948,59.331852,-585.581948,7.902466,53.850000,51.429386,86.526750,-19.040637,0.713005,-18.327632,18.707331,-37.034963,0.000000,0.462937,0.468852,7193,718
0.492000,59.583270,110.979500,-588.063350,59.583270,-588.063350,8.985718,53.925000,50.597552,57.054500,-19.121322,0.714854,-18.406468,18.159772,-36.566240,0.000000,0.457078,0.466716,8179,719
0.494000,59.775770,81.472250,-589.963242,59.775770,-589.963242,10.104126,53.850000,49.671644,27.622250,-19.183099,0.716260,-18.466839,17.579724,-36.046563,0.000000,0.450582,0.451764,9197,718
0.496000,59.909159,51.884250,-591.279745,59.909159,-591.279745,11.102783,53.100000,48.806376,-1.215750,-19.225906,0.717229,-18.508676,17.026030,-35.534706,0.000000,0.444184,0.457104,10106,708
0.498000,59.983307,22.245500,-592.011558,59.983307,-592.011558,12.006958,51.675000,47.976349,-29.429500,-19.249701,0.717767,-18.531934,16.490084,-35.022019,0.000000,0.437775,0.441084,10929,689
0.500000,59.998141,-7.415500,-592.157957,59.998141,-592.157957,13.038574,50.775000,46.959567,-58.190500,-19.254461,0.717874,-18.536587,15.884173,-34.420761,-0.000000,0.430260,0.442152,11868,677
0.502000,59.953645,-37.069500,-591.718797,59.953645,-591.718797,13.951538,49.725000,46.002107,-86.794500,-19.240182,0.717552,-18.522630,15.300340,-33.822970,-0.000000,0.422787,0.432540,12699,663
0.504000,59.849863,-66.686750,-590.694512,59.849863,-590.694512,15.006226,49.425000,44.843637,-116.111750,-19.206876,0.716799,-18.490077,14.640116,-33.130194,-0.000000,0.414127,0.417588,13659,659
0.506000,59.686898,-96.237750,-589.086116,59.686898,-589.086116,15.825806,48.075000,43.861092,-144.312750,-19.154578,0.715612,-18.438966,14.051043,-32.490010,-0.000000,0.406125,0.416520,14405,641
0.508000,59.464912,-125.693750,-586.895198,59.464912,-586.895198,16.735474,46.125000,42.729438,-171.818750,-19.083339,0.713985,-18.369353,13.415986,-31.785340,-0.000000,0.397317,0.404772,15233,615
0.510000,59.184123,-155.025500,-584.123926,59.184123,-584.123926,17.563843,44.925000,41.620280,-199.950500,-18.993229,0.711913,-18.281316,12.783321,-31.064637,-0.000000,0.388308,0.396228,15987,599
0.512000,58.844810,-184.203750,-580.775039,58.844810,-580.775039,18.564697,43.500000,40.280113,-227.703750,-18.884337,0.709386,-18.174952,12.073322,-30.248273,-0.000000,0.378103,0.387684,16898,580
0.514000,58.447308,-213.200000,-576.851850,58.447308,-576.851850,19.406250,42.075000,39.041058,-255.275000,-18.756772,0.706393,-18.050379,11.400205,-29.450584,-0.000000,0.368132,0.372732,17664,561
0.516000,57.992010,-241.985500,-572.358237,57.992010,-572.358237,20.577393,40.500000,37.414617,-282.485500,-18.610659,0.702924,-17.907735,10.595014,-28.502749,-0.000000,0.356284,0.367392,18730,540
0.518000,57.479366,-270.531750,-567.298644,57.479366,-567.298644,21.346436,38.100000,36.132930,-308.631750,-18.446142,0.698965,-17.747177,9.919452,-27.666629,-0.000000,0.345833,0.359916,19430,508
0.520000,56.909883,-298.810250,-561.678075,56.909883,-561.678075,22.050659,36.600000,34.859224,-335.410250,-18.263385,0.694501,-17.568884,9.241158,-26.810042,-0.000000,0.335126,0.348168,20071,488
0.522000,56.284125,-326.793250,-555.502087,56.284125,-555.502087,22.770264,34.350000,33.513861,-361.143250,-18.062568,0.689517,-17.373051,8.546975,-25.920027,-0.000000,0.324000,0.336420,20726,458
0.524000,55.602710,-354.453500,-548.776788,55.602710,-548.776788,23.452515,31.050000,32.150195,-385.503500,-17.843890,0.683996,-17.159894,7.858383,-25.018277,-0.000000,0.312728,0.323604,21347,414
0.526000,54.866311,-381.763000,-541.508828,54.866311,-541.508828,24.097412,31.500000,30.768899,-413.263000,-17.607567,0.677921,-16.929646,7.133972,-24.063618,-0.000000,0.300795,0.315060,21934,420
0.528000,54.075658,-408.694750,-533.705393,54.075658,-533.705393,24.650024,29.400000,29.425634,-438.094750,-17.353832,0.671273,-16.682559,6.448386,-23.130945,-0.000000,0.289137,0.301176,22437,392
0.530000,53.231532,-435.222750,-525.374201,53.231532,-525.374201,25.191650,26.925000,28.039882,-462.147750,-17.082937,0.664035,-16.418902,5.754765,-22.173667,-0.000000,0.277171,0.290496,22930,359
0.532000,52.334767,-461.320250,-516.523489,52.334767,-516.523489,25.683838,26.475000,26.650929,-487.795250,-16.795150,0.656188,-16.138961,5.046113,-21.185074,-0.000000,0.264813,0.277680,23378,353
0.534000,51.386251,-486.961250,-507.162010,51.386251,-507.162010,26.221069,21.375000,25.165182,-508.336250,-16.490754,0.647713,-15.843041,4.348235,-20.191276,-0.000000,0.252391,0.263796,23867,285
0.536000,50.386922,-512.121000,-497.299021,50.386922,-497.299021,26.604492,24.300000,23.782430,-536.421000,-16.170052,0.638592,-15.531459,3.620478,-19.151937,-0.000000,0.239399,0.252048,24216,324
0.538000,49.337767,-536.774500,-486.944275,49.337767,-486.944275,27.025269,22.125000,22.312498,-558.899500,-15.833359,0.628808,-15.204552,2.911213,-18.115765,-0.000000,0.226447,0.239232,24599,295
0.540000,48.239824,-560.897000,-476.108012,48.239824,-476.108012,27.403198,20.550000,20.836626,-581.447000,-15.481010,0.618342,-14.862668,2.199272,-17.061940,-0.000000,0.213274,0.226416,24943,274
0.542000,47.094179,-584.465000,-464.800946,47.094179,-464.800946,27.766846,17.925000,19.327333,-602.390000,-15.113352,0.607180,-14.506172,1.489668,-15.995840,-0.000000,0.199948,0.215736,25274,239
0.544000,45.901964,-607.455000,-453.034259,45.901964,-453.034259,28.077759,15.975000,17.824205,-623.430000,-14.730750,0.595307,-14.135443,0.781368,-14.916811,-0.000000,0.186460,0.200784,25557,213
0.546000,44.664359,-629.844250,-440.819586,44.664359,-440.819586,28.334839,13.425000,16.329520,-643.269250,-14.333580,0.582709,-13.750872,0.086495,-13.837366,-0.000000,0.172967,0.191172,25791,179
0.548000,43.382587,-651.610500,-428.169007,43.382587,-428.169007,28.601807,13.200000,14.780780,-664.810500,-13.922237,0.569375,-13.352863,-0.642100,-12.710762,-0.000000,0.158885,0.173016,26034,176
0.550000,42.057917,-672.732500,-415.095030,42.057917,-415.095030,28.792969,10.275000,13.264948,-683.007500,-13.497127,0.555295,-12.941832,-1.330024,-11.611808,-0.000000,0.145148,0.158064,26208,137
0.552000,40.691657,-693.189500,-401.610584,40.691657,-401.610584,28.990723,9.825000,11.700934,-703.014500,-13.058670,0.540462,-12.518208,-2.050562,-10.467646,-0.000000,0.130846,0.145248,26388,131
0.554000,39.285159,-712.961000,-387.729003,39.285159,-387.729003,29.145630,8.400000,10.139529,-721.361000,-12.607300,0.524872,-12.082428,-2.755699,-9.326730,-0.000000,0.116584,0.130296,26529,112
0.556000,37.839813,-732.027250,-373.464013,37.839813,-373.464013,29.291748,6.150000,8.548065,-738.177250,-12.143463,0.508521,-11.634942,-3.457974,-8.176968,-0.000000,0.102212,0.116412,26662,82
0.558000,36.357050,-750.369750,-358.829722,36.357050,-358.829722,29.402710,4.875000,6.954340,-755.244750,-11.667618,0.491411,-11.176207,-4.163231,-7.012976,-0.000000,0.087662,0.101460,26763,65
0.560000,34.838334,-767.970500,-343.840600,34.838334,-343.840600,29.490601,3.375000,5.347733,-771.345500,-11.180236,0.473545,-10.706690,-4.864548,-5.842142,-0.000000,0.073027,0.090780,26843,45
0.562000,33.285168,-784.811250,-328.511469,33.285168,-328.511469,29.551025,2.250000,3.734143,-787.061250,-10.681797,0.454930,-10.226867,-5.564943,-4.661924,-0.000000,0.058274,0.074760,26898,30
0.564000,31.699089,-800.876250,-312.857488,31.699089,-312.857488,29.585083,0.825000,2.114006,-801.701250,-10.172797,0.435576,-9.737221,-6.258236,-3.478985,-0.000000,0.043487,0.056604,26929,11
0.566000,30.081663,-816.149500,-296.894136,30.081663,-296.894136,29.598267,0.150000,0.483396,-816.299500,-9.653736,0.415495,-9.238241,-6.954820,-2.283421,-0.000000,0.028543,0.043788,26941,2
0.568000,28.434491,-830.615500,-280.637198,28.434491,-280.637198,29.598267,0.000000,-1.163776,-830.615500,-9.125130,0.394705,-8.730424,-7.654722,-1.075702,-0.000000,0.013446,0.027768,26941,0
0.570000,26.759201,-844.260000,-264.102750,26.759201,-264.102750,29.597168,-0.075000,-2.837967,-844.185000,-8.587500,0.373226,-8.214274,-8.357541,0.143267,-0.000000,-0.001791,0.012816,26940,-1
0.572000,25.057451,-857.069750,-247.307143,25.057451,-247.307143,29.592773,-0.150000,-4.535322,-856.919750,-8.041378,0.351080,-7.690297,-9.061162,1.370864,-0.000000,-0.017136,0.000000,26936,-2
0.574000,23.330922,-869.032250,-230.266985,23.330922,-230.266985,29.589478,-0.375000,-6.258556,-868.657250,-7.487304,0.328296,-7.159008,-9.765113,2.606105,-0.000000,-0.032576,-0.014952,26933,-5
0.576000,21.581322,-880.135250,-212.999126,21.581322,-212.999126,29.576294,-0.750000,-7.994972,-879.385250,-6.925827,0.304904,-6.620923,-10.464856,3.843933,-0.000000,-0.048049,-0.028836,26921,-10
0.578000,19.810381,-890.367750,-195.520641,19.810381,-195.520641,29.553223,-1.275000,-9.742842,-889.092750,-6.357501,0.280936,-6.076564,-11.159691,5.083127,-0.000000,-0.063539,-0.042720,26900,-17
0.580000,18.019851,-899.719750,-177.848815,18.019851,-177.848815,29.532349,-1.425000,-11.512498,-898.294750,-5.782888,0.256431,-5.526457,-11.857720,6.331264,-0.000000,-0.079141,-0.063012,26881,-19
0.582000,16.211502,-908.182250,-160.001122,16.211502,-160.001122,29.510376,-1.650000,-13.298874,-906.532250,-5.202557,0.231428,-4.971129,-12.553169,7.582040,-0.000000,-0.094776,-0.080100,26861,-22
0.584000,14.387122,-915.746750,-141.995211,14.387122,-141.995211,29.478516,-2.175000,-15.091394,-913.571750,-4.617081,0.205970,-4.411111,-13.240308,8.829196,-0.000000,-0.110365,-0.096120,26832,-29
0.586000,12.548515,-922.405750,-123.848887,12.548515,-123.848887,29.434570,-3.450000,-16.886055,-918.955750,-4.027040,0.180102,-3.846938,-13.913747,10.066809,-0.000000,-0.125835,-0.113208,26792,-46
0.588000,10.697499,-928.152250,-105.580095,10.697499,-105.580095,29.377441,-3.750000,-18.679942,-924.402250,-3.433016,0.153872,-3.279144,-14.587461,11.308317,-0.000000,-0.141354,-0.128160,26740,-50
0.590000,8.835906,-932.981250,-87.206899,8.835906,-87.206899,29.297241,-4.500000,-20.461335,-928.481250,-2.835598,0.127330,-2.708268,-15.244881,12.536613,-0.000000,-0.156708,-0.143112,26667,-60
0.592000,6.965574,-936.887750,-68.747467,6.965574,-68.747467,29.208252,-5.175000,-22.242678,-931.712750,-2.235376,0.100529,-2.134847,-15.894887,13.760040,-0.000000,-0.172000,-0.155928,26586,-69
0.594000,5.088355,-939.867500,-50.220055,5.088355,-50.220055,29.096191,-6.600000,-24.007836,-933.267500,-1.632943,0.073521,-1.559422,-16.524611,14.965189,-0.000000,-0.187065,-0.173016,26484,-88
0.596000,3.206104,-941.918000,-31.642982,3.206104,-31.642982,28.979736,-8.400000,-25.773632,-933.518000,-1.028895,0.046361,-0.982534,-17.143176,16.160642,-0.000000,-0.202008,-0.185832,26378,-112
0.598000,1.320683,-943.037000,-13.034619,1.320683,-13.034619,28.825928,-7.950000,-27.505245,-935.087000,-0.423830,0.019106,-0.404725,-17.761315,17.356590,-0.000000,-0.216957,-0.196512,26238,-106
0.600000,-0.566044,-943.223750,5.586634,-0.566044,5.586634,28.660034,-9.225000,-29.226078,-933.998750,0.181654,-0.008189,0.173464,-18.352503,18.525967,-0.000000,-0.231575,-0.216804,26087,-123
0.602000,-2.452212,-942.477500,24.202362,-2.452212,24.202362,28.466675,-12.525000,-30.918887,-929.952500,0.786958,-0.035467,0.751491,-18.908094,19.659585,-0.000000,-0.245745,-0.232824,25911,-167
0.604000,-4.335954,-940.799250,42.794157,-4.335954,42.794157,28.273315,-13.875000,-32.609269,-926.924250,1.391484,-0.062672,1.328812,-19.471722,20.800535,-0.000000,-0.260007,-0.247776,25735,-185
0.606000,-6.215409,-938.191000,61.343636,-6.215409,61.343636,28.041504,-13.200000,-34.256913,-924.991000,1.994634,-0.089747,1.904887,-20.029988,21.934875,-0.000000,-0.274186,-0.258456,25524,-176
0.608000,-8.088718,-934.654750,79.832454,-8.088718,79.832454,27.742676,-16.275000,-35.831394,-918.379750,2.595812,-0.116638,2.479175,-20.521891,23.001066,-0.000000,-0.287513,-0.275544,25252,-217
0.610000,-9.954028,-930.194250,98.242329,-9.954028,98.242329,27.421875,-20.100000,-37.375903,-910.094250,3.194423,-0.143290,3.051133,-20.988722,24.039855,-0.000000,-0.300498,-0.287292,24960,-268
0.612000,-11.809495,-924.814250,116.555057,-11.809495,116.555057,27.027466,-17.625000,-38.836961,-907.189250,3.789875,-0.169650,3.620225,-21.473376,25.093601,-0.000000,-0.313670,-0.295836,24601,-235
0.614000,-13.653285,-918.519500,134.752529,-13.653285,134.752529,26.689087,-22.800000,-40.342372,-895.719500,4.381580,-0.195669,4.185911,-21.898772,26.084682,-0.000000,-0.326059,-0.317196,24293,-304
0.616000,-15.483573,-911.316250,152.816750,-15.483573,152.816750,26.249634,-23.925000,-41.733207,-887.391250,4.968952,-0.221297,4.747655,-22.311587,27.059242,-0.000000,-0.338241,-0.321468,23893,-319
0.618000,-17.298550,-903.212000,170.729857,-17.298550,170.729857,25.855225,-24.150000,-43.153775,-879.062000,5.551410,-0.246487,5.304922,-22.734772,28.039694,-0.000000,-0.350496,-0.333216,23534,-322
0.620000,-19.096421,-894.214750,188.474137,-19.096421,188.474137,25.424561,-24.225000,-44.520982,-869.989750,6.128378,-0.271197,5.857182,-23.132847,28.990029,-0.000000,-0.362375,-0.351372,23142,-323
0.622000,-20.875409,-884.333250,206.032044,-20.875409,206.032044,24.945557,-25.650000,-45.820966,-858.683250,6.699287,-0.295384,6.403903,-23.487959,29.891862,-0.000000,-0.373648,-0.360984,22706,-342
0.624000,-22.633754,-873.577000,223.386214,-22.633754,223.386214,24.511597,-27.300000,-47.145351,-846.277000,7.263571,-0.319010,6.944560,-23.841992,30.786552,-0.000000,-0.384832,-0.369528,22311,-364
0.626000,-24.369717,-861.957250,240.519488,-24.369717,240.519488,23.995239,-29.550000,-48.364956,-832.407250,7.820672,-0.342042,7.478630,-24.146678,31.625308,-0.000000,-0.395316,-0.384480,21841,-394
0.628000,-26.081583,-849.485000,257.414922,-26.081583,257.414922,23.474487,-33.225000,-49.556070,-816.260000,8.370040,-0.364446,8.005594,-24.421544,32.427138,-0.000000,-0.405339,-0.394092,21367,-443
0.630000,-27.767657,-836.172500,274.055810,-27.767657,274.055810,22.911987,-35.250000,-50.679644,-800.922500,8.911131,-0.386195,8.524936,-24.679900,33.204836,-0.000000,-0.415060,-0.407976,20855,-470
0.632000,-29.426273,-822.033500,290.425697,-29.426273,290.425697,22.263794,-36.000000,-51.690067,-786.033500,9.443410,-0.407263,9.036147,-24.902673,33.938820,-0.000000,-0.424235,-0.410112,20265,-480
0.634000,-31.055791,-807.081500,306.508394,-31.055791,306.508394,21.614502,-37.575000,-52.670293,-769.506500,9.966351,-0.427630,9.538721,-25.100612,34.639333,-0.000000,-0.432992,-0.423996,19674,-501
0.636000,-32.654599,-791.331500,322.287999,-32.654599,322.287999,20.817993,-38.850000,-53.472592,-752.481500,10.479437,-0.447277,10.032160,-25.232096,35.264256,-0.000000,-0.440803,-0.435744,18949,-518
0.638000,-34.221117,-774.798750,337.748907,-34.221117,337.748907,20.110474,-40.950000,-54.331591,-733.848750,10.982160,-0.466189,10.515971,-25.369341,35.885312,-0.000000,-0.448566,-0.443220,18305,-546
0.640000,-35.753794,-757.500000,352.875831,-35.753794,352.875831,19.256836,-42.450000,-55.010630,-715.050000,11.474023,-0.484355,10.989668,-25.442321,36.431988,-0.000000,-0.455400,-0.450696,17528,-566
0.642000,-37.251117,-739.452250,367.653811,-37.251117,367.653811,18.489990,-43.800000,-55.741107,-695.652250,11.954540,-0.501768,11.452772,-25.528028,36.980800,-0.000000,-0.462260,-0.431472,16830,-584
0.644000,-38.711603,-720.673000,382.068234,-38.711603,382.068234,17.711060,-45.300000,-56.422663,-675.373000,12.423236,-0.518423,11.904813,-25.588966,37.493779,-0.000000,-0.468672,-0.458172,16121,-604
0.646000,-40.133809,-701.181500,396.104847,-40.133809,396.104847,16.633301,-47.925000,-56.767110,-653.256500,12.879647,-0.534317,12.345330,-25.516198,37.861528,-0.000000,-0.473269,-0.464580,15140,-639
0.648000,-41.516329,-680.996500,409.749770,-41.516329,409.749770,15.836792,-48.525000,-57.353121,-632.471500,13.323322,-0.549452,12.773869,-25.539371,38.313240,-0.000000,-0.478916,-0.478464,14415,-647
0.650000,-42.857795,-660.137750,422.989509,-42.857795,422.989509,14.897461,-49.500000,-57.755256,-610.637750,13.753822,-0.563833,13.189989,-25.489207,38.679196,-0.000000,-0.483490,-0.476328,13560,-660
0.652000,-44.156880,-638.626500,435.810972,-44.156880,435.810972,14.057007,-50.250000,-58.213887,-588.376500,14.170722,-0.577464,13.593257,-25.455033,39.048291,-0.000000,-0.488104,-0.483804,12795,-670
0.654000,-45.412301,-616.484000,448.201482,-45.412301,448.201482,13.174805,-52.125000,-58.587106,-564.359000,14.573608,-0.590355,13.983253,-25.375719,39.358972,-0.000000,-0.491987,-0.490212,11992,-695
0.656000,-46.622816,-593.731750,460.148784,-46.622816,460.148784,12.232178,-54.225000,-58.854994,-539.506750,14.962084,-0.602517,14.359567,-25.252353,39.611920,-0.000000,-0.495149,-0.491280,11134,-723
0.658000,-47.787228,-570.392000,471.641066,-47.787228,471.641066,11.311523,-55.050000,-59.098751,-515.342000,15.335764,-0.613962,14.721802,-25.126563,39.848365,-0.000000,-0.498105,-0.491280,10296,-734
0.660000,-48.904384,-546.488500,482.666963,-48.904384,482.666963,10.346924,-54.750000,-59.251308,-491.738500,15.694279,-0.624704,15.069575,-24.973836,40.043411,-0.000000,-0.500000,-0.493416,9418,-730
0.662000,-49.973182,-522.044750,493.215571,-49.973182,493.215571,9.457031,-56.100000,-59.430213,-465.944750,16.037275,-0.634759,15.402516,-24.811193,40.213709,-0.000000,-0.500000,-0.498756,8608,-748
0.664000,-50.992563,-497.084500,503.276461,-50.992563,503.276461,8.486938,-56.325000,-59.479501,-440.759500,16.364413,-0.644144,15.720269,-24.608615,40.328884,-0.000000,-0.500000,-0.494484,7725,-751
0.666000,-51.961520,-471.632750,512.839683,-51.961520,512.839683,7.573975,-57.375000,-59.535495,-414.257750,16.675368,-0.652875,16.022493,-24.396889,40.419382,-0.000000,-0.500000,-0.501960,6894,-765
0.668000,-52.879094,-445.714750,521.895780,-52.879094,521.895780,6.623657,-57.675000,-59.502751,-388.039750,16.969834,-0.660971,16.308863,-24.156664,40.465527,-0.000000,-0.500000,-0.492348,6029,-769
0.670000,-53.744379,-419.356000,530.435797,-53.744379,530.435797,5.593140,-58.425000,-59.337519,-360.931000,17.247519,-0.668450,16.579069,-23.862419,40.441487,-0.000000,-0.500000,-0.505164,5091,-779
0.672000,-54.556518,-392.582500,538.451290,-54.556518,538.451290,4.649414,-59.475000,-59.205932,-333.107500,17.508149,-0.675331,16.832817,-23.573680,40.406498,-0.000000,-0.500000,-0.498756,4232,-793
0.674000,-55.314709,-365.420750,545.934333,-55.314709,545.934333,3.510132,-60.450000,-58.824841,-304.970750,17.751465,-0.681633,17.069832,-23.195115,40.264947,-0.000000,-0.500000,-0.496620,3195,-806
0.676000,-56.018201,-337.897750,552.877525,-56.018201,552.877525,2.314819,-59.325000,-58.333020,-278.572750,17.977229,-0.687374,17.289855,-22.793071,40.082926,-0.000000,-0.500000,-0.500892,2107,-791
0.678000,-56.666300,-310.040500,559.274000,-56.666300,559.274000,1.109619,-60.225000,-57.775919,-249.815500,18.185215,-0.692571,17.492644,-22.347652,39.840296,-0.000000,-0.498004,-0.492348,1010,-803
0.680000,-57.258363,-281.876750,565.117435,-57.258363,565.117435,-0.098877,-60.600000,-57.159486,-221.276750,18.375218,-0.697241,17.677978,-21.883429,39.561406,-0.000000,-0.494518,-0.500892,-90,-808
0.682000,-57.793807,-253.434250,570.402050,-57.793807,570.402050,-1.308472,-60.600000,-56.485335,-192.834250,18.547052,-0.701400,17.845652,-21.399898,39.245550,-0.000000,-0.490569,-0.495552,-1191,-808
0.684000,-58.272100,-224.741000,575.122619,-58.272100,575.122619,-2.400513,-61.275000,-55.871587,-163.466000,18.700545,-0.705063,17.995481,-20.929373,38.924854,-0.000000,-0.486561,-0.492348,-2185,-817
0.686000,-58.692771,-195.825750,579.274475,-58.692771,579.274475,-3.610107,-60.225000,-55.082664,-135.600750,18.835545,-0.708245,18.127300,-20.410817,38.538117,-0.000000,-0.481726,-0.487008,-3286,-803
0.688000,-59.055403,-166.716750,582.853512,-59.055403,582.853512,-4.695557,-60.600000,-54.359846,-106.116750,18.951920,-0.710957,18.240963,-19.901209,38.142173,-0.000000,-0.476777,-0.482736,-4274,-808
0.690000,-59.359638,-137.443000,585.856191,-59.359638,585.856191,-5.841431,-60.375000,-53.518207,-77.068000,19.049555,-0.713210,18.336344,-19.353924,37.690268,-0.000000,-0.471128,-0.472056,-5317,-805
0.692000,-59.605175,-108.033250,588.279543,-59.605175,588.279543,-6.955444,-58.875000,-52.649731,-49.158250,19.128352,-0.715014,18.413338,-18.807210,37.220547,-0.000000,-0.465257,-0.473124,-6331,-785
0.694000,-59.791771,-78.516750,590.121171,-59.791771,590.121171,-8.150757,-57.225000,-51.641014,-21.291750,19.188234,-0.716376,18.471857,-18.211920,36.683777,-0.000000,-0.458547,-0.465648,-7419,-763
0.696000,-59.919242,-48.922500,591.379254,-59.919242,591.379254,-9.281250,-56.325000,-50.637992,7.402500,19.229141,-0.717303,18.511839,-17.611395,36.123233,-0.000000,-0.451540,-0.457104,-8448,-751
0.698000,-59.987461,-19.279750,592.052549,-59.987461,592.052549,-10.345825,-56.925000,-49.641636,37.645250,19.251034,-0.717797,18.533237,-16.999683,35.532920,-0.000000,-0.444162,-0.452832,-9417,-759
0.700000,-59.996361,10.382000,592.140388,-59.996361,592.140388,-11.303833,-55.050000,-48.692528,65.432000,19.253890,-0.717861,18.536029,-16.425897,34.961926,0.000000,-0.437024,-0.447492,-10289,-734
0.702000,-59.945933,40.033500,591.642687,-59.945933,591.642687,-12.351929,-53.250000,-47.594004,93.283500,19.237707,-0.717496,18.520211,-15.799389,34.319600,0.000000,-0.428995,-0.440016,-11243,-710
0.704000,-59.836227,69.645250,590.559936,-59.836227,590.559936,-13.331909,-53.175000,-46.504318,122.820250,19.202500,-0.716700,18.485801,-15.161260,33.647061,0.000000,-0.420588,-0.427200,-12135,-709
0.706000,-59.667352,99.188000,588.893206,-59.667352,588.893206,-14.245972,-50.850000,-45.421380,150.038000,19.148306,-0.715469,18.432837,-14.545724,32.978561,0.000000,-0.412232,-0.419724,-12967,-678
0.708000,-59.439475,128.633000,586.644146,-59.439475,586.644146,-15.252319,-49.650000,-44.187156,178.283000,19.075176,-0.713798,18.361377,-13.868414,32.229792,0.000000,-0.402872,-0.416520,-13883,-662
0.710000,-59.152820,157.950750,583.814980,-59.152820,583.814980,-16.231201,-47.850000,-42.921619,205.800750,18.983183,-0.711681,18.271502,-13.186521,31.458023,0.000000,-0.393225,-0.400500,-14774,-638
0.712000,-58.807672,187.112000,580.408504,-58.807672,580.408504,-17.172729,-45.750000,-41.634943,232.862000,18.872419,-0.709107,18.163312,-12.501232,30.664544,0.000000,-0.383307,-0.398364,-15631,-610
0.714000,-58.404372,216.088500,576.428088,-58.404372,576.428088,-17.986816,-43.725000,-40.417556,259.813500,18.742993,-0.706068,18.036925,-11.841088,29.878013,0.000000,-0.373475,-0.396228,-16372,-583
0.716000,-57.943318,244.851250,571.877668,-57.943318,571.877668,-18.851440,-41.625000,-39.091878,286.476250,18.595033,-0.702550,17.892482,-11.145663,29.038145,0.000000,-0.362977,-0.373800,-17159,-555
0.718000,-57.424967,273.372000,566.761744,-57.424967,566.761744,-19.673218,-40.050000,-37.751749,313.422000,18.428684,-0.698541,17.730143,-10.442724,28.172867,0.000000,-0.352161,-0.365256,-17907,-534
0.720000,-56.849830,301.622500,561.085374,-56.849830,561.085374,-20.335693,-38.100000,-36.514137,339.722500,18.244113,-0.694026,17.550087,-9.781200,27.331287,0.000000,-0.341641,-0.356712,-18510,-508
0.722000,-56.218477,329.574500,554.854171,-56.218477,554.854171,-20.967407,-35.550000,-35.251070,365.124500,18.041501,-0.688989,17.352512,-9.118632,26.471144,0.000000,-0.330889,-0.343896,-19085,-474
0.724000,-55.531532,357.200500,548.074297,-55.531532,548.074297,-21.617798,-33.225000,-33.913734,390.425500,17.821048,-0.683414,17.137634,-8.431021,25.568656,0.000000,-0.319608,-0.331080,-19677,-443
0.726000,-54.789675,384.473250,540.752457,-54.789675,540.752457,-22.224243,-31.050000,-32.565432,415.523250,17.582973,-0.677282,16.905691,-7.741356,24.647047,0.000000,-0.308088,-0.323604,-20229,-414
0.728000,-53.993639,411.366250,532.895891,-53.993639,532.895891,-22.864746,-28.875000,-31.128893,440.241250,17.327511,-0.670576,16.656934,-7.024204,23.681138,0.000000,-0.296014,-0.308652,-20812,-385
0.730000,-53.144210,437.852250,524.512368,-53.144210,524.512368,-23.405273,-27.300000,-29.738937,465.152250,17.054914,-0.663278,16.391636,-6.321628,22.713264,0.000000,-0.283916,-0.293700,-21304,-364
0.732000,-52.242230,463.905250,515.610177,-52.242230,515.610177,-23.874390,-26.250000,-28.367840,490.155250,16.765453,-0.655369,16.110083,-5.624833,21.734916,0.000000,-0.271686,-0.283020,-21731,-350
0.734000,-51.288589,489.499500,506.198122,-51.288589,506.198122,-24.361084,-24.525000,-26.927505,514.024500,16.459413,-0.646831,15.812582,-4.913762,20.726344,0.000000,-0.259079,-0.267000,-22174,-327
0.736000,-50.284232,514.609750,496.285511,-50.284232,496.285511,-24.799438,-23.325000,-25.484794,537.934750,16.137097,-0.637644,15.499452,-4.201505,19.700957,0.000000,-0.246262,-0.259524,-22573,-311
0.738000,-49.230150,539.211000,485.882144,-49.230150,485.882144,-25.169678,-19.725000,-24.060472,558.936000,15.798823,-0.627792,15.171031,-3.521052,18.692084,0.000000,-0.233651,-0.248844,-22910,-263
0.740000,-48.127388,563.279000,474.998310,-48.127388,474.998310,-25.573975,-19.800000,-22.553413,583.079000,15.444927,-0.617258,14.827669,-2.784302,17.611972,0.000000,-0.220150,-0.236028,-23278,-264
0.742000,-46.977034,586.790500,463.644772,-46.977034,463.644772,-25.945312,-16.950000,-21.031722,603.740500,15.075758,-0.606025,14.469733,-2.072826,16.542559,0.000000,-0.206782,-0.223212,-23616,-226
0.744000,-45.780226,609.721250,451.832755,-45.780226,451.832755,-26.279297,-14.850000,-19.500929,624.571250,14.691682,-0.594080,14.097602,-1.356696,15.454298,0.000000,-0.193179,-0.211464,-23920,-198
0.746000,-44.538149,632.049000,439.573941,-44.538149,439.573941,-26.581421,-13.875000,-17.956728,645.924000,14.293077,-0.581409,13.711669,-0.631330,14.342999,0.000000,-0.179287,-0.189036,-24195,-185
0.748000,-43.252030,653.752250,426.880452,-43.252030,426.880452,-26.839600,-13.425000,-16.412430,667.177250,13.880339,-0.568000,13.312339,0.093201,13.219138,0.000000,-0.165239,-0.178356,-24430,-179
0.750000,-41.923140,674.808750,413.764839,-41.923140,413.764839,-27.072510,-10.050000,-14.850630,684.858750,13.453875,-0.553846,12.900029,0.792672,12.107357,0.000000,-0.151342,-0.164472,-24642,-134
0.752000,-40.552795,695.197750,400.240073,-40.552795,400.240073,-27.260376,-9.450000,-13.292419,704.647750,13.014107,-0.538937,12.475170,1.509282,10.965888,0.000000,-0.137074,-0.151656,-24813,-126
0.754000,-39.142349,714.899500,386.319527,-39.142349,386.319527,-27.419678,-6.750000,-11.722671,721.649500,12.561470,-0.523271,12.038199,2.205596,9.832603,0.000000,-0.122908,-0.138840,-24958,-90
0.756000,-37.693197,733.894500,372.016967,-37.693197,372.016967,-27.552612,-4.875000,-10.140585,738.769500,12.096411,-0.506844,11.589567,2.907248,8.682319,0.000000,-0.108529,-0.121752,-25079,-65
0.758000,-36.206771,752.163500,357.346536,-36.206771,357.346536,-27.644897,-3.750000,-8.561874,755.913500,11.619391,-0.489659,11.129733,3.607932,7.521801,0.000000,-0.094023,-0.107868,-25163,-50
0.760000,-34.684543,769.688750,342.322740,-34.684543,342.322740,-27.709717,-2.625000,-6.974826,772.313750,11.130881,-0.471718,10.659164,4.305035,6.354129,0.000000,-0.079427,-0.100392,-25222,-35
0.762000,-33.128016,786.453000,326.960436,-33.128016,326.960436,-27.744873,-0.900000,-5.383143,787.353000,10.631364,-0.453028,10.178337,4.991880,5.186457,0.000000,-0.064831,-0.077964,-25254,-12
0.764000,-31.538731,802.439500,311.274816,-31.538731,311.274816,-27.760254,-0.375000,-3.778477,802.814500,10.121335,-0.433600,9.687735,5.686941,4.000794,0.000000,-0.050010,-0.063012,-25268,-5
0.766000,-29.918258,817.632750,295.281390,-29.918258,295.281390,-27.762451,0.000000,-2.155807,817.632750,9.601296,-0.413448,9.187849,6.382673,2.805175,0.000000,-0.035065,-0.052332,-25270,0
0.768000,-28.268200,832.017250,278.995973,-28.268200,278.995973,-27.761353,0.075000,-0.506847,831.942250,9.071764,-0.392588,8.679176,7.083143,1.596033,0.000000,-0.019950,-0.038448,-25269,1
0.770000,-26.590189,845.578750,262.434670,-26.590189,262.434670,-27.759155,0.075000,1.168966,845.503750,8.533261,-0.371041,8.162220,7.786458,0.375762,0.000000,-0.004697,-0.018156,-25267,1
0.772000,-24.885885,858.304250,245.613856,-24.885885,245.613856,-27.756958,0.150000,2.871073,858.154250,7.986319,-0.348830,7.637489,8.491002,-0.853513,0.000000,0.010669,-0.001068,-25265,2
0.774000,-23.156972,870.181250,228.550165,-23.156972,228.550165,-27.753662,0.225000,4.596690,869.956250,7.431481,-0.325984,7.105497,9.196348,-2.090851,0.000000,0.026136,0.012816,-25262,3
0.776000,-21.405160,881.197750,211.260472,-21.405160,211.260472,-27.747070,0.450000,6.341910,880.747750,6.869293,-0.302532,6.566761,9.899718,-3.332958,0.000000,0.041662,0.022428,-25256,6
0.778000,-19.632181,891.342750,193.761872,-19.632181,193.761872,-27.738281,0.675000,8.106100,890.667750,6.300313,-0.278509,6.021804,10.602105,-4.580302,0.000000,0.057254,0.045924,-25248,9
0.780000,-17.839789,900.606250,176.071670,-17.839789,176.071670,-27.723999,1.275000,9.884210,899.331250,5.725103,-0.253953,5.471150,11.298386,-5.827236,0.000000,0.072840,0.056604,-25235,17
0.782000,-16.029756,908.979500,158.207358,-16.029756,158.207358,-27.698730,1.650000,11.668974,907.329500,5.144231,-0.228902,4.915329,11.991184,-7.075855,0.000000,0.088448,0.076896,-25212,22
0.784000,-14.203871,916.453500,140.186602,-14.203871,140.186602,-27.672363,1.875000,13.468492,914.578500,4.558273,-0.203401,4.354872,12.682594,-8.327722,0.000000,0.104097,0.088644,-25188,25
0.786000,-12.363942,923.021250,122.027222,-12.363942,122.027222,-27.639404,2.175000,15.275462,920.846250,3.967807,-0.177494,3.790313,13.368042,-9.577729,0.000000,0.119722,0.104664,-25158,29
0.788000,-10.511786,928.676750,103.747174,-10.511786,103.747174,-27.592163,3.000000,17.080377,925.676750,3.373417,-0.151231,3.222187,14.040230,-10.818043,0.000000,0.135226,0.117480,-25115,40
0.790000,-8.649235,933.413500,85.364535,-8.649235,85.364535,-27.536133,3.675000,18.886898,929.738500,2.775692,-0.124661,2.651031,14.706270,-12.055239,0.000000,0.150690,0.137772,-25064,49
0.792000,-6.778132,937.227250,66.897484,-6.778132,66.897484,-27.462524,5.250000,20.684392,931.977250,2.175222,-0.097836,2.077386,15.353251,-13.275865,0.000000,0.165948,0.151656,-24997,70
0.794000,-4.900326,940.114500,48.364280,-4.900326,48.364280,-27.376831,5.925000,22.476505,934.189500,1.572601,-0.070811,1.501790,15.998122,-14.496331,0.000000,0.181204,0.165540,-24919,79
0.796000,-3.017674,942.072000,29.783250,-3.017674,29.783250,-27.268066,6.675000,24.250392,935.397000,0.968425,-0.043639,0.924786,16.627863,-15.703077,0.000000,0.196288,0.183696,-24820,89
0.798000,-1.132038,943.097750,11.172770,-1.132038,11.172770,-27.140625,8.550000,26.008587,934.547750,0.363291,-0.016377,0.346914,17.234177,-16.887263,0.000000,0.211091,0.199716,-24704,114
0.800000,0.754717,943.191000,-7.448759,0.754717,-7.448759,-26.995605,10.200000,27.750322,932.991000,-0.242202,0.010919,-0.231283,17.828572,-18.059856,0.000000,0.225748,0.213600,-24572,136
0.802000,2.640726,942.351500,-26.062922,2.640726,-26.062922,-26.826416,11.025000,29.467142,931.326500,-0.847456,0.038192,-0.809263,18.413330,-19.222593,0.000000,0.240282,0.222144,-24418,147
0.804000,4.524123,940.580250,-44.651312,4.524123,-44.651312,-26.622070,11.175000,31.146193,929.405250,-1.451871,0.065386,-1.386485,18.982663,-20.369148,0.000000,0.254614,0.240300,-24232,149
0.806000,6.403047,937.879250,-63.195549,6.403047,-63.195549,-26.406738,13.575000,32.809785,924.304250,-2.054851,0.092445,-1.962405,19.518852,-21.481257,0.000000,0.268516,0.253116,-24036,181
0.808000,8.275640,934.250250,-81.677295,8.275640,-81.677295,-26.187012,15.525000,34.462652,918.725250,-2.655799,0.119315,-2.536484,20.047125,-22.583609,0.000000,0.282295,0.265932,-23836,207
0.810000,10.140048,929.697500,-100.078273,10.140048,-100.078273,-25.867310,15.600000,36.007358,914.097500,-3.254120,0.145940,-3.108181,20.545944,-23.654125,0.000000,0.295677,0.278748,-23545,208
0.812000,11.994430,924.225750,-118.380289,11.994430,-118.380289,-25.610229,16.875000,37.604659,907.350750,-3.849224,0.172269,-3.676956,21.044631,-24.721587,0.000000,0.309020,0.296904,-23311,225
0.814000,13.836951,917.839750,-136.565243,13.836951,-136.565243,-25.303711,20.025000,39.140662,897.814750,-4.440522,0.198250,-4.242271,21.497580,-25.739852,0.000000,0.321748,0.307584,-23032,267
0.816000,15.665789,910.546250,-154.615154,15.665789,-154.615154,-24.965332,20.775000,40.631121,889.771250,-5.027428,0.223836,-4.803592,21.947656,-26.751247,0.000000,0.334391,0.319332,-22724,277
0.818000,17.479136,902.352500,-172.512173,17.479136,-172.512173,-24.609375,23.250000,42.088511,879.102500,-5.609363,0.248981,-5.360382,22.363278,-27.723661,0.000000,0.346546,0.334284,-22400,310
0.820000,19.275199,893.266250,-190.238603,19.275199,-190.238603,-24.238037,25.200000,43.513236,868.066250,-6.185751,0.273640,-5.912112,22.764292,-28.676404,0.000000,0.358455,0.343896,-22062,336
0.822000,21.052201,883.296750,-207.776914,21.052201,-207.776914,-23.839233,24.225000,44.891434,859.071750,-6.756023,0.297772,-6.458250,23.166882,-29.625132,0.000000,0.370314,0.365256,-21699,323
0.824000,22.808386,872.453750,-225.109763,22.808386,-225.109763,-23.398682,27.300000,46.207068,845.153750,-7.319613,0.321341,-6.998272,23.504667,-30.502939,0.000000,0.381287,0.366324,-21298,364
0.826000,24.542016,860.748000,-242.220011,24.542016,-242.220011,-22.911987,28.425000,47.454003,832.323000,-7.875966,0.344311,-7.531655,23.827960,-31.359615,0.000000,0.391995,0.380208,-20855,379
0.828000,26.251378,848.191500,-259.090739,26.251378,-259.090739,-22.447266,29.175000,48.698644,819.016500,-8.424530,0.366651,-8.057879,24.146301,-32.204180,0.000000,0.402552,0.394092,-20432,389
0.830000,27.934782,834.795750,-275.705263,27.934782,-275.705263,-21.914429,32.025000,49.849211,802.770750,-8.964764,0.388333,-8.576431,24.406153,-32.982585,0.000000,0.412282,0.404772,-19947,427
0.832000,29.590561,820.574500,-292.047155,29.590561,-292.047155,-21.350830,33.000000,50.941391,787.574500,-9.496133,0.409332,-9.086801,24.654784,-33.741585,0.000000,0.421770,0.410112,-19434,440
0.834000,31.217080,805.542250,-308.100254,31.217080,-308.100254,-20.731201,37.500000,51.948281,768.042250,-10.018111,0.429627,-9.588484,24.835804,-34.424288,0.000000,0.430304,0.423996,-18870,500
0.836000,32.812730,789.713000,-323.848686,32.812730,-323.848686,-20.088501,38.025000,52.901231,751.688000,-10.530184,0.449201,-10.080982,25.025728,-35.106711,0.000000,0.438834,0.431472,-18285,507
0.838000,34.375932,773.103000,-339.276878,34.375932,-339.276878,-19.443604,39.525000,53.819536,733.578000,-11.031843,0.468039,-10.563804,25.188238,-35.752041,0.000000,0.446901,0.437880,-17698,527
0.840000,35.905142,755.728750,-354.369575,35.905142,-354.369575,-18.576782,41.625000,54.481924,714.103750,-11.522593,0.486131,-11.036463,25.249510,-36.285973,0.000000,0.453575,0.447492,-16909,555
0.842000,37.398847,737.607000,-369.111851,37.398847,-369.111851,-17.871460,43.275000,55.270307,694.332000,-12.001949,0.503468,-11.498482,25.352166,-36.850648,0.000000,0.460633,0.453900,-16267,577
0.844000,38.855570,718.755750,-383.489129,38.855570,-383.489129,-16.992554,44.700000,55.848124,674.055750,-12.469437,0.520046,-11.949391,25.376919,-37.326310,0.000000,0.466579,0.463512,-15467,596
0.846000,40.273870,699.193750,-397.487191,40.273870,-397.487191,-16.212524,46.050000,56.486394,653.143750,-12.924595,0.535865,-12.388730,25.417226,-37.805956,0.000000,0.472574,0.467784,-14757,614
0.848000,41.652345,678.940500,-411.092196,41.652345,-411.092196,-15.386353,47.700000,57.038698,631.240500,-13.366972,0.550924,-12.816048,25.418874,-38.234922,0.000000,0.477937,0.469920,-14005,636
0.850000,42.989632,658.015750,-424.290690,42.989632,-424.290690,-14.554688,50.025000,57.544320,607.990750,-13.796131,0.565229,-13.230901,25.392477,-38.623379,0.000000,0.482792,0.478464,-13248,667
0.852000,44.284408,636.440500,-437.069622,44.284408,-437.069622,-13.645020,50.250000,57.929428,586.190500,-14.211647,0.578786,-13.632861,25.336662,-38.969523,0.000000,0.487119,0.485940,-12420,670
0.854000,45.535394,614.235750,-449.416355,45.535394,-449.416355,-12.725464,52.575000,58.260858,561.660750,-14.613111,0.591604,-14.021507,25.238291,-39.259797,0.000000,0.490747,0.489144,-11583,701
0.856000,46.741351,591.423500,-461.318679,46.741351,-461.318679,-11.736694,53.175000,58.478045,538.248500,-15.000124,0.603694,-14.396430,25.109793,-39.506223,0.000000,0.493828,0.491280,-10683,709
0.858000,47.901088,568.026750,-472.764826,47.901088,-472.764826,-10.764404,54.825000,58.665492,513.201750,-15.372304,0.615068,-14.757236,24.956650,-39.713886,0.000000,0.496424,0.493416,-9798,731
0.860000,49.013458,544.068250,-483.743477,49.013458,-483.743477,-9.838257,56.175000,58.851715,487.893250,-15.729283,0.625740,-15.103543,24.800796,-39.904338,0.000000,0.498804,0.489144,-8955,749
0.862000,50.077361,519.571500,-494.243776,50.077361,-494.243776,-8.873657,57.000000,58.951018,462.571500,-16.070708,0.635728,-15.434981,24.614485,-40.049466,0.000000,0.500000,0.495552,-8077,760
0.864000,51.091744,494.561000,-504.255338,51.091744,-504.255338,-7.905762,58.350000,58.997506,436.211000,-16.396242,0.645046,-15.751196,24.400674,-40.151869,0.000000,0.500000,0.505164,-7196,778
0.866000,52.055605,469.061500,-513.768265,52.055605,-513.768265,-6.920288,60.075000,58.975893,408.986500,-16.705562,0.653713,-16.051849,24.155551,-40.207400,0.000000,0.500000,0.503028,-6299,801
0.868000,52.967990,443.098250,-522.773149,52.967990,-522.773149,-5.824951,59.625000,58.792941,383.473250,-16.998362,0.661746,-16.336616,23.869043,-40.205659,0.000000,0.500000,0.497688,-5302,795
0.870000,53.827998,416.697000,-531.261085,53.827998,-531.261085,-4.817505,60.525000,58.645503,356.172000,-17.274354,0.669165,-16.605189,23.579329,-40.184518,0.000000,0.500000,0.491280,-4385,807
0.872000,54.634778,389.883250,-539.223681,54.634778,-539.223681,-3.525513,62.400000,58.160291,327.483250,-17.533264,0.675987,-16.857276,23.159602,-40.016878,0.000000,0.500000,0.496620,-3209,832
0.874000,55.387531,362.684250,-546.653063,55.387531,-546.653063,-2.538940,61.650000,57.926471,301.034250,-17.774835,0.682232,-17.092603,22.847172,-39.939776,0.000000,0.499247,0.498756,-2311,822
0.876000,56.085515,335.126750,-553.541883,56.085515,-553.541883,-1.346924,63.075000,57.432439,272.051750,-17.998831,0.687918,-17.310913,22.421802,-39.732716,0.000000,0.496659,0.494484,-1226,841
0.878000,56.728038,307.237500,-559.883330,56.728038,-559.883330,-0.251587,62.400000,56.979625,244.837500,-18.205028,0.693061,-17.511967,22.026251,-39.538218,0.000000,0.494228,0.499824,-229,832
0.880000,57.314465,279.044500,-565.671134,57.314465,-565.671134,0.958008,62.850000,56.356457,216.194500,-18.393222,0.697679,-17.695543,21.558768,-39.254311,0.000000,0.490679,0.487008,872,838
0.882000,57.844216,250.575750,-570.899570,57.844216,-570.899570,2.022583,63.750000,55.821633,186.825750,-18.563229,0.701788,-17.861441,21.115788,-38.977229,0.000000,0.487215,0.490212,1841,850
0.884000,58.316768,221.859250,-575.563469,58.316768,-575.563469,3.138794,62.775000,55.177974,159.084250,-18.714879,0.705403,-18.009476,20.649018,-38.658494,0.000000,0.483231,0.488076,2857,837
0.886000,58.731653,192.923000,-579.658219,58.731653,-579.658219,4.252808,64.050000,54.478845,128.873000,-18.848023,0.708537,-18.139486,20.141334,-38.280819,0.000000,0.478510,0.477396,3871,854
0.888000,59.088460,163.796250,-583.179770,59.088460,-583.179770,5.265747,62.475000,53.822713,101.321250,-18.962529,0.711203,-18.251326,19.671866,-37.923192,0.000000,0.474040,0.482736,4793,833
0.890000,59.386838,134.507750,-586.124640,59.386838,-586.124640,6.400635,63.225000,52.986203,71.282750,-19.058284,0.713411,-18.344873,19.117733,-37.462606,0.000000,0.468283,0.477396,5826,843
0.892000,59.626491,105.085750,-588.489918,59.626491,-588.489918,7.399292,60.675000,52.227199,44.410750,-19.135192,0.715170,-18.420022,18.618289,-37.038311,0.000000,0.462979,0.468852,6735,809
0.894000,59.807181,75.560000,-590.273264,59.807181,-590.273264,8.584717,62.325000,51.222464,13.235000,-19.193179,0.716489,-18.476691,17.995510,-36.472201,0.000000,0.455903,0.464580,7814,831
0.896000,59.928731,45.960000,-591.472915,59.928731,-591.472915,9.663574,60.300000,50.265157,-14.340000,-19.232187,0.717371,-18.514815,17.420710,-35.935525,0.000000,0.449194,0.461376,8796,804
0.898000,59.991021,16.314000,-592.087684,59.991021,-592.087684,10.682007,59.550000,49.309014,-43.236000,-19.252176,0.717822,-18.534354,16.834788,-35.369142,0.000000,0.442114,0.456036,9723,794
0.900000,59.993987,-13.348000,-592.116964,59.993987,-592.116964,11.663086,59.475000,48.330901,-72.823000,-19.253128,0.717844,-18.535285,16.235167,-34.770451,-0.000000,0.434631,0.450696,10616,793
0.902000,59.937629,-42.996750,-591.560726,59.937629,-591.560726,12.673828,58.275000,47.263801,-101.271750,-19.235042,0.717436,-18.517606,15.614416,-34.132022,-0.000000,0.426650,0.431472,11536,777
0.904000,59.822000,-72.603250,-590.419519,59.822000,-590.419519,13.804321,57.375000,46.017679,-129.978250,-19.197935,0.716596,-18.481338,14.928926,-33.410264,-0.000000,0.417628,0.422928,12565,765
0.906000,59.647216,-102.137500,-588.694473,59.647216,-588.694473,14.861206,54.675000,44.786010,-156.812500,-19.141844,0.715322,-18.426522,14.264819,-32.691341,-0.000000,0.408642,0.421860,13527,729
0.908000,59.413450,-131.570750,-586.387293,59.413450,-586.387293,15.933472,54.150000,43.479978,-185.720750,-19.066824,0.713607,-18.353217,13.556656,-31.909873,-0.000000,0.398873,0.412248,14503,722
0.910000,59.120933,-160.874250,-583.500260,59.120933,-583.500260,16.889282,52.875000,42.231651,-213.749250,-18.972950,0.711444,-18.261506,12.876313,-31.137819,-0.000000,0.389223,0.398364,15373,705
0.912000,58.769953,-190.018750,-580.036229,58.769953,-580.036229,17.918701,50.925000,40.851252,-240.943750,-18.860314,0.708825,-18.151490,12.157146,-30.308636,-0.000000,0.378858,0.387684,16310,679
0.914000,58.360858,-218.975000,-575.998627,58.360858,-575.998627,18.911865,49.125000,39.448993,-268.100000,-18.729029,0.705738,-18.023291,11.430682,-29.453973,-0.000000,0.368175,0.383412,17214,655
0.916000,57.894053,-247.714750,-571.391445,57.894053,-571.391445,19.716064,46.800000,38.177989,-294.514750,-18.579223,0.702172,-17.877051,10.756506,-28.633557,-0.000000,0.357919,0.366324,17946,624
0.918000,57.369999,-276.209500,-566.219239,57.369999,-566.219239,20.551025,45.000000,36.818974,-321.209500,-18.411044,0.698113,-17.712932,10.049165,-27.762096,-0.000000,0.347026,0.355644,18706,600
0.920000,56.789215,-304.431250,-560.487123,56.789215,-560.487123,21.314575,42.825000,35.474640,-347.256250,-18.224660,0.693546,-17.531114,9.352603,-26.883717,-0.000000,0.336046,0.344964,19401,571
0.922000,56.152274,-332.352250,-554.200767,56.152274,-554.200767,22.078125,41.025000,34.074149,-373.377250,-18.020255,0.688456,-17.331799,8.635791,-25.967589,-0.000000,0.324595,0.342828,20096,547
0.924000,55.459806,-359.944250,-547.366387,55.459806,-547.366387,22.761475,38.475000,32.698331,-398.419250,-17.798030,0.682826,-17.115204,7.937007,-25.052211,-0.000000,0.313153,0.322536,20718,513
0.926000,54.712497,-387.180250,-539.990739,54.712497,-539.990739,23.378906,37.425000,31.333591,-424.605250,-17.558205,0.676638,-16.881567,7.232107,-24.113674,-0.000000,0.301421,0.315060,21280,499
0.928000,53.911085,-414.033500,-532.081119,53.911085,-532.081119,24.006226,34.200000,29.904859,-448.233500,-17.301018,0.669874,-16.631144,6.527190,-23.158334,-0.000000,0.289479,0.301176,21851,456
0.930000,53.056363,-440.477500,-523.645347,53.056363,-523.645347,24.558838,32.700000,28.497525,-473.177500,-17.026722,0.662515,-16.364207,5.818260,-22.182467,-0.000000,0.277281,0.281952,22354,436
0.932000,52.149175,-466.485750,-514.691766,52.149175,-514.691766,25.204834,30.150000,26.944341,-496.635750,-16.735590,0.654544,-16.081046,5.071385,-21.152431,-0.000000,0.264405,0.283020,22942,402
0.934000,51.190420,-492.032750,-505.229228,51.190420,-505.229228,25.742065,27.375000,25.448355,-519.407750,-16.427908,0.645941,-15.781967,4.350464,-20.132431,-0.000000,0.251655,0.264864,23431,365
0.936000,50.181044,-517.093250,-495.267092,50.181044,-495.267092,26.251831,25.500000,23.929213,-542.593250,-16.103982,0.636689,-15.467293,3.617852,-19.085145,-0.000000,0.238564,0.253116,23895,340
0.938000,49.122047,-541.642250,-484.815208,49.122047,-484.815208,26.703369,22.350000,22.418678,-563.992250,-15.764131,0.626770,-15.137361,2.903834,-18.041195,-0.000000,0.225515,0.240300,24306,298
0.940000,48.014475,-565.655750,-473.883912,48.014475,-473.883912,27.109863,21.450000,20.904612,-587.105750,-15.408692,0.616166,-14.792526,2.173622,-16.966147,-0.000000,0.212077,0.229620,24676,286
0.942000,46.859424,-589.109750,-462.484012,46.859424,-462.484012,27.538330,21.750000,19.321094,-610.859750,-15.038015,0.604863,-14.433152,1.413577,-15.846730,-0.000000,0.198084,0.210396,25066,290
0.944000,45.658036,-611.981500,-450.626783,45.658036,-450.626783,27.921753,16.350000,17.736283,-628.331500,-14.652469,0.592846,-14.059623,0.707904,-14.767527,-0.000000,0.184594,0.199716,25415,218
0.946000,44.411498,-634.248000,-438.323949,44.411498,-438.323949,28.263428,16.875000,16.148070,-651.123000,-14.252433,0.580101,-13.672332,-0.045380,-13.626951,-0.000000,0.170337,0.183696,25726,225
0.948000,43.121044,-655.887250,-425.587675,43.121044,-425.587675,28.554565,13.500000,14.566479,-669.387250,-13.838303,0.566619,-13.271685,-0.756846,-12.514839,-0.000000,0.156435,0.171948,25991,180
0.950000,41.787949,-676.878000,-412.430557,41.787949,-412.430557,28.810547,11.100000,12.977402,-687.978000,-13.410490,0.552389,-12.858101,-1.473773,-11.384328,-0.000000,0.142304,0.158064,26224,148
0.952000,40.413532,-697.199250,-398.865605,40.413532,-398.865605,29.052246,10.575000,11.361286,-707.774250,-12.969415,0.537405,-12.432010,-2.210659,-10.221352,-0.000000,0.127767,0.139908,26444,141
0.954000,38.999152,-716.831250,-384.906231,38.999152,-384.906231,29.250000,8.025000,9.749152,-724.856250,-12.515516,0.521662,-11.993853,-2.922468,-9.071385,-0.000000,0.113392,0.130296,26624,107
0.956000,37.546207,-735.754250,-370.566241,37.546207,-370.566241,29.411499,7.125000,8.134708,-742.879250,-12.049240,0.505160,-11.544080,-3.643296,-7.900784,-0.000000,0.098760,0.112140,26771,95
0.958000,36.056135,-753.949750,-355.859815,36.056135,-355.859815,29.532349,5.400000,6.523786,-759.349750,-11.571050,0.487898,-11.083151,-4.349346,-6.733805,-0.000000,0.084173,0.100392,26881,72
0.960000,34.530408,-771.399750,-340.801494,34.530408,-340.801494,29.627930,3.525000,4.902478,-774.924750,-11.081417,0.469882,-10.611535,-5.051206,-5.560328,-0.000000,0.069504,0.084372,26968,47
0.962000,32.970536,-788.087000,-325.406170,32.970536,-325.406170,29.693848,2.475000,3.276688,-790.562000,-10.580826,0.451118,-10.129708,-5.755175,-4.374533,-0.000000,0.054682,0.066216,27028,33
0.964000,31.378060,-803.994750,-309.689066,31.378060,-309.689066,29.733398,1.350000,1.644662,-805.344750,-10.069773,0.431617,-9.638156,-6.453864,-3.184292,-0.000000,0.039804,0.054468,27064,18
0.966000,29.754557,-819.107500,-293.665724,29.754557,-293.665724,29.754272,0.450000,0.000285,-819.557500,-9.548762,0.411393,-9.137368,-7.151889,-1.985479,-0.000000,0.024818,0.040584,27083,6
0.968000,28.101630,-833.410500,-277.351990,28.101630,-277.351990,29.758667,0.000000,-1.657037,-833.410500,-9.018309,0.390464,-8.627845,-7.851294,-0.776551,-0.000000,0.009707,0.020292,27087,0
0.970000,26.420915,-846.889250,-260.763994,26.420915,-260.763994,29.756470,-0.150000,-3.335555,-846.739250,-8.478937,0.368849,-8.110088,-8.553522,0.443434,-0.000000,-0.005543,0.011748,27085,-2
0.972000,24.714073,-859.530750,-243.918140,24.714073,-243.918140,29.754272,-0.150000,-5.040199,-859.380750,-7.931182,0.346574,-7.584608,-9.258873,1.674265,-0.000000,-0.020928,-0.009612,27083,-2
0.974000,22.982792,-871.322000,-226.831086,22.982792,-226.831086,29.748779,-0.450000,-6.765987,-870.872000,-7.375583,0.323665,-7.051918,-9.961567,2.909649,-0.000000,-0.036371,-0.022428,27078,-6
0.976000,21.228785,-882.251500,-209.519729,21.228785,-209.519729,29.738892,-0.825000,-8.510107,-881.426500,-6.812692,0.300155,-6.512536,-10.662485,4.149948,-0.000000,-0.051874,-0.030972,27069,-11
0.978000,19.453786,-892.308750,-192.001187,19.453786,-192.001187,29.721313,-1.275000,-10.267527,-891.033750,-6.243063,0.276077,-5.966986,-11.359780,5.392794,-0.000000,-0.067410,-0.053400,27053,-17
0.980000,17.659550,-901.483750,-174.292784,17.659550,-174.292784,29.690552,-2.025000,-12.031002,-899.458750,-5.667261,0.251469,-5.415792,-12.048870,6.633078,-0.000000,-0.082913,-0.067284,27025,-27
0.982000,15.847851,-909.767250,-156.412030,15.847851,-156.412030,29.645508,-3.000000,-13.797657,-906.767250,-5.085855,0.226371,-4.859483,-12.729328,7.869844,-0.000000,-0.098373,-0.084372,26984,-40
0.984000,14.020481,-917.151250,-138.376607,14.020481,-138.376607,29.589478,-3.225000,-15.568997,-913.926250,-4.499419,0.200827,-4.298592,-13.410116,9.111524,-0.000000,-0.113894,-0.100392,26933,-43
0.986000,12.179246,-923.628250,-120.204350,12.179246,-120.204350,29.518066,-3.600000,-17.338820,-920.028250,-3.908535,0.174883,-3.733652,-14.081151,10.347499,-0.000000,-0.129344,-0.114276,26868,-48
0.988000,10.325968,-929.191750,-101.913228,10.325968,-101.913228,29.445557,-4.950000,-19.119589,-924.241750,-3.313785,0.148587,-3.165198,-14.739526,11.574328,-0.000000,-0.144679,-0.129228,26802,-66
0.990000,8.462479,-933.836500,-83.521328,8.462479,-83.521328,29.349976,-5.325000,-20.887497,-928.511500,-2.715759,0.121989,-2.593770,-15.393903,12.800133,-0.000000,-0.160002,-0.142044,26715,-71
0.992000,6.590622,-937.557750,-65.046838,6.590622,-65.046838,29.237915,-6.075000,-22.647293,-931.482750,-2.115047,0.095142,-2.019905,-16.034117,14.014212,-0.000000,-0.175178,-0.159132,26613,-81
0.994000,4.712248,-940.352000,-46.508026,4.712248,-46.508026,29.109375,-6.900000,-24.397127,-933.452000,-1.512243,0.068099,-1.444144,-16.662109,15.217965,-0.000000,-0.190225,-0.173016,26496,-92
0.996000,2.829214,-942.216500,-27.923224,2.829214,-27.923224,28.970947,-7.800000,-26.141733,-934.416500,-0.907945,0.040916,-0.867029,-17.279509,16.412480,-0.000000,-0.205156,-0.191172,26370,-104
0.998000,0.943382,-943.149000,-9.310810,0.943382,-9.310810,28.810547,-10.425000,-27.867165,-932.724000,-0.302748,0.013648,-0.289100,-17.867028,17.577928,-0.000000,-0.219724,-0.207192,26224,-139
1.000000,-0.943382,-943.149000,9.310810,-0.943382,9.310810,28.651245,-11.100000,-29.594627,-932.049000,0.302748,-0.013648,0.289100,-18.464136,18.753236,-0.000000,-0.234415,-0.217872,26079,-148
1.002000,-2.829214,-942.216500,27.923224,-2.829214,27.923224,28.442505,-13.650000,-31.271719,-928.566500,0.907945,-0.040916,0.867029,-19.019161,19.886189,-0.000000,-0.248577,-0.238164,25889,-182
1.004000,-4.712248,-940.352000,46.508026,-4.712248,46.508026,28.190918,-13.800000,-32.903166,-926.552000,1.512243,-0.068099,1.444144,-19.571063,21.015207,-0.000000,-0.262690,-0.249912,25660,-184
1.006000,-6.590622,-937.557750,65.046838,-6.590622,65.046838,27.911865,-17.775000,-34.502487,-919.782750,2.115047,-0.095142,2.019905,-20.070259,22.090164,-0.000000,-0.276127,-0.268068,25406,-237
1.008000,-8.462479,-933.836500,83.521328,-8.462479,83.521328,27.639404,-18.450000,-36.101883,-915.386500,2.715759,-0.121989,2.593770,-20.590189,23.183959,-0.000000,-0.289799,-0.274476,25158,-246
1.010000,-10.325968,-929.191750,101.913228,-10.325968,101.913228,27.354858,-21.150000,-37.680826,-908.041750,3.313785,-0.148587,3.165198,-21.077249,24.242447,-0.000000,-0.303031,-0.287292,24899,-282
1.012000,-12.179246,-923.628250,120.204350,-12.179246,120.204350,26.932983,-22.650000,-39.112229,-900.978250,3.908535,-0.174883,3.733652,-21.515262,25.248914,-0.000000,-0.315611,-0.301176,24515,-302
1.014000,-14.020481,-917.151250,138.376607,-14.020481,138.376607,26.536377,-22.125000,-40.556858,-895.026250,4.499419,-0.200827,4.298592,-21.967592,26.266184,-0.000000,-0.328327,-0.312924,24154,-295
1.016000,-15.847851,-909.767250,156.412030,-15.847851,156.412030,26.052979,-25.875000,-41.900830,-883.892250,5.085855,-0.226371,4.859483,-22.339564,27.199047,-0.000000,-0.339988,-0.331080,23714,-345
1.018000,-17.659550,-901.483750,174.292784,-17.659550,174.292784,25.549805,-25.650000,-43.209355,-875.833750,5.667261,-0.251469,5.415792,-22.726001,28.141793,-0.000000,-0.351772,-0.336420,23256,-342
