khanfazel/E-wera--maxon_motor/PD_control (another copy)/pd_feedforward_log.csv
t_s,q_ref_deg,qd_ref_deg_s,qdd_ref_deg_s2,q_model_deg,qdd_model_deg_s2,q_link_deg,qd_link_deg_s,pos_error_deg,vel_error_deg_s,tau_inertia_joint_Nm,tau_gravity_joint_Nm,tau_joint_ff_Nm,tau_pd_joint_Nm,tau_joint_total_Nm,tau_dead_motor_Nm,tau_motor_cmd_Nm,tau_motor_actual_Nm,motor_pos_counts,motor_vel_native
0.000000,0.000000,943.265500,0.000000,0.000000,0.000000,-0.223022,0.000000,0.223022,943.265500,0.000000,0.000000,0.000000,8.309394,-8.309394,0.000000,0.103867,0.001068,-203,0
0.002000,1.886531,942.799250,0.000000,1.886531,0.000000,-0.220825,1.350000,2.107356,941.449250,0.000000,0.027289,0.027289,8.951301,-8.924012,0.000000,0.111550,0.106800,-201,18
0.004000,3.771197,941.400750,-37.220226,3.771197,-37.220226,-0.166992,4.275000,3.938189,937.125750,-1.210244,0.054522,-1.155722,9.552652,-10.708374,0.000000,0.133855,0.110004,-152,57
0.006000,5.652134,939.071000,-55.784328,5.652134,-55.784328,-0.070312,5.775000,5.722447,933.296000,-1.813869,0.081641,-1.732228,10.142055,-11.874283,0.000000,0.148429,0.132432,-64,77
0.008000,7.527481,935.812750,-74.293267,7.527481,-74.293267,0.060425,7.500000,7.467056,928.312750,-2.415701,0.108593,-2.307108,10.707551,-13.014660,0.000000,0.162683,0.148452,55,100
0.010000,9.395385,931.629250,-92.728741,9.395385,-92.728741,0.203247,7.125000,9.192138,924.504250,-3.015145,0.135322,-2.879822,11.276483,-14.156305,0.000000,0.176954,0.163404,185,95
0.012000,11.253998,926.524500,-111.072519,11.253998,-111.072519,0.366943,7.500000,10.887055,919.024500,-3.611606,0.161776,-3.449831,11.820301,-15.270131,0.000000,0.190877,0.176220,334,100
0.014000,13.101483,920.503500,-129.306462,13.101483,-129.306462,0.549316,8.400000,12.552167,912.103500,-4.204497,0.187902,-4.016595,12.341137,-16.357732,0.000000,0.204472,0.191172,500,112
0.016000,14.936012,913.572250,-147.412541,14.936012,-147.412541,0.727295,10.800000,14.208717,902.772250,-4.793230,0.213652,-4.579577,12.837952,-17.417529,0.000000,0.217719,0.202920,662,144
0.018000,16.755772,905.737500,-165.372849,16.755772,-165.372849,0.922852,10.275000,15.832920,895.462500,-5.377223,0.238979,-5.138244,13.341116,-18.479360,0.000000,0.230992,0.210396,840,137
0.020000,18.558962,897.007250,-183.169628,18.558962,-183.169628,1.156860,12.825000,17.402102,884.182250,-5.955898,0.263837,-5.692061,13.790425,-19.482486,0.000000,0.243531,0.230688,1053,171
0.022000,20.343801,887.390000,-200.785278,20.343801,-200.785278,1.404053,14.325000,18.939748,873.065000,-6.528684,0.288185,-6.240499,14.230149,-20.470648,0.000000,0.255883,0.245640,1278,191
0.024000,22.108522,876.895000,-218.202380,22.108522,-218.202380,1.654541,14.250000,20.453981,862.645000,-7.095015,0.311983,-6.783031,14.667784,-21.450815,0.000000,0.268135,0.256320,1506,190
0.026000,23.851381,865.533250,-235.403712,23.851381,-235.403712,1.980835,19.050000,21.870546,846.483250,-7.654329,0.335197,-7.319132,15.021221,-22.340353,0.000000,0.279254,0.269136,1803,254
0.028000,25.570655,853.315500,-252.372264,25.570655,-252.372264,2.295044,17.700000,23.275611,835.615500,-8.206074,0.357792,-7.848282,15.416842,-23.265123,0.000000,0.290814,0.272340,2089,236
0.030000,27.264643,840.253750,-269.091255,27.264643,-269.091255,2.688354,21.600000,24.576289,818.653750,-8.749705,0.379741,-8.369964,15.722845,-24.092809,0.000000,0.301160,0.293700,2447,288
0.032000,28.931670,826.361000,-285.544154,28.931670,-285.544154,3.061890,21.675000,25.869780,804.686000,-9.284683,0.401016,-8.883667,16.052467,-24.936134,0.000000,0.311702,0.300108,2787,289
0.034000,30.570087,811.651500,-301.714692,30.570087,-301.714692,3.507935,25.275000,27.062152,786.376500,-9.810480,0.421595,-9.388885,16.308903,-25.697788,0.000000,0.321222,0.312924,3193,337
0.036000,32.178276,796.139500,-317.586877,32.178276,-317.586877,3.990234,23.625000,28.188042,772.514500,-10.326576,0.441459,-9.885117,16.580943,-26.466061,0.000000,0.330826,0.320400,3632,315
0.038000,33.754645,779.839750,-333.145014,33.754645,-333.145014,4.512085,28.050000,29.242560,751.789750,-10.832461,0.460593,-10.371868,16.768182,-27.140050,0.000000,0.339251,0.332148,4107,374
0.040000,35.297635,762.769000,-348.373719,35.297635,-348.373719,5.066895,29.475000,30.230740,733.294000,-11.327633,0.478984,-10.848649,16.951716,-27.800366,0.000000,0.347505,0.335352,4612,393
0.042000,36.805721,744.944000,-363.257932,36.805721,-363.257932,5.652466,31.425000,31.153255,713.519000,-11.811605,0.496624,-11.314981,17.101165,-28.416146,0.000000,0.355202,0.346032,5145,419
0.044000,38.277411,726.382500,-377.782936,38.277411,-377.782936,6.203979,30.450000,32.073432,695.932500,-12.283896,0.513506,-11.770390,17.268896,-29.039286,0.000000,0.362991,0.356712,5647,406
0.046000,39.711251,707.102750,-391.934367,39.711251,-391.934367,6.833496,34.050000,32.877755,673.052750,-12.744041,0.529629,-12.214412,17.349995,-29.564407,0.000000,0.369555,0.363120,6220,454
0.048000,41.105822,687.123500,-405.698231,41.105822,-405.698231,7.747559,34.650000,33.358263,652.473500,-13.191583,0.544991,-12.646592,17.338136,-29.984728,0.000000,0.374809,0.367392,7052,462
0.050000,42.459745,666.465000,-419.060918,42.459745,-419.060918,8.425415,36.975000,34.034330,629.490000,-13.626081,0.559598,-13.066483,17.373559,-30.440042,0.000000,0.380501,0.377004,7669,493
0.052000,43.771682,645.147500,-432.009215,43.771682,-432.009215,9.131836,38.400000,34.639846,606.747500,-14.047105,0.573453,-13.473652,17.386458,-30.860110,0.000000,0.385751,0.375936,8312,512
0.054000,45.040335,623.191750,-444.530316,45.040335,-444.530316,9.843750,38.400000,35.196585,584.791750,-14.454238,0.586565,-13.867672,17.389197,-31.256869,0.000000,0.390711,0.384480,8960,512
0.056000,46.264449,600.619750,-456.611842,46.264449,-456.611842,10.749023,39.975000,35.515426,560.644750,-14.847077,0.598945,-14.248133,17.289771,-31.537904,0.000000,0.394224,0.390888,9784,533
0.058000,47.442814,577.454250,-468.241844,47.442814,-468.241844,11.423584,39.675000,36.019230,537.779250,-15.225236,0.610603,-14.614633,17.266092,-31.880725,0.000000,0.398509,0.391956,10398,529
0.060000,48.574266,553.717500,-479.408822,48.574266,-479.408822,12.145386,41.850000,36.428880,511.867500,-15.588338,0.621555,-14.966784,17.182965,-32.149749,0.000000,0.401872,0.399432,11055,558
0.062000,49.657684,529.433000,-490.101734,49.657684,-490.101734,12.951782,42.225000,36.705902,487.208000,-15.936027,0.631814,-15.304213,17.064469,-32.368681,0.000000,0.404609,0.400500,11789,563
0.064000,50.691998,504.625250,-500.310006,50.691998,-500.310006,13.706543,42.975000,36.985455,461.650250,-16.267956,0.641398,-15.626559,16.939018,-32.565576,0.000000,0.407070,0.405840,12476,573
0.066000,51.676185,479.318500,-510.023544,51.676185,-510.023544,14.559082,43.800000,37.117103,435.518500,-16.583799,0.650323,-15.933476,16.756929,-32.690405,0.000000,0.408630,0.407976,13252,584
0.068000,52.609272,453.537750,-519.232741,52.609272,-519.232741,15.320435,44.700000,37.288837,408.837750,-16.883243,0.658607,-16.224636,16.584042,-32.808678,0.000000,0.410108,0.403704,13945,596
0.070000,53.490336,427.308250,-527.928493,53.490336,-527.928493,16.186157,45.150000,37.304179,382.158250,-17.165992,0.666270,-16.499722,16.356575,-32.856297,0.000000,0.410704,0.407976,14733,602
0.072000,54.318505,400.656500,-536.102199,54.318505,-536.102199,17.046387,46.275000,37.272118,354.381500,-17.431766,0.673329,-16.758437,16.102986,-32.861423,0.000000,0.410768,0.413316,15516,617
0.074000,55.092962,373.608500,-543.745778,55.092962,-543.745778,17.919800,46.875000,37.173162,326.733500,-17.680303,0.679803,-17.000500,15.827169,-32.827670,0.000000,0.410346,0.407976,16311,625
0.076000,55.812939,346.191000,-550.851670,55.812939,-550.851670,18.667969,46.950000,37.144970,299.241000,-17.911356,0.685710,-17.225647,15.577411,-32.803058,0.000000,0.410038,0.406908,16992,626
0.078000,56.477726,318.431250,-557.412850,56.477726,-557.412850,19.572144,47.775000,36.905582,270.656250,-18.124698,0.691068,-17.433630,15.244400,-32.678030,0.000000,0.408475,0.409044,17815,637
0.080000,57.086664,290.356250,-563.422828,57.086664,-563.422828,20.371948,47.850000,36.714716,242.506250,-18.320117,0.695894,-17.624223,14.932120,-32.556343,0.000000,0.406954,0.405840,18543,638
0.082000,57.639151,261.994500,-568.875663,57.639151,-568.875663,21.249756,48.150000,36.389395,213.844500,-18.497420,0.700205,-17.797215,14.568440,-32.365656,0.000000,0.404571,0.407976,19342,642
0.084000,58.134642,233.373750,-573.765962,58.134642,-573.765962,22.053955,48.150000,36.080687,185.223750,-18.656432,0.704016,-17.952416,14.210918,-32.163334,0.000000,0.402042,0.411180,20074,642
0.086000,58.572646,204.522000,-578.088888,58.572646,-578.088888,22.936157,47.625000,35.636489,156.897000,-18.796995,0.707340,-18.089655,13.808666,-31.898320,0.000000,0.398729,0.402636,20877,635
0.088000,58.952730,175.468250,-581.840169,58.952730,-581.840169,23.933716,47.925000,35.019014,127.543250,-18.918971,0.710192,-18.208779,13.336967,-31.545745,0.000000,0.394322,0.405840,21785,639
0.090000,59.274519,146.240750,-585.016093,59.274519,-585.016093,24.911499,48.000000,34.363020,98.240750,-19.022238,0.712582,-18.309656,12.852269,-31.161925,0.000000,0.389524,0.394092,22675,640
0.092000,59.537693,116.868500,-587.613520,59.537693,-587.613520,25.822266,46.425000,33.715427,70.443500,-19.106696,0.714520,-18.392176,12.383640,-30.775816,0.000000,0.384698,0.390888,23504,619
0.094000,59.741993,87.381000,-589.629883,59.741993,-589.629883,26.703369,46.725000,33.038624,40.656000,-19.172259,0.716014,-18.456245,11.887446,-30.343691,0.000000,0.379296,0.387684,24306,623
0.096000,59.887217,57.807000,-591.063187,59.887217,-591.063187,27.648193,45.225000,32.239024,12.582000,-19.218864,0.717070,-18.501794,11.363341,-29.865135,0.000000,0.373314,0.378072,25166,603
0.098000,59.973221,28.176000,-591.912014,59.973221,-591.912014,28.491943,45.525000,31.481278,-17.349000,-19.246464,0.717694,-18.528771,10.837640,-29.366411,0.000000,0.367080,0.371664,25934,607
0.100000,59.999921,-1.483000,-592.175526,59.999921,-592.175526,29.397217,44.100000,30.602704,-45.583000,-19.255033,0.717887,-18.537146,10.284572,-28.821718,-0.000000,0.360271,0.368460,26758,588
0.102000,59.967289,-31.140750,-591.853461,59.967289,-591.853461,30.176147,43.575000,29.791142,-74.715750,-19.244560,0.717651,-18.526910,9.747052,-28.273962,-0.000000,0.353425,0.354576,27467,581
0.104000,59.875358,-60.767500,-590.946139,59.875358,-590.946139,31.010010,43.125000,28.865348,-103.892500,-19.215058,0.716984,-18.498074,9.169274,-27.667348,-0.000000,0.345842,0.358848,28226,575
0.106000,59.724219,-90.334250,-589.454456,59.724219,-589.454456,31.777954,41.550000,27.946265,-131.884250,-19.166555,0.715884,-18.450671,8.604180,-27.054850,-0.000000,0.338186,0.344964,28925,554
0.108000,59.514021,-119.811500,-587.379888,59.514021,-587.379888,32.577759,40.725000,26.936262,-160.536500,-19.099099,0.714346,-18.384753,8.001584,-26.386337,-0.000000,0.329829,0.343896,29653,543
0.110000,59.244973,-149.170500,-584.724485,59.244973,-584.724485,33.243530,39.000000,26.001443,-188.170500,-19.012756,0.712363,-18.300393,7.434118,-25.734511,-0.000000,0.321681,0.328944,30259,520
0.112000,58.917339,-178.382000,-581.490875,58.917339,-581.490875,34.104858,37.725000,24.812481,-216.107000,-18.907613,0.709928,-18.197685,6.775300,-24.972986,-0.000000,0.312162,0.320400,31043,503
0.114000,58.531445,-207.416750,-577.682254,58.531445,-577.682254,34.879395,35.700000,23.652050,-243.116750,-18.783773,0.707029,-18.076744,6.134529,-24.211273,-0.000000,0.302641,0.313992,31748,476
0.116000,58.087672,-236.246500,-573.302388,58.087672,-573.302388,35.624268,34.200000,22.463404,-270.446500,-18.641358,0.703657,-17.937702,5.481116,-23.418818,-0.000000,0.292735,0.306516,32426,456
0.118000,57.586459,-264.842750,-568.355609,57.586459,-568.355609,36.190063,32.625000,21.396396,-297.467750,-18.480510,0.699796,-17.780714,4.872855,-22.653569,-0.000000,0.283170,0.293700,32941,435
0.120000,57.028301,-293.177250,-562.846808,57.028301,-562.846808,36.811890,30.750000,20.216411,-323.927250,-18.301387,0.695435,-17.605953,4.230060,-21.836013,-0.000000,0.272950,0.284088,33507,410
0.122000,56.413750,-321.221750,-556.781433,56.413750,-556.781433,37.355713,31.650000,19.058037,-352.871750,-18.104167,0.690556,-17.413611,3.573123,-20.986734,-0.000000,0.262334,0.277680,34002,422
0.124000,55.743414,-348.948750,-550.165481,55.743414,-550.165481,37.943481,26.700000,17.799933,-375.648750,-17.889044,0.685144,-17.203901,2.935195,-20.139095,-0.000000,0.251739,0.271272,34537,356
0.126000,55.017955,-376.330500,-543.005495,55.017955,-543.005495,38.469727,24.975000,16.548228,-401.305500,-17.656232,0.679181,-16.977051,2.274370,-19.251421,-0.000000,0.240643,0.252048,35016,333
0.128000,54.238092,-403.339750,-535.308555,54.238092,-535.308555,38.979492,25.050000,15.258600,-428.389750,-17.405960,0.672650,-16.733311,1.587850,-18.321161,-0.000000,0.229015,0.244572,35480,334
0.130000,53.404596,-429.950500,-527.082272,53.404596,-527.082272,39.456299,20.925000,13.948297,-450.875500,-17.138477,0.665531,-16.472945,0.934243,-17.407189,-0.000000,0.217590,0.223212,35914,279
0.132000,52.518290,-456.136500,-518.334780,52.518290,-518.334780,39.913330,23.325000,12.604960,-479.461500,-16.854045,0.657807,-16.196238,0.215870,-16.412108,-0.000000,0.205151,0.215736,36330,311
0.134000,51.580050,-481.871000,-509.074730,51.580050,-509.074730,40.335205,20.250000,11.244845,-502.121000,-16.552948,0.649459,-15.903488,-0.456641,-15.446847,-0.000000,0.193086,0.207192,36714,270
0.136000,50.590806,-507.128750,-499.311279,50.590806,-499.311279,40.688965,17.250000,9.901841,-524.378750,-16.235482,0.640469,-15.595013,-1.119673,-14.475339,-0.000000,0.180942,0.191172,37036,230
0.138000,49.551535,-531.885500,-489.054081,49.551535,-489.054081,41.010864,17.250000,8.540671,-549.135500,-15.901961,0.630819,-15.271143,-1.810855,-13.460288,-0.000000,0.168254,0.181560,37329,230
0.140000,48.463264,-556.116250,-478.313278,48.463264,-478.313278,41.282227,12.750000,7.181037,-568.866250,-15.552716,0.620491,-14.932225,-2.457640,-12.474586,-0.000000,0.155932,0.168744,37576,170
0.142000,47.327070,-579.796750,-467.099493,47.327070,-467.099493,41.563477,14.100000,5.763593,-593.896750,-15.188091,0.609469,-14.578622,-3.170853,-11.407769,-0.000000,0.142597,0.155928,37832,188
0.144000,46.144077,-602.904250,-455.423814,46.144077,-455.423814,41.801880,12.150000,4.342197,-615.054250,-14.808448,0.597739,-14.210709,-3.851648,-10.359060,-0.000000,0.129488,0.146316,38049,162
0.146000,44.915453,-625.415500,-443.297786,44.915453,-443.297786,42.007324,10.125000,2.908129,-635.540500,-14.414161,0.585287,-13.828874,-4.531009,-9.297865,-0.000000,0.116223,0.124956,38236,135
0.148000,43.642415,-647.308250,-430.733401,43.642415,-430.733401,42.177612,8.850000,1.464803,-656.158250,-14.005621,0.572101,-13.433520,-5.214748,-8.218771,-0.000000,0.102735,0.115344,38391,118
0.150000,42.326220,-668.560750,-417.743082,42.326220,-417.743082,42.312744,6.750000,0.013476,-675.310750,-13.583231,0.558171,-13.025060,-5.888494,-7.136566,-0.000000,0.089207,0.102528,38514,90
0.152000,40.968172,-689.152250,-404.339676,40.968172,-404.339676,42.425903,5.400000,-1.457731,-694.552250,-13.147409,0.543489,-12.603919,-6.569956,-6.033963,-0.000000,0.075425,0.089712,38617,72
0.154000,39.569611,-709.062500,-390.536436,39.569611,-390.536436,42.520386,3.225000,-2.950775,-712.287500,-12.698586,0.528051,-12.170535,-7.245896,-4.924640,-0.000000,0.061558,0.074760,38703,43
0.156000,38.131922,-728.271250,-376.347012,38.131922,-376.347012,42.573120,2.025000,-4.441198,-730.296250,-12.237206,0.511852,-11.725354,-7.923308,-3.802046,-0.000000,0.047526,0.058740,38751,27
0.158000,36.656526,-746.760000,-361.785435,36.656526,-361.785435,42.602783,0.750000,-5.946257,-747.510000,-11.763726,0.494894,-11.268832,-8.598891,-2.669941,-0.000000,0.033374,0.046992,38778,10
0.160000,35.144882,-764.510500,-346.866104,35.144882,-346.866104,42.610474,0.150000,-7.465592,-764.660500,-11.278612,0.477179,-10.801433,-9.278905,-1.522529,-0.000000,0.019032,0.034176,38785,2
0.162000,33.598484,-781.504750,-331.603773,33.598484,-331.603773,42.609375,-0.225000,-9.010891,-781.279750,-10.782346,0.458713,-10.323633,-9.963346,-0.360287,-0.000000,0.004504,0.020292,38784,-3
0.164000,32.018863,-797.726250,-316.013534,32.018863,-316.013534,42.604980,-0.150000,-10.586117,-797.576250,-10.275418,0.439505,-9.835912,-10.655418,0.819505,-0.000000,-0.010244,0.003204,38780,-2
0.166000,30.407579,-813.159000,-300.110802,30.407579,-300.110802,42.600586,-0.450000,-12.193007,-812.709000,-9.758328,0.419569,-9.338760,-11.348386,2.009627,-0.000000,-0.025120,-0.009612,38776,-6
0.168000,28.766227,-827.787250,-283.911305,28.766227,-283.911305,42.590698,-0.750000,-13.824471,-827.037250,-9.231590,0.398919,-8.832671,-12.042912,3.210242,-0.000000,-0.040128,-0.025632,38767,-10
0.170000,27.096430,-841.597500,-267.431059,27.096430,-267.431059,42.574219,-1.200000,-15.477789,-840.397500,-8.695722,0.377576,-8.318146,-12.736619,4.418473,-0.000000,-0.055231,-0.040584,38752,-16
0.172000,25.399837,-854.575500,-250.686364,25.399837,-250.686364,42.547852,-2.100000,-17.148015,-852.475500,-8.151256,0.355562,-7.795694,-13.425038,5.629344,-0.000000,-0.070367,-0.060876,38728,-28
0.174000,23.678128,-866.708000,-233.693775,23.678128,-233.693775,42.514893,-2.775000,-18.836765,-863.933000,-7.598729,0.332903,-7.265826,-14.114509,6.848683,-0.000000,-0.085609,-0.067284,38698,-37
0.176000,21.933005,-877.983750,-216.470097,21.933005,-216.470097,42.454468,-3.600000,-20.521463,-874.383750,-7.038688,0.309629,-6.729059,-14.793780,8.064721,-0.000000,-0.100809,-0.086508,38643,-48
0.178000,20.166193,-888.391250,-199.032362,20.166193,-199.032362,42.384155,-3.900000,-22.217962,-884.491250,-6.471687,0.285774,-6.185913,-15.474174,9.288261,-0.000000,-0.116103,-0.104664,38579,-52
0.180000,18.379440,-897.920250,-181.397812,18.379440,-181.397812,42.312744,-4.275000,-23.933304,-893.645250,-5.898286,0.261373,-5.636913,-16.152825,10.515912,-0.000000,-0.131449,-0.114276,38514,-57
0.182000,16.574512,-906.561500,-163.583885,16.574512,-163.583885,42.235840,-5.025000,-25.661328,-901.536500,-5.319053,0.236467,-5.082587,-16.824883,11.742297,-0.000000,-0.146779,-0.133500,38444,-67
0.184000,14.753194,-914.306250,-145.608198,14.753194,-145.608198,42.135864,-5.850000,-27.382670,-908.456250,-4.734560,0.211096,-4.523464,-17.486131,12.962667,-0.000000,-0.162033,-0.144180,38353,-78
0.186000,12.917287,-921.146750,-127.488525,12.917287,-127.488525,42.028198,-7.350000,-29.110911,-913.796750,-4.145385,0.185306,-3.960079,-18.136006,14.175927,-0.000000,-0.177199,-0.163404,38255,-98
0.188000,11.068607,-927.076250,-109.242785,11.068607,-109.242785,41.879883,-9.300000,-30.811276,-917.776250,-3.552111,0.159144,-3.392967,-18.764273,15.371306,-0.000000,-0.192141,-0.178356,38120,-124
0.190000,9.208982,-932.089000,-90.889019,9.208982,-90.889019,41.729370,-9.600000,-32.520388,-922.489000,-2.955325,0.132661,-2.822664,-19.401992,16.579328,-0.000000,-0.207242,-0.193308,37983,-128
0.192000,7.340251,-936.180250,-72.445377,7.340251,-72.445377,41.539307,-10.575000,-34.199056,-925.605250,-2.355616,0.105907,-2.249709,-20.015152,17.765443,-0.000000,-0.222068,-0.201852,37810,-141
0.194000,5.464261,-939.345750,-53.930097,5.464261,-53.930097,41.318481,-14.400000,-35.854220,-924.945750,-1.753578,0.078936,-1.674642,-20.587158,18.912517,-0.000000,-0.236406,-0.224280,37609,-192
0.196000,3.582868,-941.582500,-35.361488,3.582868,-35.361488,41.072388,-13.500000,-37.489520,-928.082500,-1.149805,0.051803,-1.098003,-21.185359,20.087356,-0.000000,-0.251092,-0.232824,37385,-180
0.198000,1.697931,-942.888000,-16.757912,1.697931,-16.757912,40.805420,-16.500000,-39.107489,-926.388000,-0.544896,0.024562,-0.520334,-21.735349,21.215015,-0.000000,-0.265188,-0.247776,37142,-220
0.200000,-0.188684,-943.261000,1.862236,-0.188684,1.862236,40.542847,-18.900000,-40.731531,-924.361000,0.060552,-0.002730,0.057822,-22.284558,22.342380,-0.000000,-0.279280,-0.264864,36903,-252
0.202000,-2.075113,-942.701250,20.480542,-2.075113,20.480542,40.177002,-20.925000,-42.252115,-921.776250,0.665940,-0.030016,0.635924,-22.792786,23.428710,-0.000000,-0.292859,-0.280884,36570,-279
0.204000,-3.959489,-941.209500,39.078596,-3.959489,39.078596,39.806763,-21.975000,-43.766252,-919.234500,1.270670,-0.057240,1.213430,-23.299138,24.512569,-0.000000,-0.306407,-0.291564,36233,-293
0.206000,-5.839951,-938.787000,57.638006,-5.839951,57.638006,39.400269,-21.975000,-45.240220,-916.812000,1.874143,-0.084345,1.789798,-23.792510,25.582308,-0.000000,-0.319779,-0.306516,35863,-293
0.208000,-7.714637,-935.436000,76.140422,-7.714637,76.140422,38.937744,-24.450000,-46.652381,-910.986000,2.475763,-0.111277,2.364486,-24.234606,26.599092,-0.000000,-0.332489,-0.317196,35442,-326
0.210000,-9.581695,-931.160250,94.567545,-9.581695,94.567545,38.479614,-27.000000,-48.061309,-904.160250,3.074935,-0.137981,2.936954,-24.666848,27.603802,-0.000000,-0.345048,-0.339624,35025,-360
0.212000,-11.439278,-925.963500,112.901154,-11.439278,112.901154,37.933594,-29.700000,-49.372872,-896.263500,3.671066,-0.164404,3.506662,-25.055758,28.562420,-0.000000,-0.357030,-0.344964,34528,-396
0.214000,-13.285549,-919.851000,131.123121,-13.285549,131.123121,37.406250,-32.100000,-50.691799,-887.751000,4.263567,-0.190495,4.073072,-25.441865,29.514937,-0.000000,-0.368937,-0.356712,34048,-428
0.216000,-15.118682,-912.829250,149.215425,-15.118682,149.215425,36.721802,-36.150000,-51.840484,-876.679250,4.851852,-0.216205,4.635647,-25.746212,30.381859,-0.000000,-0.379773,-0.364188,33425,-482
0.218000,-16.936866,-904.904750,167.160178,-16.936866,167.160178,36.078003,-37.500000,-53.014869,-867.404750,5.435339,-0.241486,5.193852,-26.075215,31.269067,-0.000000,-0.390863,-0.382344,32839,-500
0.220000,-18.738301,-896.085250,184.939632,-18.738301,184.939632,35.441895,-39.900000,-54.180196,-856.185250,6.013451,-0.266295,5.747156,-26.384082,32.131238,-0.000000,-0.401640,-0.393024,32260,-532
0.222000,-20.521207,-886.379750,202.536209,-20.521207,202.536209,34.673950,-41.850000,-55.195157,-844.529750,6.585617,-0.290590,6.295027,-26.636657,32.931684,-0.000000,-0.411646,-0.397296,31561,-558
0.224000,-22.283820,-875.797750,219.932506,-22.283820,219.932506,33.970825,-43.875000,-56.254645,-831.922750,7.151271,-0.314332,6.836939,-26.896471,33.733410,-0.000000,-0.421668,-0.412248,30921,-585
0.226000,-24.024398,-864.349750,237.111321,-24.024398,237.111321,33.177612,-45.975000,-57.202010,-818.374750,7.709853,-0.337485,7.372368,-27.108935,34.481304,-0.000000,-0.431016,-0.422928,30199,-613
0.228000,-25.741219,-852.047000,254.055668,-25.741219,254.055668,32.384399,-47.400000,-58.125618,-804.647000,8.260811,-0.360017,7.900794,-27.311538,35.212332,-0.000000,-0.440154,-0.432540,29477,-632
0.230000,-27.432586,-838.901750,270.748790,-27.432586,270.748790,31.518677,-49.500000,-58.951263,-789.401750,8.803601,-0.381899,8.421702,-27.466702,35.888404,-0.000000,-0.448605,-0.441084,28689,-660
0.232000,-29.096826,-824.926750,287.174181,-29.096826,287.174181,30.574951,-51.600000,-59.671777,-773.326750,9.337684,-0.403105,8.934579,-27.577929,36.512508,-0.000000,-0.456406,-0.449628,27830,-688
0.234000,-30.732293,-810.136250,303.315597,-30.732293,303.315597,29.657593,-53.475000,-60.389886,-756.661250,9.862535,-0.423614,9.438921,-27.683162,37.122083,-0.000000,-0.464026,-0.451764,26995,-713
0.236000,-32.337371,-794.544500,319.157079,-32.337371,319.157079,28.479858,-56.250000,-60.817229,-738.294500,10.377632,-0.443406,9.934227,-27.672053,37.606280,-0.000000,-0.470078,-0.467784,25923,-750
0.238000,-33.910471,-778.167000,334.682960,-33.910471,334.682960,27.318604,-58.800000,-61.229075,-719.367000,10.882468,-0.462466,10.420002,-27.650640,38.070643,-0.000000,-0.475883,-0.474192,24866,-784
0.240000,-35.450039,-761.020250,349.877888,-35.450039,349.877888,26.165039,-60.075000,-61.615078,-700.945250,11.376543,-0.480782,10.895761,-27.624621,38.520381,-0.000000,-0.481505,-0.468852,23816,-801
0.242000,-36.954552,-743.120750,364.726837,-36.954552,364.726837,25.047729,-62.925000,-62.002281,-680.195750,11.859367,-0.498346,11.361021,-27.578707,38.939728,-0.000000,-0.486747,-0.483804,22799,-839
0.244000,-38.422522,-724.486500,379.215124,-38.422522,379.215124,23.868896,-64.500000,-62.291418,-659.986500,12.330465,-0.515153,11.815312,-27.503276,39.318588,-0.000000,-0.491482,-0.487008,21726,-860
0.246000,-39.852498,-705.136000,393.328421,-39.852498,393.328421,22.710938,-64.950000,-62.563435,-640.186000,12.789369,-0.531199,12.258170,-27.425436,39.683606,-0.000000,-0.496045,-0.475260,20672,-866
0.248000,-41.243066,-685.088000,407.052774,-41.243066,407.052774,21.470581,-66.675000,-62.713647,-618.413000,13.235627,-0.546486,12.689141,-27.287864,39.977005,-0.000000,-0.499713,-0.496620,19543,-889
0.250000,-42.592850,-664.362500,420.374610,-42.592850,420.374610,20.007202,-68.700000,-62.600052,-595.662500,13.668797,-0.561017,13.107780,-27.049676,40.157456,-0.000000,-0.500000,-0.501960,18211,-916
0.252000,-43.900516,-642.980250,433.280756,-43.900516,433.280756,18.642700,-70.425000,-62.543216,-572.555250,14.088450,-0.574797,13.513652,-26.828188,40.341840,-0.000000,-0.500000,-0.505164,16969,-939
0.254000,-45.164771,-620.962000,445.758450,-45.164771,445.758450,17.166138,-71.775000,-62.330909,-549.187000,14.494171,-0.587836,13.906335,-26.550152,40.456488,-0.000000,-0.500000,-0.503028,15625,-957
0.256000,-46.384364,-598.329500,457.795354,-46.384364,457.795354,15.864258,-73.575000,-62.248622,-524.754500,14.885560,-0.600143,14.285418,-26.308215,40.593633,-0.000000,-0.500000,-0.500892,14440,-981
0.258000,-47.558089,-575.105750,469.379563,-47.558089,469.379563,14.362427,-74.475000,-61.920516,-500.630750,15.262230,-0.611730,14.650500,-25.983165,40.633665,-0.000000,-0.500000,-0.495552,13073,-993
0.260000,-48.684787,-551.313500,480.499624,-48.684787,480.499624,12.961670,-75.300000,-61.646457,-476.013500,15.623807,-0.622611,15.001195,-25.672674,40.673870,-0.000000,-0.500000,-0.504096,11798,-1004
0.262000,-49.763343,-526.975500,491.144540,-49.763343,491.144540,11.608154,-75.750000,-61.371497,-451.225500,15.969934,-0.632802,15.337132,-25.360379,40.697511,-0.000000,-0.500000,-0.496620,10566,-1010
0.264000,-50.792689,-502.116500,501.303785,-50.792689,501.303785,10.116211,-76.350000,-60.908900,-425.766500,16.300270,-0.642320,15.657950,-24.976731,40.634681,-0.000000,-0.500000,-0.494484,9208,-1018
0.266000,-51.771809,-476.761250,510.967313,-51.771809,510.967313,8.645142,-77.175000,-60.416951,-399.586250,16.614486,-0.651180,15.963307,-24.576542,40.539849,-0.000000,-0.500000,-0.503028,7869,-1029
0.268000,-52.699734,-450.934500,520.125568,-52.699734,520.125568,7.161987,-78.000000,-59.861721,-372.934500,16.912274,-0.659401,16.252873,-24.150150,40.403023,-0.000000,-0.500000,-0.495552,6519,-1040
0.270000,-53.575547,-424.661750,528.769493,-53.575547,528.769493,5.852417,-78.525000,-59.427964,-346.136750,17.193338,-0.667003,16.526335,-23.764886,40.291221,-0.000000,-0.500000,-0.497688,5327,-1047
0.272000,-54.398381,-397.969000,536.890542,-54.398381,536.890542,4.186890,-79.350000,-58.585271,-318.619000,17.457400,-0.674002,16.783398,-23.230593,40.013990,-0.000000,-0.500000,-0.493416,3811,-1058
0.274000,-55.167423,-370.883000,544.480683,-55.167423,544.480683,2.702637,-79.350000,-57.870060,-291.533000,17.704199,-0.680418,17.023780,-22.744567,39.768347,-0.000000,-0.497104,-0.504096,2460,-1058
0.276000,-55.881913,-343.430000,551.532412,-55.881913,551.532412,0.952515,-80.175000,-56.834428,-263.255000,17.933491,-0.686270,17.247221,-22.136291,39.383513,-0.000000,-0.492294,-0.490212,867,-1069
0.278000,-56.541143,-315.637250,558.038754,-56.541143,558.038754,-0.485596,-80.025000,-56.055547,-235.612250,18.145050,-0.691574,17.453476,-21.623182,39.076658,-0.000000,-0.488458,-0.478464,-442,-1067
0.280000,-57.144462,-287.532750,563.993277,-57.144462,563.993277,-1.923706,-79.950000,-55.220756,-207.582750,18.338666,-0.696348,17.642318,-21.087181,38.729499,-0.000000,-0.484119,-0.493416,-1751,-1066
0.282000,-57.691274,-259.143750,569.390091,-57.691274,569.390091,-3.203613,-80.475000,-54.487661,-178.668750,18.514147,-0.700608,17.813539,-20.578961,38.392500,-0.000000,-0.479906,-0.487008,-2916,-1073
0.284000,-58.181037,-230.498500,574.223861,-58.181037,574.223861,-4.672485,-79.800000,-53.508552,-150.698500,18.671321,-0.704370,17.966951,-19.993101,37.960052,-0.000000,-0.474501,-0.472056,-4253,-1064
0.286000,-58.613268,-201.625250,578.489806,-58.613268,578.489806,-6.069946,-79.200000,-52.543322,-122.425250,18.810031,-0.707647,18.102384,-19.409441,37.511826,-0.000000,-0.468898,-0.477396,-5525,-1056
0.288000,-58.987538,-172.552500,582.183708,-58.987538,582.183708,-7.366333,-79.200000,-51.621205,-93.352500,18.930141,-0.710452,18.219689,-18.833854,37.053544,-0.000000,-0.463169,-0.469920,-6705,-1056
0.290000,-59.303478,-143.309500,585.301915,-59.303478,585.301915,-8.748413,-78.225000,-50.555065,-65.084500,19.031532,-0.712796,18.318736,-18.215016,36.533752,-0.000000,-0.456672,-0.465648,-7963,-1043
0.292000,-59.560776,-113.924750,587.841342,-59.560776,587.841342,-10.114014,-76.575000,-49.446762,-37.349750,19.114103,-0.714689,18.399414,-17.586114,35.985529,-0.000000,-0.449819,-0.454968,-9206,-1021
0.294000,-59.759177,-84.427000,589.799479,-59.759177,589.799479,-11.524658,-75.675000,-48.234519,-8.752000,19.177774,-0.716139,18.461635,-16.913399,35.375034,-0.000000,-0.442188,-0.442152,-10490,-1009
0.296000,-59.898484,-54.846000,591.174389,-59.898484,591.174389,-12.739746,-74.475000,-47.158738,19.629000,19.222480,-0.717152,18.505328,-16.290210,34.795538,-0.000000,-0.434944,-0.447492,-11596,-993
0.298000,-59.978561,-25.210750,591.964713,-59.978561,591.964713,-14.083374,-73.050000,-45.895187,47.839250,19.248178,-0.717732,18.530446,-15.602966,34.133412,-0.000000,-0.426668,-0.436812,-12819,-974
0.300000,-59.999327,4.449500,592.169669,-59.999327,592.169669,-15.399536,-72.225000,-44.599791,76.674500,19.254842,-0.717883,18.536960,-14.899153,33.436112,0.000000,-0.417951,-0.425064,-14017,-963
0.302000,-59.960763,34.105250,591.789055,-59.960763,591.789055,-16.779419,-70.275000,-43.181344,104.380250,19.242466,-0.717603,18.524863,-14.162243,32.687106,0.000000,-0.408589,-0.420792,-15273,-937
0.304000,-59.862906,63.727250,590.823247,-59.862906,590.823247,-18.013184,-67.950000,-41.849722,131.677250,19.211062,-0.716894,18.494169,-13.459208,31.953377,0.000000,-0.399417,-0.417588,-16396,-906
0.306000,-59.705854,93.286250,589.273200,-59.705854,589.273200,-19.186523,-66.450000,-40.519331,159.736250,19.160661,-0.715750,18.444911,-12.749953,31.194864,0.000000,-0.389936,-0.399432,-17464,-886
0.308000,-59.489761,122.753250,587.140446,-59.489761,587.140446,-20.589478,-64.800000,-38.900283,187.553250,19.091313,-0.714168,18.377145,-11.942050,30.319195,0.000000,-0.378990,-0.393024,-18741,-864
0.310000,-59.214841,152.098750,584.427095,-59.214841,584.427095,-21.739746,-62.100000,-37.475095,214.198750,19.003087,-0.712140,18.290946,-11.212039,29.502985,0.000000,-0.368787,-0.380208,-19788,-828
0.312000,-58.881366,181.293750,581.135831,-58.881366,581.135831,-22.802124,-59.775000,-36.079242,241.068750,18.896069,-0.709659,18.186410,-10.490310,28.676719,0.000000,-0.358459,-0.372732,-20755,-797
0.314000,-58.489666,210.309500,577.269906,-58.489666,577.269906,-24.104004,-57.600000,-34.385662,267.909500,18.770365,-0.706714,18.063652,-9.664909,27.728560,0.000000,-0.346607,-0.364188,-21940,-768
0.316000,-58.040128,239.117250,572.833145,-58.040128,572.833145,-25.281738,-55.425000,-32.758390,294.542250,18.626101,-0.703293,17.922808,-8.864469,26.787277,0.000000,-0.334841,-0.343896,-23012,-739
0.318000,-57.533197,267.688500,567.829934,-57.533197,567.829934,-26.274902,-51.675000,-31.258295,319.363500,18.463417,-0.699383,17.764034,-8.124231,25.888265,0.000000,-0.323603,-0.335352,-23916,-689
0.320000,-56.969374,295.995250,562.265222,-56.969374,562.265222,-27.221924,-50.025000,-29.747450,346.020250,18.282477,-0.694970,17.587506,-7.364223,24.951729,0.000000,-0.311897,-0.318264,-24778,-667
0.322000,-56.349216,324.009250,556.144510,-56.349216,556.144510,-28.101929,-46.725000,-28.247287,370.734250,18.083457,-0.690039,17.393418,-6.624897,24.018315,0.000000,-0.300229,-0.311856,-25579,-623
0.324000,-55.673337,351.702750,549.473852,-55.673337,549.473852,-29.001709,-44.475000,-26.671628,396.177750,17.866556,-0.684573,17.181983,-5.852851,23.034834,0.000000,-0.287935,-0.297972,-26398,-593
0.326000,-54.942405,379.048500,542.259843,-54.942405,542.259843,-29.765259,-41.400000,-25.177146,420.448500,17.631987,-0.678554,16.953433,-5.119377,22.072810,0.000000,-0.275910,-0.289428,-27093,-552
0.328000,-54.157143,406.019250,534.509617,-54.157143,534.509617,-30.573853,-37.950000,-23.583290,443.969250,17.379982,-0.671964,16.708018,-4.357759,21.065777,0.000000,-0.263322,-0.276612,-27829,-506
0.330000,-53.318328,432.588750,526.230838,-53.318328,526.230838,-31.247314,-36.225000,-22.071014,468.813750,17.110791,-0.664786,16.446005,-3.613065,20.059070,0.000000,-0.250738,-0.265932,-28442,-483
0.332000,-52.426788,458.730500,517.431693,-52.426788,517.431693,-31.965820,-32.475000,-20.460968,491.205500,16.824681,-0.657001,16.167680,-2.855648,19.023328,0.000000,-0.237792,-0.250980,-29096,-433
0.334000,-51.483406,484.418500,508.120883,-51.483406,508.120883,-32.549194,-31.800000,-18.934212,516.218500,16.521933,-0.648590,15.873343,-2.104430,17.977773,0.000000,-0.224722,-0.241368,-29627,-424
0.336000,-50.489114,509.627750,498.307614,-50.489114,498.307614,-33.190796,-25.875000,-17.298318,535.502750,16.202847,-0.639534,15.563313,-1.365109,16.928422,0.000000,-0.211605,-0.224280,-30211,-345
0.338000,-49.444895,534.332750,488.001591,-49.444895,488.001591,-33.631348,-26.325000,-15.813547,560.657750,15.867739,-0.629817,15.237922,-0.627307,15.865230,0.000000,-0.198315,-0.211464,-30612,-351
0.340000,-48.351783,558.509250,477.213005,-48.351783,477.213005,-34.124634,-20.850000,-14.227149,579.359250,15.516940,-0.619420,14.897520,0.089651,14.807868,0.000000,-0.185098,-0.197580,-31061,-278
0.342000,-47.210858,582.133750,465.952524,-47.210858,465.952524,-34.531128,-22.050000,-12.679730,604.183750,15.150797,-0.608328,14.542468,0.846437,13.696031,0.000000,-0.171200,-0.186900,-31431,-294
0.344000,-46.023248,605.182500,454.231283,-46.023248,454.231283,-34.885986,-16.425000,-11.137262,621.607500,14.769672,-0.596527,14.173145,1.536911,12.636234,0.000000,-0.157953,-0.169812,-31754,-219
0.346000,-44.790128,627.633000,442.060872,-44.790128,442.060872,-35.174927,-16.050000,-9.615201,643.683000,14.373942,-0.584002,13.789940,2.260855,11.529085,0.000000,-0.144114,-0.159132,-32017,-214
0.348000,-43.512716,649.462750,429.453327,-43.512716,429.453327,-35.426514,-14.025000,-8.086202,663.487750,13.963998,-0.570742,13.393256,2.967406,10.425851,0.000000,-0.130323,-0.143112,-32246,-187
0.350000,-42.192277,670.650000,416.421115,-42.192277,416.421115,-35.670410,-10.725000,-6.521867,681.375000,13.540246,-0.556737,12.983509,3.669558,9.313952,0.000000,-0.116424,-0.133500,-32468,-143
0.352000,-40.830116,691.174250,402.977123,-40.830116,402.977123,-35.849487,-8.925000,-4.980629,700.099250,13.103104,-0.541980,12.561125,4.370951,8.190174,0.000000,-0.102377,-0.119616,-32631,-119
0.354000,-39.427580,711.015250,389.134644,-39.427580,389.134644,-36.020874,-7.275000,-3.406706,718.290250,12.653006,-0.526465,12.126541,5.079100,7.047440,0.000000,-0.088093,-0.102528,-32787,-97
0.356000,-37.986055,730.153000,374.907367,-37.986055,374.907367,-36.146118,-4.500000,-1.839937,734.653000,12.190395,-0.510191,11.680205,5.768798,5.911407,0.000000,-0.073893,-0.087576,-32901,-60
0.358000,-36.506968,748.568500,360.309360,-36.506968,360.309360,-36.254883,-3.300000,-0.252085,751.868500,11.715730,-0.493156,11.222573,6.473296,4.749277,0.000000,-0.059366,-0.077964,-33000,-44
0.360000,-34.991781,766.244000,345.355060,-34.991781,345.355060,-36.304321,-1.800000,1.312540,768.044000,11.229480,-0.475366,10.754114,7.160611,3.593502,0.000000,-0.044919,-0.061944,-33045,-24
0.362000,-33.441992,783.162000,330.059253,-33.441992,330.059253,-36.331787,-0.525000,2.889795,783.687000,10.732125,-0.456825,10.275300,7.847688,2.427612,0.000000,-0.030345,-0.046992,-33070,-7
0.364000,-31.859133,799.305250,314.437066,-31.859133,314.437066,-36.335083,0.000000,4.475950,799.305250,10.224158,-0.437544,9.786613,8.537655,1.248958,0.000000,-0.015612,-0.029904,-33073,0
0.366000,-30.244771,814.658000,298.503945,-30.244771,298.503945,-36.332886,0.150000,6.088115,814.508000,9.706080,-0.417536,9.288545,9.233076,0.055469,0.000000,-0.000693,-0.018156,-33071,2
0.368000,-28.600501,829.205500,282.275647,-28.600501,282.275647,-36.329590,0.150000,7.729089,829.055500,9.178405,-0.396816,8.781589,9.932835,-1.151246,0.000000,0.014391,-0.003204,-33068,2
0.370000,-26.927949,842.933000,265.768219,-26.927949,265.768219,-36.322998,0.450000,9.395049,842.483000,8.641654,-0.375404,8.266249,10.631542,-2.365292,0.000000,0.029566,0.011748,-33062,6
0.372000,-25.228769,855.827000,248.997985,-25.228769,248.997985,-36.307617,0.675000,11.078848,855.152000,8.096357,-0.353324,7.743033,11.329857,-3.586824,0.000000,0.044835,0.034176,-33048,9
0.374000,-23.504641,867.874500,231.981527,-23.504641,231.981527,-36.292236,1.125000,12.787595,866.749500,7.543054,-0.330603,7.212451,12.027529,-4.815078,0.000000,0.060188,0.048060,-33034,15
0.376000,-21.757271,879.063750,214.735673,-21.757271,214.735673,-36.269165,1.725000,14.511894,877.338750,6.982292,-0.307269,6.675022,12.721832,-6.046809,0.000000,0.075585,0.063012,-33013,23
0.378000,-19.988386,889.384000,197.277477,-19.988386,197.277477,-36.238403,2.100000,16.250017,887.284000,6.414626,-0.283358,6.131268,13.415340,-7.284072,0.000000,0.091051,0.072624,-32985,28
0.380000,-18.199735,898.824500,179.624202,-18.199735,179.624202,-36.202148,2.775000,18.002413,896.049500,5.840616,-0.258905,5.581711,14.103535,-8.521824,0.000000,0.106523,0.090780,-32952,37
0.382000,-16.393088,907.376250,161.793304,-16.393088,161.793304,-36.154907,3.375000,19.761819,904.001250,5.260831,-0.233950,5.026881,14.787075,-9.760194,0.000000,0.122002,0.107868,-32909,45
0.384000,-14.570230,915.031000,143.802416,-14.570230,143.802416,-36.070312,5.175000,21.500082,909.856000,4.675844,-0.208535,4.467309,15.444936,-10.977627,0.000000,0.137220,0.118548,-32832,69
0.386000,-12.732964,921.780750,125.669328,-12.732964,125.669328,-35.987915,5.550000,23.254951,916.230750,4.086233,-0.182706,3.903527,16.113131,-12.209604,0.000000,0.152620,0.136704,-32757,74
0.388000,-10.883107,927.618750,107.411971,-10.883107,107.411971,-35.889038,6.675000,25.005931,920.943750,3.492581,-0.156510,3.336071,16.765467,-13.429396,0.000000,0.167867,0.149520,-32667,89
0.390000,-9.022489,932.539750,89.048399,-9.022489,89.048399,-35.770386,6.900000,26.747897,925.639750,2.895476,-0.129997,2.765479,17.414508,-14.649029,0.000000,0.183113,0.168744,-32559,92
0.392000,-7.152948,936.538750,70.596771,-7.152948,70.596771,-35.625366,8.175000,28.472418,928.363750,2.295507,-0.103219,2.192288,18.040251,-15.847963,0.000000,0.198100,0.185832,-32427,109
0.394000,-5.276334,939.611250,52.075334,-5.276334,52.075334,-35.462769,10.725000,30.186435,928.886250,1.693269,-0.076229,1.617039,18.643115,-17.026076,0.000000,0.212826,0.200784,-32279,143
0.396000,-3.394503,941.754750,33.502401,-3.394503,33.502401,-35.249634,10.650000,31.855131,931.104750,1.089356,-0.049082,1.040273,19.244960,-18.204687,0.000000,0.227559,0.213600,-32085,142
0.398000,-1.509315,942.967250,14.896339,-1.509315,14.896339,-35.028809,12.525000,33.519494,930.442250,0.484366,-0.021834,0.462532,19.820151,-19.357619,0.000000,0.241970,0.226416,-31884,167
0.400000,0.377366,943.247000,-3.724453,0.377366,-3.724453,-34.802490,13.650000,35.179856,929.597000,-0.121103,0.005460,-0.115644,20.392351,-20.507994,0.000000,0.256350,0.240300,-31678,182
0.402000,2.263673,942.594000,-22.341562,2.263673,-22.341562,-34.577271,15.000000,36.840944,927.594000,-0.726453,0.032742,-0.693711,20.954700,-21.648411,0.000000,0.270605,0.254184,-31473,200
0.404000,4.147742,941.009250,-40.936579,4.147742,-40.936579,-34.265259,17.625000,38.413001,923.384250,-1.331084,0.059956,-1.271127,21.466714,-22.737842,0.000000,0.284223,0.270204,-31189,235
0.406000,6.027710,938.493750,-59.491115,6.027710,-59.491115,-33.949951,18.900000,39.977661,919.593750,-1.934398,0.087047,-1.847351,21.979806,-23.827157,0.000000,0.297839,0.284088,-30902,252
0.408000,7.901717,935.050000,-77.986823,7.901717,-77.986823,-33.562134,22.425000,41.463851,912.625000,-2.535800,0.113959,-2.421842,22.437770,-24.859612,0.000000,0.310745,0.299040,-30549,299
0.410000,9.767910,930.681750,-96.405414,9.767910,-96.405414,-33.104004,23.550000,42.871914,907.131750,-3.134695,0.140637,-2.994058,22.881339,-25.875397,0.000000,0.323442,0.309720,-30132,314
0.412000,11.624444,925.393250,-114.728673,11.624444,-114.728673,-32.683228,26.700000,44.307672,898.693250,-3.730489,0.167029,-3.563460,23.308873,-26.872333,0.000000,0.335904,0.320400,-29749,356
0.414000,13.469483,919.189750,-132.938482,13.469483,-132.938482,-32.215210,29.100000,45.684693,890.089750,-4.322595,0.193084,-4.129511,23.714465,-27.843975,0.000000,0.348050,0.336420,-29323,388
0.416000,15.301203,912.077500,-151.016834,15.301203,-151.016834,-31.645020,32.025000,46.946223,880.052500,-4.910426,0.218753,-4.691673,24.067230,-28.758903,0.000000,0.359486,0.344964,-28804,427
0.418000,17.117793,904.063000,-168.945853,17.117793,-168.945853,-31.149536,31.800000,48.267329,872.263000,-5.493401,0.243989,-5.249412,24.460407,-29.709819,0.000000,0.371373,0.358848,-28353,424
0.420000,18.917455,895.154250,-186.707808,18.917455,-186.707808,-30.579346,35.625000,49.496801,859.529250,-6.070945,0.268749,-5.802196,24.778451,-30.580647,0.000000,0.382258,0.372732,-27834,475
0.422000,20.698410,885.360750,-204.285136,20.698410,-204.285136,-29.963013,36.750000,50.661423,848.610750,-6.642485,0.292990,-6.349495,25.089698,-31.439194,0.000000,0.392990,0.380208,-27273,490
0.424000,22.458898,874.691750,-221.660456,22.458898,-221.660456,-29.257690,38.775000,51.716588,835.916750,-7.207456,0.316674,-6.890782,25.347245,-32.238027,0.000000,0.402975,0.396228,-26631,517
0.426000,24.197177,863.157750,-238.816585,24.197177,-238.816585,-28.552368,41.250000,52.749545,821.907750,-7.765301,0.339766,-7.425534,25.585563,-33.011098,0.000000,0.412639,0.402636,-25989,550
0.428000,25.911529,850.770250,-255.736559,25.911529,-255.736559,-27.845947,43.875000,53.757476,806.895250,-8.315467,0.362235,-7.953232,25.806389,-33.759620,0.000000,0.421995,0.414384,-25346,585
0.430000,27.600258,837.541250,-272.403647,27.600258,-272.403647,-26.991211,46.650000,54.591469,790.891250,-8.857409,0.384050,-8.473359,25.957846,-34.431205,0.000000,0.430390,0.421860,-24568,622
0.432000,29.261694,823.484250,-288.801367,29.261694,-288.801367,-26.163940,48.675000,55.425634,774.809250,-9.390594,0.405188,-8.985406,26.108682,-35.094088,0.000000,0.438676,0.431472,-23815,649
0.434000,30.894195,808.613000,-304.913503,30.894195,-304.913503,-25.221313,50.625000,56.115508,757.988000,-9.914492,0.425625,-9.488866,26.202701,-35.691567,0.000000,0.446145,0.445356,-22957,675
0.436000,32.496146,792.941750,-320.724125,32.496146,-320.724125,-24.084229,52.950000,56.580375,739.991750,-10.428586,0.445345,-9.983241,26.207923,-36.191164,0.000000,0.452390,0.444288,-21922,706
0.438000,34.065962,776.486750,-336.217596,34.065962,-336.217596,-23.161377,55.350000,57.227339,721.136750,-10.932368,0.464331,-10.468037,26.269215,-36.737252,0.000000,0.459216,0.447492,-21082,738
0.440000,35.602093,759.264000,-351.378597,35.602093,-351.378597,-21.997925,57.150000,57.600018,702.114000,-11.425339,0.482573,-10.942767,26.233300,-37.176067,0.000000,0.464701,0.461376,-20023,762
0.442000,37.103018,741.290000,-366.192135,37.103018,-366.192135,-20.900391,59.325000,58.003409,681.965000,-11.907013,0.500061,-11.406952,26.198276,-37.605228,0.000000,0.470065,0.468852,-19024,791
0.444000,38.567253,722.583250,-380.643561,38.567253,-380.643561,-19.667725,60.900000,58.234978,661.683250,-12.376912,0.516792,-11.860120,26.102118,-37.962238,0.000000,0.474528,0.470988,-17902,812
0.446000,39.993351,703.162250,-394.718586,39.993351,-394.718586,-18.424072,63.525000,58.417423,639.637250,-12.834572,0.532762,-12.301810,25.973416,-38.275225,0.000000,0.478440,0.474192,-16770,847
0.448000,41.379902,683.045750,-408.403291,41.379902,-408.403291,-17.343018,65.475000,58.722920,617.570750,-13.279540,0.547973,-12.731567,25.887487,-38.619054,0.000000,0.482738,0.475260,-15786,873
0.450000,42.725534,662.253500,-421.684145,42.725534,-421.684145,-16.286133,67.050000,59.011667,595.203500,-13.711377,0.562429,-13.148949,25.793088,-38.942037,0.000000,0.486775,0.483804,-14824,894
0.452000,44.028916,640.806500,-434.548013,44.028916,-434.548013,-14.874390,68.925000,58.903306,571.881500,-14.129655,0.576134,-13.553521,25.551740,-39.105261,0.000000,0.488816,0.479532,-13539,919
0.454000,45.288760,618.726000,-446.982176,45.288760,-446.982176,-13.451660,70.500000,58.740420,548.226000,-14.533962,0.589099,-13.944862,25.288449,-39.233311,0.000000,0.490416,0.488076,-12244,940
0.456000,46.503820,596.033500,-458.974338,46.503820,-458.974338,-12.222290,73.050000,58.726110,522.983500,-14.923896,0.601333,-14.322562,25.063172,-39.385734,0.000000,0.492322,0.494484,-11125,974
0.458000,47.672894,572.751750,-470.512641,47.672894,-470.512641,-10.763306,74.175000,58.436200,498.576750,-15.299072,0.612849,-14.686223,24.748985,-39.435208,0.000000,0.492940,0.493416,-9797,989
0.460000,48.794827,548.903750,-481.585675,48.794827,-481.585675,-9.428467,75.525000,58.223294,473.378750,-15.659120,0.623661,-15.035459,24.454772,-39.490232,0.000000,0.493628,0.495552,-8582,1007
0.462000,49.868509,524.512750,-492.182489,49.868509,-492.182489,-7.853027,76.500000,57.721536,448.012750,-16.003684,0.633784,-15.369900,24.058266,-39.428166,0.000000,0.492852,0.497688,-7148,1020
0.464000,50.892878,499.603000,-502.292607,50.892878,-502.292607,-6.559937,77.625000,57.452815,421.978000,-16.332422,0.643235,-15.689187,23.737268,-39.426455,0.000000,0.492831,0.493416,-5971,1035
0.466000,51.866921,474.199250,-511.906029,51.866921,-511.906029,-5.064697,79.125000,56.931618,395.074250,-16.645010,0.652030,-15.992979,23.320557,-39.313536,0.000000,0.491419,0.499824,-4610,1055
0.468000,52.789675,448.326750,-521.013250,52.789675,-521.013250,-3.580444,79.725000,56.370119,368.601750,-16.941138,0.660189,-16.280949,22.893541,-39.174489,0.000000,0.489681,0.488076,-3259,1063
0.470000,53.660228,422.011000,-529.605264,53.660228,-529.605264,-2.045654,79.575000,55.705882,342.436000,-17.220513,0.667729,-16.552784,22.433339,-38.986123,0.000000,0.487327,0.498756,-1862,1061
0.472000,54.477719,395.277750,-537.673575,54.477719,-537.673575,-0.436157,81.075000,54.913876,314.202750,-17.482861,0.674670,-16.808191,21.910495,-38.718686,0.000000,0.483984,0.491280,-397,1081
0.474000,55.241339,368.153750,-545.210204,55.241339,-545.210204,1.185425,81.150000,54.055914,287.003750,-17.727920,0.681029,-17.046891,21.373654,-38.420545,0.000000,0.480257,0.481668,1079,1082
0.476000,55.950334,340.665500,-552.207699,55.950334,-552.207699,2.750977,81.525000,53.199357,259.140500,-17.955449,0.686824,-17.268624,20.831506,-38.100131,0.000000,0.476252,0.480600,2504,1087
0.478000,56.604001,312.840500,-558.659140,56.604001,-558.659140,4.447266,81.525000,52.156735,231.315500,-18.165222,0.692075,-17.473147,20.224744,-37.697891,0.000000,0.471224,0.472056,4048,1087
0.480000,57.201696,284.706250,-564.558147,57.201696,-564.558147,6.083130,81.675000,51.118566,203.031250,-18.357033,0.696797,-17.660236,19.615528,-37.275764,0.000000,0.465947,0.475260,5537,1089
0.482000,57.742826,256.290250,-569.898888,57.742826,-569.898888,7.714600,81.375000,50.028226,174.915250,-18.530691,0.701006,-17.829685,18.989569,-36.819253,0.000000,0.460241,0.465648,7022,1085
0.484000,58.226857,227.620750,-574.676082,58.226857,-574.676082,9.271362,80.475000,48.955495,147.145750,-18.686025,0.704719,-17.981306,18.372780,-36.354086,0.000000,0.454426,0.457104,8439,1073
0.486000,58.653309,198.726500,-578.885003,58.653309,-578.885003,10.886353,79.800000,47.766956,118.926500,-18.822881,0.707948,-18.114933,17.711643,-35.826576,0.000000,0.447832,0.454968,9909,1064
0.488000,59.021763,169.635750,-582.521491,59.021763,-582.521491,12.388184,79.650000,46.633579,89.985750,-18.941124,0.710707,-18.230418,17.063464,-35.293882,0.000000,0.441174,0.450696,11276,1062
0.490000,59.331852,140.376750,-585.581948,59.331852,-585.581948,14.127319,78.450000,45.204533,61.926750,-19.040637,0.713005,-18.327632,16.319771,-34.647404,0.000000,0.433093,0.444288,12859,1046
0.492000,59.583270,110.979500,-588.063350,59.583270,-588.063350,15.690674,76.800000,43.892596,34.179500,-19.121322,0.714854,-18.406468,15.619679,-34.026147,0.000000,0.425327,0.431472,14282,1024
0.494000,59.775770,81.472250,-589.963242,59.775770,-589.963242,17.561646,75.000000,42.214124,6.472250,-19.183099,0.716260,-18.466839,14.791990,-33.258829,0.000000,0.415735,0.432540,15985,1000
0.496000,59.909159,51.884250,-591.279745,59.909159,-591.279745,19.156860,74.550000,40.752299,-22.665750,-19.225906,0.717229,-18.508676,14.027440,-32.536116,0.000000,0.406701,0.417588,17437,994
0.498000,59.983307,22.245500,-592.011558,59.983307,-592.011558,20.456543,72.600000,39.526764,-50.354500,-19.249701,0.717767,-18.531934,13.358018,-31.889952,0.000000,0.398624,0.402636,18620,968
0.500000,59.998141,-7.415500,-592.157957,59.998141,-592.157957,21.754028,71.100000,38.244113,-78.515500,-19.254461,0.717874,-18.536587,12.664537,-31.201124,-0.000000,0.390014,0.400500,19801,948
0.502000,59.953645,-37.069500,-591.718797,59.953645,-591.718797,23.158081,68.475000,36.795564,-105.544500,-19.240182,0.717552,-18.522630,11.923025,-30.445655,-0.000000,0.380571,0.387684,21079,913
0.504000,59.849863,-66.686750,-590.694512,59.849863,-590.694512,24.307251,67.650000,35.542612,-134.336750,-19.206876,0.716799,-18.490077,11.234403,-29.724480,-0.000000,0.371556,0.372732,22125,902
0.506000,59.686898,-96.237750,-589.086116,59.686898,-589.086116,25.505859,64.500000,34.181039,-160.737750,-19.154578,0.715612,-18.438966,10.528732,-28.967698,-0.000000,0.362096,0.372732,23216,860
0.508000,59.464912,-125.693750,-586.895198,59.464912,-586.895198,26.539673,62.925000,32.925239,-188.618750,-19.083339,0.713985,-18.369353,9.847067,-28.216421,-0.000000,0.352705,0.359916,24157,839
0.510000,59.184123,-155.025500,-584.123926,59.184123,-584.123926,27.666870,60.300000,31.517253,-215.325500,-18.993229,0.711913,-18.281316,9.122527,-27.403843,-0.000000,0.342548,0.360984,25183,804
0.512000,58.844810,-184.203750,-580.775039,58.844810,-580.775039,28.686401,59.400000,30.158409,-243.603750,-18.884337,0.709386,-18.174952,8.401427,-26.576378,-0.000000,0.332205,0.342828,26111,792
0.514000,58.447308,-213.200000,-576.851850,58.447308,-576.851850,29.758667,56.475000,28.688641,-269.675000,-18.756772,0.706393,-18.050379,7.660867,-25.711245,-0.000000,0.321391,0.333216,27087,753
0.516000,57.992010,-241.985500,-572.358237,57.992010,-572.358237,31.128662,53.100000,26.863348,-295.085500,-18.610659,0.702924,-17.907735,6.801971,-24.709705,-0.000000,0.308871,0.326808,28334,708
0.518000,57.479366,-270.531750,-567.298644,57.479366,-567.298644,32.192139,50.400000,25.287227,-320.931750,-18.446142,0.698965,-17.747177,6.026250,-23.773427,-0.000000,0.297168,0.307584,29302,672
0.520000,56.909883,-298.810250,-561.678075,56.909883,-561.678075,33.184204,47.175000,23.725679,-345.985250,-18.263385,0.694501,-17.568884,5.262533,-22.831418,-0.000000,0.285393,0.295836,30205,629
0.522000,56.284125,-326.793250,-555.502087,56.284125,-555.502087,34.011475,44.700000,22.272650,-371.493250,-18.062568,0.689517,-17.373051,4.532731,-21.905783,-0.000000,0.273822,0.290496,30958,596
0.524000,55.602710,-354.453500,-548.776788,55.602710,-548.776788,34.776123,43.500000,20.826587,-397.953500,-17.843890,0.683996,-17.159894,3.797051,-20.956945,-0.000000,0.261962,0.275544,31654,580
0.526000,54.866311,-381.763000,-541.508828,54.866311,-541.508828,35.547363,39.825000,19.318948,-421.588000,-17.607567,0.677921,-16.929646,3.064536,-19.994182,-0.000000,0.249927,0.259524,32356,531
0.528000,54.075658,-408.694750,-533.705393,54.075658,-533.705393,36.258179,37.425000,17.817479,-446.119750,-17.353832,0.671273,-16.682559,2.326344,-19.008903,-0.000000,0.237611,0.253116,33003,499
0.530000,53.231532,-435.222750,-525.374201,53.231532,-525.374201,36.979980,33.600000,16.251552,-468.822750,-17.082937,0.664035,-16.418902,1.581611,-18.000513,-0.000000,0.225006,0.237096,33660,448
0.532000,52.334767,-461.320250,-516.523489,52.334767,-516.523489,37.622681,33.675000,14.712086,-494.995250,-16.795150,0.656188,-16.138961,0.815838,-16.954800,-0.000000,0.211935,0.222144,34245,449
0.534000,51.386251,-486.961250,-507.162010,51.386251,-507.162010,38.164307,28.575000,13.221944,-515.536250,-16.490754,0.647713,-15.843041,0.116427,-15.959468,-0.000000,0.199493,0.209328,34738,381
0.536000,50.386922,-512.121000,-497.299021,50.386922,-497.299021,38.682861,27.150000,11.704061,-539.271000,-16.170052,0.638592,-15.531459,-0.620539,-14.910920,-0.000000,0.186386,0.197580,35210,362
0.538000,49.337767,-536.774500,-486.944275,49.337767,-486.944275,39.170654,23.775000,10.167113,-560.549500,-15.833359,0.628808,-15.204552,-1.342725,-13.861826,-0.000000,0.173273,0.183696,35654,317
0.540000,48.239824,-560.897000,-476.108012,48.239824,-476.108012,39.688110,20.850000,8.551714,-581.747000,-15.481010,0.618342,-14.862668,-2.091589,-12.771079,-0.000000,0.159638,0.175152,36125,278
0.542000,47.094179,-584.465000,-464.800946,47.094179,-464.800946,40.060547,18.600000,7.033632,-603.065000,-15.113352,0.607180,-14.506172,-2.807534,-11.698638,-0.000000,0.146233,0.158064,36464,248
0.544000,45.901964,-607.455000,-453.034259,45.901964,-453.034259,40.405518,14.850000,5.496446,-622.305000,-14.730750,0.595307,-14.135443,-3.512014,-10.623429,-0.000000,0.132793,0.148452,36778,198
0.546000,44.664359,-629.844250,-440.819586,44.664359,-440.819586,40.690063,12.750000,3.974296,-642.594250,-14.333580,0.582709,-13.750872,-4.220402,-9.530470,-0.000000,0.119131,0.132432,37037,170
0.548000,43.382587,-651.610500,-428.169007,43.382587,-428.169007,40.936157,11.550000,2.446430,-663.160500,-13.922237,0.569375,-13.352863,-4.933202,-8.419661,-0.000000,0.105246,0.118548,37261,154
0.550000,42.057917,-672.732500,-415.095030,42.057917,-415.095030,41.125122,8.700000,0.932795,-681.432500,-13.497127,0.555295,-12.941832,-5.621014,-7.320819,-0.000000,0.091510,0.106800,37433,116
0.552000,40.691657,-693.189500,-401.610584,40.691657,-401.610584,41.294312,8.400000,-0.602655,-701.589500,-13.058670,0.540462,-12.518208,-6.332889,-6.185319,-0.000000,0.077316,0.092916,37587,112
0.554000,39.285159,-712.961000,-387.729003,39.285159,-387.729003,41.423950,6.450000,-2.138791,-719.411000,-12.607300,0.524872,-12.082428,-7.024624,-5.057804,-0.000000,0.063223,0.081168,37705,86
0.556000,37.839813,-732.027250,-373.464013,37.839813,-373.464013,41.526123,4.425000,-3.686310,-736.452250,-12.143463,0.508521,-11.634942,-7.713523,-3.921419,-0.000000,0.049018,0.061944,37798,59
0.558000,36.357050,-750.369750,-358.829722,36.357050,-358.829722,41.587646,1.800000,-5.230596,-752.169750,-11.667618,0.491411,-11.176207,-8.389742,-2.786465,-0.000000,0.034831,0.049128,37854,24
0.560000,34.838334,-767.970500,-343.840600,34.838334,-343.840600,41.625000,0.750000,-6.786666,-768.720500,-11.180236,0.473545,-10.706690,-9.077345,-1.629345,-0.000000,0.020367,0.036312,37888,10
0.562000,33.285168,-784.811250,-328.511469,33.285168,-328.511469,41.633789,0.000000,-8.348621,-784.811250,-10.681797,0.454930,-10.226867,-9.762989,-0.463878,-0.000000,0.005798,0.020292,37896,0
0.564000,31.699089,-800.876250,-312.857488,31.699089,-312.857488,41.630493,-0.300000,-9.931404,-800.576250,-10.172797,0.435576,-9.737221,-10.453060,0.715839,-0.000000,-0.008948,0.003204,37893,-4
0.566000,30.081663,-816.149500,-296.894136,30.081663,-296.894136,41.627197,-0.225000,-11.545534,-815.924500,-9.653736,0.415495,-9.238241,-11.150436,1.912195,-0.000000,-0.023902,-0.008544,37890,-3
0.568000,28.434491,-830.615500,-280.637198,28.434491,-280.637198,41.621704,-0.450000,-13.187213,-830.165500,-9.125130,0.394705,-8.730424,-11.847766,3.117342,-0.000000,-0.038967,-0.023496,37885,-6
0.570000,26.759201,-844.260000,-264.102750,26.759201,-264.102750,41.612915,-0.825000,-14.853714,-843.435000,-8.587500,0.373226,-8.214274,-12.545283,4.331009,-0.000000,-0.054138,-0.035244,37877,-11
0.572000,25.057451,-857.069750,-247.307143,25.057451,-247.307143,41.595337,-1.575000,-16.537886,-855.494750,-8.041378,0.351080,-7.690297,-13.238411,5.548114,-0.000000,-0.069351,-0.056604,37861,-21
0.574000,23.330922,-869.032250,-230.266985,23.330922,-230.266985,41.562378,-2.325000,-18.231456,-866.707250,-7.487304,0.328296,-7.159008,-13.927426,6.768418,-0.000000,-0.084605,-0.067284,37831,-31
0.576000,21.581322,-880.135250,-212.999126,21.581322,-212.999126,41.518433,-3.300000,-19.937111,-876.835250,-6.925827,0.304904,-6.620923,-14.611196,7.990272,-0.000000,-0.099878,-0.087576,37791,-44
0.578000,19.810381,-890.367750,-195.520641,19.810381,-195.520641,41.467896,-3.825000,-21.657515,-886.542750,-6.357501,0.280936,-6.076564,-15.296444,9.219879,-0.000000,-0.115248,-0.099324,37745,-51
0.580000,18.019851,-899.719750,-177.848815,18.019851,-177.848815,41.407471,-3.825000,-23.387620,-895.894750,-5.782888,0.256431,-5.526457,-15.981976,10.455519,-0.000000,-0.130694,-0.116412,37690,-51
0.582000,16.211502,-908.182250,-160.001122,16.211502,-160.001122,41.319580,-6.000000,-25.108078,-902.182250,-5.202557,0.231428,-4.971129,-16.637398,11.666269,-0.000000,-0.145828,-0.131364,37610,-80
0.584000,14.387122,-915.746750,-141.995211,14.387122,-141.995211,41.203125,-6.075000,-26.816003,-909.671750,-4.617081,0.205970,-4.411111,-17.298934,12.887823,-0.000000,-0.161098,-0.145248,37504,-81
0.586000,12.548515,-922.405750,-123.848887,12.548515,-123.848887,41.084473,-6.825000,-28.535958,-915.580750,-4.027040,0.180102,-3.846938,-17.950878,14.103940,-0.000000,-0.176299,-0.159132,37396,-91
0.588000,10.697499,-928.152250,-105.580095,10.697499,-105.580095,40.954834,-8.250000,-30.257335,-919.902250,-3.433016,0.153872,-3.279144,-18.589464,15.310320,-0.000000,-0.191379,-0.178356,37278,-110
0.590000,8.835906,-932.981250,-87.206899,8.835906,-87.206899,40.793335,-10.650000,-31.957429,-922.331250,-2.835598,0.127330,-2.708268,-19.204106,16.495838,-0.000000,-0.206198,-0.190104,37131,-142
0.592000,6.965574,-936.887750,-68.747467,6.965574,-68.747467,40.615356,-11.100000,-33.649782,-925.787750,-2.235376,0.100529,-2.134847,-19.825012,17.690165,-0.000000,-0.221127,-0.203988,36969,-148
0.594000,5.088355,-939.867500,-50.220055,5.088355,-50.220055,40.364868,-15.750000,-35.276513,-924.117500,-1.632943,0.073521,-1.559422,-20.378273,18.818850,-0.000000,-0.235236,-0.222144,36741,-210
0.596000,3.206104,-941.918000,-31.642982,3.206104,-31.642982,40.089111,-15.225000,-36.883007,-926.693000,-1.028895,0.046361,-0.982534,-20.961520,19.978986,-0.000000,-0.249737,-0.237096,36490,-203
0.598000,1.320683,-943.037000,-13.034619,1.320683,-13.034619,39.755127,-16.950000,-38.434444,-926.087000,-0.423830,0.019106,-0.404725,-21.497786,21.093061,-0.000000,-0.263663,-0.250980,36186,-226
0.600000,-0.566044,-943.223750,5.586634,-0.566044,5.586634,39.410156,-22.200000,-39.976200,-921.023750,0.181654,-0.008189,0.173464,-21.991775,22.165239,-0.000000,-0.277065,-0.264864,35872,-296
0.602000,-2.452212,-942.477500,24.202362,-2.452212,24.202362,39.066284,-21.300000,-41.518496,-921.177500,0.786958,-0.035467,0.751491,-22.531479,23.282970,-0.000000,-0.291037,-0.278748,35559,-284
0.604000,-4.335954,-940.799250,42.794157,-4.335954,42.794157,38.631226,-24.600000,-42.967180,-916.199250,1.391484,-0.062672,1.328812,-22.993722,24.322534,-0.000000,-0.304032,-0.288360,35163,-328
0.606000,-6.215409,-938.191000,61.343636,-6.215409,61.343636,38.169800,-26.625000,-44.385209,-911.566000,1.994634,-0.089747,1.904887,-23.448275,25.353162,-0.000000,-0.316915,-0.306516,34743,-355
0.608000,-8.088718,-934.654750,79.832454,-8.088718,79.832454,37.605103,-28.950000,-45.693821,-905.704750,2.595812,-0.116638,2.479175,-23.853917,26.333092,-0.000000,-0.329164,-0.320400,34229,-386
0.610000,-9.954028,-930.194250,98.242329,-9.954028,98.242329,37.088745,-33.750000,-47.042773,-896.444250,3.194423,-0.143290,3.051133,-24.243977,27.295111,-0.000000,-0.341189,-0.328944,33759,-450
0.612000,-11.809495,-924.814250,116.555057,-11.809495,116.555057,36.292236,-34.650000,-48.101731,-890.164250,3.789875,-0.169650,3.620225,-24.558820,28.179045,-0.000000,-0.352238,-0.336420,33034,-462
0.614000,-13.653285,-918.519500,134.752529,-13.653285,134.752529,35.514404,-38.250000,-49.167689,-880.269500,4.381580,-0.195669,4.185911,-24.844562,29.030473,-0.000000,-0.362881,-0.356712,32326,-510
0.616000,-15.483573,-911.316250,152.816750,-15.483573,152.816750,34.712402,-40.500000,-50.195975,-870.816250,4.968952,-0.221297,4.747655,-25.121006,29.868661,-0.000000,-0.373358,-0.359916,31596,-540
0.618000,-17.298550,-903.212000,170.729857,-17.298550,170.729857,33.927979,-42.825000,-51.226529,-860.387000,5.551410,-0.246487,5.304922,-25.389725,30.694647,-0.000000,-0.383683,-0.379140,30882,-571
0.620000,-19.096421,-894.214750,188.474137,-19.096421,188.474137,32.986450,-45.825000,-52.082871,-848.389750,6.128378,-0.271197,5.857182,-25.583949,31.441131,-0.000000,-0.393014,-0.383412,30025,-611
0.622000,-20.875409,-884.333250,206.032044,-20.875409,206.032044,32.064697,-47.700000,-52.940106,-836.633250,6.699287,-0.295384,6.403903,-25.780586,32.184489,-0.000000,-0.402306,-0.397296,29186,-636
0.624000,-22.633754,-873.577000,223.386214,-22.633754,223.386214,31.135254,-50.250000,-53.769008,-823.327000,7.263571,-0.319010,6.944560,-25.953808,32.898368,-0.000000,-0.411230,-0.404772,28340,-670
0.626000,-24.369717,-861.957250,240.519488,-24.369717,240.519488,30.200317,-51.750000,-54.570034,-810.207250,7.820672,-0.342042,7.478630,-26.118928,33.597558,-0.000000,-0.419969,-0.415452,27489,-690
0.628000,-26.081583,-849.485000,257.414922,-26.081583,257.414922,29.291748,-54.450000,-55.373331,-795.035000,8.370040,-0.364446,8.005594,-26.266928,34.272522,-0.000000,-0.428407,-0.422928,26662,-726
0.630000,-27.767657,-836.172500,274.055810,-27.767657,274.055810,28.275513,-56.475000,-56.043170,-779.697500,8.911131,-0.386195,8.524936,-26.366901,34.891837,-0.000000,-0.436148,-0.427200,25737,-753
0.632000,-29.426273,-822.033500,290.425697,-29.426273,290.425697,27.310913,-59.325000,-56.737186,-762.708500,9.443410,-0.407263,9.036147,-26.460901,35.497048,-0.000000,-0.443713,-0.438948,24859,-791
0.634000,-31.055791,-807.081500,306.508394,-31.055791,306.508394,26.167236,-61.950000,-57.223027,-745.131500,9.966351,-0.427630,9.538721,-26.477104,36.015825,-0.000000,-0.450198,-0.440016,23818,-826
0.636000,-32.654599,-791.331500,322.287999,-32.654599,322.287999,25.029053,-63.000000,-57.683652,-728.331500,10.479437,-0.447277,10.032160,-26.491284,36.523444,-0.000000,-0.456543,-0.454968,22782,-840
0.638000,-34.221117,-774.798750,337.748907,-34.221117,337.748907,23.822754,-66.075000,-58.043871,-708.723750,10.982160,-0.466189,10.515971,-26.445915,36.961886,-0.000000,-0.462024,-0.458172,21684,-881
0.640000,-35.753794,-757.500000,352.875831,-35.753794,352.875831,22.657104,-68.175000,-58.410898,-689.325000,11.474023,-0.484355,10.989668,-26.404745,37.394413,-0.000000,-0.467430,-0.469920,20623,-909
0.642000,-37.251117,-739.452250,367.653811,-37.251117,367.653811,21.566162,-69.450000,-58.817279,-670.002250,11.954540,-0.501768,11.452772,-26.377976,37.830748,-0.000000,-0.472884,-0.466716,19630,-926
0.644000,-38.711603,-720.673000,382.068234,-38.711603,382.068234,20.217041,-72.525000,-58.928644,-648.148000,12.423236,-0.518423,11.904813,-26.226136,38.130949,-0.000000,-0.476637,-0.477396,18402,-967
0.646000,-40.133809,-701.181500,396.104847,-40.133809,396.104847,18.910767,-73.275000,-59.044576,-627.906500,12.879647,-0.534317,12.345330,-26.089963,38.435293,-0.000000,-0.480441,-0.481668,17213,-977
0.648000,-41.516329,-680.996500,409.749770,-41.516329,409.749770,17.510010,-75.675000,-59.026339,-605.321500,13.323322,-0.549452,12.773869,-25.886506,38.660375,-0.000000,-0.483255,-0.472056,15938,-1009
0.650000,-42.857795,-660.137750,422.989509,-42.857795,422.989509,16.288330,-77.175000,-59.146125,-582.962750,13.753822,-0.563833,13.189989,-25.733202,38.923191,-0.000000,-0.486540,-0.478464,14826,-1029
0.652000,-44.156880,-638.626500,435.810972,-44.156880,435.810972,14.945801,-79.350000,-59.102681,-559.276500,14.170722,-0.577464,13.593257,-25.511336,39.104593,-0.000000,-0.488807,-0.488076,13604,-1058
0.654000,-45.412301,-616.484000,448.201482,-45.412301,448.201482,13.445068,-81.375000,-58.857369,-535.109000,14.573608,-0.590355,13.983253,-25.214805,39.198058,-0.000000,-0.489976,-0.494484,12238,-1085
0.656000,-46.622816,-593.731750,460.148784,-46.622816,460.148784,12.043213,-83.100000,-58.666029,-510.631750,14.962084,-0.602517,14.359567,-24.934410,39.293977,-0.000000,-0.491175,-0.485940,10962,-1108
0.658000,-47.787228,-570.392000,471.641066,-47.787228,471.641066,10.211792,-84.600000,-57.999020,-485.792000,15.335764,-0.613962,14.721802,-24.484812,39.206614,-0.000000,-0.490083,-0.478464,9295,-1128
0.660000,-48.904384,-546.488500,482.666963,-48.904384,482.666963,8.614380,-85.800000,-57.518764,-460.688500,15.694279,-0.624704,15.069575,-24.098102,39.167677,-0.000000,-0.489596,-0.489144,7841,-1144
0.662000,-49.973182,-522.044750,493.215571,-49.973182,493.215571,7.064209,-87.150000,-57.037391,-434.894750,16.037275,-0.634759,15.402516,-23.704978,39.107494,-0.000000,-0.488844,-0.495552,6430,-1162
0.664000,-50.992563,-497.084500,503.276461,-50.992563,503.276461,5.665649,-88.050000,-56.658212,-409.034500,16.364413,-0.644144,15.720269,-23.346946,39.067216,-0.000000,-0.488340,-0.481668,5157,-1174
0.666000,-51.961520,-471.632750,512.839683,-51.961520,512.839683,3.970459,-88.650000,-55.931979,-382.982750,16.675368,-0.652875,16.022493,-22.866099,38.888592,-0.000000,-0.486107,-0.480600,3614,-1182
0.668000,-52.879094,-445.714750,521.895780,-52.879094,521.895780,2.475220,-89.775000,-55.354314,-355.939750,16.969834,-0.660971,16.308863,-22.428461,38.737324,-0.000000,-0.484217,-0.493416,2253,-1197
0.670000,-53.744379,-419.356000,530.435797,-53.744379,530.435797,0.747070,-89.625000,-54.491449,-329.731000,17.247519,-0.668450,16.579069,-21.898550,38.477619,-0.000000,-0.480970,-0.503028,680,-1195
0.672000,-54.556518,-392.582500,538.451290,-54.556518,538.451290,-1.025024,-90.600000,-53.531494,-301.982500,17.508149,-0.675331,16.832817,-21.321311,38.154128,-0.000000,-0.476927,-0.479532,-933,-1208
0.674000,-55.314709,-365.420750,545.934333,-55.314709,545.934333,-2.770752,-91.275000,-52.543957,-274.145750,17.751465,-0.681633,17.069832,-20.733674,37.803506,-0.000000,-0.472544,-0.474192,-2522,-1217
0.676000,-56.018201,-337.897750,552.877525,-56.018201,552.877525,-4.414307,-90.900000,-51.603894,-246.997750,17.977229,-0.687374,17.289855,-20.168619,37.458474,-0.000000,-0.468231,-0.472056,-4018,-1212
0.678000,-56.666300,-310.040500,559.274000,-56.666300,559.274000,-6.236938,-91.050000,-50.429362,-218.990500,18.185215,-0.692571,17.492644,-19.514221,37.006865,-0.000000,-0.462586,-0.472056,-5677,-1214
0.680000,-57.258363,-281.876750,565.117435,-57.258363,565.117435,-7.804688,-90.750000,-49.453676,-191.126750,18.375218,-0.697241,17.677978,-18.930485,36.608463,-0.000000,-0.457606,-0.461376,-7104,-1210
0.682000,-57.793807,-253.434250,570.402050,-57.793807,570.402050,-9.544922,-90.525000,-48.248885,-162.909250,18.547052,-0.701400,17.845652,-18.263690,36.109341,-0.000000,-0.451367,-0.453900,-8688,-1207
0.684000,-58.272100,-224.741000,575.122619,-58.272100,575.122619,-11.345581,-89.850000,-46.926519,-134.891000,18.700545,-0.705063,17.995481,-17.557591,35.553072,-0.000000,-0.444413,-0.444288,-10327,-1198
0.686000,-58.692771,-195.825750,579.274475,-58.692771,579.274475,-13.095703,-88.125000,-45.597068,-107.700750,18.835545,-0.708245,18.127300,-16.856246,34.983546,-0.000000,-0.437294,-0.438948,-11920,-1175
0.688000,-59.055403,-166.716750,582.853512,-59.055403,582.853512,-14.789795,-87.075000,-44.265608,-79.641750,18.951920,-0.710957,18.240963,-16.146618,34.387581,-0.000000,-0.429845,-0.442152,-13462,-1161
0.690000,-59.359638,-137.443000,585.856191,-59.359638,585.856191,-16.495972,-85.950000,-42.863666,-51.493000,19.049555,-0.713210,18.336344,-15.411603,33.747948,-0.000000,-0.421849,-0.429336,-15015,-1146
0.692000,-59.605175,-108.033250,588.279543,-59.605175,588.279543,-18.243896,-84.300000,-41.361279,-23.733250,19.128352,-0.715014,18.413338,-14.644922,33.058259,-0.000000,-0.413228,-0.417588,-16606,-1124
0.694000,-59.791771,-78.516750,590.121171,-59.791771,590.121171,-19.820435,-82.875000,-39.971336,4.358250,19.188234,-0.716376,18.471857,-13.914596,32.386453,-0.000000,-0.404831,-0.405840,-18041,-1105
0.696000,-59.919242,-48.922500,591.379254,-59.919242,591.379254,-21.369507,-80.850000,-38.549735,31.927500,19.229141,-0.717303,18.511839,-13.177776,31.689615,-0.000000,-0.396120,-0.410112,-19451,-1078
0.698000,-59.987461,-19.279750,592.052549,-59.987461,592.052549,-22.850464,-78.600000,-37.136997,59.320250,19.251034,-0.717797,18.533237,-12.445591,30.978828,-0.000000,-0.387235,-0.391956,-20799,-1048
0.700000,-59.996361,10.382000,592.140388,-59.996361,592.140388,-24.198486,-76.725000,-35.797875,87.107000,19.253890,-0.717861,18.536029,-11.735664,30.271693,0.000000,-0.378396,-0.384480,-22026,-1023
0.702000,-59.945933,40.033500,591.642687,-59.945933,591.642687,-25.635498,-74.100000,-34.310435,114.133500,19.237707,-0.717496,18.520211,-10.980598,29.500809,0.000000,-0.368760,-0.382344,-23334,-988
0.704000,-59.836227,69.645250,590.559936,-59.836227,590.559936,-26.967041,-72.375000,-32.869186,142.020250,19.202500,-0.716700,18.485801,-10.234150,28.719951,0.000000,-0.358999,-0.371664,-24546,-965
0.706000,-59.667352,99.188000,588.893206,-59.667352,588.893206,-28.394165,-69.075000,-31.273187,168.263000,19.148306,-0.715469,18.432837,-9.448030,27.880866,0.000000,-0.348511,-0.363120,-25845,-921
0.708000,-59.439475,128.633000,586.644146,-59.439475,586.644146,-29.497192,-67.800000,-29.942283,196.433000,19.075176,-0.713798,18.361377,-8.737627,27.099004,0.000000,-0.338738,-0.348168,-26849,-904
0.710000,-59.152820,157.950750,583.814980,-59.152820,583.814980,-31.000122,-63.525000,-28.152698,221.475750,18.983183,-0.711681,18.271502,-7.894405,26.165907,0.000000,-0.327074,-0.335352,-28217,-847
0.712000,-58.807672,187.112000,580.408504,-58.807672,580.408504,-32.152588,-59.700000,-26.655084,246.812000,18.872419,-0.709107,18.163312,-7.150539,25.313850,0.000000,-0.316423,-0.333216,-29266,-796
0.714000,-58.404372,216.088500,576.428088,-58.404372,576.428088,-33.228149,-57.975000,-25.176223,274.063500,18.742993,-0.706068,18.036925,-6.396504,24.433429,0.000000,-0.305418,-0.315060,-30245,-773
0.716000,-57.943318,244.851250,571.877668,-57.943318,571.877668,-34.366333,-54.675000,-23.576985,299.526250,18.595033,-0.702550,17.892482,-5.616061,23.508543,0.000000,-0.293857,-0.304380,-31281,-729
0.718000,-57.424967,273.372000,566.761744,-57.424967,566.761744,-35.375977,-51.300000,-22.048990,324.672000,18.428684,-0.698541,17.730143,-4.863252,22.593395,0.000000,-0.282417,-0.292632,-32200,-684
0.720000,-56.849830,301.622500,561.085374,-56.849830,561.085374,-36.348267,-48.825000,-20.501563,350.447500,18.244113,-0.694026,17.550087,-4.098164,21.648251,0.000000,-0.270603,-0.276612,-33085,-651
0.722000,-56.218477,329.574500,554.854171,-56.218477,554.854171,-37.238159,-44.100000,-18.980318,373.674500,18.041501,-0.688989,17.352512,-3.364456,20.716967,0.000000,-0.258962,-0.271272,-33895,-588
0.724000,-55.531532,357.200500,548.074297,-55.531532,548.074297,-38.045654,-41.475000,-17.485878,398.675500,17.821048,-0.683414,17.137634,-2.624623,19.762257,0.000000,-0.247028,-0.254184,-34630,-553
0.726000,-54.789675,384.473250,540.752457,-54.789675,540.752457,-38.846558,-38.475000,-15.943117,422.948250,17.582973,-0.677282,16.905691,-1.874278,18.779969,0.000000,-0.234750,-0.247776,-35359,-513
0.728000,-53.993639,411.366250,532.895891,-53.993639,532.895891,-39.462891,-34.800000,-14.530748,446.166250,17.327511,-0.670576,16.656934,-1.178653,17.835587,0.000000,-0.222945,-0.233892,-35920,-464
0.730000,-53.144210,437.852250,524.512368,-53.144210,524.512368,-40.133057,-31.425000,-13.011153,469.277250,17.054914,-0.663278,16.391636,-0.446533,16.838168,0.000000,-0.210477,-0.222144,-36530,-419
0.732000,-52.242230,463.905250,515.610177,-52.242230,515.610177,-40.705444,-31.350000,-11.536786,495.255250,16.765453,-0.655369,16.110083,0.294819,15.815264,0.000000,-0.197691,-0.212532,-37051,-418
0.734000,-51.288589,489.499500,506.198122,-51.288589,506.198122,-41.263550,-25.200000,-10.025039,514.699500,16.459413,-0.646831,15.812582,0.992202,14.820380,0.000000,-0.185255,-0.193308,-37559,-336
0.736000,-50.284232,514.609750,496.285511,-50.284232,496.285511,-41.743652,-25.050000,-8.540580,539.659750,16.137097,-0.637644,15.499452,1.728195,13.771257,0.000000,-0.172141,-0.182628,-37996,-334
0.738000,-49.230150,539.211000,485.882144,-49.230150,485.882144,-42.172119,-20.250000,-7.058031,559.461000,15.798823,-0.627792,15.171031,2.418501,12.752530,0.000000,-0.159407,-0.163404,-38386,-270
0.740000,-48.127388,563.279000,474.998310,-48.127388,474.998310,-42.557739,-19.800000,-5.569649,583.079000,15.444927,-0.617258,14.827669,3.144150,11.683519,0.000000,-0.146044,-0.173016,-38737,-264
0.742000,-46.977034,586.790500,463.644772,-46.977034,463.644772,-42.953247,-14.400000,-4.023787,601.190500,15.075758,-0.606025,14.469733,3.841810,10.627923,0.000000,-0.132849,-0.145248,-39097,-192
0.744000,-45.780226,609.721250,451.832755,-45.780226,451.832755,-43.244385,-12.300000,-2.535841,622.021250,14.691682,-0.594080,14.097602,4.542984,9.554618,0.000000,-0.119433,-0.135636,-39362,-164
0.746000,-44.538149,632.049000,439.573941,-44.538149,439.573941,-43.490479,-10.425000,-1.047670,642.474000,14.293077,-0.581409,13.711669,5.240937,8.470731,0.000000,-0.105884,-0.122820,-39586,-139
0.748000,-43.252030,653.752250,426.880452,-43.252030,426.880452,-43.669556,-6.825000,0.417526,660.577250,13.880339,-0.568000,13.312339,5.910368,7.401971,0.000000,-0.092525,-0.105732,-39749,-91
0.750000,-41.923140,674.808750,413.764839,-41.923140,413.764839,-43.799194,-4.575000,1.876054,679.383750,13.453875,-0.553846,12.900029,6.583608,6.316421,0.000000,-0.078955,-0.092916,-39867,-61
0.752000,-40.552795,695.197750,400.240073,-40.552795,400.240073,-43.859619,-2.775000,3.306824,697.972750,13.014107,-0.538937,12.475170,7.245261,5.229909,0.000000,-0.065374,-0.077964,-39922,-37
0.754000,-39.142349,714.899500,386.319527,-39.142349,386.319527,-43.899170,-0.600000,4.756821,715.499500,12.561470,-0.523271,12.038199,7.904355,4.133844,0.000000,-0.051673,-0.066216,-39958,-8
0.756000,-37.693197,733.894500,372.016967,-37.693197,372.016967,-43.904663,0.075000,6.211466,733.819500,12.096411,-0.506844,11.589567,8.571994,3.017573,0.000000,-0.037720,-0.052332,-39963,1
0.758000,-36.206771,752.163500,357.346536,-36.206771,357.346536,-43.902466,0.000000,7.695695,752.163500,11.619391,-0.489659,11.129733,9.250169,1.879564,0.000000,-0.023495,-0.037380,-39961,0
0.760000,-34.684543,769.688750,342.322740,-34.684543,342.322740,-43.902466,0.000000,9.217923,769.688750,11.130881,-0.471718,10.659164,9.934464,0.724700,0.000000,-0.009059,-0.022428,-39961,0
0.762000,-33.128016,786.453000,326.960436,-33.128016,326.960436,-43.901367,0.075000,10.773351,786.378000,10.631364,-0.453028,10.178337,10.623052,-0.444715,0.000000,0.005559,-0.011748,-39960,1
0.764000,-31.538731,802.439500,311.274816,-31.538731,311.274816,-43.899170,0.075000,12.360439,802.364500,10.121335,-0.433600,9.687735,11.316558,-1.628824,0.000000,0.020360,0.005340,-39958,1
0.766000,-29.918258,817.632750,295.281390,-29.918258,295.281390,-43.896973,0.225000,13.978715,817.407750,9.601296,-0.413448,9.187849,12.012720,-2.824872,0.000000,0.035311,0.020292,-39956,3
0.768000,-28.268200,832.017250,278.995973,-28.268200,278.995973,-43.891479,0.450000,15.623279,831.567250,9.071764,-0.392588,8.679176,12.710347,-4.031171,0.000000,0.050390,0.035244,-39951,6
0.770000,-26.590189,845.578750,262.434670,-26.590189,262.434670,-43.882690,0.600000,17.292501,844.978750,8.533261,-0.371041,8.162220,13.410052,-5.247832,0.000000,0.065598,0.053400,-39943,8
0.772000,-24.885885,858.304250,245.613856,-24.885885,245.613856,-43.869507,0.975000,18.983622,857.329250,7.986319,-0.348830,7.637489,14.108143,-6.470654,0.000000,0.080883,0.066216,-39931,13
0.774000,-23.156972,870.181250,228.550165,-23.156972,228.550165,-43.843140,1.950000,20.686168,868.231250,7.431481,-0.325984,7.105497,14.797582,-7.692085,0.000000,0.096151,0.082236,-39907,26
0.776000,-21.405160,881.197750,211.260472,-21.405160,211.260472,-43.810181,2.850000,22.405021,878.347750,6.869293,-0.302532,6.566761,15.485858,-8.919097,0.000000,0.111489,0.100392,-39877,38
0.778000,-19.632181,891.342750,193.761872,-19.632181,193.761872,-43.758545,2.925000,24.126364,888.417750,6.300313,-0.278509,6.021804,16.174597,-10.152794,0.000000,0.126910,0.111072,-39830,39
0.780000,-17.839789,900.606250,176.071670,-17.839789,176.071670,-43.706909,3.525000,25.867120,897.081250,5.725103,-0.253953,5.471150,16.857839,-11.386689,0.000000,0.142334,0.127092,-39783,47
0.782000,-16.029756,908.979500,158.207358,-16.029756,158.207358,-43.642090,4.650000,27.612334,904.329500,5.144231,-0.228902,4.915329,17.530286,-12.614957,0.000000,0.157687,0.138840,-39724,62
0.784000,-14.203871,916.453500,140.186602,-14.203871,140.186602,-43.553101,5.625000,29.349230,910.828500,4.558273,-0.203401,4.354872,18.193292,-13.838420,0.000000,0.172980,0.161268,-39643,75
0.786000,-12.363942,923.021250,122.027222,-12.363942,122.027222,-43.437744,7.350000,31.073802,915.671250,3.967807,-0.177494,3.790313,18.837542,-15.047230,0.000000,0.188090,0.171948,-39538,98
0.788000,-10.511786,928.676750,103.747174,-10.511786,103.747174,-43.315796,9.150000,32.804010,919.526750,3.373417,-0.151231,3.222187,19.475144,-16.252958,0.000000,0.203162,0.191172,-39427,122
0.790000,-8.649235,933.413500,85.364535,-8.649235,85.364535,-43.149902,11.550000,34.500667,921.863500,2.775692,-0.124661,2.651031,20.087781,-17.436750,0.000000,0.217959,0.202920,-39276,154
0.792000,-6.778132,937.227250,66.897484,-6.778132,66.897484,-42.954346,11.925000,36.176214,925.302250,2.175222,-0.097836,2.077386,20.702666,-18.625280,0.000000,0.232816,0.217872,-39098,159
0.794000,-4.900326,940.114500,48.364280,-4.900326,48.364280,-42.711548,13.950000,37.811222,926.164500,1.572601,-0.070811,1.501790,21.280916,-19.779126,0.000000,0.247239,0.230688,-38877,186
0.796000,-3.017674,942.072000,29.783250,-3.017674,29.783250,-42.396240,16.575000,39.378566,925.497000,0.968425,-0.043639,0.924786,21.822198,-20.897412,0.000000,0.261218,0.248844,-38590,221
0.798000,-1.132038,943.097750,11.172770,-1.132038,11.172770,-42.111694,19.650000,40.979656,923.447750,0.363291,-0.016377,0.346914,22.363200,-22.016286,0.000000,0.275204,0.261660,-38331,262
0.800000,0.754717,943.191000,-7.448759,0.754717,-7.448759,-41.785400,20.850000,42.540117,922.341000,-0.242202,0.010919,-0.231283,22.898246,-23.129529,0.000000,0.289119,0.273408,-38034,278
0.802000,2.640726,942.351500,-26.062922,2.640726,-26.062922,-41.381104,23.100000,44.021830,919.251500,-0.847456,0.038192,-0.809263,23.388500,-24.197764,0.000000,0.302472,0.289428,-37666,308
0.804000,4.524123,940.580250,-44.651312,4.524123,-44.651312,-40.916382,26.700000,45.440505,913.880250,-1.451871,0.065386,-1.386485,23.836838,-25.223323,0.000000,0.315292,0.299040,-37243,356
0.806000,6.403047,937.879250,-63.195549,6.403047,-63.195549,-40.407715,27.675000,46.810762,910.204250,-2.054851,0.092445,-1.962405,24.283069,-26.245474,0.000000,0.328068,0.315060,-36780,369
0.808000,8.275640,934.250250,-81.677295,8.275640,-81.677295,-39.874878,31.875000,48.150518,902.375250,-2.655799,0.119315,-2.536484,24.682411,-27.218895,0.000000,0.340236,0.324672,-36295,425
0.810000,10.140048,929.697500,-100.078273,10.140048,-100.078273,-39.267334,33.225000,49.407382,896.472500,-3.254120,0.145940,-3.108181,25.069628,-28.177809,0.000000,0.352223,0.337488,-35742,443
0.812000,11.994430,924.225750,-118.380289,11.994430,-118.380289,-38.736694,35.100000,50.731124,889.125750,-3.849224,0.172269,-3.676956,25.467589,-29.144545,0.000000,0.364307,0.353508,-35259,468
0.814000,13.836951,917.839750,-136.565243,13.836951,-136.565243,-38.012695,38.625000,51.849646,879.214750,-4.440522,0.198250,-4.242271,25.771537,-30.013808,0.000000,0.375173,0.364188,-34600,515
0.816000,15.665789,910.546250,-154.615154,15.665789,-154.615154,-37.278809,39.900000,52.944598,870.646250,-5.027428,0.223836,-4.803592,26.078973,-30.882564,0.000000,0.386032,0.378072,-33932,532
0.818000,17.479136,902.352500,-172.512173,17.479136,-172.512173,-36.439453,43.500000,53.918589,858.852500,-5.609363,0.248981,-5.360382,26.316040,-31.676423,0.000000,0.395955,0.386616,-33168,580
0.820000,19.275199,893.266250,-190.238603,19.275199,-190.238603,-35.548462,47.400000,54.823661,845.866250,-6.185751,0.273640,-5.912112,26.518643,-32.430755,0.000000,0.405384,0.396228,-32357,632
0.822000,21.052201,883.296750,-207.776914,21.052201,-207.776914,-34.700317,48.825000,55.752518,834.471750,-6.756023,0.297772,-6.458250,26.743440,-33.201690,0.000000,0.415021,0.403704,-31585,651
0.824000,22.808386,872.453750,-225.109763,22.808386,-225.109763,-33.812622,50.775000,56.621008,821.678750,-7.319613,0.321341,-6.998272,26.934960,-33.933232,0.000000,0.424165,0.421860,-30777,677
0.826000,24.542016,860.748000,-242.220011,24.542016,-242.220011,-32.898560,54.600000,57.440576,806.148000,-7.875966,0.344311,-7.531655,27.085512,-34.617167,0.000000,0.432715,0.426132,-29945,728
0.828000,26.251378,848.191500,-259.090739,26.251378,-259.090739,-31.925171,56.775000,58.176549,791.416500,-8.424530,0.366651,-8.057879,27.213858,-35.271738,0.000000,0.440897,0.433608,-29059,757
0.830000,27.934782,834.795750,-275.705263,27.934782,-275.705263,-30.948486,59.400000,58.883268,775.395750,-8.964764,0.388333,-8.576431,27.320743,-35.897174,0.000000,0.448715,0.441084,-28170,792
0.832000,29.590561,820.574500,-292.047155,29.590561,-292.047155,-29.953125,60.825000,59.543686,759.749500,-9.496133,0.409332,-9.086801,27.414733,-36.501534,0.000000,0.456269,0.444288,-27264,811
0.834000,31.217080,805.542250,-308.100254,31.217080,-308.100254,-28.838013,63.600000,60.055093,741.942250,-10.018111,0.429627,-9.588484,27.437850,-37.026334,0.000000,0.462829,0.464580,-26249,848
0.836000,32.812730,789.713000,-323.848686,32.812730,-323.848686,-27.678955,67.125000,60.491685,722.588000,-10.530184,0.449201,-10.080982,27.421351,-37.502334,0.000000,0.468779,0.466716,-25194,895
0.838000,34.375932,773.103000,-339.276878,34.375932,-339.276878,-26.167236,69.525000,60.543168,703.578000,-11.031843,0.468039,-10.563804,27.273429,-37.837233,0.000000,0.472965,0.468852,-23818,927
0.840000,35.905142,755.728750,-354.369575,35.905142,-354.369575,-24.959839,72.300000,60.864981,683.428750,-11.522593,0.486131,-11.036463,27.209927,-38.246390,0.000000,0.478080,0.466716,-22719,964
0.842000,37.398847,737.607000,-369.111851,37.398847,-369.111851,-23.507446,74.850000,60.906293,662.757000,-12.001949,0.503468,-11.498482,27.043953,-38.542434,0.000000,0.481780,0.480600,-21397,998
0.844000,38.855570,718.755750,-383.489129,38.855570,-383.489129,-22.098999,76.800000,60.954569,641.955750,-12.469437,0.520046,-11.949391,26.879279,-38.828670,0.000000,0.485358,0.481668,-20115,1024
0.846000,40.273870,699.193750,-397.487191,40.273870,-397.487191,-20.703735,79.500000,60.977605,619.693750,-12.924595,0.535865,-12.388730,26.693048,-39.081778,0.000000,0.488522,0.482736,-18845,1060
0.848000,41.652345,678.940500,-411.092196,41.652345,-411.092196,-19.302979,80.700000,60.955324,598.240500,-13.366972,0.550924,-12.816048,26.498055,-39.314103,0.000000,0.491426,0.488076,-17570,1076
0.850000,42.989632,658.015750,-424.290690,42.989632,-424.290690,-17.634155,83.625000,60.623787,574.390750,-13.796131,0.565229,-13.230901,26.174199,-39.405100,0.000000,0.492564,0.498756,-16051,1115
0.852000,44.284408,636.440500,-437.069622,44.284408,-437.069622,-16.014771,86.100000,60.299179,550.340500,-14.211647,0.578786,-13.632861,25.851011,-39.483872,0.000000,0.493548,0.490212,-14577,1148
0.854000,45.535394,614.235750,-449.416355,45.535394,-449.416355,-14.182251,87.900000,59.717645,526.335750,-14.613111,0.591604,-14.021507,25.438536,-39.460043,0.000000,0.493251,0.494484,-12909,1172
0.856000,46.741351,591.423500,-461.318679,46.741351,-461.318679,-12.626587,89.475000,59.367938,501.948500,-15.000124,0.603694,-14.396430,25.103647,-39.500077,0.000000,0.493751,0.496620,-11493,1193
0.858000,47.901088,568.026750,-472.764826,47.901088,-472.764826,-10.825928,90.750000,58.727016,477.276750,-15.372304,0.615068,-14.757236,24.664621,-39.421857,0.000000,0.492773,0.489144,-9854,1210
0.860000,49.013458,544.068250,-483.743477,49.013458,-483.743477,-9.366943,92.325000,58.380401,451.743250,-15.729283,0.625740,-15.103543,24.320808,-39.424351,0.000000,0.492804,0.491280,-8526,1231
0.862000,50.077361,519.571500,-494.243776,50.077361,-494.243776,-7.772827,93.975000,57.850188,425.596500,-16.070708,0.635728,-15.434981,23.907555,-39.342536,0.000000,0.491782,0.485940,-7075,1253
0.864000,51.091744,494.561000,-504.255338,51.091744,-504.255338,-5.894165,94.950000,56.985909,399.611000,-16.396242,0.645046,-15.751196,23.379099,-39.130294,0.000000,0.489129,0.485940,-5365,1266
0.866000,52.055605,469.061500,-513.768265,52.055605,-513.768265,-4.298950,96.150000,56.354555,372.911500,-16.705562,0.653713,-16.051849,22.925717,-38.977566,0.000000,0.487220,0.493416,-3913,1282
0.868000,52.967990,443.098250,-522.773149,52.967990,-522.773149,-2.182983,96.750000,55.150973,346.348250,-16.998362,0.661746,-16.336616,22.273780,-38.610396,0.000000,0.482630,0.488076,-1987,1290
0.870000,53.827998,416.697000,-531.261085,53.827998,-531.261085,-0.635010,97.200000,54.463008,319.497000,-17.274354,0.669165,-16.605189,21.799313,-38.404502,0.000000,0.480056,0.484872,-578,1296
0.872000,54.634778,389.883250,-539.223681,54.634778,-539.223681,1.154663,97.575000,53.480115,292.308250,-17.533264,0.675987,-16.857276,21.218952,-38.076229,0.000000,0.475953,0.487008,1051,1301
0.874000,55.387531,362.684250,-546.653063,55.387531,-546.653063,2.798218,97.500000,52.589313,265.184250,-17.774835,0.682232,-17.092603,20.671302,-37.763906,0.000000,0.472049,0.469920,2547,1300
0.876000,56.085515,335.126750,-553.541883,56.085515,-553.541883,4.753784,97.950000,51.331731,237.176750,-17.998831,0.687918,-17.310913,19.987912,-37.298825,0.000000,0.466235,0.467784,4327,1306
0.878000,56.728038,307.237500,-559.883330,56.728038,-559.883330,6.399536,97.800000,50.328502,209.437500,-18.205028,0.693061,-17.511967,19.395648,-36.907615,0.000000,0.461345,0.463512,5825,1304
0.880000,57.314465,279.044500,-565.671134,57.314465,-565.671134,8.274902,97.200000,49.039563,181.844500,-18.393222,0.697679,-17.695543,18.704929,-36.400472,0.000000,0.455006,0.464580,7532,1296
0.882000,57.844216,250.575750,-570.899570,57.844216,-570.899570,10.493042,97.050000,47.351174,153.525750,-18.563229,0.701788,-17.861441,17.868443,-35.729883,0.000000,0.446624,0.451764,9551,1294
0.884000,58.316768,221.859250,-575.563469,58.316768,-575.563469,12.119019,95.775000,46.197749,126.084250,-18.714879,0.705403,-18.009476,17.226349,-35.235825,0.000000,0.440448,0.447492,11031,1277
0.886000,58.731653,192.923000,-579.658219,58.731653,-579.658219,13.958130,95.175000,44.773523,97.748000,-18.848023,0.708537,-18.139486,16.481920,-34.621406,0.000000,0.432768,0.438948,12705,1269
0.888000,59.088460,163.796250,-583.179770,59.088460,-583.179770,15.779663,94.050000,43.308797,69.746250,-18.962529,0.711203,-18.251326,15.726273,-33.977599,0.000000,0.424720,0.427200,14363,1254
0.890000,59.386838,134.507750,-586.124640,59.386838,-586.124640,17.536377,92.475000,41.850461,42.032750,-19.058284,0.713411,-18.344873,14.975372,-33.320244,0.000000,0.416503,0.427200,15962,1233
0.892000,59.626491,105.085750,-588.489918,59.626491,-588.489918,19.194214,91.050000,40.432277,14.035750,-19.135192,0.715170,-18.420022,14.236012,-32.656034,0.000000,0.408200,0.412248,17471,1214
0.894000,59.807181,75.560000,-590.273264,59.807181,-590.273264,21.004761,89.250000,38.802420,-13.690000,-19.193179,0.716489,-18.476691,13.425132,-31.901823,0.000000,0.398773,0.411180,19119,1190
0.896000,59.928731,45.960000,-591.472915,59.928731,-591.472915,22.705444,87.150000,37.223287,-41.190000,-19.232187,0.717371,-18.514815,12.633928,-31.148743,0.000000,0.389359,0.390888,20667,1162
0.898000,59.991021,16.314000,-592.087684,59.991021,-592.087684,24.435791,84.675000,35.555230,-68.361000,-19.252176,0.717822,-18.534354,11.814554,-30.348908,0.000000,0.379361,0.389820,22242,1129
0.900000,59.993987,-13.348000,-592.116964,59.993987,-592.116964,26.288086,82.425000,33.705901,-95.773000,-19.253128,0.717844,-18.535285,10.929802,-29.465086,-0.000000,0.368314,0.378072,23928,1099
0.902000,59.937629,-42.996750,-591.560726,59.937629,-591.560726,27.922852,79.650000,32.014777,-122.646750,-19.235042,0.717436,-18.517606,10.104971,-28.622577,-0.000000,0.357782,0.368460,25416,1062
0.904000,59.822000,-72.603250,-590.419519,59.822000,-590.419519,29.601562,76.950000,30.220438,-149.553250,-19.197935,0.716596,-18.481338,9.243824,-27.725163,-0.000000,0.346565,0.358848,26944,1026
0.906000,59.647216,-102.137500,-588.694473,59.647216,-588.694473,30.975952,74.625000,28.671264,-176.762500,-19.141844,0.715322,-18.426522,8.465615,-26.892137,-0.000000,0.336152,0.346032,28195,995
0.908000,59.413450,-131.570750,-586.387293,59.413450,-586.387293,32.505249,71.550000,26.908201,-203.120750,-19.066824,0.713607,-18.353217,7.620171,-25.973388,-0.000000,0.324667,0.337488,29587,954
0.910000,59.120933,-160.874250,-583.500260,59.120933,-583.500260,33.918091,67.575000,25.202842,-228.449250,-18.972950,0.711444,-18.261506,6.803856,-25.065361,-0.000000,0.313317,0.320400,30873,901
0.912000,58.769953,-190.018750,-580.036229,58.769953,-580.036229,35.182617,65.025000,23.587336,-255.043750,-18.860314,0.708825,-18.151490,6.007857,-24.159346,-0.000000,0.301992,0.318264,32024,867
0.914000,58.360858,-218.975000,-575.998627,58.360858,-575.998627,36.417480,61.275000,21.943378,-280.250000,-18.729029,0.705738,-18.023291,5.214041,-23.237332,-0.000000,0.290467,0.305448,33148,817
0.916000,57.894053,-247.714750,-571.391445,57.894053,-571.391445,37.714966,58.800000,20.179087,-306.514750,-18.579223,0.702172,-17.877051,4.368984,-22.246035,-0.000000,0.278075,0.289428,34329,784
0.918000,57.369999,-276.209500,-566.219239,57.369999,-566.219239,38.757568,55.275000,18.612431,-331.484500,-18.411044,0.698113,-17.712932,3.604216,-21.317148,-0.000000,0.266464,0.277680,35278,737
0.920000,56.789215,-304.431250,-560.487123,56.789215,-560.487123,39.847412,52.725000,16.941803,-357.156250,-18.224660,0.693546,-17.531114,2.797029,-20.328143,-0.000000,0.254102,0.267000,36270,703
0.922000,56.152274,-332.352250,-554.200767,56.152274,-554.200767,40.770264,48.525000,15.382010,-380.877250,-18.020255,0.688456,-17.331799,2.045553,-19.377352,-0.000000,0.242217,0.258456,37110,647
0.924000,55.459806,-359.944250,-547.366387,55.459806,-547.366387,41.674438,45.975000,13.785368,-405.919250,-17.798030,0.682826,-17.115204,1.269687,-18.384891,-0.000000,0.229811,0.245640,37933,613
0.926000,54.712497,-387.180250,-539.990739,54.712497,-539.990739,42.587402,41.625000,12.125095,-428.805250,-17.558205,0.676638,-16.881567,0.490425,-17.371992,-0.000000,0.217150,0.229620,38764,555
0.928000,53.911085,-414.033500,-532.081119,53.911085,-532.081119,43.390503,39.000000,10.520582,-453.033500,-17.301018,0.669874,-16.631144,-0.281087,-16.350057,-0.000000,0.204376,0.221076,39495,520
0.930000,53.056363,-440.477500,-523.645347,53.056363,-523.645347,44.141968,34.575000,8.914395,-475.052500,-17.026722,0.662515,-16.364207,-1.033904,-15.330303,-0.000000,0.191629,0.174084,40179,461
0.932000,52.149175,-466.485750,-514.691766,52.149175,-514.691766,44.909912,33.300000,7.239263,-499.785750,-16.735590,0.654544,-16.081046,-1.834474,-14.246572,-0.000000,0.178082,0.193308,40878,444
0.934000,51.190420,-492.032750,-505.229228,51.190420,-505.229228,45.457031,30.300000,5.733389,-522.332750,-16.427908,0.645941,-15.781967,-2.556883,-13.225084,-0.000000,0.165314,0.185832,41376,404
0.936000,50.181044,-517.093250,-495.267092,50.181044,-495.267092,46.071167,27.150000,4.109877,-544.243250,-16.103982,0.636689,-15.467293,-3.314801,-12.152492,-0.000000,0.151906,0.165540,41935,362
0.938000,49.122047,-541.642250,-484.815208,49.122047,-484.815208,46.550171,23.850000,2.571876,-565.492250,-15.764131,0.626770,-15.137361,-4.037097,-11.100265,-0.000000,0.138753,0.124956,42371,318
0.940000,48.014475,-565.655750,-473.883912,48.014475,-473.883912,47.006104,18.675000,1.008371,-584.330750,-15.408692,0.616166,-14.792526,-4.747260,-10.045266,-0.000000,0.125566,0.144180,42786,249
0.942000,46.859424,-589.109750,-462.484012,46.859424,-462.484012,47.382935,16.800000,-0.523511,-605.909750,-15.038015,0.604863,-14.433152,-5.470300,-8.962853,-0.000000,0.112036,0.128160,43129,224
0.944000,45.658036,-611.981500,-450.626783,45.658036,-450.626783,47.744385,11.925000,-2.086349,-623.906500,-14.652469,0.592846,-14.059623,-6.172884,-7.886739,-0.000000,0.098584,0.112140,43458,159
0.946000,44.411498,-634.248000,-438.323949,44.411498,-438.323949,48.044312,11.250000,-3.632814,-645.498000,-14.252433,0.580101,-13.672332,-6.901124,-6.771208,-0.000000,0.084640,0.098256,43731,150
0.948000,43.121044,-655.887250,-425.587675,43.121044,-425.587675,48.232178,8.475000,-5.111134,-664.362250,-13.838303,0.566619,-13.271685,-7.581777,-5.689908,-0.000000,0.071124,0.083304,43902,113
0.950000,41.787949,-676.878000,-412.430557,41.787949,-412.430557,48.392578,5.700000,-6.604629,-682.578000,-13.410490,0.552389,-12.858101,-8.262067,-4.596034,-0.000000,0.057450,0.070488,44048,76
0.952000,40.413532,-697.199250,-398.865605,40.413532,-398.865605,48.502441,4.200000,-8.088909,-701.399250,-12.969415,0.537405,-12.432010,-8.944425,-3.487585,-0.000000,0.043595,0.058740,44148,56
0.954000,38.999152,-716.831250,-384.906231,38.999152,-384.906231,48.574951,2.625000,-9.575799,-719.456250,-12.515516,0.521662,-11.993853,-9.621025,-2.372828,-0.000000,0.029660,0.045924,44214,35
0.956000,37.546207,-735.754250,-370.566241,37.546207,-370.566241,48.613403,0.975000,-11.067196,-736.729250,-12.049240,0.505160,-11.544080,-10.292356,-1.251724,-0.000000,0.015647,0.027768,44249,13
0.958000,36.056135,-753.949750,-355.859815,36.056135,-355.859815,48.624390,0.000000,-12.568255,-753.949750,-11.571050,0.487898,-11.083151,-10.966601,-0.116550,-0.000000,0.001457,0.018156,44259,0
0.960000,34.530408,-771.399750,-340.801494,34.530408,-340.801494,48.619995,-0.300000,-14.089587,-771.099750,-11.081417,0.469882,-10.611535,-11.647308,1.035774,-0.000000,-0.012947,0.002136,44255,-4
0.962000,32.970536,-788.087000,-325.406170,32.970536,-325.406170,48.614502,-0.525000,-15.643966,-787.562000,-10.580826,0.451118,-10.129708,-12.333549,2.203841,-0.000000,-0.027548,-0.010680,44250,-7
0.964000,31.378060,-803.994750,-309.689066,31.378060,-309.689066,48.603516,-0.750000,-17.225456,-803.244750,-10.069773,0.431617,-9.638156,-13.022451,3.384296,-0.000000,-0.042304,-0.030972,44240,-10
0.966000,29.754557,-819.107500,-293.665724,29.754557,-293.665724,48.589233,-1.425000,-18.834676,-817.682500,-9.548762,0.411393,-9.137368,-13.710168,4.572800,-0.000000,-0.057160,-0.042720,44227,-19
0.968000,28.101630,-833.410500,-277.351990,28.101630,-277.351990,48.563965,-2.025000,-20.462335,-831.385500,-9.018309,0.390464,-8.627845,-14.397909,5.770065,-0.000000,-0.072126,-0.056604,44204,-27
0.970000,26.420915,-846.889250,-260.763994,26.420915,-260.763994,48.523315,-2.475000,-22.102400,-844.414250,-8.478937,0.368849,-8.110088,-15.084098,6.974009,-0.000000,-0.087175,-0.072624,44167,-33
0.972000,24.714073,-859.530750,-243.918140,24.714073,-243.918140,48.467285,-3.675000,-23.753212,-855.855750,-7.931182,0.346574,-7.584608,-15.760186,8.175578,-0.000000,-0.102195,-0.086508,44116,-49
0.974000,22.982792,-871.322000,-226.831086,22.982792,-226.831086,48.404663,-4.125000,-25.421871,-867.197000,-7.375583,0.323665,-7.051918,-16.441629,9.389711,-0.000000,-0.117371,-0.101460,44059,-55
0.976000,21.228785,-882.251500,-209.519729,21.228785,-209.519729,48.328857,-5.550000,-27.100072,-876.701500,-6.812692,0.300155,-6.512536,-17.110374,10.597837,-0.000000,-0.132473,-0.118548,43990,-74
0.978000,19.453786,-892.308750,-192.001187,19.453786,-192.001187,48.233276,-5.475000,-28.779490,-886.833750,-6.243063,0.276077,-5.966986,-17.785022,11.818036,-0.000000,-0.147725,-0.130296,43903,-73
0.980000,17.659550,-901.483750,-174.292784,17.659550,-174.292784,48.123413,-7.500000,-30.463863,-893.983750,-5.667261,0.251469,-5.415792,-18.435374,13.019582,-0.000000,-0.162745,-0.147384,43803,-100
0.982000,15.847851,-909.767250,-156.412030,15.847851,-156.412030,48.002563,-9.000000,-32.154712,-900.767250,-5.085855,0.226371,-4.859483,-19.084789,14.225306,-0.000000,-0.177816,-0.163404,43693,-120
0.984000,14.020481,-917.151250,-138.376607,14.020481,-138.376607,47.828979,-9.375000,-33.808498,-907.776250,-4.499419,0.200827,-4.298592,-19.723234,15.424642,-0.000000,-0.192808,-0.177288,43535,-125
0.986000,12.179246,-923.628250,-120.204350,12.179246,-120.204350,47.632324,-12.900000,-35.453078,-910.728250,-3.908535,0.174883,-3.733652,-20.323062,16.589410,-0.000000,-0.207368,-0.192240,43356,-172
0.988000,10.325968,-929.191750,-101.913228,10.325968,-101.913228,47.433472,-13.950000,-37.107504,-915.241750,-3.313785,0.148587,-3.165198,-20.939953,17.774755,-0.000000,-0.222184,-0.207192,43175,-186
0.990000,8.462479,-933.836500,-83.521328,8.462479,-83.521328,47.141235,-17.550000,-38.678756,-916.286500,-2.715759,0.121989,-2.593770,-21.497541,18.903771,-0.000000,-0.236297,-0.223212,42909,-234
0.992000,6.590622,-937.557750,-65.046838,6.590622,-65.046838,46.836914,-16.650000,-40.246292,-920.907750,-2.115047,0.095142,-2.019905,-22.085042,20.065137,-0.000000,-0.250814,-0.237096,42632,-222
0.994000,4.712248,-940.352000,-46.508026,4.712248,-46.508026,46.493042,-18.900000,-41.780794,-921.452000,-1.512243,0.068099,-1.444144,-22.625434,21.181290,-0.000000,-0.264766,-0.256320,42319,-252
0.996000,2.829214,-942.216500,-27.923224,2.829214,-27.923224,46.152466,-21.300000,-43.323252,-920.916500,-0.907945,0.040916,-0.867029,-23.159180,22.292152,-0.000000,-0.278652,-0.267000,42009,-284
0.998000,0.943382,-943.149000,-9.310810,0.943382,-9.310810,45.730591,-23.325000,-44.787209,-919.824000,-0.302748,0.013648,-0.289100,-23.660664,23.371564,-0.000000,-0.292145,-0.279816,41625,-311
1.000000,-0.943382,-943.149000,9.310810,-0.943382,9.310810,45.266968,-27.975000,-46.210350,-915.174000,0.302748,-0.013648,0.289100,-24.116855,24.405955,-0.000000,-0.305074,-0.294768,41203,-373
1.002000,-2.829214,-942.216500,27.923224,-2.829214,27.923224,44.768188,-30.000000,-47.597402,-912.216500,0.907945,-0.040916,0.867029,-24.575218,25.442247,-0.000000,-0.318028,-0.308652,40749,-400
1.004000,-4.712248,-940.352000,46.508026,-4.712248,46.508026,44.160645,-33.600000,-48.872893,-906.752000,1.512243,-0.068099,1.444144,-24.972762,26.416906,-0.000000,-0.330211,-0.317196,40196,-448
1.006000,-6.590622,-937.557750,65.046838,-6.590622,65.046838,43.484985,-35.400000,-50.075607,-902.157750,2.115047,-0.095142,2.019905,-25.352496,27.372401,-0.000000,-0.342155,-0.323604,39581,-472
1.008000,-8.462479,-933.836500,83.521328,-8.462479,83.521328,42.795044,-38.325000,-51.257523,-895.511500,2.715759,-0.121989,2.593770,-25.707063,28.300833,-0.000000,-0.353760,-0.341760,38953,-511
1.010000,-10.325968,-929.191750,101.913228,-10.325968,101.913228,42.162231,-41.850000,-52.488199,-887.341750,3.313785,-0.148587,3.165198,-26.065356,29.230554,-0.000000,-0.365382,-0.350304,38377,-558
1.012000,-12.179246,-923.628250,120.204350,-12.179246,120.204350,41.280029,-45.075000,-53.459275,-878.553250,3.908535,-0.174883,3.733652,-26.327631,30.061283,-0.000000,-0.375766,-0.362052,37574,-601
1.014000,-14.020481,-917.151250,138.376607,-14.020481,138.376607,40.406616,-48.000000,-54.427097,-869.151250,4.499419,-0.200827,4.298592,-26.583416,30.882008,-0.000000,-0.386025,-0.373800,36779,-640
1.016000,-15.847851,-909.767250,156.412030,-15.847851,156.412030,39.576050,-50.250000,-55.423901,-859.517250,5.085855,-0.226371,4.859483,-26.847294,31.706777,-0.000000,-0.396335,-0.388752,36023,-670
