khanfazel/E-wera--maxon_motor/PD_control (another copy)/positive_pd_feedforward_log.csv
t_s,q_ref_deg,qd_ref_deg_s,qdd_ref_deg_s2,q_model_deg,qdd_model_deg_s2,q_link_deg,qd_link_deg_s,pos_error_deg,vel_error_deg_s,tau_inertia_joint_Nm,tau_gravity_joint_Nm,tau_joint_ff_Nm,tau_pd_joint_Nm,tau_joint_total_Nm,tau_dead_motor_Nm,tau_motor_cmd_Nm,tau_motor_actual_Nm,motor_pos_counts,motor_vel_native
0.000000,0.000000,943.265500,0.000000,0.000000,0.000000,0.347168,0.000000,-0.347168,943.265500,0.000000,0.000000,0.000000,6.494347,6.494347,0.160200,0.241379,-0.002136,316,0
0.002000,1.886531,942.799250,0.000000,1.886531,0.000000,0.351562,3.075000,1.534968,939.724250,0.000000,0.027289,0.027289,6.962367,6.989656,0.160200,0.247571,0.242436,320,41
0.004000,3.771197,941.400750,-37.220226,3.771197,-37.220226,0.449341,7.725000,3.321856,933.675750,-1.210244,0.054522,-1.155722,7.387946,6.232224,0.160200,0.238103,0.249912,409,103
0.006000,5.652134,939.071000,-55.784328,5.652134,-55.784328,0.594360,8.400000,5.057774,930.671000,-1.813869,0.081641,-1.732228,7.821431,6.089203,0.160200,0.236315,0.238164,541,112
0.008000,7.527481,935.812750,-74.293267,7.527481,-74.293267,0.797607,9.450000,6.729874,926.362750,-2.415701,0.108593,-2.307108,8.229109,5.922001,0.160200,0.234225,0.234960,726,126
0.010000,9.395385,931.629250,-92.728741,9.395385,-92.728741,1.020630,12.525000,8.374755,919.104250,-3.015145,0.135322,-2.879822,8.609064,5.729242,0.160200,0.231816,0.233892,929,167
0.012000,11.253998,926.524500,-111.072519,11.253998,-111.072519,1.251343,12.450000,10.002655,914.074500,-3.611606,0.161776,-3.449831,9.000133,5.550302,0.160200,0.229579,0.234960,1139,166
0.014000,13.101483,920.503500,-129.306462,13.101483,-129.306462,1.490845,13.650000,11.610638,906.853500,-4.204497,0.187902,-4.016595,9.370690,5.354095,0.160200,0.227126,0.225348,1357,182
0.016000,14.936012,913.572250,-147.412541,14.936012,-147.412541,1.702881,11.625000,13.233131,901.947250,-4.793230,0.213652,-4.579577,9.761205,5.181628,0.160200,0.224970,0.225348,1550,155
0.018000,16.755772,905.737500,-165.372849,16.755772,-165.372849,1.909424,11.850000,14.846348,893.887500,-5.377223,0.238979,-5.138244,10.127277,4.989033,0.160200,0.222563,0.226416,1738,158
0.020000,18.558962,897.007250,-183.169628,18.558962,-183.169628,2.125854,11.925000,16.433108,885.082250,-5.955898,0.263837,-5.692061,10.481217,4.789156,0.160200,0.220064,0.223212,1935,159
0.022000,20.343801,887.390000,-200.785278,20.343801,-200.785278,2.347778,11.700000,17.996023,875.690000,-6.528684,0.288185,-6.240499,10.824817,4.584318,0.160200,0.217504,0.224280,2137,156
0.024000,22.108522,876.895000,-218.202380,22.108522,-218.202380,2.575195,13.200000,19.533327,863.695000,-7.095015,0.311983,-6.783031,11.143542,4.360511,0.160200,0.214706,0.218940,2344,176
0.026000,23.851381,865.533250,-235.403712,23.851381,-235.403712,2.781738,11.700000,21.069643,853.833250,-7.654329,0.335197,-7.319132,11.476900,4.157768,0.160200,0.212172,0.216804,2532,156
0.028000,25.570655,853.315500,-252.372264,25.570655,-252.372264,2.981689,10.575000,22.588966,842.740500,-8.206074,0.357792,-7.848282,11.797216,3.948934,0.160200,0.209562,0.211464,2714,141
0.030000,27.264643,840.253750,-269.091255,27.264643,-269.091255,3.172852,11.775000,24.091791,828.478750,-8.749705,0.379741,-8.369964,12.091089,3.721125,0.160200,0.206714,0.212532,2888,157
0.032000,28.931670,826.361000,-285.544154,28.931670,-285.544154,3.355225,12.000000,25.576445,814.361000,-9.284683,0.401016,-8.883667,12.381210,3.497543,0.160200,0.203919,0.208260,3054,160
0.034000,30.570087,811.651500,-301.714692,30.570087,-301.714692,3.563965,11.325000,27.006122,800.326500,-9.810480,0.421595,-9.388885,12.657519,3.268634,0.160200,0.201058,0.203988,3244,151
0.036000,32.178276,796.139500,-317.586877,32.178276,-317.586877,3.767212,11.025000,28.411064,785.114500,-10.326576,0.441459,-9.885117,12.919132,3.034015,0.160200,0.198125,0.200784,3429,147
0.038000,33.754645,779.839750,-333.145014,33.754645,-333.145014,3.961670,11.850000,29.792975,767.989750,-10.832461,0.460593,-10.371868,13.161363,2.789495,0.160200,0.195069,0.201852,3606,158
0.040000,35.297635,762.769000,-348.373719,35.297635,-348.373719,4.159424,11.700000,31.138211,751.069000,-11.327633,0.478984,-10.848649,13.395415,2.546766,0.160200,0.192035,0.190104,3786,156
0.042000,36.805721,744.944000,-363.257932,36.805721,-363.257932,4.338501,9.450000,32.467220,735.494000,-11.811605,0.496624,-11.314981,13.634615,2.319634,0.160200,0.189195,0.193308,3949,126
0.044000,38.277411,726.382500,-377.782936,38.277411,-377.782936,4.523071,10.050000,33.754340,716.332500,-12.283896,0.513506,-11.770390,13.837810,2.067420,0.160200,0.186043,0.190104,4117,134
0.046000,39.711251,707.102750,-391.934367,39.711251,-391.934367,4.701050,10.575000,35.010201,696.527750,-12.744041,0.529629,-12.214412,14.028330,1.813918,0.160200,0.182874,0.187968,4279,141
0.048000,41.105822,687.123500,-405.698231,41.105822,-405.698231,4.892212,8.775000,36.213610,678.348500,-13.191583,0.544991,-12.646592,14.216467,1.569875,0.160200,0.179823,0.178356,4453,117
0.050000,42.459745,666.465000,-419.060918,42.459745,-419.060918,5.059204,8.700000,37.400541,657.765000,-13.626081,0.559598,-13.066483,14.383505,1.317021,0.160200,0.176663,0.179424,4605,116
0.052000,43.771682,645.147500,-432.009215,43.771682,-432.009215,5.223999,9.225000,38.547683,635.922500,-14.047105,0.573453,-13.473652,14.531336,1.057685,0.160200,0.173421,0.177288,4755,123
0.054000,45.040335,623.191750,-444.530316,45.040335,-444.530316,5.363525,7.275000,39.676810,615.916750,-14.454238,0.586565,-13.867672,14.687275,0.819602,0.160200,0.170445,0.173016,4882,97
0.056000,46.264449,600.619750,-456.611842,46.264449,-456.611842,5.508545,8.475000,40.755904,592.144750,-14.847077,0.598945,-14.248133,14.803821,0.555688,0.160200,0.167146,0.169812,5014,113
0.058000,47.442814,577.454250,-468.241844,47.442814,-468.241844,5.653564,7.200000,41.789250,570.254250,-15.225236,0.610603,-14.614633,14.921526,0.306893,0.160200,0.164036,0.168744,5146,96
0.060000,48.574266,553.717500,-479.408822,48.574266,-479.408822,5.793091,6.900000,42.781175,546.817500,-15.588338,0.621555,-14.966784,15.017592,0.050808,0.160200,0.160835,0.164472,5273,92
0.062000,49.657684,529.433000,-490.101734,49.657684,-490.101734,5.932617,7.050000,43.725067,522.383000,-15.936027,0.631814,-15.304213,15.094117,-0.210096,0.160200,0.157574,0.159132,5400,94
0.064000,50.691998,504.625250,-500.310006,50.691998,-500.310006,6.076538,6.675000,44.615460,497.950250,-16.267956,0.641398,-15.626559,15.156649,-0.469910,0.160200,0.154326,0.156996,5531,89
0.066000,51.676185,479.318500,-510.023544,51.676185,-510.023544,6.220459,6.525000,45.455726,472.793500,-16.583799,0.650323,-15.933476,15.201003,-0.732474,0.160200,0.151044,0.156996,5662,87
0.068000,52.609272,453.537750,-519.232741,52.609272,-519.232741,6.357788,7.575000,46.251484,445.962750,-16.883243,0.658607,-16.224636,15.222018,-1.002618,0.160200,0.147667,0.151656,5787,101
0.070000,53.490336,427.308250,-527.928493,53.490336,-527.928493,6.483032,6.000000,47.007304,421.308250,-17.165992,0.666270,-16.499722,15.247770,-1.251952,0.160200,0.144551,0.149520,5901,80
0.072000,54.318505,400.656500,-536.102199,54.318505,-536.102199,6.612671,5.775000,47.705834,394.881500,-17.431766,0.673329,-16.758437,15.246151,-1.512286,0.160200,0.141296,0.142044,6019,77
0.074000,55.092962,373.608500,-543.745778,55.092962,-543.745778,6.726929,6.225000,48.366033,367.383500,-17.680303,0.679803,-17.000500,15.227019,-1.773482,0.160200,0.138031,0.138840,6123,83
0.076000,55.812939,346.191000,-550.851670,55.812939,-550.851670,6.828003,5.550000,48.984936,340.641000,-17.911356,0.685710,-17.225647,15.202349,-2.023298,0.160200,0.134909,0.137772,6215,74
0.078000,56.477726,318.431250,-557.412850,56.477726,-557.412850,6.925781,5.025000,49.551945,313.406250,-18.124698,0.691068,-17.433630,15.160657,-2.272973,0.160200,0.131788,0.136704,6304,67
0.080000,57.086664,290.356250,-563.422828,57.086664,-563.422828,7.018066,4.425000,50.068598,285.931250,-18.320117,0.695894,-17.624223,15.104105,-2.520118,0.160200,0.128699,0.127092,6388,59
0.082000,57.639151,261.994500,-568.875663,57.639151,-568.875663,7.094971,4.050000,50.544180,257.944500,-18.497420,0.700205,-17.797215,15.033228,-2.763988,0.160200,0.125650,0.123888,6458,54
0.084000,58.134642,233.373750,-573.765962,58.134642,-573.765962,7.174072,4.425000,50.960570,228.948750,-18.656432,0.704016,-17.952416,14.939810,-3.012606,0.160200,0.122542,0.126024,6530,59
0.086000,58.572646,204.522000,-578.088888,58.572646,-578.088888,7.254272,3.450000,51.318374,201.072000,-18.796995,0.707340,-18.089655,14.838866,-3.250788,0.160200,0.119565,0.123888,6603,46
0.088000,58.952730,175.468250,-581.840169,58.952730,-581.840169,7.316895,3.525000,51.635835,171.943250,-18.918971,0.710192,-18.208779,14.718620,-3.490158,0.160200,0.116573,0.124956,6660,47
0.090000,59.274519,146.240750,-585.016093,59.274519,-585.016093,7.376221,2.700000,51.898298,143.540750,-19.022238,0.712582,-18.309656,14.589046,-3.720610,0.160200,0.113692,0.115344,6714,36
0.092000,59.537693,116.868500,-587.613520,59.537693,-587.613520,7.431152,3.225000,52.106541,113.643500,-19.106696,0.714520,-18.392176,14.434842,-3.957334,0.160200,0.110733,0.112140,6764,43
0.094000,59.741993,87.381000,-589.629883,59.741993,-589.629883,7.486084,2.700000,52.255909,84.681000,-19.172259,0.716014,-18.456245,14.271750,-4.184495,0.160200,0.107894,0.108936,6814,36
0.096000,59.887217,57.807000,-591.063187,59.887217,-591.063187,7.531128,2.775000,52.356089,55.032000,-19.218864,0.717070,-18.501794,14.090988,-4.410806,0.160200,0.105065,0.107868,6855,37
0.098000,59.973221,28.176000,-591.912014,59.973221,-591.912014,7.579468,2.625000,52.393753,25.551000,-19.246464,0.717694,-18.528771,13.895032,-4.633739,0.160200,0.102278,0.104664,6899,35
0.100000,59.999921,-1.483000,-592.175526,59.999921,-592.175526,7.623413,2.550000,52.376508,-4.033000,-19.255033,0.717887,-18.537146,13.683982,-4.853164,-0.160200,-0.220865,0.103596,6939,34
0.102000,59.967289,-31.140750,-591.853461,59.967289,-591.853461,7.666260,-1.950000,52.301029,-29.190750,-19.244560,0.717651,-18.526910,13.488588,-5.038322,-0.160200,-0.223179,-0.220008,6978,-26
0.104000,59.875358,-60.767500,-590.946139,59.875358,-590.946139,7.583862,-9.525000,52.291496,-51.242500,-19.215058,0.716984,-18.498074,13.332141,-5.165933,-0.160200,-0.224774,-0.223212,6903,-127
0.106000,59.724219,-90.334250,-589.454456,59.724219,-589.454456,7.386108,-11.625000,52.338111,-78.709250,-19.166555,0.715884,-18.450671,13.152591,-5.298080,-0.160200,-0.226426,-0.226416,6723,-155
0.108000,59.514021,-119.811500,-587.379888,59.514021,-587.379888,7.160889,-11.400000,52.353132,-108.411500,-19.099099,0.714346,-18.384753,12.949163,-5.435590,-0.160200,-0.228145,-0.226416,6518,-152
0.110000,59.244973,-149.170500,-584.724485,59.244973,-584.724485,6.944458,-13.500000,52.300515,-135.670500,-19.012756,0.712363,-18.300393,12.745084,-5.555309,-0.160200,-0.229641,-0.227484,6321,-180
0.112000,58.917339,-178.382000,-581.490875,58.917339,-581.490875,6.689575,-12.600000,52.227764,-165.782000,-18.907613,0.709928,-18.197685,12.515820,-5.681865,-0.160200,-0.231223,-0.226416,6089,-168
0.114000,58.531445,-207.416750,-577.682254,58.531445,-577.682254,6.472046,-12.900000,52.059399,-194.516750,-18.783773,0.707029,-18.076744,12.271136,-5.805608,-0.160200,-0.232770,-0.232824,5891,-172
0.116000,58.087672,-236.246500,-573.302388,58.087672,-573.302388,6.217163,-15.000000,51.870509,-221.246500,-18.641358,0.703657,-17.937702,12.035076,-5.902626,-0.160200,-0.233983,-0.230688,5659,-200
0.118000,57.586459,-264.842750,-568.355609,57.586459,-568.355609,5.941406,-15.075000,51.645053,-249.767750,-18.480510,0.699796,-17.780714,11.776935,-6.003778,-0.160200,-0.235247,-0.233892,5408,-201
0.120000,57.028301,-293.177250,-562.846808,57.028301,-562.846808,5.673340,-12.975000,51.354961,-280.202250,-18.301387,0.695435,-17.605953,11.488517,-6.117436,-0.160200,-0.236668,-0.237096,5164,-173
0.122000,56.413750,-321.221750,-556.781433,56.413750,-556.781433,5.431641,-12.825000,50.982109,-308.396750,-18.104167,0.690556,-17.413611,11.194070,-6.219542,-0.160200,-0.237944,-0.240300,4944,-171
0.124000,55.743414,-348.948750,-550.165481,55.743414,-550.165481,5.127319,-14.175000,50.616095,-334.773750,-17.889044,0.685144,-17.203901,10.914101,-6.289800,-0.160200,-0.238822,-0.239232,4667,-189
0.126000,55.017955,-376.330500,-543.005495,55.017955,-543.005495,4.828491,-14.100000,50.189464,-362.230500,-17.656232,0.679181,-16.977051,10.610725,-6.366326,-0.160200,-0.239779,-0.237096,4395,-188
0.128000,54.238092,-403.339750,-535.308555,54.238092,-535.308555,4.561523,-16.725000,49.676569,-386.614750,-17.405960,0.672650,-16.733311,10.306215,-6.427096,-0.160200,-0.240539,-0.240300,4152,-223
0.130000,53.404596,-429.950500,-527.082272,53.404596,-527.082272,4.317627,-15.900000,49.086969,-414.050500,-17.138477,0.665531,-16.472945,9.960321,-6.512625,-0.160200,-0.241608,-0.243504,3930,-212
0.132000,52.518290,-456.136500,-518.334780,52.518290,-518.334780,4.061646,-14.325000,48.456644,-441.811500,-16.854045,0.657807,-16.196238,9.601494,-6.594744,-0.160200,-0.242634,-0.241368,3697,-191
0.134000,51.580050,-481.871000,-509.074730,51.580050,-509.074730,3.783691,-16.050000,47.796359,-465.821000,-16.552948,0.649459,-15.903488,9.261013,-6.642475,-0.160200,-0.243231,-0.242436,3444,-214
0.136000,50.590806,-507.128750,-499.311279,50.590806,-499.311279,3.503540,-16.050000,47.087266,-491.078750,-16.235482,0.640469,-15.595013,8.899041,-6.695972,-0.160200,-0.243900,-0.245640,3189,-214
0.138000,49.551535,-531.885500,-489.054081,49.551535,-489.054081,3.266235,-15.900000,46.285300,-515.985500,-15.901961,0.630819,-15.271143,8.515205,-6.755938,-0.160200,-0.244649,-0.243504,2973,-212
0.140000,48.463264,-556.116250,-478.313278,48.463264,-478.313278,2.980591,-15.825000,45.482673,-540.291250,-15.552716,0.620491,-14.932225,8.135392,-6.796834,-0.160200,-0.245160,-0.243504,2713,-211
0.142000,47.327070,-579.796750,-467.099493,47.327070,-467.099493,2.679565,-14.325000,44.647505,-565.471750,-15.188091,0.609469,-14.578622,7.740952,-6.837670,-0.160200,-0.245671,-0.247776,2439,-191
0.144000,46.144077,-602.904250,-455.423814,46.144077,-455.423814,2.385132,-14.400000,43.758945,-588.504250,-14.808448,0.597739,-14.210709,7.347530,-6.863178,-0.160200,-0.245990,-0.241368,2171,-192
0.146000,44.915453,-625.415500,-443.297786,44.915453,-443.297786,2.083008,-16.950000,42.832445,-608.465500,-14.414161,0.585287,-13.828874,6.965617,-6.863256,-0.160200,-0.245991,-0.244572,1896,-226
0.148000,43.642415,-647.308250,-430.733401,43.642415,-430.733401,1.784180,-14.850000,41.858235,-632.458250,-14.005621,0.572101,-13.433520,6.543069,-6.890451,-0.160200,-0.246331,-0.244572,1624,-198
0.150000,42.326220,-668.560750,-417.743082,42.326220,-417.743082,1.474365,-14.700000,40.851855,-653.860750,-13.583231,0.558171,-13.025060,6.130181,-6.894878,-0.160200,-0.246386,-0.246708,1342,-196
0.152000,40.968172,-689.152250,-404.339676,40.968172,-404.339676,1.164551,-15.525000,39.803621,-673.627250,-13.147409,0.543489,-12.603919,5.717758,-6.886161,-0.160200,-0.246277,-0.247776,1060,-207
0.154000,39.569611,-709.062500,-390.536436,39.569611,-390.536436,0.854736,-17.100000,38.714875,-691.962500,-12.698586,0.528051,-12.170535,5.304721,-6.865814,-0.160200,-0.246023,-0.248844,778,-228
0.156000,38.131922,-728.271250,-376.347012,38.131922,-376.347012,0.541626,-15.450000,37.590296,-712.821250,-12.237206,0.511852,-11.725354,4.864685,-6.860669,-0.160200,-0.245958,-0.245640,493,-206
0.158000,36.656526,-746.760000,-361.785435,36.656526,-361.785435,0.228516,-14.250000,36.428010,-732.510000,-11.763726,0.494894,-11.268832,4.422946,-6.845885,-0.160200,-0.245774,-0.245640,208,-190
0.160000,35.144882,-764.510500,-346.866104,35.144882,-346.866104,-0.084595,-17.100000,35.229477,-747.410500,-11.278612,0.477179,-10.801433,4.005146,-6.796288,-0.160200,-0.245154,-0.241368,-77,-228
0.162000,33.598484,-781.504750,-331.603773,33.598484,-331.603773,-0.352661,-16.050000,33.951145,-765.454750,-10.782346,0.458713,-10.323633,3.544507,-6.779126,-0.160200,-0.244939,-0.247776,-321,-214
0.164000,32.018863,-797.726250,-316.013534,32.018863,-316.013534,-0.659180,-13.725000,32.678043,-784.001250,-10.275418,0.439505,-9.835912,3.081730,-6.754182,-0.160200,-0.244627,-0.246708,-600,-183
0.166000,30.407579,-813.159000,-300.110802,30.407579,-300.110802,-0.962402,-15.975000,31.369981,-797.184000,-9.758328,0.419569,-9.338760,2.647248,-6.691512,-0.160200,-0.243844,-0.245640,-876,-213
0.168000,28.766227,-827.787250,-283.911305,28.766227,-283.911305,-1.246948,-13.950000,30.013175,-813.837250,-9.231590,0.398919,-8.832671,2.175775,-6.656896,-0.160200,-0.243411,-0.240300,-1135,-186
0.170000,27.096430,-841.597500,-267.431059,27.096430,-267.431059,-1.551270,-14.475000,28.647700,-827.122500,-8.695722,0.377576,-8.318146,1.725546,-6.592601,-0.160200,-0.242608,-0.243504,-1412,-193
0.172000,25.399837,-854.575500,-250.686364,25.399837,-250.686364,-1.816040,-14.175000,27.215877,-840.400500,-8.151256,0.355562,-7.795694,1.257998,-6.537697,-0.160200,-0.241921,-0.243504,-1653,-189
0.174000,23.678128,-866.708000,-233.693775,23.678128,-233.693775,-2.123657,-16.500000,25.801785,-850.208000,-7.598729,0.332903,-7.265826,0.819320,-6.446506,-0.160200,-0.240781,-0.241368,-1933,-220
0.176000,21.933005,-877.983750,-216.470097,21.933005,-216.470097,-2.430176,-14.700000,24.363181,-863.283750,-7.038688,0.309629,-6.729059,0.351408,-6.377650,-0.160200,-0.239921,-0.241368,-2212,-196
0.178000,20.166193,-888.391250,-199.032362,20.166193,-199.032362,-2.713623,-13.875000,22.879816,-874.516250,-6.471687,0.285774,-6.185913,-0.115353,-6.301266,-0.160200,-0.238966,-0.242436,-2470,-185
0.180000,18.379440,-897.920250,-181.397812,18.379440,-181.397812,-2.999268,-14.025000,21.378708,-883.895250,-5.898286,0.261373,-5.636913,-0.573820,-6.210733,-0.160200,-0.237834,-0.241368,-2730,-187
0.182000,16.574512,-906.561500,-163.583885,16.574512,-163.583885,-3.246460,-15.900000,19.820972,-890.661500,-5.319053,0.236467,-5.082587,-1.028872,-6.111458,-0.160200,-0.236593,-0.238164,-2955,-212
0.184000,14.753194,-914.306250,-145.608198,14.753194,-145.608198,-3.552979,-14.100000,18.306173,-900.206250,-4.734560,0.211096,-4.523464,-1.492080,-6.015545,-0.160200,-0.235394,-0.239232,-3234,-188
0.186000,12.917287,-921.146750,-127.488525,12.917287,-127.488525,-3.835327,-13.275000,16.752614,-907.871750,-4.145385,0.185306,-3.960079,-1.952316,-5.912396,-0.160200,-0.234105,-0.236028,-3491,-177
0.188000,11.068607,-927.076250,-109.242785,11.068607,-109.242785,-4.095703,-14.475000,15.164310,-912.601250,-3.552111,0.159144,-3.392967,-2.401152,-5.794118,-0.160200,-0.232626,-0.232824,-3728,-193
0.190000,9.208982,-932.089000,-90.889019,9.208982,-90.889019,-4.367065,-15.075000,13.576047,-917.014000,-2.955325,0.132661,-2.822664,-2.847765,-5.670428,-0.160200,-0.231080,-0.232824,-3975,-201
0.192000,7.340251,-936.180250,-72.445377,7.340251,-72.445377,-4.638428,-14.775000,11.978679,-921.405250,-2.355616,0.105907,-2.249709,-3.296611,-5.546320,-0.160200,-0.229529,-0.229620,-4222,-197
0.194000,5.464261,-939.345750,-53.930097,5.464261,-53.930097,-4.919678,-15.525000,10.383939,-923.820750,-1.753578,0.078936,-1.674642,-3.730977,-5.405618,-0.160200,-0.227770,-0.229620,-4478,-207
0.196000,3.582868,-941.582500,-35.361488,3.582868,-35.361488,-5.171265,-12.375000,8.754133,-929.207500,-1.149805,0.051803,-1.098003,-4.195266,-5.293268,-0.160200,-0.226366,-0.228552,-4707,-165
0.198000,1.697931,-942.888000,-16.757912,1.697931,-16.757912,-5.442627,-12.750000,7.140558,-930.138000,-0.544896,0.024562,-0.520334,-4.624195,-5.144529,-0.160200,-0.224507,-0.226416,-4954,-170
0.200000,-0.188684,-943.261000,1.862236,-0.188684,1.862236,-5.671143,-11.700000,5.482459,-931.561000,0.060552,-0.002730,0.057822,-5.068218,-5.010396,-0.160200,-0.222830,-0.222144,-5162,-156
0.202000,-2.075113,-942.701250,20.480542,-2.075113,20.480542,-5.922729,-13.650000,3.847616,-929.051250,0.665940,-0.030016,0.635924,-5.478698,-4.842773,-0.160200,-0.220735,-0.226416,-5391,-182
0.204000,-3.959489,-941.209500,39.078596,-3.959489,39.078596,-6.167725,-12.150000,2.208236,-929.059500,1.270670,-0.057240,1.213430,-5.907944,-4.694514,-0.160200,-0.218881,-0.222144,-5614,-162
0.206000,-5.839951,-938.787000,57.638006,-5.839951,57.638006,-6.425903,-13.125000,0.585952,-925.662000,1.874143,-0.084345,1.789798,-6.308938,-4.519140,-0.160200,-0.216689,-0.222144,-5849,-175
0.208000,-7.714637,-935.436000,76.140422,-7.714637,76.140422,-6.625854,-13.425000,-1.088783,-922.011000,2.475763,-0.111277,2.364486,-6.721894,-4.357408,-0.160200,-0.214668,-0.220008,-6031,-179
0.210000,-9.581695,-931.160250,94.567545,-9.581695,94.567545,-6.887329,-13.425000,-2.694366,-917.735250,3.074935,-0.137981,2.936954,-7.112384,-4.175430,-0.160200,-0.212393,-0.244572,-6269,-179
0.212000,-11.439278,-925.963500,112.901154,-11.439278,112.901154,-7.113647,-11.700000,-4.325631,-914.263500,3.671066,-0.164404,3.506662,-7.515211,-4.008549,-0.160200,-0.210307,-0.211464,-6475,-156
0.214000,-13.285549,-919.851000,131.123121,-13.285549,131.123121,-7.338867,-12.975000,-5.946682,-906.876000,4.263567,-0.190495,4.073072,-7.888027,-3.814955,-0.160200,-0.207887,-0.210396,-6680,-173
0.216000,-15.118682,-912.829250,149.215425,-15.118682,149.215425,-7.564087,-10.275000,-7.554595,-902.554250,4.851852,-0.216205,4.635647,-8.278806,-3.643159,-0.160200,-0.205739,-0.208260,-6885,-137
0.218000,-16.936866,-904.904750,167.160178,-16.936866,167.160178,-7.786011,-10.125000,-9.150855,-894.779750,5.435339,-0.241486,5.193852,-8.642429,-3.448577,-0.160200,-0.203307,-0.205056,-7087,-135
0.220000,-18.738301,-896.085250,184.939632,-18.738301,184.939632,-7.969482,-12.525000,-10.768819,-883.560250,6.013451,-0.266295,5.747156,-8.987684,-3.240528,-0.160200,-0.200707,-0.201852,-7254,-167
0.222000,-20.521207,-886.379750,202.536209,-20.521207,202.536209,-8.163940,-9.975000,-12.357267,-876.404750,6.585617,-0.290590,6.295027,-9.353584,-3.058557,-0.160200,-0.198432,-0.202920,-7431,-133
0.224000,-22.283820,-875.797750,219.932506,-22.283820,219.932506,-8.361694,-11.400000,-13.922126,-864.397750,7.151271,-0.314332,6.836939,-9.679439,-2.842500,-0.160200,-0.195731,-0.197580,-7611,-152
0.226000,-24.024398,-864.349750,237.111321,-24.024398,237.111321,-8.569336,-10.875000,-15.455062,-853.474750,7.709853,-0.337485,7.372368,-10.004504,-2.632135,-0.160200,-0.193102,-0.193308,-7800,-145
0.228000,-25.741219,-852.047000,254.055668,-25.741219,254.055668,-8.778076,-10.800000,-16.963143,-841.247000,8.260811,-0.360017,7.900794,-10.313952,-2.413158,-0.160200,-0.190364,-0.192240,-7990,-144
0.230000,-27.432586,-838.901750,270.748790,-27.432586,270.748790,-8.967041,-10.650000,-18.465545,-828.251750,8.803601,-0.381899,8.421702,-10.616556,-2.194855,-0.160200,-0.187636,-0.193308,-8162,-142
0.232000,-29.096826,-824.926750,287.174181,-29.096826,287.174181,-9.149414,-8.775000,-19.947412,-816.151750,9.337684,-0.403105,8.934579,-10.920034,-1.985455,-0.160200,-0.185018,-0.187968,-8328,-117
0.234000,-30.732293,-810.136250,303.315597,-30.732293,303.315597,-9.329590,-8.550000,-21.402703,-801.586250,9.862535,-0.423614,9.438921,-11.199342,-1.760421,-0.160200,-0.182205,-0.185832,-8492,-114
0.236000,-32.337371,-794.544500,319.157079,-32.337371,319.157079,-9.504272,-9.675000,-22.833099,-784.869500,10.377632,-0.443406,9.934227,-11.457114,-1.522887,-0.160200,-0.179236,-0.184764,-8651,-129
0.238000,-33.910471,-778.167000,334.682960,-33.910471,334.682960,-9.665771,-9.375000,-24.244700,-768.792000,10.882468,-0.462466,10.420002,-11.714428,-1.294426,-0.160200,-0.176380,-0.178356,-8798,-125
0.240000,-35.450039,-761.020250,349.877888,-35.450039,349.877888,-9.825073,-9.150000,-25.624966,-751.870250,11.376543,-0.480782,10.895761,-11.957645,-1.061884,-0.160200,-0.173474,-0.175152,-8943,-122
0.242000,-36.954552,-743.120750,364.726837,-36.954552,364.726837,-9.971191,-7.650000,-26.983361,-735.470750,11.859367,-0.498346,11.361021,-12.198782,-0.837761,-0.160200,-0.170672,-0.173016,-9076,-102
0.244000,-38.422522,-724.486500,379.215124,-38.422522,379.215124,-10.118408,-8.175000,-28.304114,-716.311500,12.330465,-0.515153,11.815312,-12.410797,-0.595485,-0.160200,-0.167644,-0.173016,-9210,-109
0.246000,-39.852498,-705.136000,393.328421,-39.852498,393.328421,-10.256836,-7.500000,-29.595662,-697.636000,12.789369,-0.531199,12.258170,-12.618544,-0.360374,-0.160200,-0.164705,-0.163404,-9336,-100
0.248000,-41.243066,-685.088000,407.052774,-41.243066,407.052774,-10.398560,-7.050000,-30.844506,-678.038000,13.235627,-0.546486,12.689141,-12.808671,-0.119530,-0.160200,-0.161694,-0.161268,-9465,-94
0.250000,-42.592850,-664.362500,420.374610,-42.592850,420.374610,-10.532593,-7.200000,-32.060257,-657.162500,13.668797,-0.561017,13.107780,-12.981215,0.126564,-0.160200,-0.158618,-0.161268,-9587,-96
0.252000,-43.900516,-642.980250,433.280756,-43.900516,433.280756,-10.653442,-6.675000,-33.247074,-636.305250,14.088450,-0.574797,13.513652,-13.146312,0.367340,-0.160200,-0.155608,-0.155928,-9697,-89
0.254000,-45.164771,-620.962000,445.758450,-45.164771,445.758450,-10.792969,-7.050000,-34.371802,-613.912000,14.494171,-0.587836,13.906335,-13.284431,0.621904,-0.160200,-0.152426,-0.159132,-9824,-94
0.256000,-46.384364,-598.329500,457.795354,-46.384364,457.795354,-10.920410,-7.050000,-35.463954,-591.279500,14.885560,-0.600143,14.285418,-13.412351,0.873067,-0.160200,-0.149287,-0.154860,-9940,-94
0.258000,-47.558089,-575.105750,469.379563,-47.558089,469.379563,-11.054443,-5.850000,-36.503646,-569.255750,15.262230,-0.611730,14.650500,-13.530787,1.119713,-0.160200,-0.146204,-0.148452,-10062,-78
0.260000,-48.684787,-551.313500,480.499624,-48.684787,480.499624,-11.166504,-5.925000,-37.518283,-545.388500,15.623807,-0.622611,15.001195,-13.629794,1.371402,-0.160200,-0.143057,-0.148452,-10164,-79
0.262000,-49.763343,-526.975500,491.144540,-49.763343,491.144540,-11.267578,-5.325000,-38.495765,-521.650500,15.969934,-0.632802,15.337132,-13.719975,1.617156,-0.160200,-0.139986,-0.139908,-10256,-71
0.264000,-50.792689,-502.116500,501.303785,-50.792689,501.303785,-11.373047,-5.100000,-39.419642,-497.016500,16.300270,-0.642320,15.657950,-13.789868,1.868082,-0.160200,-0.136849,-0.140976,-10352,-68
0.266000,-51.771809,-476.761250,510.967313,-51.771809,510.967313,-11.471924,-5.625000,-40.299885,-471.136250,16.614486,-0.651180,15.963307,-13.839637,2.123670,-0.160200,-0.133654,-0.134568,-10442,-75
0.268000,-52.699734,-450.934500,520.125568,-52.699734,520.125568,-11.563110,-4.800000,-41.136624,-446.134500,16.912274,-0.659401,16.252873,-13.884149,2.368723,-0.160200,-0.130591,-0.133500,-10525,-64
0.270000,-53.575547,-424.661750,528.769493,-53.575547,528.769493,-11.644409,-4.650000,-41.931138,-420.011750,17.193338,-0.667003,16.526335,-13.909781,2.616554,-0.160200,-0.127493,-0.128160,-10599,-62
0.272000,-54.398381,-397.969000,536.890542,-54.398381,536.890542,-11.724609,-4.500000,-42.673772,-393.469000,17.457400,-0.674002,16.783398,-13.918899,2.864499,-0.160200,-0.124394,-0.124956,-10672,-60
0.274000,-55.167423,-370.883000,544.480683,-55.167423,544.480683,-11.792725,-4.350000,-43.374698,-366.533000,17.704199,-0.680418,17.023780,-13.914353,3.109428,-0.160200,-0.121332,-0.126024,-10734,-58
0.276000,-55.881913,-343.430000,551.532412,-55.881913,551.532412,-11.863037,-4.425000,-44.018876,-339.005000,17.933491,-0.686270,17.247221,-13.890816,3.356405,-0.160200,-0.118245,-0.119616,-10798,-59
0.278000,-56.541143,-315.637250,558.038754,-56.541143,558.038754,-11.937744,-3.825000,-44.603399,-311.812250,18.145050,-0.691574,17.453476,-13.854003,3.599473,-0.160200,-0.115207,-0.117480,-10866,-51
0.280000,-57.144462,-287.532750,563.993277,-57.144462,563.993277,-11.998169,-3.150000,-45.146293,-284.382750,18.338666,-0.696348,17.642318,-13.804638,3.837680,-0.160200,-0.112229,-0.117480,-10921,-42
0.282000,-57.691274,-259.143750,569.390091,-57.691274,569.390091,-12.061890,-3.150000,-45.629384,-255.993750,18.514147,-0.700608,17.813539,-13.732918,4.080621,-0.160200,-0.109192,-0.108936,-10979,-42
0.284000,-58.181037,-230.498500,574.223861,-58.181037,574.223861,-12.121216,-2.925000,-46.059821,-227.573500,18.671321,-0.704370,17.966951,-13.647196,4.319755,-0.160200,-0.106203,-0.111072,-11033,-39
0.286000,-58.613268,-201.625250,578.489806,-58.613268,578.489806,-12.177246,-2.625000,-46.436022,-199.000250,18.810031,-0.707647,18.102384,-13.546206,4.556179,-0.160200,-0.103248,-0.102528,-11084,-35
0.288000,-58.987538,-172.552500,582.183708,-58.987538,582.183708,-12.227783,-2.625000,-46.759755,-169.927500,18.930141,-0.710452,18.219689,-13.427993,4.791697,-0.160200,-0.100304,-0.101460,-11130,-35
0.290000,-59.303478,-143.309500,585.301915,-59.303478,585.301915,-12.281616,-2.400000,-47.021862,-140.909500,19.031532,-0.712796,18.318736,-13.294029,5.024708,-0.160200,-0.097391,-0.099324,-11179,-32
0.292000,-59.560776,-113.924750,587.841342,-59.560776,587.841342,-12.325562,-2.475000,-47.235214,-111.449750,19.114103,-0.714689,18.399414,-13.144216,5.255198,-0.160200,-0.094510,-0.099324,-11219,-33
0.294000,-59.759177,-84.427000,589.799479,-59.759177,589.799479,-12.361816,-2.100000,-47.397361,-82.327000,19.177774,-0.716139,18.461635,-12.983351,5.478284,-0.160200,-0.091721,-0.093984,-11252,-28
0.296000,-59.898484,-54.846000,591.174389,-59.898484,591.174389,-12.400269,-1.875000,-47.498215,-52.971000,19.222480,-0.717152,18.505328,-12.804811,5.700517,-0.160200,-0.088944,-0.093984,-11287,-25
0.298000,-59.978561,-25.210750,591.964713,-59.978561,591.964713,-12.431030,-1.725000,-47.547531,-23.485750,19.248178,-0.717732,18.530446,-12.611876,5.918570,-0.160200,-0.086218,-0.089712,-11315,-23
0.300000,-59.999327,4.449500,592.169669,-59.999327,592.169669,-12.460693,-1.500000,-47.538634,5.949500,19.254842,-0.717883,18.536960,-12.404050,6.132910,0.160200,0.236861,-0.081168,-11342,-20
0.302000,-59.960763,34.105250,591.789055,-59.960763,591.789055,-12.483765,3.150000,-47.476998,30.955250,19.242466,-0.717603,18.524863,-12.213341,6.311522,0.160200,0.239094,0.236028,-11363,42
0.304000,-59.862906,63.727250,590.823247,-59.862906,590.823247,-12.359619,9.975000,-47.503287,53.752250,19.211062,-0.716894,18.494169,-12.061070,6.433099,0.160200,0.240614,0.238164,-11250,133
0.306000,-59.705854,93.286250,589.273200,-59.705854,589.273200,-12.126709,14.475000,-47.579145,78.811250,19.160661,-0.715750,18.444911,-11.905985,6.538926,0.160200,0.241937,0.240300,-11038,193
0.308000,-59.489761,122.753250,587.140446,-59.489761,587.140446,-11.882812,13.950000,-47.606949,108.803250,19.091313,-0.714168,18.377145,-11.703880,6.673265,0.160200,0.243616,0.239232,-10816,186
0.310000,-59.214841,152.098750,584.427095,-59.214841,584.427095,-11.625732,14.775000,-47.589109,137.323750,19.003087,-0.712140,18.290946,-11.500099,6.790847,0.160200,0.245086,0.249912,-10582,197
0.312000,-58.881366,181.293750,581.135831,-58.881366,581.135831,-11.335693,15.750000,-47.545673,165.543750,18.896069,-0.709659,18.186410,-11.291715,6.894695,0.160200,0.246384,0.242436,-10318,210
0.314000,-58.489666,210.309500,577.269906,-58.489666,577.269906,-11.070923,14.475000,-47.418743,195.834500,18.770365,-0.706714,18.063652,-11.047015,7.016636,0.160200,0.247908,0.245640,-10077,193
0.316000,-58.040128,239.117250,572.833145,-58.040128,572.833145,-10.770996,16.575000,-47.269132,222.542250,18.626101,-0.703293,17.922808,-10.821392,7.101416,0.160200,0.248968,0.244572,-9804,221
0.318000,-57.533197,267.688500,567.829934,-57.533197,567.829934,-10.471069,16.050000,-47.062128,251.638500,18.463417,-0.699383,17.764034,-10.564068,7.199966,0.160200,0.250200,0.249912,-9531,214
0.320000,-56.969374,295.995250,562.265222,-56.969374,562.265222,-10.201904,15.450000,-46.767470,280.545250,18.282477,-0.694970,17.587506,-10.285120,7.302387,0.160200,0.251480,0.253116,-9286,206
0.322000,-56.349216,324.009250,556.144510,-56.349216,556.144510,-9.912964,14.625000,-46.436252,309.384250,18.083457,-0.690039,17.393418,-9.997073,7.396345,0.160200,0.252654,0.248844,-9023,195
0.324000,-55.673337,351.702750,549.473852,-55.673337,549.473852,-9.605347,14.700000,-46.067990,337.002750,17.866556,-0.684573,17.181983,-9.707849,7.474134,0.160200,0.253627,0.248844,-8743,196
0.326000,-54.942405,379.048500,542.259843,-54.942405,542.259843,-9.315308,15.300000,-45.627097,363.748500,17.631987,-0.678554,16.953433,-9.405703,7.547730,0.160200,0.254547,0.254184,-8479,204
0.328000,-54.157143,406.019250,534.509617,-54.157143,534.509617,-9.054932,15.225000,-45.102211,390.794250,17.379982,-0.671964,16.708018,-9.079473,7.628545,0.160200,0.255557,0.252048,-8242,203
0.330000,-53.318328,432.588750,526.230838,-53.318328,526.230838,-8.745117,17.775000,-44.573211,414.813750,17.110791,-0.664786,16.446005,-8.773293,7.672712,0.160200,0.256109,0.255252,-7960,237
0.332000,-52.426788,458.730500,517.431693,-52.426788,517.431693,-8.456177,15.975000,-43.970611,442.755500,16.824681,-0.657001,16.167680,-8.420463,7.747217,0.160200,0.257040,0.258456,-7697,213
0.334000,-51.483406,484.418500,508.120883,-51.483406,508.120883,-8.168335,15.000000,-43.315071,469.418500,16.521933,-0.648590,15.873343,-8.062700,7.810643,0.160200,0.257833,0.258456,-7435,200
0.336000,-50.489114,509.627750,498.307614,-50.489114,498.307614,-7.910156,15.300000,-42.578958,494.327750,16.202847,-0.639534,15.563313,-7.696086,7.867226,0.160200,0.258540,0.255252,-7200,204
0.338000,-49.444895,534.332750,488.001591,-49.444895,488.001591,-7.617920,17.775000,-41.826975,516.557750,15.867739,-0.629817,15.237922,-7.344023,7.893899,0.160200,0.258874,0.257388,-6934,237
0.340000,-48.351783,558.509250,477.213005,-48.351783,477.213005,-7.356445,17.625000,-40.995338,540.884250,15.516940,-0.619420,14.897520,-6.956470,7.941050,0.160200,0.259463,0.259524,-6696,235
0.342000,-47.210858,582.133750,465.952524,-47.210858,465.952524,-7.072998,17.100000,-40.137860,565.033750,15.150797,-0.608328,14.542468,-6.563387,7.979081,0.160200,0.259939,0.259524,-6438,228
0.344000,-46.023248,605.182500,454.231283,-46.023248,454.231283,-6.757690,18.075000,-39.265558,587.107500,14.769672,-0.596527,14.173145,-6.180915,7.992230,0.160200,0.260103,0.260592,-6151,241
0.346000,-44.790128,627.633000,442.060872,-44.790128,442.060872,-6.421509,16.725000,-38.368619,610.908000,14.373942,-0.584002,13.789940,-5.779939,8.010001,0.160200,0.260325,0.258456,-5845,223
0.348000,-43.512716,649.462750,429.453327,-43.512716,429.453327,-6.099609,17.100000,-37.413107,632.362750,13.963998,-0.570742,13.393256,-5.380004,8.013253,0.160200,0.260366,0.263796,-5552,228
0.350000,-42.192277,670.650000,416.421115,-42.192277,416.421115,-5.800781,17.475000,-36.391496,653.175000,13.540246,-0.556737,12.983509,-4.967250,8.016260,0.160200,0.260403,0.260592,-5280,233
0.352000,-40.830116,691.174250,402.977123,-40.830116,402.977123,-5.521729,16.575000,-35.308387,674.599250,13.103104,-0.541980,12.561125,-4.534123,8.027002,0.160200,0.260538,0.260592,-5026,221
0.354000,-39.427580,711.015250,389.134644,-39.427580,389.134644,-5.247070,18.150000,-34.180510,692.865250,12.653006,-0.526465,12.126541,-4.111325,8.015216,0.160200,0.260390,0.259524,-4776,242
0.356000,-37.986055,730.153000,374.907367,-37.986055,374.907367,-4.928467,18.450000,-33.057588,711.703000,12.190395,-0.510191,11.680205,-3.685832,7.994372,0.160200,0.260130,0.262728,-4486,246
0.358000,-36.506968,748.568500,360.309360,-36.506968,360.309360,-4.640625,15.750000,-31.866343,732.818500,11.715730,-0.493156,11.222573,-3.226551,7.996023,0.160200,0.260150,0.261660,-4224,210
0.360000,-34.991781,766.244000,345.355060,-34.991781,345.355060,-4.329712,15.750000,-30.662069,750.494000,11.229480,-0.475366,10.754114,-2.787874,7.966239,0.160200,0.259778,0.264864,-3941,210
0.362000,-33.441992,783.162000,330.059253,-33.441992,330.059253,-4.018799,18.450000,-29.423193,764.712000,10.732125,-0.456825,10.275300,-2.364277,7.911022,0.160200,0.259088,0.259524,-3658,246
0.364000,-31.859133,799.305250,314.437066,-31.859133,314.437066,-3.737549,15.900000,-28.121584,783.405250,10.224158,-0.437544,9.786613,-1.893013,7.893600,0.160200,0.258870,0.259524,-3402,212
0.366000,-30.244771,814.658000,298.503945,-30.244771,298.503945,-3.424438,16.275000,-26.820333,798.383000,9.706080,-0.417536,9.288545,-1.447782,7.840763,0.160200,0.258210,0.262728,-3117,217
0.368000,-28.600501,829.205500,282.275647,-28.600501,282.275647,-3.119019,18.075000,-25.481482,811.130500,9.178405,-0.396816,8.781589,-1.008277,7.773312,0.160200,0.257366,0.256320,-2839,241
0.370000,-26.927949,842.933000,265.768219,-26.927949,265.768219,-2.791626,16.050000,-24.136323,826.883000,8.641654,-0.375404,8.266249,-0.546142,7.720107,0.160200,0.256701,0.262728,-2541,214
0.372000,-25.228769,855.827000,248.997985,-25.228769,248.997985,-2.520264,16.500000,-22.708505,839.327000,8.096357,-0.353324,7.743033,-0.085465,7.657568,0.160200,0.255920,0.254184,-2294,220
0.374000,-23.504641,867.874500,231.981527,-23.504641,231.981527,-2.175293,15.225000,-21.329348,852.649500,7.543054,-0.330603,7.212451,0.368606,7.581057,0.160200,0.254963,0.255252,-1980,203
0.376000,-21.757271,879.063750,214.735673,-21.757271,214.735673,-1.863281,15.000000,-19.893990,864.063750,6.982292,-0.307269,6.675022,0.824069,7.499091,0.160200,0.253939,0.256320,-1696,200
0.378000,-19.988386,889.384000,197.277477,-19.988386,197.277477,-1.536987,14.625000,-18.451399,874.759000,6.414626,-0.283358,6.131268,1.276405,7.407673,0.160200,0.252796,0.252048,-1399,195
0.380000,-18.199735,898.824500,179.624202,-18.199735,179.624202,-1.268921,17.325000,-16.930814,881.499500,5.840616,-0.258905,5.581711,1.721551,7.303262,0.160200,0.251491,0.252048,-1155,231
0.382000,-16.393088,907.376250,161.793304,-16.393088,161.793304,-0.974487,14.325000,-15.418601,893.051250,5.260831,-0.233950,5.026881,2.198094,7.224975,0.160200,0.250512,0.254184,-887,191
0.384000,-14.570230,915.031000,143.802416,-14.570230,143.802416,-0.692139,17.175000,-13.878091,897.856000,4.675844,-0.208535,4.467309,2.634942,7.102250,0.160200,0.248978,0.248844,-630,229
0.386000,-12.732964,921.780750,125.669328,-12.732964,125.669328,-0.407593,15.300000,-12.325371,906.480750,4.086233,-0.182706,3.903527,3.101655,7.005182,0.160200,0.247765,0.253116,-371,204
0.388000,-10.883107,927.618750,107.411971,-10.883107,107.411971,-0.088989,17.625000,-10.794118,909.993750,3.492581,-0.156510,3.336071,3.527061,6.863133,0.160200,0.245989,0.247776,-81,235
0.390000,-9.022489,932.539750,89.048399,-9.022489,89.048399,0.190063,17.100000,-9.212552,915.439750,2.895476,-0.129997,2.765479,3.979134,6.744613,0.160200,0.244508,0.247776,173,228
0.392000,-7.152948,936.538750,70.596771,-7.152948,70.596771,0.503174,16.125000,-7.656122,920.413750,2.295507,-0.103219,2.192288,4.421332,6.613620,0.160200,0.242870,0.244572,458,215
0.394000,-5.276334,939.611250,52.075334,-5.276334,52.075334,0.803101,16.125000,-6.079435,923.486250,1.693269,-0.076229,1.617039,4.855558,6.472597,0.160200,0.241107,0.243504,731,215
0.396000,-3.394503,941.754750,33.502401,-3.394503,33.502401,1.046997,14.475000,-4.441500,927.279750,1.089356,-0.049082,1.040273,5.310852,6.351125,0.160200,0.239589,0.243504,953,193
0.398000,-1.509315,942.967250,14.896339,-1.509315,14.896339,1.319458,15.975000,-2.828773,926.992250,0.484366,-0.021834,0.462532,5.731056,6.193587,0.160200,0.237620,0.241368,1201,213
0.400000,0.377366,943.247000,-3.724453,0.377366,-3.724453,1.560059,15.525000,-1.182693,927.722000,-0.121103,0.005460,-0.115644,6.167093,6.051449,0.160200,0.235843,0.234960,1420,207
0.402000,2.263673,942.594000,-22.341562,2.263673,-22.341562,1.810547,16.275000,0.453126,926.319000,-0.726453,0.032742,-0.693711,6.585555,5.891844,0.160200,0.233848,0.232824,1648,217
0.404000,4.147742,941.009250,-40.936579,4.147742,-40.936579,2.083008,15.150000,2.064734,925.859250,-1.331084,0.059956,-1.271127,7.004263,5.733136,0.160200,0.231864,0.232824,1896,202
0.406000,6.027710,938.493750,-59.491115,6.027710,-59.491115,2.367554,14.250000,3.660156,924.243750,-1.934398,0.087047,-1.847351,7.410665,5.563314,0.160200,0.229741,0.229620,2155,190
0.408000,7.901717,935.050000,-77.986823,7.901717,-77.986823,2.640015,14.925000,5.261702,920.125000,-2.535800,0.113959,-2.421842,7.801195,5.379353,0.160200,0.227442,0.229620,2403,199
0.410000,9.767910,930.681750,-96.405414,9.767910,-96.405414,2.876221,14.325000,6.891689,916.356750,-3.134695,0.140637,-2.994058,8.201617,5.207559,0.160200,0.225294,0.225348,2618,191
0.412000,11.624444,925.393250,-114.728673,11.624444,-114.728673,3.143188,14.100000,8.481256,911.293250,-3.730489,0.167029,-3.563460,8.582415,5.018954,0.160200,0.222937,0.223212,2861,188
0.414000,13.469483,919.189750,-132.938482,13.469483,-132.938482,3.390381,11.850000,10.079102,907.339750,-4.322595,0.193084,-4.129511,8.973129,4.843618,0.160200,0.220745,0.223212,3086,158
0.416000,15.301203,912.077500,-151.016834,15.301203,-151.016834,3.673828,12.525000,11.627375,899.552500,-4.910426,0.218753,-4.691673,9.324101,4.632428,0.160200,0.218105,0.218940,3344,167
0.418000,17.117793,904.063000,-168.945853,17.117793,-168.945853,3.932007,14.400000,13.185786,889.663000,-5.493401,0.243989,-5.249412,9.663050,4.413638,0.160200,0.215370,0.214668,3579,192
0.420000,18.917455,895.154250,-186.707808,18.917455,-186.707808,4.152832,13.950000,14.764623,881.204250,-6.070945,0.268749,-5.802196,10.017335,4.215139,0.160200,0.212889,0.213600,3780,186
0.422000,20.698410,885.360750,-204.285136,20.698410,-204.285136,4.401123,11.775000,16.297287,873.585750,-6.642485,0.292990,-6.349495,10.365399,4.015904,0.160200,0.210399,0.209328,4006,157
0.424000,22.458898,874.691750,-221.660456,22.458898,-221.660456,4.615356,13.650000,17.843542,861.041750,-7.207456,0.316674,-6.890782,10.682634,3.791851,0.160200,0.207598,0.206124,4201,182
0.426000,24.197177,863.157750,-238.816585,24.197177,-238.816585,4.832886,11.700000,19.364291,851.457750,-7.765301,0.339766,-7.425534,11.013856,3.588322,0.160200,0.205054,0.201852,4399,156
0.428000,25.911529,850.770250,-255.736559,25.911529,-255.736559,5.053711,11.775000,20.857818,838.995250,-8.315467,0.362235,-7.953232,11.317856,3.364624,0.160200,0.202258,0.206124,4600,157
0.430000,27.600258,837.541250,-272.403647,27.600258,-272.403647,5.245972,11.250000,22.354286,826.291250,-8.857409,0.384050,-8.473359,11.620940,3.147580,0.160200,0.199545,0.203988,4775,150
0.432000,29.261694,823.484250,-288.801367,29.261694,-288.801367,5.450317,11.175000,23.811377,812.309250,-9.390594,0.405188,-8.985406,11.904792,2.919386,0.160200,0.196692,0.199716,4961,149
0.434000,30.894195,808.613000,-304.913503,30.894195,-304.913503,5.666748,11.775000,25.227447,796.838000,-9.914492,0.425625,-9.488866,12.167509,2.678642,0.160200,0.193683,0.197580,5158,157
0.436000,32.496146,792.941750,-320.724125,32.496146,-320.724125,5.865601,10.875000,26.630545,782.066750,-10.428586,0.445345,-9.983241,12.431716,2.448475,0.160200,0.190806,0.191172,5339,145
0.438000,34.065962,776.486750,-336.217596,34.065962,-336.217596,6.046875,10.500000,28.019087,765.986750,-10.932368,0.464331,-10.468037,12.682976,2.214939,0.160200,0.187887,0.194376,5504,140
0.440000,35.602093,759.264000,-351.378597,35.602093,-351.378597,6.253418,9.675000,29.348675,749.589000,-11.425339,0.482573,-10.942767,12.916584,1.973817,0.160200,0.184873,0.192240,5692,129
0.442000,37.103018,741.290000,-366.192135,37.103018,-366.192135,6.425903,9.225000,30.677115,732.065000,-11.907013,0.500061,-11.406952,13.142028,1.735076,0.160200,0.181888,0.185832,5849,123
0.444000,38.567253,722.583250,-380.643561,38.567253,-380.643561,6.608276,9.300000,31.958977,713.283250,-12.376912,0.516792,-11.860120,13.346497,1.486377,0.160200,0.178780,0.181560,6015,124
0.446000,39.993351,703.162250,-394.718586,39.993351,-394.718586,6.777466,8.850000,33.215885,694.312250,-12.834572,0.532762,-12.301810,13.543112,1.241303,0.160200,0.175716,0.176220,6169,118
0.448000,41.379902,683.045750,-408.403291,41.379902,-408.403291,6.924683,9.525000,34.455219,673.520750,-13.279540,0.547973,-12.731567,13.722417,0.990850,0.160200,0.172586,0.175152,6303,127
0.450000,42.725534,662.253500,-421.684145,42.725534,-421.684145,7.093872,7.950000,35.631662,654.303500,-13.711377,0.562429,-13.148949,13.896247,0.747299,0.160200,0.169541,0.174084,6457,106
0.452000,44.028916,640.806500,-434.548013,44.028916,-434.548013,7.246582,8.175000,36.782334,632.631500,-14.129655,0.576134,-13.553521,14.046194,0.492673,0.160200,0.166358,0.171948,6596,109
0.454000,45.288760,618.726000,-446.982176,45.288760,-446.982176,7.387207,7.425000,37.901553,611.301000,-14.533962,0.589099,-13.944862,14.190289,0.245427,0.160200,0.163268,0.165540,6724,99
0.456000,46.503820,596.033500,-458.974338,46.503820,-458.974338,7.525635,7.200000,38.978185,588.833500,-14.923896,0.601333,-14.322562,14.315298,-0.007264,0.160200,0.160109,0.166608,6850,96
0.458000,47.672894,572.751750,-470.512641,47.672894,-470.512641,7.656372,7.275000,40.016522,565.476750,-15.299072,0.612849,-14.686223,14.424073,-0.262150,0.160200,0.156923,0.161268,6969,97
0.460000,48.794827,548.903750,-481.585675,48.794827,-481.585675,7.784912,6.075000,41.009915,542.828750,-15.659120,0.623661,-15.035459,14.526030,-0.509429,0.160200,0.153832,0.156996,7086,81
0.462000,49.868509,524.512750,-492.182489,49.868509,-492.182489,7.920044,7.050000,41.948465,517.462750,-16.003684,0.633784,-15.369900,14.594654,-0.775246,0.160200,0.150509,0.154860,7209,94
0.464000,50.892878,499.603000,-502.292607,50.892878,-502.292607,8.037598,7.050000,42.855280,492.553000,-16.332422,0.643235,-15.689187,14.658155,-1.031032,0.160200,0.147312,0.150588,7316,94
0.466000,51.866921,474.199250,-511.906029,51.866921,-511.906029,8.160645,5.925000,43.706276,468.274250,-16.645010,0.652030,-15.992979,14.711447,-1.281532,0.160200,0.144181,0.146316,7428,79
0.468000,52.789675,448.326750,-521.013250,52.789675,-521.013250,8.262817,6.000000,44.526858,442.326750,-16.941138,0.660189,-16.280949,14.745127,-1.535821,0.160200,0.141002,0.142044,7521,80
0.470000,53.660228,422.011000,-529.605264,53.660228,-529.605264,8.366089,6.450000,45.294139,415.561000,-17.220513,0.667729,-16.552784,14.759141,-1.793643,0.160200,0.137779,0.140976,7615,86
0.472000,54.477719,395.277750,-537.673575,54.477719,-537.673575,8.471558,5.325000,46.006161,389.952750,-17.482861,0.674670,-16.808191,14.766769,-2.041422,0.160200,0.134682,0.137772,7711,71
0.474000,55.241339,368.153750,-545.210204,55.241339,-545.210204,8.578125,4.950000,46.663214,363.203750,-17.727920,0.681029,-17.046891,14.752041,-2.294850,0.160200,0.131514,0.134568,7808,66
0.476000,55.950334,340.665500,-552.207699,55.950334,-552.207699,8.675903,5.475000,47.274431,335.190500,-17.955449,0.686824,-17.268624,14.716488,-2.552136,0.160200,0.128298,0.130296,7897,73
0.478000,56.604001,312.840500,-558.659140,56.604001,-558.659140,8.769287,5.700000,47.834714,307.140500,-18.165222,0.692075,-17.473147,14.667344,-2.805803,0.160200,0.125127,0.129228,7982,76
0.480000,57.201696,284.706250,-564.558147,57.201696,-564.558147,8.853882,4.275000,48.347814,280.431250,-18.357033,0.696797,-17.660236,14.615208,-3.045028,0.160200,0.122137,0.124956,8059,57
0.482000,57.742826,256.290250,-569.898888,57.742826,-569.898888,8.934082,4.650000,48.808744,251.640250,-18.530691,0.701006,-17.829685,14.534880,-3.294805,0.160200,0.119015,0.126024,8132,62
0.484000,58.226857,227.620750,-574.676082,58.226857,-574.676082,9.016479,4.050000,49.210378,223.570750,-18.686025,0.704719,-17.981306,14.444065,-3.537241,0.160200,0.115984,0.119616,8207,54
0.486000,58.653309,198.726500,-578.885003,58.653309,-578.885003,9.083496,3.525000,49.569813,195.201500,-18.822881,0.707948,-18.114933,14.340110,-3.774823,0.160200,0.113015,0.114276,8268,47
0.488000,59.021763,169.635750,-582.521491,59.021763,-582.521491,9.149414,3.900000,49.872349,165.735750,-18.941124,0.710707,-18.230418,14.213604,-4.016814,0.160200,0.109990,0.115344,8328,52
0.490000,59.331852,140.376750,-585.581948,59.331852,-585.581948,9.212036,3.525000,50.119816,136.851750,-19.040637,0.713005,-18.327632,14.076743,-4.250890,0.160200,0.107064,0.113208,8385,47
0.492000,59.583270,110.979500,-588.063350,59.583270,-588.063350,9.271362,3.675000,50.311908,107.304500,-19.121322,0.714854,-18.406468,13.920753,-4.485715,0.160200,0.104129,0.105732,8439,49
0.494000,59.775770,81.472250,-589.963242,59.775770,-589.963242,9.321899,3.075000,50.453871,78.397250,-19.183099,0.716260,-18.466839,13.756108,-4.710730,0.160200,0.101316,0.104664,8485,41
0.496000,59.909159,51.884250,-591.279745,59.909159,-591.279745,9.370239,2.325000,50.538920,49.559250,-19.225906,0.717229,-18.508676,13.577047,-4.931629,0.160200,0.098555,0.108936,8529,31
0.498000,59.983307,22.245500,-592.011558,59.983307,-592.011558,9.411987,2.550000,50.571320,19.695500,-19.249701,0.717767,-18.531934,13.377041,-5.154893,0.160200,0.095764,0.098256,8567,34
0.500000,59.998141,-7.415500,-592.157957,59.998141,-592.157957,9.452637,2.625000,50.545504,-10.040500,-19.254461,0.717874,-18.536587,13.162686,-5.373901,-0.160200,-0.227374,0.097188,8604,35
0.502000,59.953645,-37.069500,-591.718797,59.953645,-591.718797,9.485596,-3.075000,50.468049,-33.994500,-19.240182,0.717552,-18.522630,12.975178,-5.547452,-0.160200,-0.229543,-0.224280,8634,-41
0.504000,59.849863,-66.686750,-590.694512,59.849863,-590.694512,9.411987,-8.100000,50.437876,-58.586750,-19.206876,0.716799,-18.490077,12.795592,-5.694485,-0.160200,-0.231381,-0.228552,8567,-108
0.506000,59.686898,-96.237750,-589.086116,59.686898,-589.086116,9.236206,-12.525000,50.450692,-83.712750,-19.154578,0.715612,-18.438966,12.623535,-5.815431,-0.160200,-0.232893,-0.232824,8407,-167
0.508000,59.464912,-125.693750,-586.895198,59.464912,-586.895198,8.989014,-12.525000,50.475898,-113.168750,-19.083339,0.713985,-18.369353,12.424492,-5.944861,-0.160200,-0.234511,-0.232824,8182,-167
0.510000,59.184123,-155.025500,-584.123926,59.184123,-584.123926,8.769287,-14.175000,50.414836,-140.850500,-18.993229,0.711913,-18.281316,12.215251,-6.066065,-0.160200,-0.236026,-0.234960,7982,-189
0.512000,58.844810,-184.203750,-580.775039,58.844810,-580.775039,8.514404,-12.675000,50.330406,-171.528750,-18.884337,0.709386,-18.174952,11.978973,-6.195979,-0.160200,-0.237650,-0.234960,7750,-169
0.514000,58.447308,-213.200000,-576.851850,58.447308,-576.851850,8.250732,-14.625000,50.196576,-198.575000,-18.756772,0.706393,-18.050379,11.755118,-6.295261,-0.160200,-0.238891,-0.236028,7510,-195
0.516000,57.992010,-241.985500,-572.358237,57.992010,-572.358237,8.011230,-14.250000,49.980780,-227.735500,-18.610659,0.702924,-17.907735,11.495044,-6.412691,-0.160200,-0.240359,-0.240300,7292,-190
0.518000,57.479366,-270.531750,-567.298644,57.479366,-567.298644,7.765137,-13.275000,49.714229,-257.256750,-18.446142,0.698965,-17.747177,11.219164,-6.528014,-0.160200,-0.241800,-0.240300,7068,-177
0.520000,56.909883,-298.810250,-561.678075,56.909883,-561.678075,7.497070,-15.600000,49.412813,-283.210250,-18.263385,0.694501,-17.568884,10.959064,-6.609821,-0.160200,-0.242823,-0.239232,6824,-208
0.522000,56.284125,-326.793250,-555.502087,56.284125,-555.502087,7.221313,-14.475000,49.062812,-312.318250,-18.062568,0.689517,-17.373051,10.664221,-6.708830,-0.160200,-0.244060,-0.244572,6573,-193
0.524000,55.602710,-354.453500,-548.776788,55.602710,-548.776788,6.976318,-14.550000,48.626392,-339.903500,-17.843890,0.683996,-17.159894,10.357385,-6.802509,-0.160200,-0.245231,-0.245640,6350,-194
0.526000,54.866311,-381.763000,-541.508828,54.866311,-541.508828,6.721436,-16.050000,48.144875,-365.713000,-17.607567,0.677921,-16.929646,10.051141,-6.878506,-0.160200,-0.246181,-0.244572,6118,-214
0.528000,54.075658,-408.694750,-533.705393,54.075658,-533.705393,6.444580,-17.025000,47.631078,-391.669750,-17.353832,0.671273,-16.682559,9.735416,-6.947143,-0.160200,-0.247039,-0.243504,5866,-227
0.530000,53.231532,-435.222750,-525.374201,53.231532,-525.374201,6.191895,-14.550000,47.039637,-420.672750,-17.082937,0.664035,-16.418902,9.378098,-7.040803,-0.160200,-0.248210,-0.250980,5636,-194
0.532000,52.334767,-461.320250,-516.523489,52.334767,-516.523489,5.908447,-15.600000,46.426320,-445.720250,-16.795150,0.656188,-16.138961,9.042668,-7.096294,-0.160200,-0.248904,-0.249912,5378,-208
0.534000,51.386251,-486.961250,-507.162010,51.386251,-507.162010,5.637085,-16.650000,45.749166,-470.311250,-16.490754,0.647713,-15.843041,8.693712,-7.149329,-0.160200,-0.249567,-0.253116,5131,-222
0.536000,50.386922,-512.121000,-497.299021,50.386922,-497.299021,5.372314,-17.475000,45.014608,-494.646000,-16.170052,0.638592,-15.531459,8.331516,-7.199943,-0.160200,-0.250199,-0.249912,4890,-233
0.538000,49.337767,-536.774500,-486.944275,49.337767,-486.944275,5.117432,-14.550000,44.220335,-522.224500,-15.833359,0.628808,-15.204552,7.931042,-7.273510,-0.160200,-0.251119,-0.250980,4658,-194
0.540000,48.239824,-560.897000,-476.108012,48.239824,-476.108012,4.832886,-15.075000,43.406938,-545.822000,-15.481010,0.618342,-14.862668,7.553353,-7.309314,-0.160200,-0.251566,-0.246708,4399,-201
0.542000,47.094179,-584.465000,-464.800946,47.094179,-464.800946,4.514282,-17.325000,42.579897,-567.140000,-15.113352,0.607180,-14.506172,7.188007,-7.318165,-0.160200,-0.251677,-0.250980,4109,-231
0.544000,45.901964,-607.455000,-453.034259,45.901964,-453.034259,4.252808,-14.625000,41.649156,-592.830000,-14.730750,0.595307,-14.135443,6.764989,-7.370453,-0.160200,-0.252331,-0.248844,3871,-195
0.546000,44.664359,-629.844250,-440.819586,44.664359,-440.819586,3.959473,-17.100000,40.704886,-612.744250,-14.333580,0.582709,-13.750872,6.378752,-7.372119,-0.160200,-0.252351,-0.254184,3604,-228
0.548000,43.382587,-651.610500,-428.169007,43.382587,-428.169007,3.666138,-17.625000,39.716449,-633.985500,-13.922237,0.569375,-13.352863,5.971688,-7.381174,-0.160200,-0.252465,-0.252048,3337,-235
0.550000,42.057917,-672.732500,-415.095030,42.057917,-415.095030,3.355225,-14.700000,38.702692,-658.032500,-13.497127,0.555295,-12.941832,5.538408,-7.403425,-0.160200,-0.252743,-0.252048,3054,-196
0.552000,40.691657,-693.189500,-401.610584,40.691657,-401.610584,3.050903,-17.250000,37.640754,-675.939500,-13.058670,0.540462,-12.518208,5.135378,-7.382830,-0.160200,-0.252485,-0.254184,2777,-230
0.554000,39.285159,-712.961000,-387.729003,39.285159,-387.729003,2.768555,-15.600000,36.516604,-697.361000,-12.607300,0.524872,-12.082428,4.691526,-7.390902,-0.160200,-0.252586,-0.247776,2520,-208
0.556000,37.839813,-732.027250,-373.464013,37.839813,-373.464013,2.434570,-17.925000,35.405243,-714.102250,-12.143463,0.508521,-11.634942,4.283697,-7.351245,-0.160200,-0.252091,-0.254184,2216,-239
0.558000,36.357050,-750.369750,-358.829722,36.357050,-358.829722,2.131348,-16.800000,34.225702,-733.569750,-11.667618,0.491411,-11.176207,3.838985,-7.337222,-0.160200,-0.251915,-0.252048,1940,-224
0.560000,34.838334,-767.970500,-343.840600,34.838334,-343.840600,1.851196,-15.075000,32.987138,-752.895500,-11.180236,0.473545,-10.706690,3.379810,-7.326880,-0.160200,-0.251786,-0.250980,1685,-201
0.562000,33.285168,-784.811250,-328.511469,33.285168,-328.511469,1.554565,-15.225000,31.730603,-769.586250,-10.681797,0.454930,-10.226867,2.934327,-7.292540,-0.160200,-0.251357,-0.245640,1415,-203
0.564000,31.699089,-800.876250,-312.857488,31.699089,-312.857488,1.240356,-17.325000,30.458733,-783.551250,-10.172797,0.435576,-9.737221,2.503858,-7.233363,-0.160200,-0.250617,-0.253116,1129,-231
0.566000,30.081663,-816.149500,-296.894136,30.081663,-296.894136,0.965698,-17.550000,29.115965,-798.599500,-9.653736,0.415495,-9.238241,2.047265,-7.190975,-0.160200,-0.250087,-0.254184,879,-234
0.568000,28.434491,-830.615500,-280.637198,28.434491,-280.637198,0.670166,-17.925000,27.764325,-812.690500,-9.125130,0.394705,-8.730424,1.595033,-7.135391,-0.160200,-0.249392,-0.247776,610,-239
0.570000,26.759201,-844.260000,-264.102750,26.759201,-264.102750,0.373535,-14.700000,26.385666,-829.560000,-8.587500,0.373226,-8.214274,1.116330,-7.097944,-0.160200,-0.248924,-0.250980,340,-196
0.572000,25.057451,-857.069750,-247.307143,25.057451,-247.307143,0.087891,-15.525000,24.969560,-841.544750,-8.041378,0.351080,-7.690297,0.661925,-7.028372,-0.160200,-0.248055,-0.247776,80,-207
0.574000,23.330922,-869.032250,-230.266985,23.330922,-230.266985,-0.174683,-14.775000,23.505605,-854.257250,-7.487304,0.328296,-7.159008,0.189912,-6.969096,-0.160200,-0.247314,-0.248844,-159,-197
0.576000,21.581322,-880.135250,-212.999126,21.581322,-212.999126,-0.440552,-15.300000,22.021874,-864.835250,-6.925827,0.304904,-6.620923,-0.272376,-6.893299,-0.160200,-0.246366,-0.249912,-401,-204
0.578000,19.810381,-890.367750,-195.520641,19.810381,-195.520641,-0.718506,-14.250000,20.528887,-876.117750,-6.357501,0.280936,-6.076564,-0.742006,-6.818570,-0.160200,-0.245432,-0.245640,-654,-190
0.580000,18.019851,-899.719750,-177.848815,18.019851,-177.848815,-0.999756,-14.925000,19.019607,-884.794750,-5.782888,0.256431,-5.526457,-1.197711,-6.724168,-0.160200,-0.244252,-0.245640,-910,-199
0.582000,16.211502,-908.182250,-160.001122,16.211502,-160.001122,-1.265625,-15.150000,17.477127,-893.032250,-5.202557,0.231428,-4.971129,-1.659040,-6.630169,-0.160200,-0.243077,-0.243504,-1152,-202
0.584000,14.387122,-915.746750,-141.995211,14.387122,-141.995211,-1.556763,-16.725000,15.943885,-899.021750,-4.617081,0.205970,-4.411111,-2.102257,-6.513368,-0.160200,-0.241617,-0.240300,-1417,-223
0.586000,12.548515,-922.405750,-123.848887,12.548515,-123.848887,-1.822632,-16.350000,14.371147,-906.055750,-4.027040,0.180102,-3.846938,-2.563105,-6.410043,-0.160200,-0.240326,-0.238164,-1659,-218
0.588000,10.697499,-928.152250,-105.580095,10.697499,-105.580095,-2.101685,-15.375000,12.799184,-912.777250,-3.433016,0.153872,-3.279144,-3.021569,-6.300713,-0.160200,-0.238959,-0.241368,-1913,-205
0.590000,8.835906,-932.981250,-87.206899,8.835906,-87.206899,-2.366455,-15.300000,11.202361,-917.681250,-2.835598,0.127330,-2.708268,-3.473852,-6.182120,-0.160200,-0.237477,-0.238164,-2154,-204
0.592000,6.965574,-936.887750,-68.747467,6.965574,-68.747467,-2.668579,-15.750000,9.634153,-921.137750,-2.235376,0.100529,-2.134847,-3.908539,-6.043386,-0.160200,-0.235742,-0.238164,-2429,-210
0.594000,5.088355,-939.867500,-50.220055,5.088355,-50.220055,-2.945435,-15.225000,8.033790,-924.642500,-1.632943,0.073521,-1.559422,-4.351981,-5.911403,-0.160200,-0.234093,-0.232824,-2681,-203
0.596000,3.206104,-941.918000,-31.642982,3.206104,-31.642982,-3.234375,-14.925000,6.440479,-926.993000,-1.028895,0.046361,-0.982534,-4.785519,-5.768053,-0.160200,-0.232301,-0.230688,-2944,-199
0.598000,1.320683,-943.037000,-13.034619,1.320683,-13.034619,-3.490356,-14.475000,4.811039,-928.562000,-0.423830,0.019106,-0.404725,-5.223059,-5.627783,-0.160200,-0.230547,-0.230688,-3177,-193
0.600000,-0.566044,-943.223750,5.586634,-0.566044,5.586634,-3.770508,-15.600000,3.204464,-927.623750,0.181654,-0.008189,0.173464,-5.637109,-5.463644,-0.160200,-0.228496,-0.228552,-3432,-208
0.602000,-2.452212,-942.477500,24.202362,-2.452212,24.202362,-4.046265,-13.125000,1.594053,-929.352500,0.786958,-0.035467,0.751491,-6.070782,-5.319292,-0.160200,-0.226691,-0.227484,-3683,-175
0.604000,-4.335954,-940.799250,42.794157,-4.335954,42.794157,-4.322021,-14.025000,-0.013933,-926.774250,1.391484,-0.062672,1.328812,-6.473752,-5.144940,-0.160200,-0.224512,-0.225348,-3934,-187
0.606000,-6.215409,-938.191000,61.343636,-6.215409,61.343636,-4.594482,-14.325000,-1.620927,-923.866000,1.994634,-0.089747,1.904887,-6.874159,-4.969272,-0.160200,-0.222316,-0.223212,-4182,-191
0.608000,-8.088718,-934.654750,79.832454,-8.088718,79.832454,-4.855957,-14.775000,-3.232761,-919.879750,2.595812,-0.116638,2.479175,-7.268307,-4.789132,-0.160200,-0.220064,-0.218940,-4420,-197
0.610000,-9.954028,-930.194250,98.242329,-9.954028,98.242329,-5.114136,-12.000000,-4.839892,-918.194250,3.194423,-0.143290,3.051133,-7.677286,-4.626152,-0.160200,-0.218027,-0.220008,-4655,-160
0.612000,-11.809495,-924.814250,116.555057,-11.809495,116.555057,-5.373413,-13.125000,-6.436082,-911.689250,3.789875,-0.169650,3.620225,-8.049754,-4.429529,-0.160200,-0.215569,-0.217872,-4891,-175
0.614000,-13.653285,-918.519500,134.752529,-13.653285,134.752529,-5.628296,-11.250000,-8.024989,-907.269500,4.381580,-0.195669,4.185911,-8.434873,-4.248962,-0.160200,-0.213312,-0.215736,-5123,-150
0.616000,-15.483573,-911.316250,152.816750,-15.483573,152.816750,-5.878784,-13.125000,-9.604789,-898.191250,4.968952,-0.221297,4.747655,-8.785086,-4.037431,-0.160200,-0.210668,-0.215736,-5351,-175
0.618000,-17.298550,-903.212000,170.729857,-17.298550,170.729857,-6.129272,-13.350000,-11.169278,-889.862000,5.551410,-0.246487,5.304922,-9.136519,-3.831596,-0.160200,-0.208095,-0.210396,-5579,-178
0.620000,-19.096421,-894.214750,188.474137,-19.096421,188.474137,-6.376465,-12.900000,-12.719956,-881.314750,6.128378,-0.271197,5.857182,-9.482814,-3.625633,-0.160200,-0.205520,-0.205056,-5804,-172
0.622000,-20.875409,-884.333250,206.032044,-20.875409,206.032044,-6.591797,-12.825000,-14.283612,-871.508250,6.699287,-0.295384,6.403903,-9.823716,-3.419813,-0.160200,-0.202948,-0.203988,-6000,-171
0.624000,-22.633754,-873.577000,223.386214,-22.633754,223.386214,-6.820312,-12.150000,-15.813441,-861.427000,7.263571,-0.319010,6.944560,-10.153844,-3.209284,-0.160200,-0.200316,-0.203988,-6208,-162
0.626000,-24.369717,-861.957250,240.519488,-24.369717,240.519488,-7.013672,-10.500000,-17.356045,-851.457250,7.820672,-0.342042,7.478630,-10.488095,-3.009465,-0.160200,-0.197818,-0.201852,-6384,-140
0.628000,-26.081583,-849.485000,257.414922,-26.081583,257.414922,-7.219116,-10.575000,-18.862467,-838.910000,8.370040,-0.364446,8.005594,-10.794879,-2.789285,-0.160200,-0.195066,-0.198648,-6571,-141
0.630000,-27.767657,-836.172500,274.055810,-27.767657,274.055810,-7.422363,-10.050000,-20.345294,-826.122500,8.911131,-0.386195,8.524936,-11.093809,-2.568873,-0.160200,-0.192311,-0.199716,-6756,-134
0.632000,-29.426273,-822.033500,290.425697,-29.426273,290.425697,-7.605835,-9.975000,-21.820438,-812.058500,9.443410,-0.407263,9.036147,-11.381815,-2.345668,-0.160200,-0.189521,-0.191172,-6923,-133
0.634000,-31.055791,-807.081500,306.508394,-31.055791,306.508394,-7.792603,-9.150000,-23.263188,-797.931500,9.966351,-0.427630,9.538721,-11.660901,-2.122180,-0.160200,-0.186727,-0.189036,-7093,-122
0.636000,-32.654599,-791.331500,322.287999,-32.654599,322.287999,-7.951904,-9.300000,-24.702695,-782.031500,10.479437,-0.447277,10.032160,-11.926760,-1.894600,-0.160200,-0.183883,-0.187968,-7238,-124
0.638000,-34.221117,-774.798750,337.748907,-34.221117,337.748907,-8.127686,-10.500000,-26.093431,-764.298750,10.982160,-0.466189,10.515971,-12.167056,-1.651085,-0.160200,-0.180839,-0.184764,-7398,-140
0.640000,-35.753794,-757.500000,352.875831,-35.753794,352.875831,-8.306763,-8.775000,-27.447031,-748.725000,11.474023,-0.484355,10.989668,-12.412703,-1.423035,-0.160200,-0.177988,-0.176220,-7561,-117
0.642000,-37.251117,-739.452250,367.653811,-37.251117,367.653811,-8.491333,-9.600000,-28.759784,-729.852250,11.954540,-0.501768,11.452772,-12.624624,-1.171852,-0.160200,-0.174848,-0.180492,-7729,-128
0.644000,-38.711603,-720.673000,382.068234,-38.711603,382.068234,-8.658325,-9.675000,-30.053278,-710.998000,12.423236,-0.518423,11.904813,-12.831632,-0.926819,-0.160200,-0.171785,-0.175152,-7881,-129
0.646000,-40.133809,-701.181500,396.104847,-40.133809,396.104847,-8.826416,-8.325000,-31.307393,-692.856500,12.879647,-0.534317,12.345330,-13.033307,-0.687977,-0.160200,-0.168800,-0.169812,-8034,-111
0.648000,-41.516329,-680.996500,409.749770,-41.516329,409.749770,-8.995605,-8.100000,-32.520724,-672.896500,13.323322,-0.549452,12.773869,-13.211609,-0.437740,-0.160200,-0.165672,-0.170880,-8188,-108
0.650000,-42.857795,-660.137750,422.989509,-42.857795,422.989509,-9.168091,-8.100000,-33.689704,-652.037750,13.753822,-0.563833,13.189989,-13.372026,-0.182037,-0.160200,-0.162475,-0.164472,-8345,-108
0.652000,-44.156880,-638.626500,435.810972,-44.156880,435.810972,-9.317505,-7.800000,-34.839375,-630.826500,14.170722,-0.577464,13.593257,-13.524927,0.068331,-0.160200,-0.159346,-0.160200,-8481,-104
0.654000,-45.412301,-616.484000,448.201482,-45.412301,448.201482,-9.460327,-7.575000,-35.951974,-608.909000,14.573608,-0.590355,13.983253,-13.663192,0.320061,-0.160200,-0.156199,-0.156996,-8611,-101
0.656000,-46.622816,-593.731750,460.148784,-46.622816,460.148784,-9.586670,-7.275000,-37.036146,-586.456750,14.962084,-0.602517,14.359567,-13.790281,0.569286,-0.160200,-0.153084,-0.150588,-8726,-97
0.658000,-47.787228,-570.392000,471.641066,-47.787228,471.641066,-9.699829,-6.000000,-38.087399,-564.392000,15.335764,-0.613962,14.721802,-13.911457,0.810345,-0.160200,-0.150071,-0.152724,-8829,-80
0.660000,-48.904384,-546.488500,482.666963,-48.904384,482.666963,-9.828369,-6.750000,-39.076015,-539.738500,15.694279,-0.624704,15.069575,-13.998162,1.071413,-0.160200,-0.146807,-0.150588,-8946,-90
0.662000,-49.973182,-522.044750,493.215571,-49.973182,493.215571,-9.955811,-6.450000,-40.017371,-515.594750,16.037275,-0.634759,15.402516,-14.076054,1.326462,-0.160200,-0.143619,-0.147384,-9062,-86
0.664000,-50.992563,-497.084500,503.276461,-50.992563,503.276461,-10.073364,-5.475000,-40.919199,-491.609500,16.364413,-0.644144,15.720269,-14.144703,1.575566,-0.160200,-0.140505,-0.143112,-9169,-73
0.666000,-51.961520,-471.632750,512.839683,-51.961520,512.839683,-10.200806,-5.550000,-41.760714,-466.082750,16.675368,-0.652875,16.022493,-14.186801,1.835692,-0.160200,-0.137254,-0.138840,-9285,-74
0.668000,-52.879094,-445.714750,521.895780,-52.879094,521.895780,-10.308472,-5.925000,-42.570622,-439.789750,16.969834,-0.660971,16.308863,-14.215275,2.093589,-0.160200,-0.134030,-0.137772,-9383,-79
0.670000,-53.744379,-419.356000,530.435797,-53.744379,530.435797,-10.411743,-5.625000,-43.332636,-413.731000,17.247519,-0.668450,16.579069,-14.232845,2.346224,-0.160200,-0.130872,-0.133500,-9477,-75
0.672000,-54.556518,-392.582500,538.451290,-54.556518,538.451290,-10.510620,-5.025000,-44.045898,-387.557500,17.508149,-0.675331,16.832817,-14.236851,2.595966,-0.160200,-0.127750,-0.129228,-9567,-67
0.674000,-55.314709,-365.420750,545.934333,-55.314709,545.934333,-10.599609,-4.875000,-44.715100,-360.545750,17.751465,-0.681633,17.069832,-14.223470,2.846362,-0.160200,-0.124620,-0.129228,-9648,-65
0.676000,-56.018201,-337.897750,552.877525,-56.018201,552.877525,-10.675415,-4.125000,-45.342786,-333.772750,17.977229,-0.687374,17.289855,-14.200887,3.088968,-0.160200,-0.121588,-0.126024,-9717,-55
0.678000,-56.666300,-310.040500,559.274000,-56.666300,559.274000,-10.752319,-4.725000,-45.913981,-305.315500,18.185215,-0.692571,17.492644,-14.151756,3.340888,-0.160200,-0.118439,-0.118548,-9787,-63
0.680000,-57.258363,-281.876750,565.117435,-57.258363,565.117435,-10.823730,-3.750000,-46.434633,-278.126750,18.375218,-0.697241,17.677978,-14.098249,3.579729,-0.160200,-0.115453,-0.116412,-9852,-50
0.682000,-57.793807,-253.434250,570.402050,-57.793807,570.402050,-10.890747,-3.450000,-46.903060,-249.984250,18.547052,-0.701400,17.845652,-14.024412,3.821240,-0.160200,-0.112434,-0.113208,-9913,-46
0.684000,-58.272100,-224.741000,575.122619,-58.272100,575.122619,-10.956665,-3.600000,-47.315435,-221.141000,18.700545,-0.705063,17.995481,-13.931007,4.064474,-0.160200,-0.109394,-0.111072,-9973,-48
0.686000,-58.692771,-195.825750,579.274475,-58.692771,579.274475,-11.020386,-3.150000,-47.672385,-192.675750,18.835545,-0.708245,18.127300,-13.825732,4.301568,-0.160200,-0.106430,-0.106800,-10031,-42
0.688000,-59.055403,-166.716750,582.853512,-59.055403,582.853512,-11.073120,-2.925000,-47.982283,-163.791750,18.951920,-0.710957,18.240963,-13.705214,4.535749,-0.160200,-0.103503,-0.107868,-10079,-39
0.690000,-59.359638,-137.443000,585.856191,-59.359638,585.856191,-11.125854,-2.850000,-48.233784,-134.593000,19.049555,-0.713210,18.336344,-13.567211,4.769133,-0.160200,-0.100586,-0.102528,-10127,-38
0.692000,-59.605175,-108.033250,588.279543,-59.605175,588.279543,-11.173096,-2.475000,-48.432079,-105.558250,19.128352,-0.715014,18.413338,-13.416424,4.996913,-0.160200,-0.097739,-0.096120,-10170,-33
0.694000,-59.791771,-78.516750,590.121171,-59.791771,590.121171,-11.213745,-2.175000,-48.578026,-76.341750,19.188234,-0.716376,18.471857,-13.250663,5.221194,-0.160200,-0.094935,-0.099324,-10207,-29
0.696000,-59.919242,-48.922500,591.379254,-59.919242,591.379254,-11.253296,-2.175000,-48.665946,-46.747500,19.229141,-0.717303,18.511839,-13.067074,5.444765,-0.160200,-0.092140,-0.096120,-10243,-29
0.698000,-59.987461,-19.279750,592.052549,-59.987461,592.052549,-11.289551,-1.650000,-48.697910,-17.629750,19.251034,-0.717797,18.533237,-12.872162,5.661075,-0.160200,-0.089437,-0.093984,-10276,-22
0.700000,-59.996361,10.382000,592.140388,-59.996361,592.140388,-11.317017,-1.500000,-48.679344,11.882000,19.253890,-0.717861,18.536029,-12.661271,5.874758,0.160200,0.233634,-0.089712,-10301,-20
0.702000,-59.945933,40.033500,591.642687,-59.945933,591.642687,-11.336792,3.300000,-48.609141,36.733500,19.237707,-0.717496,18.520211,-12.469395,6.050816,0.160200,0.235835,0.232824,-10319,44
0.704000,-59.836227,69.645250,590.559936,-59.836227,590.559936,-11.218140,9.900000,-48.618087,59.745250,19.202500,-0.716700,18.485801,-12.311085,6.174716,0.160200,0.237384,0.233892,-10211,132
0.706000,-59.667352,99.188000,588.893206,-59.667352,588.893206,-10.979736,12.975000,-48.687616,86.213000,19.148306,-0.715469,18.432837,-12.144508,6.288329,0.160200,0.238804,0.241368,-9994,173
0.708000,-59.439475,128.633000,586.644146,-59.439475,586.644146,-10.710571,14.400000,-48.728904,114.233000,19.075176,-0.713798,18.361377,-11.959700,6.401677,0.160200,0.240221,0.238164,-9749,192
0.710000,-59.152820,157.950750,583.814980,-59.152820,583.814980,-10.435913,13.800000,-48.716907,144.150750,18.983183,-0.711681,18.271502,-11.747694,6.523808,0.160200,0.241748,0.241368,-9499,184
0.712000,-58.807672,187.112000,580.408504,-58.807672,580.408504,-10.157959,15.375000,-48.649713,171.737000,18.872419,-0.709107,18.163312,-11.537515,6.625797,0.160200,0.243022,0.241368,-9246,205
0.714000,-58.404372,216.088500,576.428088,-58.404372,576.428088,-9.894287,15.825000,-48.510085,200.263500,18.742993,-0.706068,18.036925,-11.301808,6.735117,0.160200,0.244389,0.245640,-9006,211
0.716000,-57.943318,244.851250,571.877668,-57.943318,571.877668,-9.659180,13.950000,-48.284138,230.901250,18.595033,-0.702550,17.892482,-11.028763,6.863719,0.160200,0.245996,0.242436,-8792,186
0.718000,-57.424967,273.372000,566.761744,-57.424967,566.761744,-9.361450,14.850000,-48.063517,258.522000,18.428684,-0.698541,17.730143,-10.778175,6.951968,0.160200,0.247100,0.244572,-8521,198
0.720000,-56.849830,301.622500,561.085374,-56.849830,561.085374,-9.048340,16.725000,-47.801490,284.897500,18.244113,-0.694026,17.550087,-10.525441,7.024646,0.160200,0.248008,0.246708,-8236,223
0.722000,-56.218477,329.574500,554.854171,-56.218477,554.854171,-8.769287,14.550000,-47.449190,315.024500,18.041501,-0.688989,17.352512,-10.222883,7.129629,0.160200,0.249320,0.244572,-7982,194
0.724000,-55.531532,357.200500,548.074297,-55.531532,548.074297,-8.495728,14.850000,-47.035804,342.350500,17.821048,-0.683414,17.137634,-9.923887,7.213747,0.160200,0.250372,0.244572,-7733,198
0.726000,-54.789675,384.473250,540.752457,-54.789675,540.752457,-8.227661,16.650000,-46.562014,367.823250,17.582973,-0.677282,16.905691,-9.622016,7.283675,0.160200,0.251246,0.248844,-7489,222
0.728000,-53.993639,411.366250,532.895891,-53.993639,532.895891,-7.955200,16.275000,-46.038439,395.091250,17.327511,-0.670576,16.656934,-9.294578,7.362356,0.160200,0.252229,0.250980,-7241,217
0.730000,-53.144210,437.852250,524.512368,-53.144210,524.512368,-7.649780,16.425000,-45.494430,421.427250,17.054914,-0.663278,16.391636,-8.968297,7.423339,0.160200,0.252992,0.252048,-6963,219
0.732000,-52.242230,463.905250,515.610177,-52.242230,515.610177,-7.381714,15.225000,-44.860516,448.680250,16.765453,-0.655369,16.110083,-8.612077,7.498007,0.160200,0.253925,0.256320,-6719,203
0.734000,-51.288589,489.499500,506.198122,-51.288589,506.198122,-7.091675,17.400000,-44.196914,472.099500,16.459413,-0.646831,15.812582,-8.274849,7.537733,0.160200,0.254422,0.256320,-6455,232
0.736000,-50.284232,514.609750,496.285511,-50.284232,496.285511,-6.832397,15.600000,-43.451835,499.009750,16.137097,-0.637644,15.499452,-7.891918,7.607534,0.160200,0.255294,0.252048,-6219,208
0.738000,-49.230150,539.211000,485.882144,-49.230150,485.882144,-6.519287,16.575000,-42.710863,522.636000,15.798823,-0.627792,15.171031,-7.532990,7.638041,0.160200,0.255676,0.260592,-5934,221
0.740000,-48.127388,563.279000,474.998310,-48.127388,474.998310,-6.192993,16.350000,-41.934395,546.929000,15.444927,-0.617258,14.827669,-7.160114,7.667555,0.160200,0.256044,0.253116,-5637,218
0.742000,-46.977034,586.790500,463.644772,-46.977034,463.644772,-5.895264,14.475000,-41.081770,572.315500,15.075758,-0.606025,14.469733,-6.759666,7.710067,0.160200,0.256576,0.253116,-5366,193
0.744000,-45.780226,609.721250,451.832755,-45.780226,451.832755,-5.598633,17.250000,-40.181593,592.471250,14.691682,-0.594080,14.097602,-6.383287,7.714315,0.160200,0.256629,0.255252,-5096,230
0.746000,-44.538149,632.049000,439.573941,-44.538149,439.573941,-5.284424,16.650000,-39.253725,615.399000,14.293077,-0.581409,13.711669,-5.980306,7.731363,0.160200,0.256842,0.253116,-4810,222
0.748000,-43.252030,653.752250,426.880452,-43.252030,426.880452,-5.019653,18.075000,-38.232377,635.677250,13.880339,-0.568000,13.312339,-5.571348,7.740990,0.160200,0.256962,0.256320,-4569,241
0.750000,-41.923140,674.808750,413.764839,-41.923140,413.764839,-4.751587,15.000000,-37.171553,659.808750,13.453875,-0.553846,12.900029,-5.125156,7.774874,0.160200,0.257386,0.257388,-4325,200
0.752000,-40.552795,695.197750,400.240073,-40.552795,400.240073,-4.447266,15.300000,-36.105529,679.897750,13.014107,-0.538937,12.475170,-4.705824,7.769346,0.160200,0.257317,0.258456,-4048,204
0.754000,-39.142349,714.899500,386.319527,-39.142349,386.319527,-4.174805,18.450000,-34.967544,696.449500,12.561470,-0.523271,12.038199,-4.292347,7.745852,0.160200,0.257023,0.256320,-3800,246
0.756000,-37.693197,733.894500,372.016967,-37.693197,372.016967,-3.883667,16.575000,-33.809530,717.319500,12.096411,-0.506844,11.589567,-3.843479,7.746088,0.160200,0.257026,0.254184,-3535,221
0.758000,-36.206771,752.163500,357.346536,-36.206771,357.346536,-3.600220,15.900000,-32.606551,736.263500,11.619391,-0.489659,11.129733,-3.396286,7.733446,0.160200,0.256868,0.256320,-3277,212
0.760000,-34.684543,769.688750,342.322740,-34.684543,342.322740,-3.317871,18.225000,-31.366672,751.463750,11.130881,-0.471718,10.659164,-2.965569,7.693595,0.160200,0.256370,0.258456,-3020,243
0.762000,-33.128016,786.453000,326.960436,-33.128016,326.960436,-2.993774,17.850000,-30.134242,768.603000,10.631364,-0.453028,10.178337,-2.523265,7.655072,0.160200,0.255888,0.255252,-2725,238
0.764000,-31.538731,802.439500,311.274816,-31.538731,311.274816,-2.722412,18.375000,-28.816319,784.064500,10.121335,-0.433600,9.687735,-2.070292,7.617443,0.160200,0.255418,0.257388,-2478,245
0.766000,-29.918258,817.632750,295.281390,-29.918258,295.281390,-2.397217,18.075000,-27.521041,799.557750,9.601296,-0.413448,9.187849,-1.623026,7.564823,0.160200,0.254760,0.255252,-2182,241
0.768000,-28.268200,832.017250,278.995973,-28.268200,278.995973,-2.113770,17.250000,-26.154430,814.767250,9.071764,-0.392588,8.679176,-1.159065,7.520111,0.160200,0.254201,0.254184,-1924,230
0.770000,-26.590189,845.578750,262.434670,-26.590189,262.434670,-1.812744,16.050000,-24.777445,829.528750,8.533261,-0.371041,8.162220,-0.695517,7.466703,0.160200,0.253534,0.257388,-1650,214
0.772000,-24.885885,858.304250,245.613856,-24.885885,245.613856,-1.549072,15.300000,-23.336813,843.004250,7.986319,-0.348830,7.637489,-0.224283,7.413206,0.160200,0.252865,0.253116,-1410,204
0.774000,-23.156972,870.181250,228.550165,-23.156972,228.550165,-1.237061,16.950000,-21.919911,853.231250,7.431481,-0.325984,7.105497,0.218058,7.323555,0.160200,0.251744,0.253116,-1126,226
0.776000,-21.405160,881.197750,211.260472,-21.405160,211.260472,-0.898682,15.075000,-20.506478,866.122750,6.869293,-0.302532,6.566761,0.678094,7.244855,0.160200,0.250761,0.252048,-818,201
0.778000,-19.632181,891.342750,193.761872,-19.632181,193.761872,-0.589966,17.400000,-19.042215,873.942750,6.300313,-0.278509,6.021804,1.116031,7.137835,0.160200,0.249423,0.249912,-537,232
0.780000,-17.839789,900.606250,176.071670,-17.839789,176.071670,-0.305420,18.075000,-17.534369,882.531250,5.725103,-0.253953,5.471150,1.570743,7.041893,0.160200,0.248224,0.247776,-278,241
0.782000,-16.029756,908.979500,158.207358,-16.029756,158.207358,0.000000,17.550000,-16.029756,891.429500,5.144231,-0.228902,4.915329,2.026772,6.942101,0.160200,0.246976,0.247776,0,234
0.784000,-14.203871,916.453500,140.186602,-14.203871,140.186602,0.308716,15.300000,-14.512587,901.153500,4.558273,-0.203401,4.354872,2.491852,6.846724,0.160200,0.245784,0.247776,281,204
0.786000,-12.363942,923.021250,122.027222,-12.363942,122.027222,0.580078,15.825000,-12.944020,907.196250,3.967807,-0.177494,3.790313,2.944688,6.735001,0.160200,0.244388,0.244572,528,211
0.788000,-10.511786,928.676750,103.747174,-10.511786,103.747174,0.852539,14.400000,-11.364325,914.276750,3.373417,-0.151231,3.222187,3.407682,6.629869,0.160200,0.243073,0.242436,776,192
0.790000,-8.649235,933.413500,85.364535,-8.649235,85.364535,1.112915,13.800000,-9.762150,919.613500,2.775692,-0.124661,2.651031,3.864388,6.515420,0.160200,0.241643,0.243504,1013,184
0.792000,-6.778132,937.227250,66.897484,-6.778132,66.897484,1.393066,16.500000,-8.171198,920.727250,2.175222,-0.097836,2.077386,4.288674,6.366060,0.160200,0.239776,0.241368,1268,220
0.794000,-4.900326,940.114500,48.364280,-4.900326,48.364280,1.677612,13.275000,-6.577938,926.839500,1.572601,-0.070811,1.501790,4.748460,6.250250,0.160200,0.238328,0.242436,1527,177
0.796000,-3.017674,942.072000,29.783250,-3.017674,29.783250,1.918213,15.450000,-4.935887,926.622000,0.968425,-0.043639,0.924786,5.176830,6.101616,0.160200,0.236470,0.241368,1746,206
0.798000,-1.132038,943.097750,11.172770,-1.132038,11.172770,2.187378,15.600000,-3.319416,927.497750,0.363291,-0.016377,0.346914,5.606135,5.953049,0.160200,0.234613,0.234960,1991,208
0.800000,0.754717,943.191000,-7.448759,0.754717,-7.448759,2.435669,13.650000,-1.680952,929.541000,-0.242202,0.010919,-0.231283,6.049348,5.818065,0.160200,0.232926,0.232824,2217,182
0.802000,2.640726,942.351500,-26.062922,2.640726,-26.062922,2.674072,13.350000,-0.033346,929.001500,-0.847456,0.038192,-0.809263,6.476924,5.667660,0.160200,0.231046,0.231756,2434,178
0.804000,4.524123,940.580250,-44.651312,4.524123,-44.651312,2.941040,14.550000,1.583083,926.030250,-1.451871,0.065386,-1.386485,6.879361,5.492876,0.160200,0.228861,0.234960,2677,194
0.806000,6.403047,937.879250,-63.195549,6.403047,-63.195549,3.180542,13.350000,3.222505,924.529250,-2.054851,0.092445,-1.962405,7.298082,5.335676,0.160200,0.226896,0.228552,2895,178
0.808000,8.275640,934.250250,-81.677295,8.275640,-81.677295,3.439819,12.225000,4.835821,922.025250,-2.655799,0.119315,-2.536484,7.702965,5.166481,0.160200,0.224781,0.227484,3131,163
0.810000,10.140048,929.697500,-100.078273,10.140048,-100.078273,3.674927,12.150000,6.465121,917.547500,-3.254120,0.145940,-3.108181,8.098255,4.990074,0.160200,0.222576,0.224280,3345,162
0.812000,11.994430,924.225750,-118.380289,11.994430,-118.380289,3.919922,12.150000,8.074508,912.075750,-3.849224,0.172269,-3.676956,8.481391,4.804436,0.160200,0.220255,0.216804,3568,162
0.814000,13.836951,917.839750,-136.565243,13.836951,-136.565243,4.181396,13.200000,9.655555,904.639750,-4.440522,0.198250,-4.242271,8.843395,4.601124,0.160200,0.217714,0.216804,3806,176
0.816000,15.665789,910.546250,-154.615154,15.665789,-154.615154,4.402222,12.000000,11.263567,898.546250,-5.027428,0.223836,-4.803592,9.221831,4.418240,0.160200,0.215428,0.216804,4007,160
0.818000,17.479136,902.352500,-172.512173,17.479136,-172.512173,4.630737,14.025000,12.848399,888.327500,-5.609363,0.248981,-5.360382,9.565399,4.205016,0.160200,0.212763,0.215736,4215,187
0.820000,19.275199,893.266250,-190.238603,19.275199,-190.238603,4.862549,13.575000,14.412650,879.691250,-6.185751,0.273640,-5.912112,9.914626,4.002515,0.160200,0.210231,0.211464,4426,181
0.822000,21.052201,883.296750,-207.776914,21.052201,-207.776914,5.086670,12.525000,15.965531,870.771750,-6.756023,0.297772,-6.458250,10.258900,3.800650,0.160200,0.207708,0.212532,4630,167
0.824000,22.808386,872.453750,-225.109763,22.808386,-225.109763,5.281128,12.975000,17.527258,859.478750,-7.319613,0.321341,-6.998272,10.588919,3.590647,0.160200,0.205083,0.206124,4807,173
0.826000,24.542016,860.748000,-242.220011,24.542016,-242.220011,5.506348,12.600000,19.035668,848.148000,-7.875966,0.344311,-7.531655,10.904716,3.373061,0.160200,0.202363,0.203988,5012,168
0.828000,26.251378,848.191500,-259.090739,26.251378,-259.090739,5.699707,10.350000,20.551671,837.841500,-8.424530,0.366651,-8.057879,11.229652,3.171773,0.160200,0.199847,0.200784,5188,138
0.830000,27.934782,834.795750,-275.705263,27.934782,-275.705263,5.902954,12.150000,22.031828,822.645750,-8.964764,0.388333,-8.576431,11.511070,2.934639,0.160200,0.196883,0.199716,5373,162
0.832000,29.590561,820.574500,-292.047155,29.590561,-292.047155,6.084229,10.350000,23.506332,810.224500,-9.496133,0.409332,-9.086801,11.810378,2.723577,0.160200,0.194245,0.196512,5538,138
0.834000,31.217080,805.542250,-308.100254,31.217080,-308.100254,6.261108,9.900000,24.955972,795.642250,-10.018111,0.429627,-9.588484,12.088089,2.499605,0.160200,0.191445,0.193308,5699,132
0.836000,32.812730,789.713000,-323.848686,32.812730,-323.848686,6.434692,10.500000,26.378038,779.213000,-10.530184,0.449201,-10.080982,12.345687,2.264705,0.160200,0.188509,0.192240,5857,140
0.838000,34.375932,773.103000,-339.276878,34.375932,-339.276878,6.607178,9.000000,27.768754,764.103000,-11.031843,0.468039,-10.563804,12.604288,2.040484,0.160200,0.185706,0.189036,6014,120
0.840000,35.905142,755.728750,-354.369575,35.905142,-354.369575,6.807129,10.125000,29.098013,745.603750,-11.522593,0.486131,-11.036463,12.823138,1.786676,0.160200,0.182533,0.189036,6196,135
0.842000,37.398847,737.607000,-369.111851,37.398847,-369.111851,6.962036,10.125000,30.436811,727.482000,-12.001949,0.503468,-11.498482,13.047121,1.548639,0.160200,0.179558,0.181560,6337,135
0.844000,38.855570,718.755750,-383.489129,38.855570,-383.489129,7.121338,9.300000,31.734232,709.455750,-12.469437,0.520046,-11.949391,13.260938,1.311547,0.160200,0.176594,0.179424,6482,124
0.846000,40.273870,699.193750,-397.487191,40.273870,-397.487191,7.269653,8.475000,33.004217,690.718750,-12.924595,0.535865,-12.388730,13.462610,1.073880,0.160200,0.173624,0.177288,6617,113
0.848000,41.652345,678.940500,-411.092196,41.652345,-411.092196,7.408081,7.725000,34.244264,671.215500,-13.366972,0.550924,-12.816048,13.651096,0.835048,0.160200,0.170638,0.174084,6743,103
0.850000,42.989632,658.015750,-424.290690,42.989632,-424.290690,7.560791,8.475000,35.428841,649.540750,-13.796131,0.565229,-13.230901,13.809899,0.578997,0.160200,0.167437,0.168744,6882,113
0.852000,44.284408,636.440500,-437.069622,44.284408,-437.069622,7.703613,8.025000,36.580795,628.415500,-14.211647,0.578786,-13.632861,13.963997,0.331136,0.160200,0.164339,0.160200,7012,107
0.854000,45.535394,614.235750,-449.416355,45.535394,-449.416355,7.857422,8.250000,37.677972,605.985750,-14.613111,0.591604,-14.021507,14.094649,0.073142,0.160200,0.161114,0.161268,7152,110
0.856000,46.741351,591.423500,-461.318679,46.741351,-461.318679,8.000244,7.425000,38.741107,583.998500,-15.000124,0.603694,-14.396430,14.219477,-0.176953,0.160200,0.157988,0.162336,7282,99
0.858000,47.901088,568.026750,-472.764826,47.901088,-472.764826,8.135376,6.675000,39.765712,561.351750,-15.372304,0.615068,-14.757236,14.329614,-0.427623,0.160200,0.154855,0.160200,7405,89
0.860000,49.013458,544.068250,-483.743477,49.013458,-483.743477,8.273804,6.525000,40.739654,537.543250,-15.729283,0.625740,-15.103543,14.418376,-0.685166,0.160200,0.151635,0.151656,7531,87
0.862000,50.077361,519.571500,-494.243776,50.077361,-494.243776,8.415527,6.375000,41.661834,513.196500,-16.070708,0.635728,-15.434981,14.489830,-0.945151,0.160200,0.148386,0.151656,7660,85
0.864000,51.091744,494.561000,-504.255338,51.091744,-504.255338,8.555054,6.150000,42.536690,488.411000,-16.396242,0.645046,-15.751196,14.545831,-1.205364,0.160200,0.145133,0.149520,7787,82
0.866000,52.055605,469.061500,-513.768265,52.055605,-513.768265,8.690186,7.125000,43.365419,461.936500,-16.705562,0.653713,-16.051849,14.577965,-1.473884,0.160200,0.141776,0.146316,7910,95
0.868000,52.967990,443.098250,-522.773149,52.967990,-522.773149,8.824219,5.625000,44.143771,437.473250,-16.998362,0.661746,-16.336616,14.610952,-1.725664,0.160200,0.138629,0.142044,8032,75
0.870000,53.827998,416.697000,-531.261085,53.827998,-531.261085,8.946167,5.475000,44.881831,411.222000,-17.274354,0.669165,-16.605189,14.620907,-1.984282,0.160200,0.135396,0.132432,8143,73
0.872000,54.634778,389.883250,-539.223681,54.634778,-539.223681,9.061523,5.625000,45.573255,384.258250,-17.533264,0.675987,-16.857276,14.613679,-2.243597,0.160200,0.132155,0.135636,8248,75
0.874000,55.387531,362.684250,-546.653063,55.387531,-546.653063,9.168091,5.775000,46.219440,356.909250,-17.774835,0.682232,-17.092603,14.591918,-2.500685,0.160200,0.128941,0.130296,8345,77
0.876000,56.085515,335.126750,-553.541883,56.085515,-553.541883,9.274658,5.250000,46.810857,329.876750,-17.998831,0.687918,-17.310913,14.558028,-2.752885,0.160200,0.125789,0.132432,8442,70
0.878000,56.728038,307.237500,-559.883330,56.728038,-559.883330,9.368042,4.800000,47.359996,302.437500,-18.205028,0.693061,-17.511967,14.510230,-3.001737,0.160200,0.122678,0.096120,8527,64
0.880000,57.314465,279.044500,-565.671134,57.314465,-565.671134,9.459229,4.500000,47.855236,274.544500,-18.393222,0.697679,-17.695543,14.445154,-3.250389,0.160200,0.119570,0.123888,8610,60
0.882000,57.844216,250.575750,-570.899570,57.844216,-570.899570,9.537231,3.525000,48.306985,247.050750,-18.563229,0.701788,-17.861441,14.371479,-3.489962,0.160200,0.116575,0.120684,8681,47
0.884000,58.316768,221.859250,-575.563469,58.316768,-575.563469,9.611938,3.375000,48.704830,218.484250,-18.714879,0.705403,-18.009476,14.276202,-3.733274,0.160200,0.113534,0.118548,8749,45
0.886000,58.731653,192.923000,-579.658219,58.731653,-579.658219,9.678955,3.225000,49.052698,189.698000,-18.848023,0.708537,-18.139486,14.166308,-3.973178,0.160200,0.110535,0.113208,8810,43
0.888000,59.088460,163.796250,-583.179770,59.088460,-583.179770,9.749268,2.775000,49.339192,161.021250,-18.962529,0.711203,-18.251326,14.041111,-4.210215,0.160200,0.107572,0.110004,8874,37
0.890000,59.386838,134.507750,-586.124640,59.386838,-586.124640,9.809692,2.700000,49.577146,131.807750,-19.058284,0.713411,-18.344873,13.899458,-4.445415,0.160200,0.104632,0.106800,8929,36
0.892000,59.626491,105.085750,-588.489918,59.626491,-588.489918,9.859131,2.400000,49.767360,102.685750,-19.135192,0.715170,-18.420022,13.745946,-4.674076,0.160200,0.101774,0.104664,8974,32
0.894000,59.807181,75.560000,-590.273264,59.807181,-590.273264,9.910767,2.175000,49.896414,73.385000,-19.193179,0.716489,-18.476691,13.575175,-4.901516,0.160200,0.098931,0.102528,9021,29
0.896000,59.928731,45.960000,-591.472915,59.928731,-591.472915,9.962402,2.625000,49.966329,43.335000,-19.232187,0.717371,-18.514815,13.383690,-5.131126,0.160200,0.096061,0.096120,9068,35
0.898000,59.991021,16.314000,-592.087684,59.991021,-592.087684,10.011841,2.175000,49.979180,14.139000,-19.252176,0.717822,-18.534354,13.183228,-5.351126,0.160200,0.093311,0.100392,9113,29
0.900000,59.993987,-13.348000,-592.116964,59.993987,-592.116964,10.049194,2.100000,49.944793,-15.448000,-19.253128,0.717844,-18.535285,12.967669,-5.567616,-0.160200,-0.229795,0.092916,9147,28
0.902000,59.937629,-42.996750,-591.560726,59.937629,-591.560726,10.081055,-3.075000,49.856574,-39.921750,-19.235042,0.717436,-18.517606,12.773714,-5.743892,-0.160200,-0.231999,-0.227484,9176,-41
0.904000,59.822000,-72.603250,-590.419519,59.822000,-590.419519,9.981079,-10.800000,49.840921,-61.803250,-19.197935,0.716596,-18.481338,12.616854,-5.864484,-0.160200,-0.233506,-0.234960,9085,-144
0.906000,59.647216,-102.137500,-588.694473,59.647216,-588.694473,9.761353,-12.750000,49.885863,-89.387500,-19.141844,0.715322,-18.426522,12.436046,-5.990476,-0.160200,-0.235081,-0.233892,8885,-170
0.908000,59.413450,-131.570750,-586.387293,59.413450,-586.387293,9.513062,-12.600000,49.900388,-118.970750,-19.066824,0.713607,-18.353217,12.233319,-6.119898,-0.160200,-0.236699,-0.233892,8659,-168
0.910000,59.120933,-160.874250,-583.500260,59.120933,-583.500260,9.249390,-15.750000,49.871543,-145.124250,-18.972950,0.711444,-18.261506,12.043181,-6.218325,-0.160200,-0.237929,-0.240300,8419,-210
0.912000,58.769953,-190.018750,-580.036229,58.769953,-580.036229,8.972534,-13.425000,49.797419,-176.593750,-18.860314,0.708825,-18.151490,11.804077,-6.347413,-0.160200,-0.239543,-0.236028,8167,-179
0.914000,58.360858,-218.975000,-575.998627,58.360858,-575.998627,8.694580,-13.950000,49.666278,-205.025000,-18.729029,0.705738,-18.023291,11.571257,-6.452034,-0.160200,-0.240850,-0.236028,7914,-186
0.916000,57.894053,-247.714750,-571.391445,57.894053,-571.391445,8.386963,-16.050000,49.507090,-231.664750,-18.579223,0.702172,-17.877051,11.343601,-6.533450,-0.160200,-0.241868,-0.241368,7634,-214
0.918000,57.369999,-276.209500,-566.219239,57.369999,-566.219239,8.095825,-15.675000,49.274174,-260.534500,-18.411044,0.698113,-17.712932,11.081075,-6.631857,-0.160200,-0.243098,-0.240300,7369,-209
0.920000,56.789215,-304.431250,-560.487123,56.789215,-560.487123,7.833252,-15.150000,48.955963,-289.281250,-18.224660,0.693546,-17.531114,10.797077,-6.734037,-0.160200,-0.244375,-0.240300,7130,-202
0.922000,56.152274,-332.352250,-554.200767,56.152274,-554.200767,7.590454,-14.100000,48.561820,-318.252250,-18.020255,0.688456,-17.331799,10.491635,-6.840164,-0.160200,-0.245702,-0.245640,6909,-188
0.924000,55.459806,-359.944250,-547.366387,55.459806,-547.366387,7.344360,-14.925000,48.115446,-345.019250,-17.798030,0.682826,-17.115204,10.187905,-6.927299,-0.160200,-0.246791,-0.245640,6685,-199
0.926000,54.712497,-387.180250,-539.990739,54.712497,-539.990739,7.093872,-17.100000,47.618625,-370.080250,-17.558205,0.676638,-16.881567,9.882879,-6.998688,-0.160200,-0.247684,-0.247776,6457,-228
0.928000,53.911085,-414.033500,-532.081119,53.911085,-532.081119,6.820312,-15.675000,47.090772,-398.358500,-17.301018,0.669874,-16.631144,9.547268,-7.083876,-0.160200,-0.248748,-0.244572,6208,-209
0.930000,53.056363,-440.477500,-523.645347,53.056363,-523.645347,6.552246,-17.175000,46.504117,-423.302500,-17.026722,0.662515,-16.364207,9.219540,-7.144667,-0.160200,-0.249508,-0.248844,5964,-229
0.932000,52.149175,-466.485750,-514.691766,52.149175,-514.691766,6.296265,-15.900000,45.852910,-450.585750,-16.735590,0.654544,-16.081046,8.858582,-7.222464,-0.160200,-0.250481,-0.250980,5731,-212
0.934000,51.190420,-492.032750,-505.229228,51.190420,-505.229228,6.010620,-14.025000,45.179800,-478.007750,-16.427908,0.645941,-15.781967,8.490920,-7.291047,-0.160200,-0.251338,-0.252048,5471,-187
0.936000,50.181044,-517.093250,-495.267092,50.181044,-495.267092,5.761230,-15.525000,44.419814,-501.568250,-16.103982,0.636689,-15.467293,8.127473,-7.339820,-0.160200,-0.251948,-0.253116,5244,-207
0.938000,49.122047,-541.642250,-484.815208,49.122047,-484.815208,5.511841,-17.025000,43.610206,-524.617250,-15.764131,0.626770,-15.137361,7.754606,-7.382755,-0.160200,-0.252484,-0.250980,5017,-227
0.940000,48.014475,-565.655750,-473.883912,48.014475,-473.883912,5.260254,-15.600000,42.754221,-550.055750,-15.408692,0.616166,-14.792526,7.352915,-7.439610,-0.160200,-0.253195,-0.227484,4788,-208
0.942000,46.859424,-589.109750,-462.484012,46.859424,-462.484012,4.991089,-17.775000,41.868335,-571.334750,-15.038015,0.604863,-14.433152,6.972435,-7.460717,-0.160200,-0.253459,-0.250980,4543,-237
0.944000,45.658036,-611.981500,-450.626783,45.658036,-450.626783,4.672485,-16.725000,40.985551,-595.256500,-14.652469,0.592846,-14.059623,6.574318,-7.485305,-0.160200,-0.253766,-0.253116,4253,-223
0.946000,44.411498,-634.248000,-438.323949,44.411498,-438.323949,4.394531,-17.100000,40.016967,-617.148000,-14.252433,0.580101,-13.672332,6.167912,-7.504420,-0.160200,-0.254005,-0.254184,4000,-228
0.948000,43.121044,-655.887250,-425.587675,43.121044,-425.587675,4.081421,-15.600000,39.039623,-640.287250,-13.838303,0.566619,-13.271685,5.750501,-7.521184,-0.160200,-0.254215,-0.259524,3715,-208
0.950000,41.787949,-676.878000,-412.430557,41.787949,-412.430557,3.782593,-14.925000,38.005356,-661.953000,-13.410490,0.552389,-12.858101,5.328475,-7.529626,-0.160200,-0.254320,-0.252048,3443,-199
0.952000,40.413532,-697.199250,-398.865605,40.413532,-398.865605,3.478271,-17.100000,36.935261,-680.099250,-12.969415,0.537405,-12.432010,4.921640,-7.510370,-0.160200,-0.254080,-0.255252,3166,-228
0.954000,38.999152,-716.831250,-384.906231,38.999152,-384.906231,3.182739,-15.675000,35.816413,-701.156250,-12.515516,0.521662,-11.993853,4.481721,-7.512132,-0.160200,-0.254102,-0.253116,2897,-209
0.956000,37.546207,-735.754250,-370.566241,37.546207,-370.566241,2.885010,-17.025000,34.661197,-718.729250,-12.049240,0.505160,-11.544080,4.056603,-7.487477,-0.160200,-0.253793,-0.255252,2626,-227
0.958000,36.056135,-753.949750,-355.859815,36.056135,-355.859815,2.576294,-15.825000,33.479841,-738.124750,-11.571050,0.487898,-11.083151,3.611919,-7.471232,-0.160200,-0.253590,-0.257388,2345,-211
0.960000,34.530408,-771.399750,-340.801494,34.530408,-340.801494,2.284058,-18.150000,32.246350,-753.249750,-11.081417,0.469882,-10.611535,3.183399,-7.428135,-0.160200,-0.253052,-0.254184,2079,-242
0.962000,32.970536,-788.087000,-325.406170,32.970536,-325.406170,1.985229,-17.250000,30.985307,-770.837000,-10.580826,0.451118,-10.129708,2.730477,-7.399231,-0.160200,-0.252690,-0.252048,1807,-230
0.964000,31.378060,-803.994750,-309.689066,31.378060,-309.689066,1.687500,-18.225000,29.690560,-785.769750,-10.069773,0.431617,-9.638156,2.287263,-7.350893,-0.160200,-0.252086,-0.256320,1536,-243
0.966000,29.754557,-819.107500,-293.665724,29.754557,-293.665724,1.373291,-14.850000,28.381266,-804.257500,-9.548762,0.411393,-9.137368,1.815421,-7.321947,-0.160200,-0.251724,-0.253116,1250,-198
0.968000,28.101630,-833.410500,-277.351990,28.101630,-277.351990,1.107422,-16.125000,26.994208,-817.285500,-9.018309,0.390464,-8.627845,1.361338,-7.266507,-0.160200,-0.251031,-0.249912,1008,-215
0.970000,26.420915,-846.889250,-260.763994,26.420915,-260.763994,0.803101,-16.575000,25.617814,-830.314250,-8.478937,0.368849,-8.110088,0.910041,-7.200047,-0.160200,-0.250201,-0.252048,731,-221
0.972000,24.714073,-859.530750,-243.918140,24.714073,-243.918140,0.506470,-15.300000,24.207603,-844.230750,-7.931182,0.346574,-7.584608,0.443693,-7.140915,-0.160200,-0.249461,-0.245640,461,-204
0.974000,22.982792,-871.322000,-226.831086,22.982792,-226.831086,0.196655,-14.700000,22.786137,-856.622000,-7.375583,0.323665,-7.051918,-0.014953,-7.066871,-0.160200,-0.248536,-0.253116,179,-196
0.976000,21.228785,-882.251500,-209.519729,21.228785,-209.519729,-0.096680,-15.675000,21.325465,-866.576500,-6.812692,0.300155,-6.512536,-0.466852,-6.979388,-0.160200,-0.247442,-0.247776,-88,-209
0.978000,19.453786,-892.308750,-192.001187,19.453786,-192.001187,-0.375732,-17.700000,19.829518,-874.608750,-6.243063,0.276077,-5.966986,-0.914565,-6.881551,-0.160200,-0.246219,-0.245640,-342,-236
0.980000,17.659550,-901.483750,-174.292784,17.659550,-174.292784,-0.641602,-13.950000,18.301152,-887.533750,-5.667261,0.251469,-5.415792,-1.404924,-6.820716,-0.160200,-0.245459,-0.249912,-584,-186
0.982000,15.847851,-909.767250,-156.412030,15.847851,-156.412030,-0.927246,-13.950000,16.775097,-895.817250,-5.085855,0.226371,-4.859483,-1.862274,-6.721757,-0.160200,-0.244222,-0.247776,-844,-186
0.984000,14.020481,-917.151250,-138.376607,14.020481,-138.376607,-1.208496,-14.175000,15.228977,-902.976250,-4.499419,0.200827,-4.298592,-2.317027,-6.615619,-0.160200,-0.242895,-0.245640,-1100,-189
0.986000,12.179246,-923.628250,-120.204350,12.179246,-120.204350,-1.452393,-14.475000,13.631639,-909.153250,-3.908535,0.174883,-3.733652,-2.778332,-6.511984,-0.160200,-0.241600,-0.242436,-1322,-193
0.988000,10.325968,-929.191750,-101.913228,10.325968,-101.913228,-1.752319,-15.900000,12.078287,-913.291750,-3.313785,0.148587,-3.165198,-3.213891,-6.379089,-0.160200,-0.239939,-0.240300,-1595,-212
0.990000,8.462479,-933.836500,-83.521328,8.462479,-83.521328,-2.056641,-16.200000,10.519120,-917.636500,-2.715759,0.121989,-2.593770,-3.652412,-6.246182,-0.160200,-0.238277,-0.239232,-1872,-216
0.992000,6.590622,-937.557750,-65.046838,6.590622,-65.046838,-2.309326,-15.150000,8.899948,-922.407750,-2.115047,0.095142,-2.019905,-4.109620,-6.129525,-0.160200,-0.236819,-0.236028,-2102,-202
0.994000,4.712248,-940.352000,-46.508026,4.712248,-46.508026,-2.540039,-14.850000,7.252287,-925.502000,-1.512243,0.068099,-1.444144,-4.562579,-6.006723,-0.160200,-0.235284,-0.239232,-2312,-198
0.996000,2.829214,-942.216500,-27.923224,2.829214,-27.923224,-2.804810,-15.150000,5.634024,-927.066500,-0.907945,0.040916,-0.867029,-4.997161,-5.864190,-0.160200,-0.233502,-0.237096,-2553,-202
0.998000,0.943382,-943.149000,-9.310810,0.943382,-9.310810,-3.058594,-14.850000,4.001976,-928.299000,-0.302748,0.013648,-0.289100,-5.433035,-5.722135,-0.160200,-0.231727,-0.236028,-2784,-198
1.000000,-0.943382,-943.149000,9.310810,-0.943382,9.310810,-3.278320,-12.375000,2.334938,-930.774000,0.302748,-0.013648,0.289100,-5.886743,-5.597643,-0.160200,-0.230171,-0.229620,-2984,-165
1.002000,-2.829214,-942.216500,27.923224,-2.829214,27.923224,-3.536499,-13.725000,0.707285,-928.491500,0.907945,-0.040916,0.867029,-6.296927,-5.429898,-0.160200,-0.228074,-0.233892,-3219,-183
1.004000,-4.712248,-940.352000,46.508026,-4.712248,46.508026,-3.789185,-12.975000,-0.923063,-927.377000,1.512243,-0.068099,1.444144,-6.715970,-5.271826,-0.160200,-0.226098,-0.229620,-3449,-173
1.006000,-6.590622,-937.557750,65.046838,-6.590622,65.046838,-4.066040,-15.000000,-2.524582,-922.557750,2.115047,-0.095142,2.019905,-7.101602,-5.081697,-0.160200,-0.223721,-0.226416,-3701,-200
1.008000,-8.462479,-933.836500,83.521328,-8.462479,83.521328,-4.328613,-13.125000,-4.133866,-920.711500,2.715759,-0.121989,2.593770,-7.510022,-4.916253,-0.160200,-0.221653,-0.224280,-3940,-175
1.010000,-10.325968,-929.191750,101.913228,-10.325968,101.913228,-4.576904,-14.475000,-5.749064,-914.716750,3.313785,-0.148587,3.165198,-7.891029,-4.725831,-0.160200,-0.219273,-0.224280,-4166,-193
1.012000,-12.179246,-923.628250,120.204350,-12.179246,120.204350,-4.793335,-12.750000,-7.385911,-910.878250,3.908535,-0.174883,3.733652,-8.292757,-4.559105,-0.160200,-0.217189,-0.215736,-4363,-170
1.014000,-14.020481,-917.151250,138.376607,-14.020481,138.376607,-5.025146,-11.925000,-8.995335,-905.226250,4.499419,-0.200827,4.298592,-8.674644,-4.376052,-0.160200,-0.214901,-0.216804,-4574,-159
1.016000,-15.847851,-909.767250,156.412030,-15.847851,156.412030,-5.283325,-11.100000,-10.564526,-898.667250,5.085855,-0.226371,4.859483,-9.039667,-4.180184,-0.160200,-0.212452,-0.212532,-4809,-148
1.018000,-17.659550,-901.483750,174.292784,-17.659550,174.292784,-5.520630,-12.675000,-12.138920,-888.808750,5.667261,-0.251469,5.415792,-9.383017,-3.967226,-0.160200,-0.209790,-0.213600,-5025,-169
1.020000,-19.453786,-892.308750,192.001187,-19.453786,192.001187,-5.722778,-11.550000,-13.731008,-880.758750,6.243063,-0.276077,5.966986,-9.743625,-3.776640,-0.160200,-0.207408,-0.212532,-5209,-154
1.022000,-21.228785,-882.251500,209.519729,-21.228785,209.519729,-5.940308,-11.400000,-15.288477,-870.851500,6.812692,-0.300155,6.512536,-10.082204,-3.569668,-0.160200,-0.204821,-0.206124,-5407,-152
1.024000,-22.982792,-871.322000,226.831086,-22.982792,226.831086,-6.145752,-12.675000,-16.837040,-858.647000,7.375583,-0.323665,7.051918,-10.402414,-3.350496,-0.160200,-0.202081,-0.203988,-5594,-169
1.026000,-24.714073,-859.530750,243.918140,-24.714073,243.918140,-6.377563,-11.100000,-18.336510,-848.430750,7.931182,-0.346574,7.584608,-10.723651,-3.139043,-0.160200,-0.199438,-0.202920,-5805,-148
1.028000,-26.420915,-846.889250,260.763994,-26.420915,260.763994,-6.577515,-10.575000,-19.843400,-836.314250,8.478937,-0.368849,8.110088,-11.033565,-2.923477,-0.160200,-0.196743,-0.201852,-5987,-141
1.030000,-28.101630,-833.410500,277.351990,-28.101630,277.351990,-6.764282,-12.000000,-21.337348,-821.410500,9.018309,-0.390464,8.627845,-11.320632,-2.692787,-0.160200,-0.193860,-0.196512,-6157,-160
