khanfazel/E-wera--maxon_motor/PD_control (another copy)/T1_pd_feedforward_log.csv
t_s,q_ref_deg,qd_ref_deg_s,qdd_ref_deg_s2,q_model_deg,qdd_model_deg_s2,q_link_deg,qd_link_deg_s,pos_error_deg,vel_error_deg_s,tau_inertia_joint_Nm,tau_gravity_joint_Nm,tau_joint_ff_Nm,tau_pd_joint_Nm,tau_joint_total_Nm,tau_dead_motor_Nm,tau_motor_cmd_Nm,tau_motor_actual_Nm,motor_pos_counts,motor_vel_native
0,0,943.2655,0,0,0,-0.380127,0,0.380127,943.2655,0,0,0,-6.684752,-6.684752,0,0.083559,0,-346,0
0.002,1.886531,942.79925,0,1.886531,0,-0.379028,0.675,2.265559,942.12425,0,0.027289,0.027289,-7.17039,-7.143101,0,0.089289,0.081168,-345,9
0.004,3.771197,941.40075,-37.220226,3.771197,-37.220226,-0.350464,2.925,4.121661,938.47575,-1.210244,0.054522,-1.155722,-7.630845,-8.786567,0,0.109832,0.089712,-319,39
0.006,5.652134,939.071,-55.784328,5.652134,-55.784328,-0.276855,4.425,5.928989,934.646,-1.813869,0.081641,-1.732228,-8.077266,-9.809494,0,0.122619,0.110004,-252,59
0.008,7.527481,935.81275,-74.293267,7.527481,-74.293267,-0.199951,4.65,7.727432,931.16275,-2.415701,0.108593,-2.307108,-8.523779,-10.830888,0,0.135386,0.121752,-182,62
0.01,9.395385,931.62925,-92.728741,9.395385,-92.728741,-0.098877,5.025,9.494262,926.60425,-3.015145,0.135322,-2.879822,-8.95451,-11.834332,0,0.147929,0.135636,-90,67
0.012,11.253998,926.5245,-111.072519,11.253998,-111.072519,0.013184,5.925,11.240814,920.5995,-3.611606,0.161776,-3.449831,-9.369835,-12.819666,0,0.160246,0.147384,12,79
0.014,13.101483,920.5035,-129.306462,13.101483,-129.306462,0.113159,5.7,12.988324,914.8035,-4.204497,0.187902,-4.016595,-9.786868,-13.803463,0,0.172543,0.164472,103,76
0.016,14.936012,913.57225,-147.412541,14.936012,-147.412541,0.215332,5.85,14.72068,907.72225,-4.79323,0.213652,-4.579577,-10.190962,-14.770539,0,0.184632,0.173016,196,78
0.018,16.755772,905.7375,-165.372849,16.755772,-165.372849,0.325195,7.125,16.430577,898.6125,-5.377223,0.238979,-5.138244,-10.575014,-15.713257,0,0.196416,0.185832,296,95
0.02,18.558962,897.00725,-183.169628,18.558962,-183.169628,0.439453,7.875,18.119509,889.13225,-5.955898,0.263837,-5.692061,-10.95099,-16.643052,0,0.208038,0.195444,400,105
0.022,20.343801,887.39,-200.785278,20.343801,-200.785278,0.593262,9.375,19.750539,878.015,-6.528684,0.288185,-6.240499,-11.30038,-17.54088,0,0.219261,0.206124,540,125
0.024,22.108522,876.895,-218.20238,22.108522,-218.20238,0.754761,9.3,21.353761,867.595,-7.095015,0.311983,-6.783031,-11.647357,-18.430388,0,0.23038,0.21894,687,124
0.026,23.851381,865.53325,-235.403712,23.851381,-235.403712,0.930542,9.45,22.920839,856.08325,-7.654329,0.335197,-7.319132,-11.97725,-19.296382,0,0.241205,0.23496,847,126
0.028,25.570655,853.3155,-252.372264,25.570655,-252.372264,1.114014,12.075,24.456641,841.2405,-8.206074,0.357792,-7.848282,-12.2757,-20.123982,0,0.25155,0.241368,1014,161
0.03,27.264643,840.25375,-269.091255,27.264643,-269.091255,1.321655,12.75,25.942988,827.50375,-8.749705,0.379741,-8.369964,-12.568924,-20.938888,0,0.261736,0.254184,1203,170
0.032,28.93167,826.361,-285.544154,28.93167,-285.544154,1.529297,12.15,27.402373,814.211,-9.284683,0.401016,-8.883667,-12.85819,-21.741857,0,0.271773,0.263796,1392,162
0.034,30.570087,811.6515,-301.714692,30.570087,-301.714692,1.744629,15.45,28.825458,796.2015,-9.81048,0.421595,-9.388885,-13.105022,-22.493908,0,0.281174,0.27234,1588,206
0.036,32.178276,796.1395,-317.586877,32.178276,-317.586877,2.083008,14.625,30.095268,781.5145,-10.326576,0.441459,-9.885117,-13.334923,-23.22004,0,0.290251,0.287292,1896,195
0.038,33.754645,779.83975,-333.145014,33.754645,-333.145014,2.363159,17.025,31.391486,762.81475,-10.832461,0.460593,-10.371868,-13.543723,-23.915591,0,0.298945,0.289428,2151,227
0.04,35.297635,762.769,-348.373719,35.297635,-348.373719,2.666382,16.05,32.631253,746.719,-11.327633,0.478984,-10.848649,-13.755924,-24.604573,0,0.307557,0.295836,2427,214
0.042,36.805721,744.944,-363.257932,36.805721,-363.257932,2.964111,17.475,33.84161,727.469,-11.811605,0.496624,-11.314981,-13.938404,-25.253385,0,0.315667,0.305448,2698,233
0.044,38.277411,726.3825,-377.782936,38.277411,-377.782936,3.316772,20.175,34.960639,706.2075,-12.283896,0.513506,-11.77039,-14.082932,-25.853322,0,0.323167,0.311856,3019,269
0.046,39.711251,707.10275,-391.934367,39.711251,-391.934367,3.665039,18.45,36.046212,688.65275,-12.744041,0.529629,-12.214412,-14.244579,-26.458991,0,0.330737,0.326808,3336,246
0.048,41.105822,687.1235,-405.698231,41.105822,-405.698231,4.016602,21.075,37.08922,666.0485,-13.191583,0.544991,-12.646592,-14.359831,-27.006423,0,0.33758,0.333216,3656,281
0.05,42.459745,666.465,-419.060918,42.459745,-419.060918,4.445068,20.025,38.014677,646.44,-13.626081,0.559598,-13.066483,-14.465222,-27.531705,0,0.344146,0.337488,4046,267
0.052,43.771682,645.1475,-432.009215,43.771682,-432.009215,4.895508,22.5,38.876174,622.6475,-14.047105,0.573453,-13.473652,-14.524658,-27.99831,0,0.349979,0.338556,4456,300
0.054,45.040335,623.19175,-444.530316,45.040335,-444.530316,5.314087,23.175,39.726248,600.01675,-14.454238,0.586565,-13.867672,-14.589215,-28.456887,0,0.355711,0.348168,4837,309
0.056,46.264449,600.61975,-456.611842,46.264449,-456.611842,5.74585,23.475,40.518599,577.14475,-14.847077,0.598945,-14.248133,-14.636975,-28.885108,0,0.361064,0.35244,5230,313
0.058,47.442814,577.45425,-468.241844,47.442814,-468.241844,6.273193,25.5,41.169621,551.95425,-15.225236,0.610603,-14.614633,-14.631549,-29.246182,0,0.365577,0.36312,5710,340
0.06,48.574266,553.7175,-479.408822,48.574266,-479.408822,6.754395,26.25,41.819871,527.4675,-15.588338,0.621555,-14.966784,-14.630835,-29.597618,0,0.36997,0.362052,6148,350
0.062,49.657684,529.433,-490.101734,49.657684,-490.101734,7.212524,25.05,42.44516,504.383,-15.936027,0.631814,-15.304213,-14.633374,-29.937587,0,0.37422,0.369528,6565,334
0.064,50.691998,504.62525,-500.310006,50.691998,-500.310006,7.678345,26.325,43.013653,478.30025,-16.267956,0.641398,-15.626559,-14.600114,-30.226672,0,0.377833,0.377004,6989,351
0.066,51.676185,479.3185,-510.023544,51.676185,-510.023544,8.157349,26.325,43.518836,452.9935,-16.583799,0.650323,-15.933476,-14.555696,-30.489172,0,0.381115,0.37914,7425,351
0.068,52.609272,453.53775,-519.232741,52.609272,-519.232741,8.749512,30.15,43.85976,423.38775,-16.883243,0.658607,-16.224636,-14.438262,-30.662898,0,0.383286,0.386616,7964,402
0.07,53.490336,427.30825,-527.928493,53.490336,-527.928493,9.264771,27.825,44.225565,399.48325,-17.165992,0.66627,-16.499722,-14.367145,-30.866867,0,0.385836,0.37914,8433,371
0.072,54.318505,400.6565,-536.102199,54.318505,-536.102199,9.842651,28.65,44.475854,372.0065,-17.431766,0.673329,-16.758437,-14.240847,-30.999284,0,0.387491,0.38448,8959,382
0.074,55.092962,373.6085,-543.745778,55.092962,-543.745778,10.369995,28.65,44.722967,344.9585,-17.680303,0.679803,-17.0005,-14.11671,-31.11721,0,0.388965,0.385548,9439,382
0.076,55.812939,346.191,-550.85167,55.812939,-550.85167,10.943481,30.525,44.869458,315.666,-17.911356,0.68571,-17.225647,-13.950561,-31.176208,0,0.389703,0.393024,9961,407
0.078,56.477726,318.43125,-557.41285,56.477726,-557.41285,11.488403,30.825,44.989323,287.60625,-18.124698,0.691068,-17.43363,-13.786048,-31.219678,0,0.390246,0.38982,10457,411
0.08,57.086664,290.35625,-563.422828,57.086664,-563.422828,12.160767,29.925,44.925897,260.43125,-18.320117,0.695894,-17.624223,-13.579726,-31.203949,0,0.390049,0.394092,11069,399
0.082,57.639151,261.9945,-568.875663,57.639151,-568.875663,12.702393,32.325,44.936758,229.6695,-18.49742,0.700205,-17.797215,-13.367811,-31.165027,0,0.389563,0.38982,11562,431
0.084,58.134642,233.37375,-573.765962,58.134642,-573.765962,13.233032,30.3,44.90161,203.07375,-18.656432,0.704016,-17.952416,-13.172936,-31.125352,0,0.389067,0.387684,12045,404
0.086,58.572646,204.522,-578.088888,58.572646,-578.088888,13.851562,29.25,44.721083,175.272,-18.796995,0.70734,-18.089655,-12.931582,-31.021236,0,0.387765,0.385548,12608,390
0.088,58.95273,175.46825,-581.840169,58.95273,-581.840169,14.44812,32.175,44.50461,143.29325,-18.918971,0.710192,-18.208779,-12.651655,-30.860434,0,0.385755,0.383412,13151,429
0.09,59.274519,146.24075,-585.016093,59.274519,-585.016093,15.064453,31.125,44.210066,115.11575,-19.022238,0.712582,-18.309656,-12.377828,-30.687484,0,0.383594,0.380208,13712,415
0.092,59.537693,116.8685,-587.61352,59.537693,-587.61352,15.6698,31.95,43.867893,84.9185,-19.106696,0.71452,-18.392176,-12.077431,-30.469606,0,0.38087,0.38448,14263,426
0.094,59.741993,87.381,-589.629883,59.741993,-589.629883,16.2323,31.875,43.509693,55.506,-19.172259,0.716014,-18.456245,-11.778316,-30.234561,0,0.377932,0.380208,14775,425
0.096,59.887217,57.807,-591.063187,59.887217,-591.063187,16.790405,30.75,43.096812,27.057,-19.218864,0.71707,-18.501794,-11.471612,-29.973406,0,0.374668,0.377004,15283,410
0.098,59.973221,28.176,-591.912014,59.973221,-591.912014,17.373779,32.1,42.599442,-3.924,-19.246464,0.717694,-18.528771,-11.125113,-29.653884,0,0.370674,0.3738,15814,428
0.1,59.999921,-1.483,-592.175526,59.999921,-592.175526,17.905518,32.25,42.094403,-33.733,-19.255033,0.717887,-18.537146,-10.784788,-29.321934,0,0.366524,0.372732,16298,430
0.102,59.967289,-31.14075,-591.853461,59.967289,-591.853461,18.454834,30.3,41.512455,-61.44075,-19.24456,0.717651,-18.52691,-10.438998,-28.965908,0,0.362074,0.364188,16798,404
0.104,59.875358,-60.7675,-590.946139,59.875358,-590.946139,19.033813,28.275,40.841545,-89.0425,-19.215058,0.716984,-18.498074,-10.070657,-28.568732,0,0.357109,0.360984,17325,377
0.106,59.724219,-90.33425,-589.454456,59.724219,-589.454456,19.591919,27.9,40.1323,-118.23425,-19.166555,0.715884,-18.450671,-9.681181,-28.131852,0,0.351648,0.358848,17833,372
0.108,59.514021,-119.8115,-587.379888,59.514021,-587.379888,20.11377,29.4,39.400251,-149.2115,-19.099099,0.714346,-18.384753,-9.273269,-27.658022,0,0.345725,0.35244,18308,392
0.11,59.244973,-149.1705,-584.724485,59.244973,-584.724485,20.633423,29.025,38.61155,-178.1955,-19.012756,0.712363,-18.300393,-8.864441,-27.164834,0,0.33956,0.3471,18781,387
0.112,58.917339,-178.382,-581.490875,58.917339,-581.490875,21.170654,27.75,37.746685,-206.132,-18.907613,0.709928,-18.197685,-8.442986,-26.640671,0,0.333008,0.340692,19270,370
0.114,58.531445,-207.41675,-577.682254,58.531445,-577.682254,21.658447,25.275,36.872998,-232.69175,-18.783773,0.707029,-18.076744,-8.028833,-26.105577,0,0.32632,0.33108,19714,337
0.116,58.087672,-236.2465,-573.302388,58.087672,-573.302388,22.144043,25.875,35.943629,-262.1215,-18.641358,0.703657,-17.937702,-7.580067,-25.517769,0,0.318972,0.327876,20156,345
0.118,57.586459,-264.84275,-568.355609,57.586459,-568.355609,22.579102,24.525,35.007357,-289.36775,-18.48051,0.699796,-17.780714,-7.144737,-24.92545,0,0.311568,0.3204,20552,327
0.12,57.028301,-293.17725,-562.846808,57.028301,-562.846808,23.07019,21.825,33.958111,-315.00225,-18.301387,0.695435,-17.605953,-6.691082,-24.297035,0,0.303713,0.311856,20999,291
0.122,56.41375,-321.22175,-556.781433,56.41375,-556.781433,23.518433,23.85,32.895317,-345.07175,-18.104167,0.690556,-17.413611,-6.202919,-23.61653,0,0.295207,0.30438,21407,318
0.124,55.743414,-348.94875,-550.165481,55.743414,-550.165481,23.952393,22.725,31.791021,-371.67375,-17.889044,0.685144,-17.203901,-5.728098,-22.931998,0,0.28665,0.290496,21802,303
0.126,55.017955,-376.3305,-543.005495,55.017955,-543.005495,24.376465,22.2,30.64149,-398.5305,-17.656232,0.679181,-16.977051,-5.239656,-22.216707,0,0.277709,0.286224,22188,296
0.128,54.238092,-403.33975,-535.308555,54.238092,-535.308555,24.730225,18.375,29.507867,-421.71475,-17.40596,0.67265,-16.733311,-4.781017,-21.514328,0,0.268929,0.276612,22510,245
0.13,53.404596,-429.9505,-527.082272,53.404596,-527.082272,25.092773,18.225,28.311823,-448.1755,-17.138477,0.665531,-16.472945,-4.283163,-20.756108,0,0.259451,0.268068,22840,243
0.132,52.51829,-456.1365,-518.33478,52.51829,-518.33478,25.395996,18.975,27.122294,-475.1115,-16.854045,0.657807,-16.196238,-3.783696,-19.979934,0,0.249749,0.262728,23116,253
0.134,51.58005,-481.871,-509.07473,51.58005,-509.07473,25.72229,18.675,25.85776,-500.546,-16.552948,0.649459,-15.903488,-3.275075,-19.178564,0,0.239732,0.248844,23413,249
0.136,50.590806,-507.12875,-499.311279,50.590806,-499.311279,26.036499,15.6,24.554307,-522.72875,-16.235482,0.640469,-15.595013,-2.778967,-18.37398,0,0.229675,0.2403,23699,208
0.138,49.551535,-531.8855,-489.054081,49.551535,-489.054081,26.30896,16.875,23.242575,-548.7605,-15.901961,0.630819,-15.271143,-2.253821,-17.524963,0,0.219062,0.228552,23947,225
0.14,48.463264,-556.11625,-478.313278,48.463264,-478.313278,26.644043,14.475,21.819221,-570.59125,-15.552716,0.620491,-14.932225,-1.72878,-16.661006,0,0.208263,0.220008,24252,193
0.142,47.32707,-579.79675,-467.099493,47.32707,-467.099493,26.908813,13.875,20.418257,-593.67175,-15.188091,0.609469,-14.578622,-1.200876,-15.779498,0,0.197244,0.20826,24493,185
0.144,46.144077,-602.90425,-455.423814,46.144077,-455.423814,27.142822,13.125,19.001255,-616.02925,-14.808448,0.597739,-14.210709,-0.673821,-14.88453,0,0.186057,0.196512,24706,175
0.146,44.915453,-625.4155,-443.297786,44.915453,-443.297786,27.357056,11.25,17.558397,-636.6655,-14.414161,0.585287,-13.828874,-0.152014,-13.980888,0,0.174761,0.183696,24901,150
0.148,43.642415,-647.30825,-430.733401,43.642415,-430.733401,27.571289,10.575,16.071126,-657.88325,-14.005621,0.572101,-13.43352,0.385481,-13.048039,0,0.1631,0.173016,25096,141
0.15,42.32622,-668.56075,-417.743082,42.32622,-417.743082,27.760254,8.475,14.565966,-677.03575,-13.583231,0.558171,-13.02506,0.91324,-12.111819,0,0.151398,0.163404,25268,113
0.152,40.968172,-689.15225,-404.339676,40.968172,-404.339676,27.925049,7.275,13.043123,-696.42725,-13.147409,0.543489,-12.603919,1.447298,-11.156622,0,0.139458,0.152724,25418,97
0.154,39.569611,-709.0625,-390.536436,39.569611,-390.536436,28.051392,6.975,11.518219,-716.0375,-12.698586,0.528051,-12.170535,1.983422,-10.187113,0,0.127339,0.13884,25533,93
0.156,38.131922,-728.27125,-376.347012,38.131922,-376.347012,28.168945,5.775,9.962977,-734.04625,-12.237206,0.511852,-11.725354,2.516308,-9.209046,0,0.115113,0.127092,25640,77
0.158,36.656526,-746.76,-361.785435,36.656526,-361.785435,28.265625,4.875,8.390901,-751.635,-11.763726,0.494894,-11.268832,3.050669,-8.218162,0,0.102727,0.115344,25728,65
0.16,35.144882,-764.5105,-346.866104,35.144882,-346.866104,28.340332,3.9,6.80455,-768.4105,-11.278612,0.477179,-10.801433,3.58309,-7.218343,0,0.090229,0.099324,25796,52
0.162,33.598484,-781.50475,-331.603773,33.598484,-331.603773,28.410645,3.3,5.187839,-784.80475,-10.782346,0.458713,-10.323633,4.120798,-6.202836,0,0.077535,0.09078,25860,44
0.164,32.018863,-797.72625,-316.013534,32.018863,-316.013534,28.464478,2.625,3.554385,-800.35125,-10.275418,0.439505,-9.835912,4.65697,-5.178943,0,0.064737,0.077964,25909,35
0.166,30.407579,-813.159,-300.110802,30.407579,-300.110802,28.504028,1.5,1.903551,-814.659,-9.758328,0.419569,-9.33876,5.189044,-4.149715,0,0.051871,0.066216,25945,20
0.168,28.766227,-827.78725,-283.911305,28.766227,-283.911305,28.526001,0.6,0.240226,-828.38725,-9.23159,0.398919,-8.832671,5.720343,-3.112328,0,0.038904,0.0534,25965,8
0.17,27.09643,-841.5975,-267.431059,27.09643,-267.431059,28.53479,0.3,-1.43836,-841.8975,-8.695722,0.377576,-8.318146,6.254115,-2.064031,0,0.0258,0.03738,25973,4
0.172,25.399837,-854.5755,-250.686364,25.399837,-250.686364,28.53479,-0.075,-3.134953,-854.5005,-8.151256,0.355562,-7.795694,6.786268,-1.009427,0,0.012618,0.027768,25973,-1
0.174,23.678128,-866.708,-233.693775,23.678128,-233.693775,28.532593,-0.075,-4.854465,-866.633,-7.598729,0.332903,-7.265826,7.321136,0.05531,0,-0.000691,0.011748,25971,-1
0.176,21.933005,-877.98375,-216.470097,21.933005,-216.470097,28.530396,-0.075,-6.597391,-877.90875,-7.038688,0.309629,-6.729059,7.856152,1.127093,0,-0.014089,-0.004272,25969,-1
0.178,20.166193,-888.39125,-199.032362,20.166193,-199.032362,28.528198,-0.225,-8.362005,-888.16625,-6.471687,0.285774,-6.185913,8.389738,2.203825,0,-0.027548,-0.012816,25967,-3
0.18,18.37944,-897.92025,-181.397812,18.37944,-181.397812,28.522705,-0.525,-10.143265,-897.39525,-5.898286,0.261373,-5.636913,8.920501,3.283588,0,-0.041045,-0.027768,25962,-7
0.182,16.574512,-906.5615,-163.583885,16.574512,-163.583885,28.511719,-0.975,-11.937207,-905.5865,-5.319053,0.236467,-5.082587,9.44734,4.364753,0,-0.054559,-0.040584,25952,-13
0.184,14.753194,-914.30625,-145.608198,14.753194,-145.608198,28.490845,-1.275,-13.737651,-913.03125,-4.73456,0.211096,-4.523464,9.970669,5.447205,0,-0.06809,-0.055536,25933,-17
0.186,12.917287,-921.14675,-127.488525,12.917287,-127.488525,28.467773,-1.65,-15.550486,-919.49675,-4.145385,0.185306,-3.960079,10.490406,6.530327,0,-0.081629,-0.067284,25912,-22
0.188,11.068607,-927.07625,-109.242785,11.068607,-109.242785,28.434814,-1.875,-17.366207,-925.20125,-3.552111,0.159144,-3.392967,11.005586,7.612619,0,-0.095158,-0.08544,25882,-25
0.19,9.208982,-932.089,-90.889019,9.208982,-90.889019,28.400757,-2.325,-19.191775,-929.764,-2.955325,0.132661,-2.822664,11.515372,8.692708,0,-0.108659,-0.092916,25851,-31
0.192,7.340251,-936.18025,-72.445377,7.340251,-72.445377,28.360107,-2.625,-21.019856,-933.55525,-2.355616,0.105907,-2.249709,12.020431,9.770722,0,-0.122134,-0.110004,25814,-35
0.194,5.464261,-939.34575,-53.930097,5.464261,-53.930097,28.306274,-3.525,-22.842013,-935.82075,-1.753578,0.078936,-1.674642,12.513286,10.838645,0,-0.135483,-0.119616,25765,-47
0.196,3.582868,-941.5825,-35.361488,3.582868,-35.361488,28.231567,-4.35,-24.648699,-937.2325,-1.149805,0.051803,-1.098003,12.996132,11.898129,0,-0.148727,-0.137772,25697,-58
0.198,1.697931,-942.888,-16.757912,1.697931,-16.757912,28.143677,-5.175,-26.445746,-937.713,-0.544896,0.024562,-0.520334,13.469952,12.949617,0,-0.16187,-0.14952,25617,-69
0.2,-0.188684,-943.261,1.862236,-0.188684,1.862236,28.053589,-5.175,-28.242273,-938.086,0.060552,-0.00273,0.057822,13.942885,14.000708,0,-0.175009,-0.164472,25535,-69
0.202,-2.075113,-942.70125,20.480542,-2.075113,20.480542,27.956909,-5.55,-30.032022,-937.15125,0.66594,-0.030016,0.635924,14.404915,15.040839,0,-0.18801,-0.175152,25447,-74
0.204,-3.959489,-941.2095,39.078596,-3.959489,39.078596,27.823975,-8.175,-31.783464,-933.0345,1.27067,-0.05724,1.21343,14.834701,16.048131,0,-0.200602,-0.1869,25326,-109
0.206,-5.839951,-938.787,57.638006,-5.839951,57.638006,27.68335,-7.95,-33.523301,-930.837,1.874143,-0.084345,1.789798,15.274848,17.064646,0,-0.213308,-0.201852,25198,-106
0.208,-7.714637,-935.436,76.140422,-7.714637,76.140422,27.503174,-10.65,-35.217811,-924.786,2.475763,-0.111277,2.364486,15.676226,18.040712,0,-0.225509,-0.2136,25034,-142
0.21,-9.581695,-931.16025,94.567545,-9.581695,94.567545,27.326294,-11.925,-36.907989,-919.23525,3.074935,-0.137981,2.936954,16.079962,19.016915,0,-0.237711,-0.222144,24873,-159
0.212,-11.439278,-925.9635,112.901154,-11.439278,112.901154,27.119751,-10.95,-38.559029,-915.0135,3.671066,-0.164404,3.506662,16.482729,19.989391,0,-0.249867,-0.239232,24685,-146
0.214,-13.285549,-919.851,131.123121,-13.285549,131.123121,26.872559,-13.725,-40.158108,-906.126,4.263567,-0.190495,4.073072,16.839321,20.912393,0,-0.261405,-0.25098,24460,-183
0.216,-15.118682,-912.82925,149.215425,-15.118682,149.215425,26.630859,-15,-41.749541,-897.82925,4.851852,-0.216205,4.635647,17.198035,21.833682,0,-0.272921,-0.260592,24240,-200
0.218,-16.936866,-904.90475,167.160178,-16.936866,167.160178,26.328735,-14.85,-43.265601,-890.05475,5.435339,-0.241486,5.193852,17.540662,22.734515,0,-0.284181,-0.274476,23965,-198
0.22,-18.738301,-896.08525,184.939632,-18.738301,184.939632,26.0354,-16.95,-44.773701,-879.13525,6.013451,-0.266295,5.747156,17.859249,23.606405,0,-0.29508,-0.287292,23698,-226
0.222,-20.521207,-886.37975,202.536209,-20.521207,202.536209,25.705811,-18.225,-46.227018,-868.15475,6.585617,-0.29059,6.295027,18.163068,24.458096,0,-0.305726,-0.295836,23398,-243
0.224,-22.28382,-875.79775,219.932506,-22.28382,219.932506,25.401489,-20.175,-47.685309,-855.62275,7.151271,-0.314332,6.836939,18.457358,25.294298,0,-0.316179,-0.307584,23121,-269
0.226,-24.024398,-864.34975,237.111321,-24.024398,237.111321,25.067505,-20.1,-49.091903,-844.24975,7.709853,-0.337485,7.372368,18.746205,26.118573,0,-0.326482,-0.313992,22817,-268
0.228,-25.741219,-852.047,254.055668,-25.741219,254.055668,24.666504,-20.1,-50.407723,-831.947,8.260811,-0.360017,7.900794,19.004797,26.905591,0,-0.33632,-0.323604,22452,-268
0.23,-27.432586,-838.90175,270.74879,-27.432586,270.74879,24.299561,-21.45,-51.732147,-817.45175,8.803601,-0.381899,8.421702,19.250334,27.672036,0,-0.3459,-0.339624,22118,-286
0.232,-29.096826,-824.92675,287.174181,-29.096826,287.174181,23.884277,-22.275,-52.981103,-802.65175,9.337684,-0.403105,8.934579,19.473987,28.408566,0,-0.355107,-0.3471,21740,-297
0.234,-30.732293,-810.13625,303.315597,-30.732293,303.315597,23.452515,-24.9,-54.184808,-785.23625,9.862535,-0.423614,9.438921,19.667533,29.106454,0,-0.363831,-0.353508,21347,-332
0.236,-32.337371,-794.5445,319.157079,-32.337371,319.157079,22.947144,-28.275,-55.284515,-766.2695,10.377632,-0.443406,9.934227,19.823022,29.757249,0,-0.371966,-0.369528,20887,-377
0.238,-33.910471,-778.167,334.68296,-33.910471,334.68296,22.465942,-28.35,-56.376413,-749.817,10.882468,-0.462466,10.420002,19.994021,30.414023,0,-0.380175,-0.3738,20449,-378
0.24,-35.450039,-761.02025,349.877888,-35.450039,349.877888,21.892456,-27.225,-57.342495,-733.79525,11.376543,-0.480782,10.895761,20.135087,31.030848,0,-0.387886,-0.383412,19927,-363
0.242,-36.954552,-743.12075,364.726837,-36.954552,364.726837,21.378296,-30.3,-58.332848,-712.82075,11.859367,-0.498346,11.361021,20.247931,31.608953,0,-0.395112,-0.387684,19459,-404
0.244,-38.422522,-724.4865,379.215124,-38.422522,379.215124,20.83667,-30,-59.259192,-694.4865,12.330465,-0.515153,11.815312,20.362451,32.177763,0,-0.402222,-0.396228,18966,-400
0.246,-39.852498,-705.136,393.328421,-39.852498,393.328421,20.269775,-33.9,-60.122273,-671.236,12.789369,-0.531199,12.25817,20.426086,32.684256,0,-0.408553,-0.402636,18450,-452
0.248,-41.243066,-685.088,407.052774,-41.243066,407.052774,19.664429,-32.625,-60.907495,-652.463,13.235627,-0.546486,12.689141,20.500596,33.189737,0,-0.414872,-0.41118,17899,-435
0.25,-42.59285,-664.3625,420.37461,-42.59285,420.37461,19.027222,-34.125,-61.620072,-630.2375,13.668797,-0.561017,13.10778,20.531985,33.639765,0,-0.420497,-0.415452,17319,-455
0.252,-43.900516,-642.98025,433.280756,-43.900516,433.280756,18.328491,-34.575,-62.229007,-608.40525,14.08845,-0.574797,13.513652,20.538986,34.052638,0,-0.425658,-0.425064,16683,-461
0.254,-45.164771,-620.962,445.75845,-45.164771,445.75845,17.592407,-37.5,-62.757178,-583.462,14.494171,-0.587836,13.906335,20.503124,34.409459,0,-0.430118,-0.4272,16013,-500
0.256,-46.384364,-598.3295,457.795354,-46.384364,457.795354,16.943115,-36.6,-63.327479,-561.7295,14.88556,-0.600143,14.285418,20.500707,34.786125,0,-0.434827,-0.430404,15422,-488
0.258,-47.558089,-575.10575,469.379563,-47.558089,469.379563,16.345459,-38.55,-63.903548,-536.55575,15.26223,-0.61173,14.6505,20.475776,35.126275,0,-0.439078,-0.434676,14878,-514
0.26,-48.684787,-551.3135,480.499624,-48.684787,480.499624,15.703857,-39.225,-64.388644,-512.0885,15.623807,-0.622611,15.001195,20.43196,35.433155,0,-0.442914,-0.442152,14294,-523
0.262,-49.763343,-526.9755,491.14454,-49.763343,491.14454,15.063354,-39.825,-64.826697,-487.1505,15.969934,-0.632802,15.337132,20.372542,35.709673,0,-0.446371,-0.445356,13711,-531
0.264,-50.792689,-502.1165,501.303785,-50.792689,501.303785,14.364624,-40.2,-65.157313,-461.9165,16.30027,-0.64232,15.65795,20.28293,35.94088,0,-0.449261,-0.44856,13075,-536
0.266,-51.771809,-476.76125,510.967313,-51.771809,510.967313,13.666992,-41.475,-65.438801,-435.28625,16.614486,-0.65118,15.963307,20.170709,36.134016,0,-0.451675,-0.452832,12440,-553
0.268,-52.699734,-450.9345,520.125568,-52.699734,520.125568,12.988037,-41.775,-65.687771,-409.1595,16.912274,-0.659401,16.252873,20.05349,36.306363,0,-0.45383,-0.452832,11822,-557
0.27,-53.575547,-424.66175,528.769493,-53.575547,528.769493,12.16626,-42.375,-65.741807,-382.28675,17.193338,-0.667003,16.526335,19.88003,36.406365,0,-0.45508,-0.450696,11074,-565
0.272,-54.398381,-397.969,536.890542,-54.398381,536.890542,11.48291,-43.5,-65.881291,-354.469,17.4574,-0.674002,16.783398,19.722342,36.50574,0,-0.456322,-0.458172,10452,-580
0.274,-55.167423,-370.883,544.480683,-55.167423,544.480683,10.734741,-44.1,-65.902164,-326.783,17.704199,-0.680418,17.02378,19.534522,36.558302,0,-0.456979,-0.452832,9771,-588
0.276,-55.881913,-343.43,551.532412,-55.881913,551.532412,9.995361,-44.55,-65.877274,-298.88,17.933491,-0.68627,17.247221,19.333206,36.580428,0,-0.457255,-0.462444,9098,-594
0.278,-56.541143,-315.63725,558.038754,-56.541143,558.038754,9.142822,-45,-65.683965,-270.63725,18.14505,-0.691574,17.453476,19.085426,36.538902,0,-0.456736,-0.460308,8322,-600
0.28,-57.144462,-287.53275,563.993277,-57.144462,563.993277,8.335327,-45.15,-65.479789,-242.38275,18.338666,-0.696348,17.642318,18.83472,36.477037,0,-0.455963,-0.447492,7587,-602
0.282,-57.691274,-259.14375,569.390091,-57.691274,569.390091,7.525635,-44.925,-65.216909,-214.21875,18.514147,-0.700608,17.813539,18.569276,36.382815,0,-0.454785,-0.456036,6850,-599
0.284,-58.181037,-230.4985,574.223861,-58.181037,574.223861,6.675293,-45.15,-64.85633,-185.3485,18.671321,-0.70437,17.966951,18.273324,36.240275,0,-0.453003,-0.457104,6076,-602
0.286,-58.613268,-201.62525,578.489806,-58.613268,578.489806,5.911743,-45.975,-64.525011,-155.65025,18.810031,-0.707647,18.102384,17.979252,36.081637,0,-0.45102,-0.449628,5381,-613
0.288,-58.987538,-172.5525,582.183708,-58.987538,582.183708,4.983398,-45.45,-63.970936,-127.1025,18.930141,-0.710452,18.219689,17.634895,35.854584,0,-0.448182,-0.4539,4536,-606
0.29,-59.303478,-143.3095,585.301915,-59.303478,585.301915,4.107788,-45.225,-63.411266,-98.0845,19.031532,-0.712796,18.318736,17.28579,35.604526,0,-0.445057,-0.449628,3739,-603
0.292,-59.560776,-113.92475,587.841342,-59.560776,587.841342,3.260742,-45,-62.821518,-68.92475,19.114103,-0.714689,18.399414,16.927821,35.327235,0,-0.44159,-0.445356,2968,-600
0.294,-59.759177,-84.427,589.799479,-59.759177,589.799479,2.364258,-45.15,-62.123435,-39.277,19.177774,-0.716139,18.461635,16.538082,34.999717,0,-0.437496,-0.447492,2152,-602
0.296,-59.898484,-54.846,591.174389,-59.898484,591.174389,1.416138,-44.4,-61.314622,-10.446,19.22248,-0.717152,18.505328,16.125057,34.630385,0,-0.43288,-0.436812,1289,-592
0.298,-59.978561,-25.21075,591.964713,-59.978561,591.964713,0.583374,-44.1,-60.561935,18.88925,19.248178,-0.717732,18.530446,15.723206,34.253651,0,-0.428171,-0.435744,531,-588
0.3,-59.999327,4.4495,592.169669,-59.999327,592.169669,-0.295532,-43.5,-59.703795,47.9495,19.254842,-0.717883,18.53696,15.295666,33.832626,0,-0.422908,-0.423996,-269,-580
0.302,-59.960763,34.10525,591.789055,-59.960763,591.789055,-1.074463,-42.675,-58.8863,76.78025,19.242466,-0.717603,18.524863,14.88037,33.405233,0,-0.417565,-0.417588,-978,-569
0.304,-59.862906,63.72725,590.823247,-59.862906,590.823247,-1.927002,-42.525,-57.935904,106.25225,19.211062,-0.716894,18.494169,14.425804,32.919972,0,-0.4115,-0.413316,-1754,-567
0.306,-59.705854,93.28625,589.2732,-59.705854,589.2732,-2.736694,-41.325,-56.96916,134.61125,19.160661,-0.71575,18.444911,13.974727,32.419638,0,-0.405245,-0.413316,-2491,-551
0.308,-59.489761,122.75325,587.140446,-59.489761,587.140446,-3.560669,-40.95,-55.929092,163.70325,19.091313,-0.714168,18.377145,13.499338,31.876483,0,-0.398456,-0.406908,-3241,-546
0.31,-59.214841,152.09875,584.427095,-59.214841,584.427095,-4.31543,-39.375,-54.899411,191.47375,19.003087,-0.71214,18.290946,13.035893,31.326839,0,-0.391585,-0.398364,-3928,-525
0.312,-58.881366,181.29375,581.135831,-58.881366,581.135831,-5.114136,-38.925,-53.76723,220.21875,18.896069,-0.709659,18.18641,12.538811,30.725221,0,-0.384065,-0.394092,-4655,-519
0.314,-58.489666,210.3095,577.269906,-58.489666,577.269906,-5.856812,-37.8,-52.632854,248.1095,18.770365,-0.706714,18.063652,12.047118,30.11077,0,-0.376385,-0.387684,-5331,-504
0.316,-58.040128,239.11725,572.833145,-58.040128,572.833145,-6.624756,-35.925,-51.415372,275.04225,18.626101,-0.703293,17.922808,11.540356,29.463164,0,-0.36829,-0.3738,-6030,-479
0.318,-57.533197,267.6885,567.829934,-57.533197,567.829934,-7.269653,-35.25,-50.263544,302.9385,18.463417,-0.699383,17.764034,11.044055,28.80809,0,-0.360101,-0.366324,-6617,-470
0.32,-56.969374,295.99525,562.265222,-56.969374,562.265222,-7.890381,-34.725,-49.078993,330.72025,18.282477,-0.69497,17.587506,10.539987,28.127494,0,-0.351594,-0.362052,-7182,-463
0.322,-56.349216,324.00925,556.14451,-56.349216,556.14451,-8.486938,-33.45,-47.862278,357.45925,18.083457,-0.690039,17.393418,10.034779,27.428197,0,-0.342852,-0.344964,-7725,-446
0.324,-55.673337,351.70275,549.473852,-55.673337,549.473852,-9.039551,-29.775,-46.633786,381.47775,17.866556,-0.684573,17.181983,9.54548,26.727463,0,-0.334093,-0.342828,-8228,-397
0.326,-54.942405,379.0485,542.259843,-54.942405,542.259843,-9.65918,-31.425,-45.283225,410.4735,17.631987,-0.678554,16.953433,8.989475,25.942908,0,-0.324286,-0.337488,-8792,-419
0.328,-54.157143,406.01925,534.509617,-54.157143,534.509617,-10.251343,-27.45,-43.9058,433.46925,17.379982,-0.671964,16.708018,8.468325,25.176343,0,-0.314704,-0.32574,-9331,-366
0.33,-53.318328,432.58875,526.230838,-53.318328,526.230838,-10.796265,-25.575,-42.522063,458.16375,17.110791,-0.664786,16.446005,7.933664,24.379669,0,-0.304746,-0.297972,-9827,-341
0.332,-52.426788,458.7305,517.431693,-52.426788,517.431693,-11.308228,-27.975,-41.11856,486.7055,16.824681,-0.657001,16.16768,7.366969,23.534648,0,-0.294183,-0.303312,-10293,-373
0.334,-51.483406,484.4185,508.120883,-51.483406,508.120883,-11.792725,-23.925,-39.690681,508.3435,16.521933,-0.64859,15.873343,6.842089,22.715432,0,-0.283943,-0.292632,-10734,-319
0.336,-50.489114,509.62775,498.307614,-50.489114,498.307614,-12.210205,-24.525,-38.278909,534.15275,16.202847,-0.639534,15.563313,6.292305,21.855618,0,-0.273195,-0.286224,-11114,-327
0.338,-49.444895,534.33275,488.001591,-49.444895,488.001591,-12.649658,-19.725,-36.795237,554.05775,15.867739,-0.629817,15.237922,5.764918,21.00284,0,-0.262535,-0.273408,-11514,-263
0.34,-48.351783,558.50925,477.213005,-48.351783,477.213005,-13.0979,-21.45,-35.253883,579.95925,15.51694,-0.61942,14.89752,5.180566,20.078085,0,-0.250976,-0.263796,-11922,-286
0.342,-47.210858,582.13375,465.952524,-47.210858,465.952524,-13.464844,-18.9,-33.746014,601.03375,15.150797,-0.608328,14.542468,4.638679,19.181147,0,-0.239764,-0.253116,-12256,-252
0.344,-46.023248,605.1825,454.231283,-46.023248,454.231283,-13.839478,-17.85,-32.18377,623.0325,14.769672,-0.596527,14.173145,4.076104,18.249249,0,-0.228116,-0.239232,-12597,-238
0.346,-44.790128,627.633,442.060872,-44.790128,442.060872,-14.127319,-17.25,-30.662809,644.883,14.373942,-0.584002,13.78994,3.525372,17.315312,0,-0.216441,-0.22962,-12859,-230
0.348,-43.512716,649.46275,429.453327,-43.512716,429.453327,-14.417358,-16.425,-29.095358,665.88775,13.963998,-0.570742,13.393256,2.968373,16.36163,0,-0.20452,-0.21894,-13123,-219
0.35,-42.192277,670.65,416.421115,-42.192277,416.421115,-14.682129,-13.275,-27.510148,683.925,13.540246,-0.556737,12.983509,2.427443,15.410952,0,-0.192637,-0.203988,-13364,-177
0.352,-40.830116,691.17425,402.977123,-40.830116,402.977123,-14.922729,-12.6,-25.907387,703.77425,13.103104,-0.54198,12.561125,1.869267,14.430392,0,-0.18038,-0.193308,-13583,-168
0.354,-39.42758,711.01525,389.134644,-39.42758,389.134644,-15.162231,-11.4,-24.265349,722.41525,12.653006,-0.526465,12.126541,1.309244,13.435784,0,-0.167947,-0.182628,-13801,-152
0.356,-37.986055,730.153,374.907367,-37.986055,374.907367,-15.345703,-9,-22.640352,739.153,12.190395,-0.510191,11.680205,0.766969,12.447173,0,-0.15559,-0.167676,-13968,-120
0.358,-36.506968,748.5685,360.30936,-36.506968,360.30936,-15.530273,-8.4,-20.976695,756.9685,11.71573,-0.493156,11.222573,0.207049,11.429622,0,-0.14287,-0.153792,-14136,-112
0.36,-34.991781,766.244,345.35506,-34.991781,345.35506,-15.687378,-6.9,-19.304403,773.144,11.22948,-0.475366,10.754114,-0.343682,10.410431,0,-0.13013,-0.14418,-14279,-92
0.362,-33.441992,783.162,330.059253,-33.441992,330.059253,-15.819214,-6.525,-17.622778,789.687,10.732125,-0.456825,10.2753,-0.899423,9.375877,0,-0.117198,-0.130296,-14399,-87
0.364,-31.859133,799.30525,314.437066,-31.859133,314.437066,-15.925781,-5.1,-15.933352,804.40525,10.224158,-0.437544,9.786613,-1.444466,8.342147,0,-0.104277,-0.118548,-14496,-68
0.366,-30.244771,814.658,298.503945,-30.244771,298.503945,-16.010376,-4.35,-14.234395,819.008,9.70608,-0.417536,9.288545,-1.991199,7.297346,0,-0.091217,-0.103596,-14573,-58
0.368,-28.600501,829.2055,282.275647,-28.600501,282.275647,-16.074097,-2.4,-12.526404,831.6055,9.178405,-0.396816,8.781589,-2.526297,6.255293,0,-0.078191,-0.089712,-14631,-32
0.37,-26.927949,842.933,265.768219,-26.927949,265.768219,-16.118042,-1.65,-10.809907,844.583,8.641654,-0.375404,8.266249,-3.066275,5.199975,0,-0.065,-0.077964,-14671,-22
0.372,-25.228769,855.827,248.997985,-25.228769,248.997985,-16.144409,-1.275,-9.08436,857.102,8.096357,-0.353324,7.743033,-3.605421,4.137612,0,-0.05172,-0.066216,-14695,-17
0.374,-23.504641,867.8745,231.981527,-23.504641,231.981527,-16.158691,-0.375,-7.34595,868.2495,7.543054,-0.330603,7.212451,-4.13836,3.074091,0,-0.038426,-0.045924,-14708,-5
0.376,-21.757271,879.06375,214.735673,-21.757271,214.735673,-16.164185,-0.15,-5.593086,879.21375,6.982292,-0.307269,6.675022,-4.673803,2.001219,0,-0.025015,-0.040584,-14713,-2
0.378,-19.988386,889.384,197.277477,-19.988386,197.277477,-16.164185,0,-3.824201,889.384,6.414626,-0.283358,6.131268,-5.207898,0.92337,0,-0.011542,-0.024564,-14713,0
0.38,-18.199735,898.8245,179.624202,-18.199735,179.624202,-16.163086,0.075,-2.036649,898.7495,5.840616,-0.258905,5.581711,-5.741262,-0.15955,0,0.001994,-0.01068,-14712,1
0.382,-16.393088,907.37625,161.793304,-16.393088,161.793304,-16.160889,0.075,-0.232199,907.30125,5.260831,-0.23395,5.026881,-6.273368,-1.246487,0,0.015581,0.002136,-14710,1
0.384,-14.57023,915.031,143.802416,-14.57023,143.802416,-16.157593,0.3,1.587363,914.731,4.675844,-0.208535,4.467309,-6.801598,-2.334289,0,0.029179,0.01602,-14707,4
0.386,-12.732964,921.78075,125.669328,-12.732964,125.669328,-16.151001,0.525,3.418037,921.25575,4.086233,-0.182706,3.903527,-7.326418,-3.422891,0,0.042786,0.038448,-14701,7
0.388,-10.883107,927.61875,107.411971,-10.883107,107.411971,-16.140015,0.825,5.256908,926.79375,3.492581,-0.15651,3.336071,-7.846496,-4.510425,0,0.05638,0.04272,-14691,11
0.39,-9.022489,932.53975,89.048399,-9.022489,89.048399,-16.122437,1.5,7.099948,931.03975,2.895476,-0.129997,2.765479,-8.358646,-5.593167,0,0.069915,0.055536,-14675,20
0.392,-7.152948,936.53875,70.596771,-7.152948,70.596771,-16.092773,2.1,8.939825,934.43875,2.295507,-0.103219,2.192288,-8.864054,-6.671766,0,0.083397,0.06942,-14648,28
0.394,-5.276334,939.61125,52.075334,-5.276334,52.075334,-16.057617,2.925,10.781283,936.68625,1.693269,-0.076229,1.617039,-9.361837,-7.744798,0,0.09681,0.08544,-14616,39
0.396,-3.394503,941.75475,33.502401,-3.394503,33.502401,-16.010376,2.625,12.615873,939.12975,1.089356,-0.049082,1.040273,-9.85919,-8.818917,0,0.110236,0.09612,-14573,35
0.398,-1.509315,942.96725,14.896339,-1.509315,14.896339,-15.966431,3.075,14.457116,939.89225,0.484366,-0.021834,0.462532,-10.34655,-9.884018,0,0.12355,0.110004,-14533,41
0.4,0.377366,943.247,-3.724453,0.377366,-3.724453,-15.912598,3.3,16.289964,939.947,-0.121103,0.00546,-0.115644,-10.82677,-10.942414,0,0.13678,0.123888,-14484,44
0.402,2.263673,942.594,-22.341562,2.263673,-22.341562,-15.856567,3.675,18.12024,938.919,-0.726453,0.032742,-0.693711,-11.298759,-11.99247,0,0.149906,0.132432,-14433,49
0.404,4.147742,941.00925,-40.936579,4.147742,-40.936579,-15.784058,5.325,19.9318,935.68425,-1.331084,0.059956,-1.271127,-11.750441,-13.021569,0,0.16277,0.148452,-14367,71
0.406,6.02771,938.49375,-59.491115,6.02771,-59.491115,-15.697266,5.775,21.724976,932.71875,-1.934398,0.087047,-1.847351,-12.199191,-14.046542,0,0.175582,0.163404,-14288,77
0.408,7.901717,935.05,-77.986823,7.901717,-77.986823,-15.607178,6.3,23.508895,928.75,-2.5358,0.113959,-2.421842,-12.638512,-15.060354,0,0.188254,0.175152,-14206,84
0.41,9.76791,930.68175,-96.405414,9.76791,-96.405414,-15.480835,7.425,25.248745,923.25675,-3.134695,0.140637,-2.994058,-13.055654,-16.049712,0,0.200621,0.1869,-14091,99
0.412,11.624444,925.39325,-114.728673,11.624444,-114.728673,-15.354492,7.125,26.978936,918.26825,-3.730489,0.167029,-3.56346,-13.473791,-17.037251,0,0.212966,0.200784,-13976,95
0.414,13.469483,919.18975,-132.938482,13.469483,-132.938482,-15.180908,7.725,28.650391,911.46475,-4.322595,0.193084,-4.129511,-13.863879,-17.99339,0,0.224917,0.209328,-13818,103
0.416,15.301203,912.0775,-151.016834,15.301203,-151.016834,-14.983154,9.6,30.284357,902.4775,-4.910426,0.218753,-4.691673,-14.228908,-18.920581,0,0.236507,0.22428,-13638,128
0.418,17.117793,904.063,-168.945853,17.117793,-168.945853,-14.781006,11.175,31.898799,892.888,-5.493401,0.243989,-5.249412,-14.58462,-19.834032,0,0.247925,0.238164,-13454,149
0.42,18.917455,895.15425,-186.707808,18.917455,-186.707808,-14.594238,12.45,33.511693,882.70425,-6.070945,0.268749,-5.802196,-14.935779,-20.737975,0,0.259225,0.247776,-13284,166
0.422,20.69841,885.36075,-204.285136,20.69841,-204.285136,-14.349243,14.4,35.047653,870.96075,-6.642485,0.29299,-6.349495,-15.255907,-21.605402,0,0.270068,0.260592,-13061,192
0.424,22.458898,874.69175,-221.660456,22.458898,-221.660456,-14.11084,13.275,36.569738,861.41675,-7.207456,0.316674,-6.890782,-15.587758,-22.478541,0,0.280982,0.267,-12844,177
0.426,24.197177,863.15775,-238.816585,24.197177,-238.816585,-13.85376,15.975,38.050937,847.18275,-7.765301,0.339766,-7.425534,-15.876163,-23.301698,0,0.291271,0.286224,-12610,213
0.428,25.911529,850.77025,-255.736559,25.911529,-255.736559,-13.551636,16.35,39.463165,834.42025,-8.315467,0.362235,-7.953232,-16.156785,-24.110017,0,0.301375,0.292632,-12335,218
0.43,27.600258,837.54125,-272.403647,27.600258,-272.403647,-13.149536,17.1,40.749794,820.44125,-8.857409,0.38405,-8.473359,-16.396032,-24.869391,0,0.310867,0.301176,-11969,228
0.432,29.261694,823.48425,-288.801367,29.261694,-288.801367,-12.812256,17.4,42.07395,806.08425,-9.390594,0.405188,-8.985406,-16.642464,-25.62787,0,0.320348,0.311856,-11662,232
0.434,30.894195,808.613,-304.913503,30.894195,-304.913503,-12.394775,22.35,43.28897,786.263,-9.914492,0.425625,-9.488866,-16.822177,-26.311044,0,0.328888,0.318264,-11282,298
0.436,32.496146,792.94175,-320.724125,32.496146,-320.724125,-12.003662,20.25,44.499808,772.69175,-10.428586,0.445345,-9.983241,-17.044429,-27.02767,0,0.337846,0.330012,-10926,270
0.438,34.065962,776.48675,-336.217596,34.065962,-336.217596,-11.608154,21.675,45.674116,754.81175,-10.932368,0.464331,-10.468037,-17.227036,-27.695073,0,0.346188,0.335352,-10566,289
0.44,35.602093,759.264,-351.378597,35.602093,-351.378597,-11.188477,22.5,46.79057,736.764,-11.425339,0.482573,-10.942767,-17.393326,-28.336092,0,0.354201,0.348168,-10184,300
0.442,37.103018,741.29,-366.192135,37.103018,-366.192135,-10.751221,26.55,47.854239,714.74,-11.907013,0.500061,-11.406952,-17.518037,-28.924989,0,0.361562,0.351372,-9786,354
0.444,38.567253,722.58325,-380.643561,38.567253,-380.643561,-10.299683,24.975,48.866936,697.60825,-12.376912,0.516792,-11.86012,-17.663558,-29.523678,0,0.369046,0.360984,-9375,333
0.446,39.993351,703.16225,-394.718586,39.993351,-394.718586,-9.809692,28.35,49.803043,674.81225,-12.834572,0.532762,-12.30181,-17.749485,-30.051294,0,0.375641,0.369528,-8929,378
0.448,41.379902,683.04575,-408.403291,41.379902,-408.403291,-9.263672,26.1,50.643574,656.94575,-13.27954,0.547973,-12.731567,-17.844803,-30.57637,0,0.382205,0.372732,-8432,348
0.45,42.725534,662.2535,-421.684145,42.725534,-421.684145,-8.771484,31.125,51.497018,631.1285,-13.711377,0.562429,-13.148949,-17.887996,-31.036945,0,0.387962,0.381276,-7984,415
0.452,44.028916,640.8065,-434.548013,44.028916,-434.548013,-8.299072,30.975,52.327988,609.8315,-14.129655,0.576134,-13.553521,-17.956862,-31.510383,0,0.39388,0.38982,-7554,413
0.454,45.28876,618.726,-446.982176,45.28876,-446.982176,-7.775024,30.375,53.063784,588.351,-14.533962,0.589099,-13.944862,-17.999531,-31.944393,0,0.399305,0.393024,-7077,405
0.456,46.50382,596.0335,-458.974338,46.50382,-458.974338,-7.221313,32.775,53.725133,563.2585,-14.923896,0.601333,-14.322562,-17.997493,-32.320056,0,0.404001,0.398364,-6573,437
0.458,47.672894,572.75175,-470.512641,47.672894,-470.512641,-6.661011,34.125,54.333905,538.62675,-15.299072,0.612849,-14.686223,-17.984907,-32.67113,0,0.408389,0.406908,-6063,455
0.46,48.794827,548.90375,-481.585675,48.794827,-481.585675,-6.125977,32.775,54.920804,516.12875,-15.65912,0.623661,-15.035459,-17.981491,-33.01695,0,0.412712,0.407976,-5576,437
0.462,49.868509,524.51275,-492.182489,49.868509,-492.182489,-5.539307,34.275,55.407816,490.23775,-16.003684,0.633784,-15.3699,-17.928237,-33.298137,0,0.416227,0.413316,-5042,457
0.464,50.892878,499.603,-502.292607,50.892878,-502.292607,-4.87793,36.825,55.770808,462.778,-16.332422,0.643235,-15.689187,-17.831563,-33.52075,0,0.419009,0.414384,-4440,491
0.466,51.866921,474.19925,-511.906029,51.866921,-511.906029,-4.268188,36.225,56.135109,437.97425,-16.64501,0.65203,-15.992979,-17.753774,-33.746753,0,0.421834,0.41652,-3885,483
0.468,52.789675,448.32675,-521.01325,52.789675,-521.01325,-3.585938,36.9,56.375613,411.42675,-16.941138,0.660189,-16.280949,-17.631401,-33.91235,0,0.423904,0.42186,-3264,492
0.47,53.660228,422.011,-529.605264,53.660228,-529.605264,-2.832275,38.1,56.492503,383.911,-17.220513,0.667729,-16.552784,-17.469907,-34.022691,0,0.425284,0.426132,-2578,508
0.472,54.477719,395.27775,-537.673575,54.477719,-537.673575,-2.06543,38.25,56.543149,357.02775,-17.482861,0.67467,-16.808191,-17.295486,-34.103677,0,0.426296,0.426132,-1880,510
0.474,55.241339,368.15375,-545.210204,55.241339,-545.210204,-1.369995,39.15,56.611334,329.00375,-17.72792,0.681029,-17.046891,-17.117692,-34.164583,0,0.427057,0.425064,-1247,522
0.476,55.950334,340.6655,-552.207699,55.950334,-552.207699,-0.555908,39.6,56.506242,301.0655,-17.955449,0.686824,-17.268624,-16.895133,-34.163757,0,0.427047,0.428268,-506,528
0.478,56.604001,312.8405,-558.65914,56.604001,-558.65914,0.159302,40.05,56.444699,272.7905,-18.165222,0.692075,-17.473147,-16.681625,-34.154772,0,0.426935,0.428268,145,534
0.48,57.201696,284.70625,-564.558147,57.201696,-564.558147,0.85144,40.125,56.350256,244.58125,-18.357033,0.696797,-17.660236,-16.459962,-34.120198,0,0.426502,0.425064,775,535
0.482,57.742826,256.29025,-569.898888,57.742826,-569.898888,1.578735,40.575,56.164091,215.71525,-18.530691,0.701006,-17.829685,-16.209701,-34.039386,0,0.425492,0.423996,1437,541
0.484,58.226857,227.62075,-574.676082,58.226857,-574.676082,2.243408,40.575,55.983449,187.04575,-18.686025,0.704719,-17.981306,-15.962258,-33.943564,0,0.424295,0.426132,2042,541
0.486,58.653309,198.7265,-578.885003,58.653309,-578.885003,3.035522,41.1,55.617787,157.6265,-18.822881,0.707948,-18.114933,-15.661143,-33.776076,0,0.422201,0.425064,2763,548
0.488,59.021763,169.63575,-582.521491,59.021763,-582.521491,3.717773,40.95,55.30399,128.68575,-18.941124,0.710707,-18.230418,-15.376947,-33.607364,0,0.420092,0.423996,3384,546
0.49,59.331852,140.37675,-585.581948,59.331852,-585.581948,4.404419,40.875,54.927433,99.50175,-19.040637,0.713005,-18.327632,-15.074622,-33.402254,0,0.417528,0.414384,4009,545
0.492,59.58327,110.9795,-588.06335,59.58327,-588.06335,5.076782,41.1,54.506488,69.8795,-19.121322,0.714854,-18.406468,-14.757616,-33.164084,0,0.414551,0.41652,4621,548
0.494,59.77577,81.47225,-589.963242,59.77577,-589.963242,5.779907,41.25,53.995863,40.22225,-19.183099,0.71626,-18.466839,-14.416888,-32.883727,0,0.411047,0.417588,5261,550
0.496,59.909159,51.88425,-591.279745,59.909159,-591.279745,6.465454,40.125,53.443705,11.75925,-19.225906,0.717229,-18.508676,-14.073624,-32.582301,0,0.407279,0.409044,5885,535
0.498,59.983307,22.2455,-592.011558,59.983307,-592.011558,7.129028,40.275,52.854279,-18.0295,-19.249701,0.717767,-18.531934,-13.711348,-32.243283,0,0.403041,0.410112,6489,537
0.5,59.998141,-7.4155,-592.157957,59.998141,-592.157957,7.833252,39.975,52.164889,-47.3905,-19.254461,0.717874,-18.536587,-13.325888,-31.862475,0,0.398281,0.401568,7130,533
0.502,59.953645,-37.0695,-591.718797,59.953645,-591.718797,8.481445,38.775,51.4722,-75.8445,-19.240182,0.717552,-18.52263,-12.945896,-31.468526,0,0.393357,0.398364,7720,517
0.504,59.849863,-66.68675,-590.694512,59.849863,-590.694512,9.216431,39,50.633432,-105.68675,-19.206876,0.716799,-18.490077,-12.517969,-31.008046,0,0.387601,0.393024,8389,520
0.506,59.686898,-96.23775,-589.086116,59.686898,-589.086116,9.910767,37.95,49.776131,-134.18775,-19.154578,0.715612,-18.438966,-12.094554,-30.53352,0,0.381669,0.386616,9021,506
0.508,59.464912,-125.69375,-586.895198,59.464912,-586.895198,10.636963,37.65,48.827949,-163.34375,-19.083339,0.713985,-18.369353,-11.642773,-30.012126,0,0.375152,0.380208,9682,502
0.51,59.184123,-155.0255,-584.123926,59.184123,-584.123926,11.407104,36.225,47.777019,-191.2505,-18.993229,0.711913,-18.281316,-11.172814,-29.45413,0,0.368177,0.375936,10383,483
0.512,58.84481,-184.20375,-580.775039,58.84481,-580.775039,12.056396,36,46.788414,-220.20375,-18.884337,0.709386,-18.174952,-10.711866,-28.886817,0,0.361085,0.366324,10974,480
0.514,58.447308,-213.2,-576.85185,58.447308,-576.85185,12.677124,35.1,45.770184,-248.3,-18.756772,0.706393,-18.050379,-10.249145,-28.299524,0,0.353744,0.359916,11539,468
0.516,57.99201,-241.9855,-572.358237,57.99201,-572.358237,13.381348,34.5,44.610662,-276.4855,-18.610659,0.702924,-17.907735,-9.748811,-27.656546,0,0.345707,0.35244,12180,460
0.518,57.479366,-270.53175,-567.298644,57.479366,-567.298644,14.048218,31.575,43.431148,-302.10675,-18.446142,0.698965,-17.747177,-9.261145,-27.008322,0,0.337604,0.346032,12787,421
0.52,56.909883,-298.81025,-561.678075,56.909883,-561.678075,14.589844,29.775,42.320039,-328.58525,-18.263385,0.694501,-17.568884,-8.785403,-26.354287,0,0.329429,0.337488,13280,397
0.522,56.284125,-326.79325,-555.502087,56.284125,-555.502087,15.152344,29.625,41.131781,-356.41825,-18.062568,0.689517,-17.373051,-8.280006,-25.653058,0,0.320663,0.327876,13792,395
0.524,55.60271,-354.4535,-548.776788,55.60271,-548.776788,15.697266,30.675,39.905444,-385.1285,-17.84389,0.683996,-17.159894,-7.758517,-24.918411,0,0.31148,0.318264,14288,409
0.526,54.866311,-381.763,-541.508828,54.866311,-541.508828,16.222412,27.3,38.643899,-409.063,-17.607567,0.677921,-16.929646,-7.261151,-24.190797,0,0.302385,0.313992,14766,364
0.528,54.075658,-408.69475,-533.705393,54.075658,-533.705393,16.756348,28.35,37.31931,-437.04475,-17.353832,0.671273,-16.682559,-6.719025,-23.401584,0,0.29252,0.301176,15252,378
0.53,53.231532,-435.22275,-525.374201,53.231532,-525.374201,17.234253,25.65,35.997279,-460.87275,-17.082937,0.664035,-16.418902,-6.206567,-22.625469,0,0.282818,0.292632,15687,342
0.532,52.334767,-461.32025,-516.523489,52.334767,-516.523489,17.720947,23.85,34.61382,-485.17025,-16.79515,0.656188,-16.138961,-5.674749,-21.813711,0,0.272671,0.285156,16130,318
0.534,51.386251,-486.96125,-507.16201,51.386251,-507.16201,18.172485,23.55,33.213766,-510.51125,-16.490754,0.647713,-15.843041,-5.131303,-20.974343,0,0.262179,0.274476,16541,314
0.536,50.386922,-512.121,-497.299021,50.386922,-497.299021,18.607544,23.55,31.779378,-535.671,-16.170052,0.638592,-15.531459,-4.580133,-20.111592,0,0.251395,0.267,16937,314
0.538,49.337767,-536.7745,-486.944275,49.337767,-486.944275,18.978882,22.05,30.358885,-558.8245,-15.833359,0.628808,-15.204552,-4.046607,-19.251158,0,0.240639,0.25098,17275,294
0.54,48.239824,-560.897,-476.108012,48.239824,-476.108012,19.352417,18.375,28.887407,-579.272,-15.48101,0.618342,-14.862668,-3.518624,-18.381292,0,0.229766,0.2403,17615,245
0.542,47.094179,-584.465,-464.800946,47.094179,-464.800946,19.69519,17.1,27.398989,-601.565,-15.113352,0.60718,-14.506172,-2.973322,-17.479494,0,0.218494,0.230688,17927,228
0.544,45.901964,-607.455,-453.034259,45.901964,-453.034259,20.040161,14.4,25.861803,-621.855,-14.73075,0.595307,-14.135443,-2.429237,-16.56468,0,0.207058,0.215736,18241,192
0.546,44.664359,-629.84425,-440.819586,44.664359,-440.819586,20.337891,15.75,24.326468,-645.59425,-14.33358,0.582709,-13.750872,-1.861556,-15.612428,0,0.195155,0.20826,18512,210
0.548,43.382587,-651.6105,-428.169007,43.382587,-428.169007,20.609253,12.375,22.773334,-663.9855,-13.922237,0.569375,-13.352863,-1.326552,-14.679414,0,0.183493,0.196512,18759,165
0.55,42.057917,-672.7325,-415.09503,42.057917,-415.09503,20.856445,12.525,21.201472,-685.2575,-13.497127,0.555295,-12.941832,-0.766532,-13.708365,0,0.171355,0.182628,18984,167
0.552,40.691657,-693.1895,-401.610584,40.691657,-401.610584,21.076172,11.175,19.615485,-704.3645,-13.05867,0.540462,-12.518208,-0.21793,-12.736138,0,0.159202,0.177288,19184,149
0.554,39.285159,-712.961,-387.729003,39.285159,-387.729003,21.27832,9.15,18.006839,-722.111,-12.6073,0.524872,-12.082428,0.327106,-11.755322,0,0.146942,0.156996,19368,122
0.556,37.839813,-732.02725,-373.464013,37.839813,-373.464013,21.445312,8.625,16.3945,-740.65225,-12.143463,0.508521,-11.634942,0.878658,-10.756284,0,0.134454,0.145248,19520,115
0.558,36.35705,-750.36975,-358.829722,36.35705,-358.829722,21.590332,7.575,14.766718,-757.94475,-11.667618,0.491411,-11.176207,1.425535,-9.750672,0,0.121883,0.131364,19652,101
0.56,34.838334,-767.9705,-343.8406,34.838334,-343.8406,21.718872,6.225,13.119462,-774.1955,-11.180236,0.473545,-10.70669,1.970237,-8.736453,0,0.109206,0.12282,19769,83
0.562,33.285168,-784.81125,-328.511469,33.285168,-328.511469,21.824341,4.65,11.460827,-789.46125,-10.681797,0.45493,-10.226867,2.511042,-7.715825,0,0.096448,0.110004,19865,62
0.564,31.699089,-800.87625,-312.857488,31.699089,-312.857488,21.903442,4.575,9.795647,-805.45125,-10.172797,0.435576,-9.737221,3.058616,-6.678604,0,0.083483,0.098256,19937,61
0.566,30.081663,-816.1495,-296.894136,30.081663,-296.894136,21.980347,3.375,8.101316,-819.5245,-9.653736,0.415495,-9.238241,3.600441,-5.6378,0,0.070473,0.083304,20007,45
0.568,28.434491,-830.6155,-280.637198,28.434491,-280.637198,22.035278,1.95,6.399213,-832.5655,-9.12513,0.394705,-8.730424,4.137094,-4.593331,0,0.057417,0.06942,20057,26
0.57,26.759201,-844.26,-264.10275,26.759201,-264.10275,22.071533,1.05,4.687668,-845.31,-8.5875,0.373226,-8.214274,4.674149,-3.540125,0,0.044252,0.055536,20090,14
0.572,25.057451,-857.06975,-247.307143,25.057451,-247.307143,22.085815,0.375,2.971636,-857.44475,-8.041378,0.35108,-7.690297,5.208121,-2.482176,0,0.031027,0.045924,20103,5
0.574,23.330922,-869.03225,-230.266985,23.330922,-230.266985,22.089111,0,1.241811,-869.03225,-7.487304,0.328296,-7.159008,5.741884,-1.417124,0,0.017714,0.03204,20106,0
0.576,21.581322,-880.13525,-212.999126,21.581322,-212.999126,22.089111,0,-0.507789,-880.13525,-6.925827,0.304904,-6.620923,6.277442,-0.343481,0,0.004294,0.013884,20106,0
0.578,19.810381,-890.36775,-195.520641,19.810381,-195.520641,22.086914,-0.225,-2.276533,-890.14275,-6.357501,0.280936,-6.076564,6.810364,0.733799,0,-0.009172,0.004272,20104,-3
0.58,18.019851,-899.71975,-177.848815,18.019851,-177.848815,22.08252,-0.225,-4.062669,-899.49475,-5.782888,0.256431,-5.526457,7.343262,1.816805,0,-0.02271,-0.008544,20100,-3
0.582,16.211502,-908.18225,-160.001122,16.211502,-160.001122,22.078125,-0.375,-5.866623,-907.80725,-5.202557,0.231428,-4.971129,7.873569,2.90244,0,-0.03628,-0.022428,20096,-5
0.584,14.387122,-915.74675,-141.995211,14.387122,-141.995211,22.069336,-0.9,-7.682214,-914.84675,-4.617081,0.20597,-4.411111,8.398034,3.986923,0,-0.049837,-0.034176,20088,-12
0.586,12.548515,-922.40575,-123.848887,12.548515,-123.848887,22.055054,-1.125,-9.506539,-921.28075,-4.02704,0.180102,-3.846938,8.920559,5.073621,0,-0.06342,-0.046992,20075,-15
0.588,10.697499,-928.15225,-105.580095,10.697499,-105.580095,22.033081,-1.95,-11.335582,-926.20225,-3.433016,0.153872,-3.279144,9.43376,6.154616,0,-0.076933,-0.061944,20055,-26
0.59,8.835906,-932.98125,-87.206899,8.835906,-87.206899,22.002319,-2.55,-13.166413,-930.43125,-2.835598,0.12733,-2.708268,9.942594,7.234327,0,-0.090429,-0.077964,20027,-34
0.592,6.965574,-936.88775,-68.747467,6.965574,-68.747467,21.960571,-2.4,-14.994997,-934.48775,-2.235376,0.100529,-2.134847,10.449636,8.314789,0,-0.103935,-0.09078,19989,-32
0.594,5.088355,-939.8675,-50.220055,5.088355,-50.220055,21.915527,-3,-16.827172,-936.8675,-1.632943,0.073521,-1.559422,10.945912,9.38649,0,-0.117331,-0.10146,19948,-40
0.596,3.206104,-941.918,-31.642982,3.206104,-31.642982,21.8573,-2.925,-18.651196,-938.993,-1.028895,0.046361,-0.982534,11.438279,10.455745,0,-0.130697,-0.11748,19895,-39
0.598,1.320683,-943.037,-13.034619,1.320683,-13.034619,21.799072,-4.125,-20.478389,-938.912,-0.42383,0.019106,-0.404725,11.916072,11.511347,0,-0.143892,-0.129228,19842,-55
0.6,-0.566044,-943.22375,5.586634,-0.566044,5.586634,21.726562,-4.425,-22.292607,-938.79875,0.181654,-0.008189,0.173464,12.390242,12.563707,0,-0.157046,-0.143112,19776,-59
0.602,-2.452212,-942.4775,24.202362,-2.452212,24.202362,21.636475,-4.8,-24.088687,-937.6775,0.786958,-0.035467,0.751491,12.852627,13.604118,0,-0.170051,-0.155928,19694,-64
0.604,-4.335954,-940.79925,42.794157,-4.335954,42.794157,21.548584,-6.45,-25.884538,-934.34925,1.391484,-0.062672,1.328812,13.299545,14.628357,0,-0.182854,-0.168744,19614,-86
0.606,-6.215409,-938.191,61.343636,-6.215409,61.343636,21.434326,-6.6,-27.649735,-931.591,1.994634,-0.089747,1.904887,13.742416,15.647303,0,-0.195591,-0.182628,19510,-88
0.608,-8.088718,-934.65475,79.832454,-8.088718,79.832454,21.321167,-7.2,-29.409885,-927.45475,2.595812,-0.116638,2.479175,14.174346,16.65352,0,-0.208169,-0.196512,19407,-96
0.61,-9.954028,-930.19425,98.242329,-9.954028,98.242329,21.162964,-9.375,-31.116992,-920.81925,3.194423,-0.14329,3.051133,14.574941,17.626074,0,-0.220326,-0.210396,19263,-125
0.612,-11.809495,-924.81425,116.555057,-11.809495,116.555057,20.994873,-11.025,-32.804368,-913.78925,3.789875,-0.16965,3.620225,14.967616,18.587841,0,-0.232348,-0.221076,19110,-147
0.614,-13.653285,-918.5195,134.752529,-13.653285,134.752529,20.789429,-12.225,-34.442714,-906.2945,4.38158,-0.195669,4.185911,15.344211,19.530121,0,-0.244127,-0.237096,18923,-163
0.616,-15.483573,-911.31625,152.81675,-15.483573,152.81675,20.544434,-13.95,-36.028007,-897.36625,4.968952,-0.221297,4.747655,15.696908,20.444563,0,-0.255557,-0.241368,18700,-186
0.618,-17.29855,-903.212,170.729857,-17.29855,170.729857,20.315918,-13.35,-37.614468,-889.862,5.55141,-0.246487,5.304922,16.059853,21.364776,0,-0.26706,-0.254184,18492,-178
0.62,-19.096421,-894.21475,188.474137,-19.096421,188.474137,20.061035,-17.025,-39.157456,-877.18975,6.128378,-0.271197,5.857182,16.375338,22.232519,0,-0.277906,-0.268068,18260,-227
0.622,-20.875409,-884.33325,206.032044,-20.875409,206.032044,19.718262,-18,-40.593671,-866.33325,6.699287,-0.295384,6.403903,16.675545,23.079448,0,-0.288493,-0.276612,17948,-240
0.624,-22.633754,-873.577,223.386214,-22.633754,223.386214,19.348022,-19.5,-41.981776,-854.077,7.263571,-0.31901,6.94456,16.953386,23.897946,0,-0.298724,-0.28836,17611,-260
0.626,-24.369717,-861.95725,240.519488,-24.369717,240.519488,18.990967,-21,-43.360684,-840.95725,7.820672,-0.342042,7.47863,17.22279,24.70142,0,-0.308768,-0.297972,17286,-280
0.628,-26.081583,-849.485,257.414922,-26.081583,257.414922,18.63501,-18.975,-44.716593,-830.51,8.37004,-0.364446,8.005594,17.50483,25.510424,0,-0.31888,-0.30972,16962,-253
0.63,-27.767657,-836.1725,274.05581,-27.767657,274.05581,18.298828,-22.5,-46.066485,-813.6725,8.911131,-0.386195,8.524936,17.740683,26.265619,0,-0.32832,-0.321468,16656,-300
0.632,-29.426273,-822.0335,290.425697,-29.426273,290.425697,17.941772,-24.975,-47.368045,-797.0585,9.44341,-0.407263,9.036147,17.965443,27.00159,0,-0.33752,-0.323604,16331,-333
0.634,-31.055791,-807.0815,306.508394,-31.055791,306.508394,17.527588,-22.725,-48.583379,-784.3565,9.966351,-0.42763,9.538721,18.19494,27.733661,0,-0.346671,-0.338556,15954,-303
0.636,-32.654599,-791.3315,322.287999,-32.654599,322.287999,17.134277,-26.325,-49.788876,-765.0065,10.479437,-0.447277,10.03216,18.37545,28.40761,0,-0.355095,-0.34176,15596,-351
0.638,-34.221117,-774.79875,337.748907,-34.221117,337.748907,16.693726,-26.475,-50.914843,-748.32375,10.98216,-0.466189,10.515971,18.55376,29.069731,0,-0.363372,-0.353508,15195,-353
0.64,-35.753794,-757.5,352.875831,-35.753794,352.875831,16.2323,-27.075,-51.986094,-730.425,11.474023,-0.484355,10.989668,18.709256,29.698924,0,-0.371237,-0.362052,14775,-361
0.642,-37.251117,-739.45225,367.653811,-37.251117,367.653811,15.722534,-29.85,-52.973651,-709.60225,11.95454,-0.501768,11.452772,18.822428,30.2752,0,-0.37844,-0.3738,14311,-398
0.644,-38.711603,-720.673,382.068234,-38.711603,382.068234,15.213867,-30.075,-53.92547,-690.598,12.423236,-0.518423,11.904813,18.938939,30.843752,0,-0.385547,-0.377004,13848,-401
0.646,-40.133809,-701.1815,396.104847,-40.133809,396.104847,14.688721,-32.625,-54.82253,-668.5565,12.879647,-0.534317,12.34533,19.01991,31.365239,0,-0.392065,-0.385548,13370,-435
0.648,-41.516329,-680.9965,409.74977,-41.516329,409.74977,13.992188,-33.825,-55.508516,-647.1715,13.323322,-0.549452,12.773869,19.050205,31.824075,0,-0.397801,-0.386616,12736,-451
0.65,-42.857795,-660.13775,422.989509,-42.857795,422.989509,13.350586,-33.3,-56.208381,-626.83775,13.753822,-0.563833,13.189989,19.091473,32.281462,0,-0.403518,-0.398364,12152,-444
0.652,-44.15688,-638.6265,435.810972,-44.15688,435.810972,12.738647,-36.225,-56.895527,-602.4015,14.170722,-0.577464,13.593257,19.10077,32.694028,0,-0.408675,-0.402636,11595,-483
0.654,-45.412301,-616.484,448.201482,-45.412301,448.201482,12.011353,-36.075,-57.423654,-580.409,14.573608,-0.590355,13.983253,19.085497,33.068749,0,-0.413359,-0.409044,10933,-481
0.656,-46.622816,-593.73175,460.148784,-46.622816,460.148784,11.406006,-37.95,-58.028822,-555.78175,14.962084,-0.602517,14.359567,19.071999,33.431565,0,-0.417895,-0.417588,10382,-506
0.658,-47.787228,-570.392,471.641066,-47.787228,471.641066,10.736938,-39.375,-58.524166,-531.017,15.335764,-0.613962,14.721802,19.028789,33.750591,0,-0.421882,-0.418656,9773,-525
0.66,-48.904384,-546.4885,482.666963,-48.904384,482.666963,9.877808,-39.525,-58.782192,-506.9635,15.694279,-0.624704,15.069575,18.928415,33.99799,0,-0.424975,-0.417588,8991,-527
0.662,-49.973182,-522.04475,493.215571,-49.973182,493.215571,9.157104,-40.725,-59.130286,-481.31975,16.037275,-0.634759,15.402516,18.840519,34.243035,0,-0.428038,-0.428268,8335,-543
0.664,-50.992563,-497.0845,503.276461,-50.992563,503.276461,8.421021,-41.1,-59.413584,-455.9845,16.364413,-0.644144,15.720269,18.737812,34.458081,0,-0.430726,-0.428268,7665,-548
0.666,-51.96152,-471.63275,512.839683,-51.96152,512.839683,7.676147,-42.075,-59.637667,-429.55775,16.675368,-0.652875,16.022493,18.611984,34.634477,0,-0.432931,-0.428268,6987,-561
0.668,-52.879094,-445.71475,521.89578,-52.879094,521.89578,7.005981,-42.75,-59.885075,-402.96475,16.969834,-0.660971,16.308863,18.491101,34.799964,0,-0.435,-0.436812,6377,-570
0.67,-53.744379,-419.356,530.435797,-53.744379,530.435797,6.306152,-42.3,-60.050531,-377.056,17.247519,-0.66845,16.579069,18.35354,34.932609,0,-0.436658,-0.434676,5740,-564
0.672,-54.556518,-392.5825,538.45129,-54.556518,538.45129,5.60083,-42.975,-60.157348,-349.6075,17.508149,-0.675331,16.832817,18.189878,35.022695,0,-0.437784,-0.440016,5098,-573
0.674,-55.314709,-365.42075,545.934333,-55.314709,545.934333,4.870239,-44.325,-60.184948,-321.09575,17.751465,-0.681633,17.069832,17.998054,35.067886,0,-0.438349,-0.440016,4433,-591
0.676,-56.018201,-337.89775,552.877525,-56.018201,552.877525,4.148438,-44.175,-60.166638,-293.72275,17.977229,-0.687374,17.289855,17.802161,35.092016,0,-0.43865,-0.440016,3776,-589
0.678,-56.6663,-310.0405,559.274,-56.6663,559.274,3.404663,-43.725,-60.070963,-266.3155,18.185215,-0.692571,17.492644,17.585774,35.078419,0,-0.43848,-0.430404,3099,-583
0.68,-57.258363,-281.87675,565.117435,-57.258363,565.117435,2.696045,-44.55,-59.954408,-237.32675,18.375218,-0.697241,17.677978,17.352881,35.030858,0,-0.437886,-0.440016,2454,-594
0.682,-57.793807,-253.43425,570.40205,-57.793807,570.40205,1.978638,-45.15,-59.772445,-208.28425,18.547052,-0.7014,17.845652,17.102488,34.94814,0,-0.436852,-0.434676,1801,-602
0.684,-58.2721,-224.741,575.122619,-58.2721,575.122619,1.201904,-44.85,-59.474004,-179.891,18.700545,-0.705063,17.995481,16.826134,34.821615,0,-0.43527,-0.444288,1094,-598
0.686,-58.692771,-195.82575,579.274475,-58.692771,579.274475,0.475708,-45.525,-59.168479,-150.30075,18.835545,-0.708245,18.1273,16.539569,34.666869,0,-0.433336,-0.436812,433,-607
0.688,-59.055403,-166.71675,582.853512,-59.055403,582.853512,-0.253784,-45.6,-58.801619,-121.11675,18.95192,-0.710957,18.240963,16.239782,34.480746,0,-0.431009,-0.435744,-231,-608
0.69,-59.359638,-137.443,585.856191,-59.359638,585.856191,-0.982178,-45.375,-58.37746,-92.068,19.049555,-0.71321,18.336344,15.925939,34.262284,0,-0.428279,-0.433608,-894,-605
0.692,-59.605175,-108.03325,588.279543,-59.605175,588.279543,-1.707275,-45.45,-57.8979,-62.58325,19.128352,-0.715014,18.413338,15.594548,34.007886,0,-0.425099,-0.429336,-1554,-606
0.694,-59.791771,-78.51675,590.121171,-59.791771,590.121171,-2.433472,-45.375,-57.358299,-33.14175,19.188234,-0.716376,18.471857,15.247741,33.719598,0,-0.421495,-0.423996,-2215,-605
0.696,-59.919242,-48.9225,591.379254,-59.919242,591.379254,-3.156372,-44.55,-56.76287,-4.3725,19.229141,-0.717303,18.511839,14.89101,33.402849,0,-0.417536,-0.422928,-2873,-594
0.698,-59.987461,-19.27975,592.052549,-59.987461,592.052549,-3.924316,-44.325,-56.063145,25.04525,19.251034,-0.717797,18.533237,14.502448,33.035685,0,-0.412946,-0.414384,-3572,-591
0.7,-59.996361,10.382,592.140388,-59.996361,592.140388,-4.669189,-44.025,-55.327172,54.407,19.25389,-0.717861,18.536029,14.104787,32.640816,0,-0.40801,-0.419724,-4250,-587
0.702,-59.945933,40.0335,591.642687,-59.945933,591.642687,-5.386597,-42.525,-54.559336,82.5585,19.237707,-0.717496,18.520211,13.707234,32.227445,0,-0.402843,-0.402636,-4903,-567
0.704,-59.836227,69.64525,590.559936,-59.836227,590.559936,-6.142456,-43.2,-53.693771,112.84525,19.2025,-0.7167,18.485801,13.269188,31.754989,0,-0.396937,-0.401568,-5591,-576
0.706,-59.667352,99.188,588.893206,-59.667352,588.893206,-6.82251,-42.375,-52.844842,141.563,19.148306,-0.715469,18.432837,12.846451,31.279288,0,-0.390991,-0.391956,-6210,-565
0.708,-59.439475,128.633,586.644146,-59.439475,586.644146,-7.494873,-41.1,-51.944602,169.733,19.075176,-0.713798,18.361377,12.414105,30.775482,0,-0.384694,-0.387684,-6822,-548
0.71,-59.15282,157.95075,583.81498,-59.15282,583.81498,-8.361694,-39.525,-50.791126,197.47575,18.983183,-0.711681,18.271502,11.918445,30.189947,0,-0.377374,-0.38448,-7611,-527
0.712,-58.807672,187.112,580.408504,-58.807672,580.408504,-9.082397,-39.45,-49.725275,226.562,18.872419,-0.709107,18.163312,11.436345,29.599657,0,-0.369996,-0.365256,-8267,-526
0.714,-58.404372,216.0885,576.428088,-58.404372,576.428088,-9.906372,-36.825,-48.498,252.9135,18.742993,-0.706068,18.036925,10.931077,28.968002,0,-0.3621,-0.3738,-9017,-491
0.716,-57.943318,244.85125,571.877668,-57.943318,571.877668,-10.629272,-36.225,-47.314046,281.07625,18.595033,-0.70255,17.892482,10.424506,28.316988,0,-0.353962,-0.362052,-9675,-483
0.718,-57.424967,273.372,566.761744,-57.424967,566.761744,-11.37854,-36.45,-46.046427,309.822,18.428684,-0.698541,17.730143,9.891961,27.622104,0,-0.345276,-0.355644,-10357,-486
0.72,-56.84983,301.6225,561.085374,-56.84983,561.085374,-12.058594,-32.85,-44.791236,334.4725,18.244113,-0.694026,17.550087,9.39126,26.941347,0,-0.336767,-0.340692,-10976,-438
0.722,-56.218477,329.5745,554.854171,-56.218477,554.854171,-12.671631,-32.55,-43.546846,362.1245,18.041501,-0.688989,17.352512,8.872432,26.224943,0,-0.327812,-0.33642,-11534,-434
0.724,-55.531532,357.2005,548.074297,-55.531532,548.074297,-13.4198,-32.175,-42.111732,389.3755,17.821048,-0.683414,17.137634,8.306472,25.444106,0,-0.318051,-0.328944,-12215,-429
0.726,-54.789675,384.47325,540.752457,-54.789675,540.752457,-14.060303,-31.35,-40.729372,415.82325,17.582973,-0.677282,16.905691,7.759931,24.665622,0,-0.30832,-0.323604,-12798,-418
0.728,-53.993639,411.36625,532.895891,-53.993639,532.895891,-14.759033,-29.475,-39.234606,440.84125,17.327511,-0.670576,16.656934,7.193943,23.850877,0,-0.298136,-0.30972,-13434,-393
0.73,-53.14421,437.85225,524.512368,-53.14421,524.512368,-15.299561,-27.975,-37.844649,465.82725,17.054914,-0.663278,16.391636,6.655618,23.047254,0,-0.288091,-0.294768,-13926,-373
0.732,-52.24223,463.90525,515.610177,-52.24223,515.610177,-15.782959,-24.225,-36.459271,488.13025,16.765453,-0.655369,16.110083,6.137223,22.247306,0,-0.278091,-0.291564,-14366,-323
0.734,-51.288589,489.4995,506.198122,-51.288589,506.198122,-16.213623,-25.425,-35.074966,514.9245,16.459413,-0.646831,15.812582,5.587753,21.400335,0,-0.267504,-0.276612,-14758,-339
0.736,-50.284232,514.60975,496.285511,-50.284232,496.285511,-16.781616,-23.925,-33.502616,538.53475,16.137097,-0.637644,15.499452,5.011282,20.510735,0,-0.256384,-0.267,-15275,-319
0.738,-49.23015,539.211,485.882144,-49.23015,485.882144,-17.178223,-22.05,-32.051927,561.261,15.798823,-0.627792,15.171031,4.472834,19.643865,0,-0.245548,-0.258456,-15636,-294
0.74,-48.127388,563.279,474.99831,-48.127388,474.99831,-17.575928,-19.125,-30.55146,582.404,15.444927,-0.617258,14.827669,3.932407,18.760076,0,-0.234501,-0.24564,-15998,-255
0.742,-46.977034,586.7905,463.644772,-46.977034,463.644772,-17.952759,-17.25,-29.024275,604.0405,15.075758,-0.606025,14.469733,3.381539,17.851272,0,-0.223141,-0.232824,-16341,-230
0.744,-45.780226,609.72125,451.832755,-45.780226,451.832755,-18.424072,-17.475,-27.356154,627.19625,14.691682,-0.59408,14.097602,2.783168,16.88077,0,-0.21101,-0.21894,-16770,-233
0.746,-44.538149,632.049,439.573941,-44.538149,439.573941,-18.921753,-15.6,-25.616396,647.649,14.293077,-0.581409,13.711669,2.184914,15.896582,0,-0.198707,-0.211464,-17223,-208
0.748,-43.25203,653.75225,426.880452,-43.25203,426.880452,-19.404053,-13.65,-23.847977,667.40225,13.880339,-0.568,13.312339,1.584039,14.896378,0,-0.186205,-0.199716,-17662,-182
0.75,-41.92314,674.80875,413.764839,-41.92314,413.764839,-19.647949,-12.375,-22.275191,687.18375,13.453875,-0.553846,12.900029,1.034184,13.934213,0,-0.174178,-0.1869,-17884,-165
0.752,-40.552795,695.19775,400.240073,-40.552795,400.240073,-19.883057,-10.125,-20.669738,705.32275,13.014107,-0.538937,12.47517,0.487243,12.962413,0,-0.16203,-0.174084,-18098,-135
0.754,-39.142349,714.8995,386.319527,-39.142349,386.319527,-20.066528,-9.45,-19.075821,724.3495,12.56147,-0.523271,12.038199,-0.062875,11.975324,0,-0.149692,-0.163404,-18265,-126
0.756,-37.693197,733.8945,372.016967,-37.693197,372.016967,-20.263184,-9.45,-17.430013,743.3445,12.096411,-0.506844,11.589567,-0.626357,10.96321,0,-0.13704,-0.150588,-18444,-126
0.758,-36.206771,752.1635,357.346536,-36.206771,357.346536,-20.427979,-6.75,-15.778792,758.9135,11.619391,-0.489659,11.129733,-1.167338,9.962395,0,-0.12453,-0.13884,-18594,-90
0.76,-34.684543,769.68875,342.32274,-34.684543,342.32274,-20.570801,-6.675,-14.113742,776.36375,11.130881,-0.471718,10.659164,-1.725072,8.934091,0,-0.111676,-0.126024,-18724,-89
0.762,-33.128016,786.453,326.960436,-33.128016,326.960436,-20.668579,-4.575,-12.459437,791.028,10.631364,-0.453028,10.178337,-2.260544,7.917792,0,-0.098972,-0.114276,-18813,-61
0.764,-31.538731,802.4395,311.274816,-31.538731,311.274816,-20.766357,-4.05,-10.772374,806.4895,10.121335,-0.4336,9.687735,-2.810158,6.877576,0,-0.08597,-0.099324,-18902,-54
0.766,-29.918258,817.63275,295.28139,-29.918258,295.28139,-20.834473,-2.85,-9.083785,820.48275,9.601296,-0.413448,9.187849,-3.349921,5.837928,0,-0.072974,-0.082236,-18964,-38
0.768,-28.2682,832.01725,278.995973,-28.2682,278.995973,-20.876221,-1.35,-7.391979,833.36725,9.071764,-0.392588,8.679176,-3.882785,4.796391,0,-0.059955,-0.073692,-19002,-18
0.77,-26.590189,845.57875,262.43467,-26.590189,262.43467,-20.906982,-0.975,-5.683207,846.55375,8.533261,-0.371041,8.16222,-4.4222,3.74002,0,-0.04675,-0.057672,-19030,-13
0.772,-24.885885,858.30425,245.613856,-24.885885,245.613856,-20.920166,-0.375,-3.965719,858.67925,7.986319,-0.34883,7.637489,-4.956489,2.681,0,-0.033512,-0.045924,-19042,-5
0.774,-23.156972,870.18125,228.550165,-23.156972,228.550165,-20.924561,-0.075,-2.232411,870.25625,7.431481,-0.325984,7.105497,-5.491091,1.614406,0,-0.02018,-0.030972,-19046,-1
0.776,-21.40516,881.19775,211.260472,-21.40516,211.260472,-20.923462,0.075,-0.481698,881.12275,6.869293,-0.302532,6.566761,-6.025289,0.541472,0,-0.006768,-0.01602,-19045,1
0.778,-19.632181,891.34275,193.761872,-19.632181,193.761872,-20.922363,0.075,1.290182,891.26775,6.300313,-0.278509,6.021804,-6.559992,-0.538188,0,0.006727,-0.008544,-19044,1
0.78,-17.839789,900.60625,176.07167,-17.839789,176.07167,-20.919067,0.225,3.079278,900.38125,5.725103,-0.253953,5.47115,-7.092,-1.62085,0,0.020261,0.008544,-19041,3
0.782,-16.029756,908.9795,158.207358,-16.029756,158.207358,-20.914673,0.375,4.884917,908.6045,5.144231,-0.228902,4.915329,-7.622124,-2.706795,0,0.033835,0.019224,-19037,5
0.784,-14.203871,916.4535,140.186602,-14.203871,140.186602,-20.905884,0.675,6.702013,915.7785,4.558273,-0.203401,4.354872,-8.147923,-3.793051,0,0.047413,0.034176,-19029,9
0.786,-12.363942,923.02125,122.027222,-12.363942,122.027222,-20.890503,0.975,8.526561,922.04625,3.967807,-0.177494,3.790313,-8.669346,-4.879033,0,0.060988,0.044856,-19015,13
0.788,-10.511786,928.67675,103.747174,-10.511786,103.747174,-20.864136,1.5,10.35235,927.17675,3.373417,-0.151231,3.222187,-9.183154,-5.960967,0,0.074512,0.063012,-18991,20
0.79,-8.649235,933.4135,85.364535,-8.649235,85.364535,-20.82019,2.175,12.170955,931.2385,2.775692,-0.124661,2.651031,-9.68762,-7.036589,0,0.087957,0.073692,-18951,29
0.792,-6.778132,937.22725,66.897484,-6.778132,66.897484,-20.776245,2.55,13.998113,934.67725,2.175222,-0.097836,2.077386,-10.189976,-8.11259,0,0.101407,0.08544,-18911,34
0.794,-4.900326,940.1145,48.36428,-4.900326,48.36428,-20.726807,2.7,15.826481,937.4145,1.572601,-0.070811,1.50179,-10.687751,-9.18596,0,0.114825,0.100392,-18866,36
0.796,-3.017674,942.072,29.78325,-3.017674,29.78325,-20.666382,3.525,17.648708,938.547,0.968425,-0.043639,0.924786,-11.172715,-10.247929,0,0.128099,0.110004,-18811,47
0.798,-1.132038,943.09775,11.17277,-1.132038,11.17277,-20.605957,3.9,19.473919,939.19775,0.363291,-0.016377,0.346914,-11.655097,-11.308183,0,0.141352,0.127092,-18756,52
0.8,0.754717,943.191,-7.448759,0.754717,-7.448759,-20.527954,4.725,21.282671,938.466,-0.242202,0.010919,-0.231283,-12.123519,-12.354802,0,0.154435,0.139908,-18685,63
0.802,2.640726,942.3515,-26.062922,2.640726,-26.062922,-20.420288,5.025,23.061014,937.3265,-0.847456,0.038192,-0.809263,-12.581133,-13.390396,0,0.16738,0.152724,-18587,67
0.804,4.524123,940.58025,-44.651312,4.524123,-44.651312,-20.296143,6.75,24.820266,933.83025,-1.451871,0.065386,-1.386485,-13.017295,-14.40378,0,0.180047,0.17088,-18474,90
0.806,6.403047,937.87925,-63.195549,6.403047,-63.195549,-20.164307,7.95,26.567354,929.92925,-2.054851,0.092445,-1.962405,-13.447448,-15.409853,0,0.192623,0.184764,-18354,106
0.808,8.27564,934.25025,-81.677295,8.27564,-81.677295,-19.983032,8.475,28.258672,925.77525,-2.655799,0.119315,-2.536484,-13.861234,-16.397718,0,0.204971,0.19224,-18189,113
0.81,10.140048,929.6975,-100.078273,10.140048,-100.078273,-19.848999,8.175,29.989047,921.5225,-3.25412,0.14594,-3.108181,-14.284555,-17.392735,0,0.217409,0.206124,-18067,109
0.812,11.99443,924.22575,-118.380289,11.99443,-118.380289,-19.671021,9.525,31.665451,914.70075,-3.849224,0.172269,-3.676956,-14.675811,-18.352767,0,0.22941,0.214668,-17905,127
0.814,13.836951,917.83975,-136.565243,13.836951,-136.565243,-19.480957,11.4,33.317908,906.43975,-4.440522,0.19825,-4.242271,-15.050751,-19.293023,0,0.241163,0.228552,-17732,152
0.816,15.665789,910.54625,-154.615154,15.665789,-154.615154,-19.268921,12.3,34.93471,898.24625,-5.027428,0.223836,-4.803592,-15.416827,-20.220419,0,0.252755,0.2403,-17539,164
0.818,17.479136,902.3525,-172.512173,17.479136,-172.512173,-19.067871,13.725,36.547007,888.6275,-5.609363,0.248981,-5.360382,-15.771774,-21.132157,0,0.264152,0.253116,-17356,183
0.82,19.275199,893.26625,-190.238603,19.275199,-190.238603,-18.838257,14.925,38.113456,878.34125,-6.185751,0.27364,-5.912112,-16.110058,-22.02217,0,0.275277,0.264864,-17147,199
0.822,21.052201,883.29675,-207.776914,21.052201,-207.776914,-18.577881,17.325,39.630082,865.97175,-6.756023,0.297772,-6.45825,-16.420754,-22.879005,0,0.285988,0.271272,-16910,231
0.824,22.808386,872.45375,-225.109763,22.808386,-225.109763,-18.27356,18.15,41.081946,854.30375,-7.319613,0.321341,-6.998272,-16.719393,-23.717666,0,0.296471,0.285156,-16633,242
0.826,24.542016,860.748,-242.220011,24.542016,-242.220011,-17.950562,18.525,42.492578,842.223,-7.875966,0.344311,-7.531655,-17.004357,-24.536011,0,0.3067,0.295836,-16339,247
0.828,26.251378,848.1915,-259.090739,26.251378,-259.090739,-17.641846,19.05,43.893224,829.1415,-8.42453,0.366651,-8.057879,-17.279719,-25.337598,0,0.31672,0.307584,-16058,254
0.83,27.934782,834.79575,-275.705263,27.934782,-275.705263,-17.30127,19.725,45.236052,815.07075,-8.964764,0.388333,-8.576431,-17.533038,-26.109469,0,0.326368,0.317196,-15748,263
0.832,29.590561,820.5745,-292.047155,29.590561,-292.047155,-16.932129,20.625,46.52269,799.9495,-9.496133,0.409332,-9.086801,-17.764313,-26.851114,0,0.335639,0.327876,-15412,275
0.834,31.21708,805.54225,-308.100254,31.21708,-308.100254,-16.408081,25.725,47.625161,779.81725,-10.018111,0.429627,-9.588484,-17.912389,-27.500874,0,0.343761,0.338556,-14935,343
0.836,32.81273,789.713,-323.848686,32.81273,-323.848686,-15.925781,24.075,48.738511,765.638,-10.530184,0.449201,-10.080982,-18.104874,-28.185856,0,0.352323,0.343896,-14496,321
0.838,34.375932,773.103,-339.276878,34.375932,-339.276878,-15.422607,25.8,49.798539,747.303,-11.031843,0.468039,-10.563804,-18.254386,-28.81819,0,0.360227,0.35244,-14038,344
0.84,35.905142,755.72875,-354.369575,35.905142,-354.369575,-14.720581,27.375,50.625723,728.35375,-11.522593,0.486131,-11.036463,-18.338652,-29.375114,0,0.367189,0.358848,-13399,365
0.842,37.398847,737.607,-369.111851,37.398847,-369.111851,-13.98999,30.15,51.388837,707.457,-12.001949,0.503468,-11.498482,-18.392548,-29.891029,0,0.373638,0.366324,-12734,402
0.844,38.85557,718.75575,-383.489129,38.85557,-383.489129,-13.25061,32.325,52.10618,686.43075,-12.469437,0.520046,-11.949391,-18.433557,-30.382948,0,0.379787,0.3738,-12061,431
0.846,40.27387,699.19375,-397.487191,40.27387,-397.487191,-12.598022,33.675,52.871892,665.51875,-12.924595,0.535865,-12.38873,-18.488026,-30.876757,0,0.385959,0.38448,-11467,449
0.848,41.652345,678.9405,-411.092196,41.652345,-411.092196,-12.036621,34.05,53.688966,644.8905,-13.366972,0.550924,-12.816048,-18.557923,-31.373971,0,0.392175,0.377004,-10956,454
0.85,42.989632,658.01575,-424.29069,42.989632,-424.29069,-11.463135,33.375,54.452767,624.64075,-13.796131,0.565229,-13.230901,-18.616516,-31.847418,0,0.398093,0.390888,-10434,445
0.852,44.284408,636.4405,-437.069622,44.284408,-437.069622,-10.831421,33.9,55.115829,602.5405,-14.211647,0.578786,-13.632861,-18.635817,-32.268678,0,0.403358,0.402636,-9859,452
0.854,45.535394,614.23575,-449.416355,45.535394,-449.416355,-10.087646,34.725,55.62304,579.51075,-14.613111,0.591604,-14.021507,-18.607826,-32.629333,0,0.407867,0.403704,-9182,463
0.856,46.741351,591.4235,-461.318679,46.741351,-461.318679,-9.381226,36.975,56.122577,554.4485,-15.000124,0.603694,-14.39643,-18.563637,-32.960067,0,0.412001,0.41118,-8539,493
0.858,47.901088,568.02675,-472.764826,47.901088,-472.764826,-8.74292,38.25,56.644008,529.77675,-15.372304,0.615068,-14.757236,-18.527906,-33.285142,0,0.416064,0.410112,-7958,510
0.86,49.013458,544.06825,-483.743477,49.013458,-483.743477,-7.949707,38.4,56.963165,505.66825,-15.729283,0.62574,-15.103543,-18.443152,-33.546695,0,0.419334,0.417588,-7236,512
0.862,50.077361,519.5715,-494.243776,50.077361,-494.243776,-7.214722,39.6,57.292083,479.9715,-16.070708,0.635728,-15.434981,-18.349865,-33.784846,0,0.422311,0.418656,-6567,528
0.864,51.091744,494.561,-504.255338,51.091744,-504.255338,-6.446777,40.2,57.538521,454.361,-16.396242,0.645046,-15.751196,-18.235588,-33.986784,0,0.424835,0.425064,-5868,536
0.866,52.055605,469.0615,-513.768265,52.055605,-513.768265,-5.487671,41.175,57.543276,427.8865,-16.705562,0.653713,-16.051849,-18.052006,-34.103855,0,0.426298,0.423996,-4995,549
0.868,52.96799,443.09825,-522.773149,52.96799,-522.773149,-4.518677,42.3,57.486667,400.79825,-16.998362,0.661746,-16.336616,-17.848074,-34.18469,0,0.427309,0.4272,-4113,564
0.87,53.827998,416.697,-531.261085,53.827998,-531.261085,-3.526611,43.875,57.354609,372.822,-17.274354,0.669165,-16.605189,-17.61819,-34.223379,0,0.427792,0.4272,-3210,585
0.872,54.634778,389.88325,-539.223681,54.634778,-539.223681,-2.574097,43.275,57.208875,346.60825,-17.533264,0.675987,-16.857276,-17.39703,-34.254307,0,0.428179,0.428268,-2343,577
0.874,55.387531,362.68425,-546.653063,55.387531,-546.653063,-1.683105,43.275,57.070636,319.40925,-17.774835,0.682232,-17.092603,-17.170955,-34.263558,0,0.428294,0.426132,-1532,577
0.876,56.085515,335.12675,-553.541883,56.085515,-553.541883,-0.965698,44.4,57.051213,290.72675,-17.998831,0.687918,-17.310913,-16.965628,-34.276541,0,0.428457,0.43254,-879,592
0.878,56.728038,307.2375,-559.88333,56.728038,-559.88333,-0.15271,43.875,56.880748,263.3625,-18.205028,0.693061,-17.511967,-16.729962,-34.241929,0,0.428024,0.422928,-139,585
0.88,57.314465,279.0445,-565.671134,57.314465,-565.671134,0.59436,45,56.720105,234.0445,-18.393222,0.697679,-17.695543,-16.483228,-34.178771,0,0.427235,0.433608,541,600
0.882,57.844216,250.57575,-570.89957,57.844216,-570.89957,1.39856,44.475,56.445656,206.10075,-18.563229,0.701788,-17.861441,-16.216293,-34.077734,0,0.425972,0.425064,1273,593
0.884,58.316768,221.85925,-575.563469,58.316768,-575.563469,2.203857,44.475,56.112911,177.38425,-18.714879,0.705403,-18.009476,-15.928701,-33.938177,0,0.424227,0.426132,2006,593
0.886,58.731653,192.923,-579.658219,58.731653,-579.658219,3.058594,43.575,55.673059,149.348,-18.848023,0.708537,-18.139486,-15.617819,-33.757304,0,0.421966,0.42186,2784,581
0.888,59.08846,163.79625,-583.17977,59.08846,-583.17977,3.862793,45.225,55.225667,118.57125,-18.962529,0.711203,-18.251326,-15.285829,-33.537155,0,0.419214,0.420792,3516,603
0.89,59.386838,134.50775,-586.12464,59.386838,-586.12464,4.705444,45,54.681394,89.50775,-19.058284,0.713411,-18.344873,-14.940437,-33.28531,0,0.416066,0.420792,4283,600
0.892,59.626491,105.08575,-588.489918,59.626491,-588.489918,5.655762,44.325,53.970729,60.76075,-19.135192,0.71517,-18.420022,-14.553694,-32.973716,0,0.412171,0.41652,5148,591
0.894,59.807181,75.56,-590.273264,59.807181,-590.273264,6.459961,44.475,53.34722,31.085,-19.193179,0.716489,-18.476691,-14.183284,-32.659974,0,0.40825,0.414384,5880,593
0.896,59.928731,45.96,-591.472915,59.928731,-591.472915,7.434448,45.75,52.494283,0.21,-19.232187,0.717371,-18.514815,-13.744437,-32.259253,0,0.403241,0.40584,6767,610
0.898,59.991021,16.314,-592.087684,59.991021,-592.087684,8.258423,43.8,51.732598,-27.486,-19.252176,0.717822,-18.534354,-13.351674,-31.886028,0,0.398575,0.401568,7517,584
0.9,59.993987,-13.348,-592.116964,59.993987,-592.116964,8.95166,42.9,51.042327,-56.248,-19.253128,0.717844,-18.535285,-12.970165,-31.505449,0,0.393818,0.397296,8148,572
0.902,59.937629,-42.99675,-591.560726,59.937629,-591.560726,9.654785,42.075,50.282844,-85.07175,-19.235042,0.717436,-18.517606,-12.570105,-31.087711,0,0.388596,0.38982,8788,561
0.904,59.822,-72.60325,-590.419519,59.822,-590.419519,10.429321,41.85,49.392679,-114.45325,-19.197935,0.716596,-18.481338,-12.131939,-30.613277,0,0.382666,0.38982,9493,558
0.906,59.647216,-102.1375,-588.694473,59.647216,-588.694473,11.207153,41.175,48.440063,-143.3125,-19.141844,0.715322,-18.426522,-11.681069,-30.10759,0,0.376345,0.37914,10201,549
0.908,59.41345,-131.57075,-586.387293,59.41345,-586.387293,11.917969,39.825,47.495481,-171.39575,-19.066824,0.713607,-18.353217,-11.23772,-29.590937,0,0.369887,0.381276,10848,531
0.91,59.120933,-160.87425,-583.50026,59.120933,-583.50026,12.630981,39.075,46.489952,-199.94925,-18.97295,0.711444,-18.261506,-10.775132,-29.036637,0,0.362958,0.370596,11497,521
0.912,58.769953,-190.01875,-580.036229,58.769953,-580.036229,13.404419,37.8,45.365534,-227.81875,-18.860314,0.708825,-18.15149,-10.286194,-28.437684,0,0.355471,0.36312,12201,504
0.914,58.360858,-218.975,-575.998627,58.360858,-575.998627,14.078979,36.45,44.281879,-255.425,-18.729029,0.705738,-18.023291,-9.809766,-27.833056,0,0.347913,0.362052,12815,486
0.916,57.894053,-247.71475,-571.391445,57.894053,-571.391445,14.879883,34.875,43.01417,-282.58975,-18.579223,0.702172,-17.877051,-9.288235,-27.165286,0,0.339566,0.350304,13544,465
0.918,57.369999,-276.2095,-566.219239,57.369999,-566.219239,15.658813,35.175,41.711186,-311.3845,-18.411044,0.698113,-17.712932,-8.746089,-26.459021,0,0.330738,0.342828,14253,469
0.92,56.789215,-304.43125,-560.487123,56.789215,-560.487123,16.410278,33.6,40.378937,-338.03125,-18.22466,0.693546,-17.531114,-8.211278,-25.742392,0,0.32178,0.333216,14937,448
0.922,56.152274,-332.35225,-554.200767,56.152274,-554.200767,16.999146,31.05,39.153128,-363.40225,-18.020255,0.688456,-17.331799,-7.713239,-25.045037,0,0.313063,0.32574,15473,414
0.924,55.459806,-359.94425,-547.366387,55.459806,-547.366387,17.695679,32.025,37.764127,-391.96925,-17.79803,0.682826,-17.115204,-7.150164,-24.265368,0,0.303317,0.318264,16107,427
0.926,54.712497,-387.18025,-539.990739,54.712497,-539.990739,18.205444,30.15,36.507053,-417.33025,-17.558205,0.676638,-16.881567,-6.644009,-23.525577,0,0.29407,0.301176,16571,402
0.928,53.911085,-414.0335,-532.081119,53.911085,-532.081119,18.844849,26.325,35.066236,-440.3585,-17.301018,0.669874,-16.631144,-6.106037,-22.737181,0,0.284215,0.2937,17153,351
0.93,53.056363,-440.4775,-523.645347,53.056363,-523.645347,19.343628,28.425,33.712735,-468.9025,-17.026722,0.662515,-16.364207,-5.552416,-21.916623,0,0.273958,0.28836,17607,379
0.932,52.149175,-466.48575,-514.691766,52.149175,-514.691766,19.848999,26.55,32.300176,-493.03575,-16.73559,0.654544,-16.081046,-5.014127,-21.095173,0,0.26369,0.274476,18067,354
0.934,51.19042,-492.03275,-505.229228,51.19042,-505.229228,20.278564,23.25,30.911856,-515.28275,-16.427908,0.645941,-15.781967,-4.495353,-20.27732,0,0.253466,0.262728,18458,310
0.936,50.181044,-517.09325,-495.267092,50.181044,-495.267092,20.681763,22.5,29.499281,-539.59325,-16.103982,0.636689,-15.467293,-3.955822,-19.423115,0,0.242789,0.253116,18825,300
0.938,49.122047,-541.64225,-484.815208,49.122047,-484.815208,21.083862,19.95,28.038185,-561.59225,-15.764131,0.62677,-15.137361,-3.419726,-18.557087,0,0.231964,0.248844,19191,266
0.94,48.014475,-565.65575,-473.883912,48.014475,-473.883912,21.416748,19.275,26.597727,-584.93075,-15.408692,0.616166,-14.792526,-2.879682,-17.672207,0,0.220903,0.230688,19494,257
0.942,46.859424,-589.10975,-462.484012,46.859424,-462.484012,21.758423,16.275,25.101001,-605.38475,-15.038015,0.604863,-14.433152,-2.345044,-16.778196,0,0.209727,0.221076,19805,217
0.944,45.658036,-611.9815,-450.626783,45.658036,-450.626783,22.056152,15.675,23.601884,-627.6565,-14.652469,0.592846,-14.059623,-1.79709,-15.856713,0,0.198209,0.205056,20076,209
0.946,44.411498,-634.248,-438.323949,44.411498,-438.323949,22.364868,15.975,22.04663,-650.223,-14.252433,0.580101,-13.672332,-1.232381,-14.904713,0,0.186309,0.201852,20357,213
0.948,43.121044,-655.88725,-425.587675,43.121044,-425.587675,22.623047,15.15,20.497997,-671.03725,-13.838303,0.566619,-13.271685,-0.681639,-13.953324,0,0.174417,0.182628,20592,202
0.95,41.787949,-676.878,-412.430557,41.787949,-412.430557,22.859253,11.55,18.928696,-688.428,-13.41049,0.552389,-12.858101,-0.149387,-13.007488,0,0.162594,0.175152,20807,154
0.952,40.413532,-697.19925,-398.865605,40.413532,-398.865605,23.066895,10.35,17.346637,-707.54925,-12.969415,0.537405,-12.43201,0.398287,-12.033724,0,0.150422,0.163404,20996,138
0.954,38.999152,-716.83125,-384.906231,38.999152,-384.906231,23.260254,9.15,15.738898,-725.98125,-12.515516,0.521662,-11.993853,0.947871,-11.045982,0,0.138075,0.151656,21172,122
0.956,37.546207,-735.75425,-370.566241,37.546207,-370.566241,23.447021,9.45,14.099186,-745.20425,-12.04924,0.50516,-11.54408,1.511349,-10.032731,0,0.125409,0.136704,21342,126
0.958,36.056135,-753.94975,-355.859815,36.056135,-355.859815,23.589844,8.1,12.466291,-762.04975,-11.57105,0.487898,-11.083151,2.056443,-9.026708,0,0.112834,0.121752,21472,108
0.96,34.530408,-771.39975,-340.801494,34.530408,-340.801494,23.744751,5.55,10.785657,-776.94975,-11.081417,0.469882,-10.611535,2.600454,-8.011081,0,0.100139,0.114276,21613,74
0.962,32.970536,-788.087,-325.40617,32.970536,-325.40617,23.856812,4.425,9.113724,-792.512,-10.580826,0.451118,-10.129708,3.14681,-6.982898,0,0.087286,0.10146,21715,59
0.964,31.37806,-803.99475,-309.689066,31.37806,-309.689066,23.945801,4.125,7.432259,-808.11975,-10.069773,0.431617,-9.638156,3.695979,-5.942176,0,0.074277,0.088644,21796,55
0.966,29.754557,-819.1075,-293.665724,29.754557,-293.665724,24.015015,2.775,5.739542,-821.8825,-9.548762,0.411393,-9.137368,4.235214,-4.902155,0,0.061277,0.076896,21859,37
0.968,28.10163,-833.4105,-277.35199,28.10163,-277.35199,24.060059,2.175,4.041571,-835.5855,-9.018309,0.390464,-8.627845,4.775406,-3.852438,0,0.048155,0.061944,21900,29
0.97,26.420915,-846.88925,-260.763994,26.420915,-260.763994,24.091919,0.9,2.328996,-847.78925,-8.478937,0.368849,-8.110088,5.308956,-2.801133,0,0.035014,0.04806,21929,12
0.972,24.714073,-859.53075,-243.91814,24.714073,-243.91814,24.102905,0.3,0.611168,-859.83075,-7.931182,0.346574,-7.584608,5.842748,-1.74186,0,0.021773,0.034176,21939,4
0.974,22.982792,-871.322,-226.831086,22.982792,-226.831086,24.105103,-0.075,-1.122311,-871.247,-7.375583,0.323665,-7.051918,6.376272,-0.675646,0,0.008446,0.01602,21941,-1
0.976,21.228785,-882.2515,-209.519729,21.228785,-209.519729,24.102905,-0.075,-2.87412,-882.1765,-6.812692,0.300155,-6.512536,6.911197,0.39866,0,-0.004983,0.006408,21939,-1
0.978,19.453786,-892.30875,-192.001187,19.453786,-192.001187,24.100708,-0.15,-4.646922,-892.15875,-6.243063,0.276077,-5.966986,7.445004,1.478019,0,-0.018475,-0.008544,21937,-2
0.98,17.65955,-901.48375,-174.292784,17.65955,-174.292784,24.096313,-0.3,-6.436763,-901.18375,-5.667261,0.251469,-5.415792,7.97659,2.560798,0,-0.03201,-0.012816,21933,-4
0.982,15.847851,-909.76725,-156.41203,15.847851,-156.41203,24.089722,-0.675,-8.241871,-909.09225,-5.085855,0.226371,-4.859483,8.504378,3.644895,0,-0.045561,-0.030972,21927,-9
0.984,14.020481,-917.15125,-138.376607,14.020481,-138.376607,24.073242,-1.2,-10.052761,-915.95125,-4.499419,0.200827,-4.298592,9.026353,4.727761,0,-0.059097,-0.045924,21912,-16
0.986,12.179246,-923.62825,-120.20435,12.179246,-120.20435,24.050171,-1.65,-11.870925,-921.97825,-3.908535,0.174883,-3.733652,9.544423,5.810772,0,-0.072635,-0.059808,21891,-22
0.988,10.325968,-929.19175,-101.913228,10.325968,-101.913228,24.019409,-2.25,-13.693441,-926.94175,-3.313785,0.148587,-3.165198,10.056209,6.89101,0,-0.086138,-0.072624,21863,-30
0.99,8.462479,-933.8365,-83.521328,8.462479,-83.521328,23.977661,-2.625,-15.515182,-931.2115,-2.715759,0.121989,-2.59377,10.562948,7.969178,0,-0.099615,-0.09078,21825,-35
0.992,6.590622,-937.55775,-65.046838,6.590622,-65.046838,23.931519,-2.625,-17.340897,-934.93275,-2.115047,0.095142,-2.019905,11.066898,9.046993,0,-0.113087,-0.098256,21783,-35
0.994,4.712248,-940.352,-46.508026,4.712248,-46.508026,23.87439,-3.825,-19.162142,-936.527,-1.512243,0.068099,-1.444144,11.554829,10.110685,0,-0.126384,-0.116412,21731,-51
0.996,2.829214,-942.2165,-27.923224,2.829214,-27.923224,23.808472,-4.125,-20.979258,-938.0915,-0.907945,0.040916,-0.867029,12.041471,11.174442,0,-0.139681,-0.127092,21671,-55
0.998,0.943382,-943.149,-9.31081,0.943382,-9.31081,23.735962,-5.4,-22.79258,-937.749,-0.302748,0.013648,-0.2891,12.513807,12.224707,0,-0.152809,-0.135636,21605,-72
1,-0.943382,-943.149,9.31081,-0.943382,9.31081,23.654663,-5.325,-24.598045,-937.824,0.302748,-0.013648,0.2891,12.987,13.2761,0,-0.165951,-0.152724,21531,-71
1.002,-2.829214,-942.2165,27.923224,-2.829214,27.923224,23.5448,-6.075,-26.374014,-936.1415,0.907945,-0.040916,0.867029,13.440201,14.30723,0,-0.17884,-0.168744,21431,-81
1.004,-4.712248,-940.352,46.508026,-4.712248,46.508026,23.408569,-6.9,-28.120817,-933.452,1.512243,-0.068099,1.444144,13.878737,15.322881,0,-0.191536,-0.175152,21307,-92
1.006,-6.590622,-937.55775,65.046838,-6.590622,65.046838,23.250366,-9.15,-29.840988,-928.40775,2.115047,-0.095142,2.019905,14.293861,16.313766,0,-0.203922,-0.193308,21163,-122
1.008,-8.462479,-933.8365,83.521328,-8.462479,83.521328,23.088867,-10.125,-31.551346,-923.7115,2.715759,-0.121989,2.59377,14.708846,17.302616,0,-0.216283,-0.205056,21016,-135
1.01,-10.325968,-929.19175,101.913228,-10.325968,101.913228,22.852661,-10.8,-33.178629,-918.39175,3.313785,-0.148587,3.165198,15.097729,18.262927,0,-0.228287,-0.21894,20801,-144
1.012,-12.179246,-923.62825,120.20435,-12.179246,120.20435,22.627441,-11.7,-34.806687,-911.92825,3.908535,-0.174883,3.733652,15.47883,19.212481,0,-0.240156,-0.227484,20596,-156
1.014,-14.020481,-917.15125,138.376607,-14.020481,138.376607,22.345093,-15.9,-36.365574,-901.25125,4.499419,-0.200827,4.298592,15.812406,20.110998,0,-0.251387,-0.239232,20339,-212
1.016,-15.847851,-909.76725,156.41203,-15.847851,156.41203,22.052856,-14.25,-37.900707,-895.51725,5.085855,-0.226371,4.859483,16.174272,21.033755,0,-0.262922,-0.249912,20073,-190
1.018,-17.65955,-901.48375,174.292784,-17.65955,174.292784,21.735352,-16.95,-39.394902,-884.53375,5.667261,-0.251469,5.415792,16.488772,21.904563,0,-0.273807,-0.263796,19784,-226
1.02,-19.453786,-892.30875,192.001187,-19.453786,192.001187,21.393677,-18.975,-40.847463,-873.33375,6.243063,-0.276077,5.966986,16.790861,22.757846,0,-0.284473,-0.274476,19473,-253
1.022,-21.228785,-882.2515,209.519729,-21.228785,209.519729,21.027832,-18.525,-42.256617,-863.7265,6.812692,-0.300155,6.512536,17.092705,23.605241,0,-0.295066,-0.281952,19140,-247
1.024,-22.982792,-871.322,226.831086,-22.982792,226.831086,20.624634,-21.45,-43.607426,-849.872,7.375583,-0.323665,7.051918,17.349623,24.401541,0,-0.305019,-0.2937,18773,-286
1.026,-24.714073,-859.53075,243.91814,-24.714073,243.91814,20.206055,-20.85,-44.920128,-838.68075,7.931182,-0.346574,7.584608,17.615158,25.199766,0,-0.314997,-0.30438,18392,-278
1.028,-26.420915,-846.88925,260.763994,-26.420915,260.763994,19.796265,-22.425,-46.21718,-824.46425,8.478937,-0.368849,8.110088,17.855476,25.965564,0,-0.32457,-0.313992,18019,-299
1.03,-28.10163,-833.4105,277.35199,-28.10163,277.35199,19.313965,-23.85,-47.415595,-809.5605,9.018309,-0.390464,8.627845,18.065172,26.693017,0,-0.333663,-0.323604,17580,-318
1.032,-29.754557,-819.1075,293.665724,-29.754557,293.665724,18.909668,-25.35,-48.664225,-793.7575,9.548762,-0.411393,9.137368,18.281737,27.419106,0,-0.342739,-0.330012,17212,-338
1.034,-31.37806,-803.99475,309.689066,-31.37806,309.689066,18.37793,-28.125,-49.75599,-775.86975,10.069773,-0.431617,9.638156,18.44268,28.080836,0,-0.35101,-0.349236,16728,-375
1.036,-32.970536,-788.087,325.40617,-32.970536,325.40617,17.81543,-30.225,-50.785966,-757.862,10.580826,-0.451118,10.129708,18.58661,28.716318,0,-0.358954,-0.351372,16216,-403
1.038,-34.530408,-771.39975,340.801494,-34.530408,340.801494,17.323242,-31.5,-51.85365,-739.89975,11.081417,-0.469882,10.611535,18.740729,29.352263,0,-0.366903,-0.356712,15768,-420
1.04,-36.056135,-753.94975,355.859815,-36.056135,355.859815,16.803589,-33.15,-52.859724,-720.79975,11.57105,-0.487898,11.083151,18.870775,29.953926,0,-0.374424,-0.366324,15295,-442
1.042,-37.546207,-735.75425,370.566241,-37.546207,370.566241,16.214722,-31.425,-53.760929,-704.32925,12.04924,-0.50516,11.54408,18.991724,30.535804,0,-0.381698,-0.3738,14759,-419
1.044,-38.999152,-716.83125,384.906231,-38.999152,384.906231,15.555542,-33.6,-54.554694,-683.23125,12.515516,-0.521662,11.993853,19.052239,31.046093,0,-0.388076,-0.381276,14159,-448
1.046,-40.413532,-697.19925,398.865605,-40.413532,398.865605,14.897461,-34.425,-55.310993,-662.77425,12.969415,-0.537405,12.43201,19.107421,31.539432,0,-0.394243,-0.393024,13560,-459
1.048,-41.787949,-676.878,412.430557,-41.787949,412.430557,14.192139,-35.625,-55.980088,-641.253,13.41049,-0.552389,12.858101,19.132343,31.990444,0,-0.399881,-0.385548,12918,-475
1.05,-43.121044,-655.88725,425.587675,-43.121044,425.587675,13.5802,-38.1,-56.701244,-617.78725,13.838303,-0.566619,13.271685,19.15732,32.429004,0,-0.405363,-0.399432,12361,-508
1.052,-44.411498,-634.248,438.323949,-44.411498,438.323949,12.697998,-39.375,-57.109496,-594.873,14.252433,-0.580101,13.672332,19.104228,32.77656,0,-0.409707,-0.404772,11558,-525
1.054,-45.658036,-611.9815,450.626783,-45.658036,450.626783,11.976196,-40.575,-57.634232,-571.4065,14.652469,-0.592846,14.059623,19.077777,33.1374,0,-0.414217,-0.412248,10901,-541
1.056,-46.859424,-589.10975,462.484012,-46.859424,462.484012,11.132446,-41.325,-57.99187,-547.78475,15.038015,-0.604863,14.433152,19.006495,33.439648,0,-0.417996,-0.412248,10133,-551
1.058,-48.014475,-565.65575,473.883912,-48.014475,473.883912,10.43042,-42.225,-58.444895,-523.43075,15.408692,-0.616166,14.792526,18.955074,33.747599,0,-0.421845,-0.42186,9494,-563
1.06,-49.122047,-541.64225,484.815208,-49.122047,484.815208,9.578979,-43.35,-58.701026,-498.29225,15.764131,-0.62677,15.137361,18.846629,33.98399,0,-0.4248,-0.420792,8719,-578
1.062,-50.181044,-517.09325,495.267092,-50.181044,495.267092,8.709961,-44.175,-58.891005,-472.91825,16.103982,-0.636689,15.467293,18.719221,34.186514,0,-0.427331,-0.419724,7928,-589
1.064,-51.19042,-492.03275,505.229228,-51.19042,505.229228,7.686035,-45.225,-58.876455,-446.80775,16.427908,-0.645941,15.781967,18.533126,34.315093,0,-0.428939,-0.419724,6996,-603
1.066,-52.149175,-466.48575,514.691766,-52.149175,514.691766,6.932373,-45.6,-59.081548,-420.88575,16.73559,-0.654544,16.081046,18.40585,34.486896,0,-0.431086,-0.423996,6310,-608
1.068,-53.056363,-440.4775,523.645347,-53.056363,523.645347,6.057861,-45.375,-59.114224,-395.1025,17.026722,-0.662515,16.364207,18.234404,34.598611,0,-0.432483,-0.43254,5514,-605
1.07,-53.911085,-414.0335,532.081119,-53.911085,532.081119,5.195435,-46.5,-59.10652,-367.5335,17.301018,-0.669874,16.631144,18.039919,34.671063,0,-0.433388,-0.433608,4729,-620
1.072,-54.712497,-387.18025,539.990739,-54.712497,539.990739,4.303345,-47.25,-59.015842,-339.93025,17.558205,-0.676638,16.881567,17.823472,34.705039,0,-0.433813,-0.43254,3917,-630
1.074,-55.459806,-359.94425,547.366387,-55.459806,547.366387,3.418945,-46.575,-58.878751,-313.36925,17.79803,-0.682826,17.115204,17.602151,34.717355,0,-0.433967,-0.431472,3112,-621
1.076,-56.152274,-332.35225,554.200767,-56.152274,554.200767,2.526855,-47.55,-58.679129,-284.80225,18.020255,-0.688456,17.331799,17.350455,34.682254,0,-0.433528,-0.433608,2300,-634
1.078,-56.789215,-304.43125,560.487123,-56.789215,560.487123,1.758911,-48.15,-58.548126,-256.28125,18.22466,-0.693546,17.531114,17.117044,34.648158,0,-0.433102,-0.426132,1601,-642
1.08,-57.369999,-276.2095,566.219239,-57.369999,566.219239,0.930542,-48.6,-58.300541,-227.6095,18.411044,-0.698113,17.712932,16.85206,34.564992,0,-0.432062,-0.428268,847,-648
1.082,-57.894053,-247.71475,571.391445,-57.894053,571.391445,0.156006,-48.525,-58.050059,-199.18975,18.579223,-0.702172,17.877051,16.588077,34.465128,0,-0.430814,-0.431472,142,-647
1.084,-58.360858,-218.975,575.998627,-58.360858,575.998627,-0.680054,-48.225,-57.680804,-170.75,18.729029,-0.705738,18.023291,16.292859,34.31615,0,-0.428952,-0.425064,-619,-643
1.086,-58.769953,-190.01875,580.036229,-58.769953,580.036229,-1.571045,-48.45,-57.198908,-141.56875,18.860314,-0.708825,18.15149,15.962975,34.114465,0,-0.426431,-0.423996,-1430,-646
1.088,-59.120933,-160.87425,583.50026,-59.120933,583.50026,-2.479614,-47.85,-56.641319,-113.02425,18.97295,-0.711444,18.261506,15.617721,33.879226,0,-0.42349,-0.42186,-2257,-638
1.09,-59.41345,-131.57075,586.387293,-59.41345,586.387293,-3.402466,-47.625,-56.010984,-83.94575,19.066824,-0.713607,18.353217,15.249693,33.60291,0,-0.420036,-0.422928,-3097,-635
1.092,-59.647216,-102.1375,588.694473,-59.647216,588.694473,-4.394531,-47.775,-55.252685,-54.3625,19.141844,-0.715322,18.426522,14.844641,33.271163,0,-0.41589,-0.42186,-4000,-637
1.094,-59.822,-72.60325,590.419519,-59.822,590.419519,-5.194336,-47.1,-54.627664,-25.50325,19.197935,-0.716596,18.481338,14.479535,32.960874,0,-0.412011,-0.410112,-4728,-628
1.096,-59.937629,-42.99675,591.560726,-59.937629,591.560726,-6.038086,-46.2,-53.899543,3.20325,19.235042,-0.717436,18.517606,14.088504,32.606111,0,-0.407576,-0.413316,-5496,-616
1.098,-59.993987,-13.348,592.116964,-59.993987,592.116964,-6.929077,-46.05,-53.06491,32.702,19.253128,-0.717844,18.535285,13.664058,32.199342,0,-0.402492,-0.407976,-6307,-614
1.1,-59.991021,16.314,592.087684,-59.991021,592.087684,-7.789307,-45.375,-52.201714,61.689,19.252176,-0.717822,18.534354,13.235706,31.77006,0,-0.397126,-0.399432,-7090,-605
1.102,-59.928731,45.96,591.472915,-59.928731,591.472915,-8.568237,-44.85,-51.360494,90.81,19.232187,-0.717371,18.514815,12.812172,31.326988,0,-0.391587,-0.401568,-7799,-598
1.104,-59.807181,75.56,590.273264,-59.807181,590.273264,-9.442749,-44.175,-50.364432,119.735,19.193179,-0.716489,18.476691,12.349469,30.82616,0,-0.385327,-0.391956,-8595,-589
1.106,-59.626491,105.08575,588.489918,-59.626491,588.489918,-10.174438,-43.95,-49.452053,149.03575,19.135192,-0.71517,18.420022,11.906051,30.326073,0,-0.379076,-0.387684,-9261,-586
1.108,-59.386838,134.50775,586.12464,-59.386838,586.12464,-10.873169,-41.625,-48.513669,176.13275,19.058284,-0.713411,18.344873,11.47121,29.816083,0,-0.372701,-0.380208,-9897,-555
1.11,-59.08846,163.79625,583.17977,-59.08846,583.17977,-11.641113,-41.325,-47.447347,205.12125,18.962529,-0.711203,18.251326,10.98967,29.240996,0,-0.365512,-0.372732,-10596,-551
1.112,-58.731653,192.923,579.658219,-58.731653,579.658219,-12.307983,-39.3,-46.42367,232.223,18.848023,-0.708537,18.139486,10.532466,28.671952,0,-0.358399,-0.364188,-11203,-524
1.114,-58.316768,221.85925,575.563469,-58.316768,575.563469,-13.098999,-39.225,-45.217769,261.08425,18.714879,-0.705403,18.009476,10.015272,28.024748,0,-0.350309,-0.362052,-11923,-523
1.116,-57.844216,250.57575,570.89957,-57.844216,570.89957,-13.928467,-37.875,-43.915749,288.45075,18.563229,-0.701788,17.861441,9.48335,27.344791,0,-0.34181,-0.349236,-12678,-505
1.118,-57.314465,279.0445,565.671134,-57.314465,565.671134,-14.662354,-32.25,-42.652111,311.2945,18.393222,-0.697679,17.695543,8.993051,26.688594,0,-0.333607,-0.342828,-13346,-430
1.12,-56.728038,307.2375,559.88333,-56.728038,559.88333,-15.253418,-33.225,-41.47462,340.4625,18.205028,-0.693061,17.511967,8.481153,25.99312,0,-0.324914,-0.330012,-13884,-443
1.122,-56.085515,335.12675,553.541883,-56.085515,553.541883,-15.869751,-33.75,-40.215764,368.87675,17.998831,-0.687918,17.310913,7.953217,25.26413,0,-0.315802,-0.330012,-14445,-450
1.124,-55.387531,362.68425,546.653063,-55.387531,546.653063,-16.466309,-31.875,-38.921222,394.55925,17.774835,-0.682232,17.092603,7.435009,24.527612,0,-0.306595,-0.3204,-14988,-425
1.126,-54.634778,389.88325,539.223681,-54.634778,539.223681,-16.977173,-30,-37.657605,419.88325,17.533264,-0.675987,16.857276,6.9274,23.784676,0,-0.297308,-0.306516,-15453,-400
1.128,-53.827998,416.697,531.261085,-53.827998,531.261085,-17.551758,-29.1,-36.27624,445.797,17.274354,-0.669165,16.605189,6.384847,22.990036,0,-0.287375,-0.297972,-15976,-388
1.13,-52.96799,443.09825,522.773149,-52.96799,522.773149,-18.091187,-29.625,-34.876803,472.72325,16.998362,-0.661746,16.336616,5.830495,22.167111,0,-0.277089,-0.287292,-16467,-395
1.132,-52.055605,469.0615,513.768265,-52.055605,513.768265,-18.621826,-25.35,-33.433779,494.4115,16.705562,-0.653713,16.051849,5.301299,21.353148,0,-0.266914,-0.27768,-16950,-338
1.134,-51.091744,494.561,504.255338,-51.091744,504.255338,-19.055786,-23.925,-32.035958,518.486,16.396242,-0.645046,15.751196,4.767279,20.518475,0,-0.256481,-0.268068,-17345,-319
