khanfazel/E-wera--maxon_motor/Feedforward/feedforward_log.csv
t_s,q_joint_deg,qd_joint_deg_s,qdd_joint_deg_s2,tau_joint_ff_Nm,tau_dead_Nm,tau_joint_total_Nm,tau_motor_cmd_Nm,tau_motor_actual_Nm,motor_pos_counts,motor_pos_deg_est,motor_vel_native
0.000000,0.000000,943.265500,0.000000,0.000000,12.816000,1025.280000,0.500000,0.496620,5223,1836.210938,93
0.002000,1.886531,942.799250,0.000000,0.027289,12.816000,1025.307289,0.500000,0.496620,5369,1887.539062,203
0.004000,3.771197,941.400750,-37.220226,0.041649,12.816000,1025.321649,0.500000,0.500892,5664,1991.250000,288
0.006000,5.652134,939.071000,-55.784328,0.062349,12.816000,1025.342349,0.500000,0.498756,6050,2126.953125,369
0.008000,7.527481,935.812750,-74.293267,0.082899,12.816000,1025.362899,0.500000,0.500892,6529,2295.351562,410
0.010000,9.395385,931.629250,-92.728741,0.103253,12.816000,1025.383253,0.500000,0.498756,7069,2485.195312,467
0.012000,11.253998,926.524500,-111.072519,0.123362,12.816000,1025.403362,0.500000,0.505164,7644,2687.343750,486
0.014000,13.101483,920.503500,-129.306462,0.143183,12.816000,1025.423183,0.500000,0.496620,8306,2920.078125,504
0.016000,14.936012,913.572250,-147.412541,0.162671,12.816000,1025.442671,0.500000,0.495552,8907,3131.367188,535
0.018000,16.755772,905.737500,-165.372849,0.181786,12.816000,1025.461786,0.500000,0.498756,9485,3334.570312,537
0.020000,18.558962,897.007250,-183.169628,0.200489,12.816000,1025.480489,0.500000,0.498756,10073,3541.289062,533
0.022000,20.343801,887.390000,-200.785278,0.218745,12.816000,1025.498745,0.500000,0.503028,10669,3750.820312,556
0.024000,22.108522,876.895000,-218.202380,0.236520,12.816000,1025.516520,0.500000,0.498756,11321,3980.039062,556
0.026000,23.851381,865.533250,-235.403712,0.253784,12.816000,1025.533784,0.500000,0.504096,11966,4206.796875,569
0.028000,25.570655,853.315500,-252.372264,0.270511,12.816000,1025.550511,0.500000,0.499824,12587,4425.117188,572
0.030000,27.264643,840.253750,-269.091255,0.286677,12.816000,1025.566677,0.500000,0.501960,13214,4645.546875,588
0.032000,28.931670,826.361000,-285.544154,0.302262,12.816000,1025.582262,0.500000,0.501960,13924,4895.156250,583
0.034000,30.570087,811.651500,-301.714692,0.317249,12.816000,1025.597249,0.500000,0.504096,14556,5117.343750,582
0.036000,32.178276,796.139500,-317.586877,0.331624,12.816000,1025.611624,0.500000,0.498756,15191,5340.585938,583
0.038000,33.754645,779.839750,-333.145014,0.345377,12.816000,1025.625377,0.500000,0.497688,15877,5581.757812,579
0.040000,35.297635,762.769000,-348.373719,0.358502,12.816000,1025.638502,0.500000,0.498756,16674,5861.953125,586
0.042000,36.805721,744.944000,-363.257932,0.370994,12.816000,1025.650994,0.500000,0.500892,17394,6115.078125,587
0.044000,38.277411,726.382500,-377.782936,0.382852,12.816000,1025.662852,0.500000,0.494484,18164,6385.781250,587
0.046000,39.711251,707.102750,-391.934367,0.394081,12.816000,1025.674081,0.500000,0.498756,18871,6634.335938,588
0.048000,41.105822,687.123500,-405.698231,0.404683,12.816000,1025.684683,0.500000,0.501960,19564,6877.968750,596
0.050000,42.459745,666.465000,-419.060918,0.414668,12.816000,1025.694668,0.500000,0.501960,20291,7133.554688,592
0.052000,43.771682,645.147500,-432.009215,0.424045,12.816000,1025.704045,0.500000,0.499824,20936,7360.312500,584
0.054000,45.040335,623.191750,-444.530316,0.432827,12.816000,1025.712827,0.500000,0.496620,21583,7587.773438,587
0.056000,46.264449,600.619750,-456.611842,0.441028,12.816000,1025.721028,0.500000,0.496620,22230,7815.234375,589
0.058000,47.442814,577.454250,-468.241844,0.448665,12.816000,1025.728665,0.500000,0.498756,22874,8041.640625,600
0.060000,48.574266,553.717500,-479.408822,0.455754,12.816000,1025.735754,0.500000,0.497688,23521,8269.101562,594
0.062000,49.657684,529.433000,-490.101734,0.462316,12.816000,1025.742316,0.500000,0.495552,24169,8496.914062,591
0.064000,50.691998,504.625250,-500.310006,0.468369,12.816000,1025.748369,0.500000,0.498756,24948,8770.781250,597
0.066000,51.676185,479.318500,-510.023544,0.473935,12.816000,1025.753935,0.500000,0.497688,25763,9057.304688,595
0.068000,52.609272,453.537750,-519.232741,0.479034,12.816000,1025.759034,0.500000,0.503028,26575,9342.773438,585
0.070000,53.490336,427.308250,-527.928493,0.483689,12.816000,1025.763689,0.500000,0.501960,27303,9598.710938,589
0.072000,54.318505,400.656500,-536.102199,0.487921,12.816000,1025.767921,0.500000,0.498756,27982,9837.421875,591
0.074000,55.092962,373.608500,-543.745778,0.491752,12.816000,1025.771752,0.500000,0.496620,28710,10093.359375,596
0.076000,55.812939,346.191000,-550.851670,0.495201,12.816000,1025.775201,0.500000,0.498756,29487,10366.523438,588
0.078000,56.477726,318.431250,-557.412850,0.498290,12.816000,1025.778290,0.500000,0.501960,30166,10605.234375,588
0.080000,57.086664,290.356250,-563.422828,0.501038,12.816000,1025.781038,0.500000,0.504096,30808,10830.937500,593
0.082000,57.639151,261.994500,-568.875663,0.503463,12.816000,1025.783463,0.500000,0.498756,31534,11086.171875,592
0.084000,58.134642,233.373750,-573.765962,0.505582,12.816000,1025.785582,0.500000,0.498756,32185,11315.039062,601
0.086000,58.572646,204.522000,-578.088888,0.507412,12.816000,1025.787412,0.500000,0.503028,32886,11561.484375,603
0.088000,58.952730,175.468250,-581.840169,0.508967,12.816000,1025.788967,0.500000,0.500892,33572,11802.656250,595
0.090000,59.274519,146.240750,-585.016093,0.510258,12.816000,1025.790258,0.500000,0.496620,34355,12077.929688,599
0.092000,59.537693,116.868500,-587.613520,0.511298,12.816000,1025.791297,0.500000,0.501960,35041,12319.101562,599
0.094000,59.741993,87.381000,-589.629883,0.512094,12.815999,1025.792041,0.500000,0.500892,35746,12566.953125,598
0.096000,59.887217,57.807000,-591.063187,0.512655,12.815756,1025.773120,0.500000,0.501960,36485,12826.757812,598
0.098000,59.973221,28.176000,-591.912014,0.512985,12.724820,1018.498602,0.500000,0.500892,37224,13086.562500,598
0.100000,59.999921,-1.483000,-592.175526,0.513087,-1.886801,-150.430991,-0.500000,-0.494484,37902,13324.921875,389
0.102000,59.967289,-31.140750,-591.853461,0.512962,-12.765525,-1020.729048,-0.500000,-0.499824,38221,13437.070312,37
0.104000,59.875358,-60.767500,-590.946139,0.512609,-12.815865,-1024.756585,-0.500000,-0.500892,38191,13426.523438,-164
0.106000,59.724219,-90.334250,-589.454456,0.512025,-12.816000,-1024.767946,-0.500000,-0.497688,37955,13343.554688,-320
0.108000,59.514021,-119.811500,-587.379888,0.511205,-12.816000,-1024.768795,-0.500000,-0.495552,37571,13208.554688,-354
0.110000,59.244973,-149.170500,-584.724485,0.510140,-12.816000,-1024.769860,-0.500000,-0.498756,37078,13035.234375,-460
0.112000,58.917339,-178.382000,-581.490875,0.508823,-12.816000,-1024.771177,-0.500000,-0.493416,36552,12850.312500,-501
0.114000,58.531445,-207.416750,-577.682254,0.507242,-12.816000,-1024.772758,-0.500000,-0.496620,35964,12643.593750,-521
0.116000,58.087672,-236.246500,-573.302388,0.505384,-12.816000,-1024.774616,-0.500000,-0.501960,35388,12441.093750,-541
0.118000,57.586459,-264.842750,-568.355609,0.503234,-12.816000,-1024.776766,-0.500000,-0.497688,34758,12219.609375,-569
0.120000,57.028301,-293.177250,-562.846808,0.500778,-12.816000,-1024.779222,-0.500000,-0.493416,34058,11973.515625,-576
0.122000,56.413750,-321.221750,-556.781433,0.497997,-12.816000,-1024.782003,-0.500000,-0.498756,33291,11703.867188,-604
0.124000,55.743414,-348.948750,-550.165481,0.494873,-12.816000,-1024.785127,-0.500000,-0.503028,32636,11473.593750,-603
0.126000,55.017955,-376.330500,-543.005495,0.491386,-12.816000,-1024.788614,-0.500000,-0.500892,31805,11181.445312,-611
0.128000,54.238092,-403.339750,-535.308555,0.487517,-12.816000,-1024.792483,-0.500000,-0.501960,31099,10933.242188,-615
0.130000,53.404596,-429.950500,-527.082272,0.483243,-12.816000,-1024.796757,-0.500000,-0.496620,30369,10676.601562,-620
0.132000,52.518290,-456.136500,-518.334780,0.478545,-12.816000,-1024.801455,-0.500000,-0.492348,29682,10435.078125,-644
0.134000,51.580050,-481.871000,-509.074730,0.473399,-12.816000,-1024.806601,-0.500000,-0.500892,28989,10191.445312,-634
0.136000,50.590806,-507.128750,-499.311279,0.467786,-12.816000,-1024.812214,-0.500000,-0.505164,28188,9909.843750,-638
0.138000,49.551535,-531.885500,-489.054081,0.461683,-12.816000,-1024.818317,-0.500000,-0.499824,27403,9633.867188,-649
0.140000,48.463264,-556.116250,-478.313278,0.455069,-12.816000,-1024.824931,-0.500000,-0.501960,26686,9381.796875,-644
0.142000,47.327070,-579.796750,-467.099493,0.447926,-12.816000,-1024.832074,-0.500000,-0.499824,25984,9135.000000,-641
0.144000,46.144077,-602.904250,-455.423814,0.440234,-12.816000,-1024.839766,-0.500000,-0.491280,25280,8887.500000,-640
0.146000,44.915453,-625.415500,-443.297786,0.431975,-12.816000,-1024.848025,-0.500000,-0.505164,24575,8639.648438,-644
0.148000,43.642415,-647.308250,-430.733401,0.423135,-12.816000,-1024.856865,-0.500000,-0.496620,23852,8385.468750,-644
0.150000,42.326220,-668.560750,-417.743082,0.413697,-12.816000,-1024.866303,-0.500000,-0.499824,23096,8119.687500,-646
0.152000,40.968172,-689.152250,-404.339676,0.403651,-12.816000,-1024.876349,-0.500000,-0.496620,22357,7859.882812,-642
0.154000,39.569611,-709.062500,-390.536436,0.392986,-12.816000,-1024.887014,-0.500000,-0.501960,21649,7610.976562,-645
0.156000,38.131922,-728.271250,-376.347012,0.381695,-12.816000,-1024.898305,-0.500000,-0.493416,20955,7366.992188,-661
0.158000,36.656526,-746.760000,-361.785435,0.369773,-12.816000,-1024.910227,-0.500000,-0.499824,20243,7116.679688,-651
0.160000,35.144882,-764.510500,-346.866104,0.357218,-12.816000,-1024.922782,-0.500000,-0.499824,19531,6866.367188,-653
0.162000,33.598484,-781.504750,-331.603773,0.344030,-12.816000,-1024.935970,-0.500000,-0.501960,18802,6610.078125,-645
0.164000,32.018863,-797.726250,-316.013534,0.330214,-12.816000,-1024.949786,-0.500000,-0.503028,18088,6359.062500,-648
0.166000,30.407579,-813.159000,-300.110802,0.315777,-12.816000,-1024.964223,-0.500000,-0.499824,17318,6088.359375,-651
0.168000,28.766227,-827.787250,-283.911305,0.300730,-12.816000,-1024.979270,-0.500000,-0.503028,16566,5823.984375,-660
0.170000,27.096430,-841.597500,-267.431059,0.285086,-12.816000,-1024.994914,-0.500000,-0.497688,15850,5572.265625,-658
0.172000,25.399837,-854.575500,-250.686364,0.268863,-12.816000,-1025.011137,-0.500000,-0.501960,15136,5321.250000,-650
0.174000,23.678128,-866.708000,-233.693775,0.252081,-12.816000,-1025.027919,-0.500000,-0.497688,14423,5070.585938,-666
0.176000,21.933005,-877.983750,-216.470097,0.234765,-12.816000,-1025.045235,-0.500000,-0.505164,13706,4818.515625,-654
0.178000,20.166193,-888.391250,-199.032362,0.216940,-12.816000,-1025.063060,-0.500000,-0.501960,12935,4547.460938,-651
0.180000,18.379440,-897.920250,-181.397812,0.198638,-12.816000,-1025.081362,-0.500000,-0.495552,12183,4283.085938,-658
0.182000,16.574512,-906.561500,-163.583885,0.179892,-12.816000,-1025.100108,-0.500000,-0.499824,11378,4000.078125,-662
0.184000,14.753194,-914.306250,-145.608198,0.160738,-12.816000,-1025.119262,-0.500000,-0.498756,10518,3697.734375,-660
0.186000,12.917287,-921.146750,-127.488525,0.141215,-12.816000,-1025.138785,-0.500000,-0.497688,9798,3444.609375,-657
0.188000,11.068607,-927.076250,-109.242785,0.121364,-12.816000,-1025.158636,-0.500000,-0.499824,9076,3190.781250,-653
0.190000,9.208982,-932.089000,-90.889019,0.101228,-12.816000,-1025.178772,-0.500000,-0.496620,8354,2936.953125,-655
0.192000,7.340251,-936.180250,-72.445377,0.080852,-12.816000,-1025.199148,-0.500000,-0.505164,7632,2683.125000,-659
0.194000,5.464261,-939.345750,-53.930097,0.060285,-12.816000,-1025.219715,-0.500000,-0.500892,6910,2429.296875,-670
0.196000,3.582868,-941.582500,-35.361488,0.039573,-12.816000,-1025.240427,-0.500000,-0.505164,6151,2162.460938,-658
0.198000,1.697931,-942.888000,-16.757912,0.018766,-12.816000,-1025.261234,-0.500000,-0.499824,5427,1907.929688,-657
0.200000,-0.188684,-943.261000,1.862236,-0.002086,-12.816000,-1025.282086,-0.500000,-0.503028,4705,1654.101562,-664
0.202000,-2.075113,-942.701250,20.480542,-0.022933,-12.816000,-1025.302933,-0.500000,-0.498756,3984,1400.625000,-673
0.204000,-3.959489,-941.209500,39.078596,-0.043725,-12.816000,-1025.323725,-0.500000,-0.498756,3207,1127.460938,-659
0.206000,-5.839951,-938.787000,57.638006,-0.064411,-12.816000,-1025.344411,-0.500000,-0.506232,2484,873.281250,-661
0.208000,-7.714637,-935.436000,76.140422,-0.084944,-12.816000,-1025.364944,-0.500000,-0.500892,1759,618.398438,-673
0.210000,-9.581695,-931.160250,94.567545,-0.105275,-12.816000,-1025.385275,-0.500000,-0.493416,1033,363.164062,-658
0.212000,-11.439278,-925.963500,112.901154,-0.125358,-12.816000,-1025.405358,-0.500000,-0.499824,308,108.281250,-659
0.214000,-13.285549,-919.851000,131.123121,-0.145147,-12.816000,-1025.425147,-0.500000,-0.494484,-420,-147.656250,-675
0.216000,-15.118682,-912.829250,149.215425,-0.164600,-12.816000,-1025.444600,-0.500000,-0.497688,-1149,-403.945312,-671
0.218000,-16.936866,-904.904750,167.160178,-0.183675,-12.816000,-1025.463675,-0.500000,-0.504096,-1876,-659.531250,-657
0.220000,-18.738301,-896.085250,184.939632,-0.202335,-12.816000,-1025.482335,-0.500000,-0.505164,-2603,-915.117188,-660
0.222000,-20.521207,-886.379750,202.536209,-0.220544,-12.816000,-1025.500544,-0.500000,-0.500892,-3328,-1170.000000,-677
0.224000,-22.283820,-875.797750,219.932506,-0.238269,-12.816000,-1025.518269,-0.500000,-0.499824,-4056,-1425.937500,-658
0.226000,-24.024398,-864.349750,237.111321,-0.255481,-12.816000,-1025.535481,-0.500000,-0.504096,-4783,-1681.523438,-666
0.228000,-25.741219,-852.047000,254.055668,-0.272153,-12.816000,-1025.552153,-0.500000,-0.503028,-5508,-1936.406250,-669
0.230000,-27.432586,-838.901750,270.748790,-0.288262,-12.816000,-1025.568262,-0.500000,-0.512640,-6286,-2209.921875,-665
0.232000,-29.096826,-824.926750,287.174181,-0.303788,-12.816000,-1025.583788,-0.500000,-0.506232,-7048,-2477.812500,-667
0.234000,-30.732293,-810.136250,303.315597,-0.318714,-12.816000,-1025.598714,-0.500000,-0.497688,-7777,-2734.101562,-684
0.236000,-32.337371,-794.544500,319.157079,-0.333027,-12.816000,-1025.613027,-0.500000,-0.500892,-8510,-2991.796875,-673
0.238000,-33.910471,-778.167000,334.682960,-0.346718,-12.816000,-1025.626718,-0.500000,-0.503028,-9242,-3249.140625,-662
0.240000,-35.450039,-761.020250,349.877888,-0.359779,-12.816000,-1025.639779,-0.500000,-0.496620,-10027,-3525.117188,-663
0.242000,-36.954552,-743.120750,364.726837,-0.372208,-12.816000,-1025.652208,-0.500000,-0.499824,-10849,-3814.101562,-684
0.244000,-38.422522,-724.486500,379.215124,-0.384004,-12.816000,-1025.664004,-0.500000,-0.497688,-11583,-4072.148438,-685
0.246000,-39.852498,-705.136000,393.328421,-0.395169,-12.816000,-1025.675169,-0.500000,-0.499824,-12318,-4330.546875,-677
0.248000,-41.243066,-685.088000,407.052774,-0.405709,-12.816000,-1025.685709,-0.500000,-0.497688,-13051,-4588.242188,-665
0.250000,-42.592850,-664.362500,420.374610,-0.415633,-12.816000,-1025.695633,-0.500000,-0.501960,-13779,-4844.179688,-668
0.252000,-43.900516,-642.980250,433.280756,-0.424950,-12.816000,-1025.704950,-0.500000,-0.503028,-14508,-5100.468750,-666
0.254000,-45.164771,-620.962000,445.758450,-0.433673,-12.816000,-1025.713673,-0.500000,-0.499824,-15240,-5357.812500,-669
0.256000,-46.384364,-598.329500,457.795354,-0.441817,-12.816000,-1025.721817,-0.500000,-0.498756,-16031,-5635.898438,-680
0.258000,-47.558089,-575.105750,469.379563,-0.449398,-12.816000,-1025.729398,-0.500000,-0.493416,-16801,-5906.601562,-666
0.260000,-48.684787,-551.313500,480.499624,-0.456434,-12.816000,-1025.736434,-0.500000,-0.498756,-17589,-6183.632812,-682
0.262000,-49.763343,-526.975500,491.144540,-0.462943,-12.816000,-1025.742943,-0.500000,-0.504096,-18321,-6440.976562,-663
0.264000,-50.792689,-502.116500,501.303785,-0.468947,-12.816000,-1025.748947,-0.500000,-0.493416,-19148,-6731.718750,-678
0.266000,-51.771809,-476.761250,510.967313,-0.474465,-12.816000,-1025.754465,-0.500000,-0.498756,-19922,-7003.828125,-669
0.268000,-52.699734,-450.934500,520.125568,-0.479519,-12.816000,-1025.759519,-0.500000,-0.507300,-20783,-7306.523438,-667
0.270000,-53.575547,-424.661750,528.769493,-0.484131,-12.816000,-1025.764131,-0.500000,-0.505164,-21570,-7583.203125,-686
0.272000,-54.398381,-397.969000,536.890542,-0.488322,-12.816000,-1025.768322,-0.500000,-0.499824,-22394,-7872.890625,-662
0.274000,-55.167423,-370.883000,544.480683,-0.492113,-12.816000,-1025.772113,-0.500000,-0.501960,-23161,-8142.539062,-673
0.276000,-55.881913,-343.430000,551.532412,-0.495526,-12.816000,-1025.775526,-0.500000,-0.498756,-23947,-8418.867188,-667
0.278000,-56.541143,-315.637250,558.038754,-0.498580,-12.816000,-1025.778580,-0.500000,-0.503028,-24763,-8705.742188,-657
0.280000,-57.144462,-287.532750,563.993277,-0.501295,-12.816000,-1025.781295,-0.500000,-0.515844,-25543,-8979.960938,-662
0.282000,-57.691274,-259.143750,569.390091,-0.503688,-12.816000,-1025.783688,-0.500000,-0.505164,-26307,-9248.554688,-661
0.284000,-58.181037,-230.498500,574.223861,-0.505778,-12.816000,-1025.785778,-0.500000,-0.500892,-27126,-9536.484375,-668
0.286000,-58.613268,-201.625250,578.489806,-0.507580,-12.816000,-1025.787580,-0.500000,-0.506232,-27857,-9793.476562,-682
0.288000,-58.987538,-172.552500,582.183708,-0.509107,-12.816000,-1025.789107,-0.500000,-0.497688,-28729,-10100.039062,-668
0.290000,-59.303478,-143.309500,585.301915,-0.510373,-12.816000,-1025.790373,-0.500000,-0.497688,-29604,-10407.656250,-662
0.292000,-59.560776,-113.924750,587.841342,-0.511388,-12.816000,-1025.791388,-0.500000,-0.499824,-30460,-10708.593750,-666
0.294000,-59.759177,-84.427000,589.799479,-0.512161,-12.815999,-1025.792066,-0.500000,-0.500892,-31366,-11027.109375,-664
0.296000,-59.898484,-54.846000,591.174389,-0.512698,-12.815559,-1025.757380,-0.500000,-0.496620,-32219,-11326.992188,-652
0.298000,-59.978561,-25.210750,591.964713,-0.513005,-12.651484,-1012.631726,-0.500000,-0.499824,-33084,-11631.093750,-670
0.300000,-59.999327,4.449500,592.169669,-0.513085,5.353744,427.786430,0.500000,0.497688,-33970,-11942.578125,-434
0.302000,-59.960763,34.105250,591.789055,-0.512937,12.788077,1022.533209,0.500000,0.498756,-34340,-12072.656250,0
0.304000,-59.862906,63.727250,590.823247,-0.512561,12.815925,1024.761460,0.500000,0.500892,-34271,-12048.398438,200
0.306000,-59.705854,93.286250,589.273200,-0.511954,12.816000,1024.768030,0.500000,0.499824,-33931,-11928.867188,328
0.308000,-59.489761,122.753250,587.140446,-0.511109,12.816000,1024.768891,0.500000,0.497688,-33490,-11773.828125,441
0.310000,-59.214841,152.098750,584.427095,-0.510020,12.816000,1024.769980,0.500000,0.500892,-32912,-11570.625000,476
0.312000,-58.881366,181.293750,581.135831,-0.508677,12.816000,1024.771323,0.500000,0.497688,-32226,-11329.453125,523
0.314000,-58.489666,210.309500,577.269906,-0.507069,12.816000,1024.772931,0.500000,0.505164,-31503,-11075.273438,573
0.316000,-58.040128,239.117250,572.833145,-0.505182,12.816000,1024.774818,0.500000,0.496620,-30743,-10808.085938,615
0.318000,-57.533197,267.688500,567.829934,-0.503003,12.816000,1024.776997,0.500000,0.500892,-29998,-10546.171875,614
0.320000,-56.969374,295.995250,562.265222,-0.500515,12.816000,1024.779485,0.500000,0.503028,-29145,-10246.289062,639
0.322000,-56.349216,324.009250,556.144510,-0.497700,12.816000,1024.782300,0.500000,0.498756,-28295,-9947.460938,651
0.324000,-55.673337,351.702750,549.473852,-0.494541,12.816000,1024.785459,0.500000,0.500892,-27452,-9651.093750,662
0.326000,-54.942405,379.048500,542.259843,-0.491017,12.816000,1024.788983,0.500000,0.496620,-26631,-9362.460938,673
0.328000,-54.157143,406.019250,534.509617,-0.487108,12.816000,1024.792892,0.500000,0.500892,-25709,-9038.320312,674
0.330000,-53.318328,432.588750,526.230838,-0.482793,12.816000,1024.797207,0.500000,0.498756,-24867,-8742.304688,694
0.332000,-52.426788,458.730500,517.431693,-0.478051,12.816000,1024.801949,0.500000,0.499824,-23921,-8409.726562,700
0.334000,-51.483406,484.418500,508.120883,-0.472859,12.816000,1024.807141,0.500000,0.499824,-22969,-8075.039062,720
0.336000,-50.489114,509.627750,498.307614,-0.467198,12.816000,1024.812802,0.500000,0.497688,-22006,-7736.484375,715
0.338000,-49.444895,534.332750,488.001591,-0.461045,12.816000,1024.818955,0.500000,0.494484,-21037,-7395.820312,711
0.340000,-48.351783,558.509250,477.213005,-0.454379,12.816000,1024.825621,0.500000,0.497688,-20156,-7086.093750,710
0.342000,-47.210858,582.133750,465.952524,-0.447182,12.816000,1024.832818,0.500000,0.495552,-19214,-6754.921875,727
0.344000,-46.023248,605.182500,454.231283,-0.439434,12.816000,1024.840566,0.500000,0.495552,-18287,-6429.023438,730
0.346000,-44.790128,627.633000,442.060872,-0.431118,12.816000,1024.848882,0.500000,0.500892,-17399,-6116.835938,738
0.348000,-43.512716,649.462750,429.453327,-0.422218,12.816000,1024.857782,0.500000,0.501960,-16446,-5781.796875,731
0.350000,-42.192277,670.650000,416.421115,-0.412720,12.816000,1024.867280,0.500000,0.501960,-15550,-5466.796875,734
0.352000,-40.830116,691.174250,402.977123,-0.402613,12.816000,1024.877387,0.500000,0.501960,-14547,-5114.179688,738
0.354000,-39.427580,711.015250,389.134644,-0.391885,12.816000,1024.888115,0.500000,0.501960,-13539,-4759.804688,751
0.356000,-37.986055,730.153000,374.907367,-0.380531,12.816000,1024.899469,0.500000,0.498756,-12508,-4397.343750,756
0.358000,-36.506968,748.568500,360.309360,-0.368546,12.816000,1024.911454,0.500000,0.499824,-11511,-4046.835938,747
0.360000,-34.991781,766.244000,345.355060,-0.355927,12.816000,1024.924073,0.500000,0.501960,-10491,-3688.242188,745
0.362000,-33.441992,783.162000,330.059253,-0.342677,12.816000,1024.937323,0.500000,0.496620,-9472,-3330.000000,734
0.364000,-31.859133,799.305250,314.437066,-0.328798,12.816000,1024.951202,0.500000,0.498756,-8617,-3029.414062,759
0.366000,-30.244771,814.658000,298.503945,-0.314300,12.816000,1024.965700,0.500000,0.500892,-7633,-2683.476562,754
0.368000,-28.600501,829.205500,282.275647,-0.299192,12.816000,1024.980808,0.500000,0.500892,-6809,-2393.789062,752
0.370000,-26.927949,842.933000,265.768219,-0.283490,12.816000,1024.996510,0.500000,0.499824,-5984,-2103.750000,747
0.372000,-25.228769,855.827000,248.997985,-0.267210,12.816000,1025.012790,0.500000,0.499824,-5101,-1793.320312,745
0.374000,-23.504641,867.874500,231.981527,-0.250373,12.816000,1025.029627,0.500000,0.500892,-4232,-1487.812500,756
0.376000,-21.757271,879.063750,214.735673,-0.233005,12.816000,1025.046995,0.500000,0.503028,-3400,-1195.312500,762
0.378000,-19.988386,889.384000,197.277477,-0.215131,12.816000,1025.064869,0.500000,0.497688,-2566,-902.109375,755
0.380000,-18.199735,898.824500,179.624202,-0.196783,12.816000,1025.083217,0.500000,0.497688,-1692,-594.843750,761
0.382000,-16.393088,907.376250,161.793304,-0.177994,12.816000,1025.102006,0.500000,0.501960,-694,-243.984375,759
0.384000,-14.570230,915.031000,143.802416,-0.158802,12.816000,1025.121198,0.500000,0.500892,185,65.039062,780
0.386000,-12.732964,921.780750,125.669328,-0.139244,12.816000,1025.140756,0.500000,0.501960,1087,382.148438,770
0.388000,-10.883107,927.618750,107.411971,-0.119362,12.816000,1025.160638,0.500000,0.505164,1923,676.054688,769
0.390000,-9.022489,932.539750,89.048399,-0.099200,12.816000,1025.180800,0.500000,0.505164,2861,1005.820312,766
0.392000,-7.152948,936.538750,70.596771,-0.078804,12.816000,1025.201196,0.500000,0.496620,3765,1323.632812,776
0.394000,-5.276334,939.611250,52.075334,-0.058219,12.816000,1025.221781,0.500000,0.500892,4587,1612.617188,769
0.396000,-3.394503,941.754750,33.502401,-0.037496,12.816000,1025.242504,0.500000,0.496620,5495,1931.835938,763
0.398000,-1.509315,942.967250,14.896339,-0.016682,12.816000,1025.263318,0.500000,0.498756,6570,2309.765625,774
0.400000,0.377366,943.247000,-3.724453,0.004172,12.816000,1025.284172,0.500000,0.500892,7564,2659.218750,768
0.402000,2.263673,942.594000,-22.341562,0.025015,12.816000,1025.305015,0.500000,0.506232,8582,3017.109375,792
0.404000,4.147742,941.009250,-40.936579,0.045799,12.816000,1025.325799,0.500000,0.497688,9579,3367.617188,779
0.406000,6.027710,938.493750,-59.491115,0.066472,12.816000,1025.346472,0.500000,0.494484,10534,3703.359375,791
0.408000,7.901717,935.050000,-77.986823,0.086987,12.816000,1025.366987,0.500000,0.500892,11490,4039.453125,779
0.410000,9.767910,930.681750,-96.405414,0.107296,12.816000,1025.387296,0.500000,0.495552,12427,4368.867188,778
0.412000,11.624444,925.393250,-114.728673,0.127351,12.816000,1025.407351,0.500000,0.504096,13300,4675.781250,774
0.414000,13.469483,919.189750,-132.938482,0.147108,12.816000,1025.427108,0.500000,0.504096,14131,4967.929688,787
0.416000,15.301203,912.077500,-151.016834,0.166525,12.816000,1025.446525,0.500000,0.497688,15177,5335.664062,776
0.418000,17.117793,904.063000,-168.945853,0.185560,12.816000,1025.465560,0.500000,0.498756,16247,5711.835938,781
0.420000,18.917455,895.154250,-186.707808,0.204177,12.816000,1025.484177,0.500000,0.499824,17318,6088.359375,782
0.422000,20.698410,885.360750,-204.285136,0.222339,12.816000,1025.502339,0.500000,0.499824,18219,6405.117188,797
0.424000,22.458898,874.691750,-221.660456,0.240014,12.816000,1025.520014,0.500000,0.507300,19077,6706.757812,779
0.426000,24.197177,863.157750,-238.816585,0.257173,12.816000,1025.537173,0.500000,0.494484,19936,7008.750000,780
0.428000,25.911529,850.770250,-255.736559,0.273790,12.816000,1025.553790,0.500000,0.492348,20859,7333.242188,795
0.430000,27.600258,837.541250,-272.403647,0.289841,12.816000,1025.569841,0.500000,0.506232,21831,7674.960938,784
0.432000,29.261694,823.484250,-288.801367,0.305308,12.816000,1025.585308,0.500000,0.492348,22804,8017.031250,782
0.434000,30.894195,808.613000,-304.913503,0.320173,12.816000,1025.600173,0.500000,0.511572,23820,8374.218750,796
0.436000,32.496146,792.941750,-320.724125,0.334424,12.816000,1025.614424,0.500000,0.499824,24861,8740.195312,799
0.438000,34.065962,776.486750,-336.217596,0.348052,12.816000,1025.628052,0.500000,0.504096,25837,9083.320312,795
0.440000,35.602093,759.264000,-351.378597,0.361051,12.816000,1025.641051,0.500000,0.499824,26811,9425.742188,798
0.442000,37.103018,741.290000,-366.192135,0.373416,12.816000,1025.653416,0.500000,0.503028,27674,9729.140625,796
0.444000,38.567253,722.583250,-380.643561,0.385148,12.816000,1025.665148,0.500000,0.495552,28539,10033.242188,796
0.446000,39.993351,703.162250,-394.718586,0.396251,12.816000,1025.676251,0.500000,0.499824,29404,10337.343750,800
0.448000,41.379902,683.045750,-408.403291,0.406729,12.816000,1025.686729,0.500000,0.504096,30270,10641.796875,800
0.450000,42.725534,662.253500,-421.684145,0.416592,12.816000,1025.696592,0.500000,0.504096,31133,10945.195312,791
0.452000,44.028916,640.806500,-434.548013,0.425849,12.816000,1025.705849,0.500000,0.500892,32041,11264.414062,796
0.454000,45.288760,618.726000,-446.982176,0.434513,12.816000,1025.714513,0.500000,0.495552,32969,11590.664062,781
0.456000,46.503820,596.033500,-458.974338,0.442600,12.816000,1025.722600,0.500000,0.512640,33941,11932.382812,781
0.458000,47.672894,572.751750,-470.512641,0.450126,12.816000,1025.730126,0.500000,0.501960,34803,12235.429688,784
0.460000,48.794827,548.903750,-481.585675,0.457108,12.816000,1025.737108,0.500000,0.499824,35704,12552.187500,778
0.462000,49.868509,524.512750,-492.182489,0.463566,12.816000,1025.743566,0.500000,0.494484,36625,12875.976562,786
0.464000,50.892878,499.603000,-502.292607,0.469520,12.816000,1025.749520,0.500000,0.497688,37548,13200.468750,801
0.466000,51.866921,474.199250,-511.906029,0.474991,12.816000,1025.754991,0.500000,0.499824,38625,13579.101562,799
0.468000,52.789675,448.326750,-521.013250,0.480000,12.816000,1025.760000,0.500000,0.501960,39699,13956.679688,796
0.470000,53.660228,422.011000,-529.605264,0.484569,12.816000,1025.764569,0.500000,0.503028,40774,14334.609375,786
0.472000,54.477719,395.277750,-537.673575,0.488719,12.816000,1025.768719,0.500000,0.505164,41744,14675.625000,794
0.474000,55.241339,368.153750,-545.210204,0.492471,12.816000,1025.772471,0.500000,0.500892,42716,15017.343750,789
0.476000,55.950334,340.665500,-552.207699,0.495847,12.816000,1025.775847,0.500000,0.501960,43727,15372.773438,796
0.478000,56.604001,312.840500,-558.659140,0.498866,12.816000,1025.778866,0.500000,0.495552,44696,15713.437500,789
0.480000,57.201696,284.706250,-564.558147,0.501548,12.816000,1025.781548,0.500000,0.498756,45623,16039.335938,793
0.482000,57.742826,256.290250,-569.898888,0.503911,12.816000,1025.783911,0.500000,0.500892,46595,16381.054688,781
0.484000,58.226857,227.620750,-574.676082,0.505971,12.816000,1025.785971,0.500000,0.498756,47563,16721.367188,779
0.486000,58.653309,198.726500,-578.885003,0.507745,12.816000,1025.787745,0.500000,0.497688,48597,17084.882812,782
0.488000,59.021763,169.635750,-582.521491,0.509245,12.816000,1025.789245,0.500000,0.495552,49613,17442.070312,802
0.490000,59.331852,140.376750,-585.581948,0.510486,12.816000,1025.790486,0.500000,0.505164,50654,17808.046875,804
0.492000,59.583270,110.979500,-588.063350,0.511476,12.816000,1025.791476,0.500000,0.503028,51627,18150.117188,792
0.494000,59.775770,81.472250,-589.963242,0.512225,12.815998,1025.792053,0.500000,0.495552,52647,18508.710938,782
0.496000,59.909159,51.884250,-591.279745,0.512739,12.815202,1025.728876,0.500000,0.506232,53627,18853.242188,791
0.498000,59.983307,22.245500,-592.011558,0.513023,12.519847,1002.100799,0.500000,0.501960,54608,19198.125000,793
0.500000,59.998141,-7.415500,-592.157957,0.513080,-8.075115,-645.496082,-0.500000,-0.499824,55513,19516.289062,599
0.502000,59.953645,-37.069500,-591.718797,0.512910,-12.800558,-1023.531726,-0.500000,-0.503028,56086,19717.734375,166
0.504000,59.849863,-66.686750,-590.694512,0.512511,-12.815959,-1024.764181,-0.500000,-0.498756,56167,19746.210938,-132
0.506000,59.686898,-96.237750,-589.086116,0.511880,-12.816000,-1024.768111,-0.500000,-0.497688,55952,19670.625000,-315
0.508000,59.464912,-125.693750,-586.895198,0.511012,-12.816000,-1024.768988,-0.500000,-0.500892,55562,19533.515625,-413
0.510000,59.184123,-155.025500,-584.123926,0.509897,-12.816000,-1024.770103,-0.500000,-0.499824,55072,19361.250000,-477
0.512000,58.844810,-184.203750,-580.775039,0.508528,-12.816000,-1024.771472,-0.500000,-0.495552,54479,19152.773438,-556
0.514000,58.447308,-213.200000,-576.851850,0.506893,-12.816000,-1024.773107,-0.500000,-0.498756,53746,18895.078125,-612
0.516000,57.992010,-241.985500,-572.358237,0.504978,-12.816000,-1024.775022,-0.500000,-0.501960,52980,18625.781250,-656
0.518000,57.479366,-270.531750,-567.298644,0.502768,-12.816000,-1024.777232,-0.500000,-0.496620,52106,18318.515625,-707
0.520000,56.909883,-298.810250,-561.678075,0.500248,-12.816000,-1024.779752,-0.500000,-0.496620,51246,18016.171875,-725
0.522000,56.284125,-326.793250,-555.502087,0.497400,-12.816000,-1024.782600,-0.500000,-0.500892,50308,17686.406250,-753
0.524000,55.602710,-354.453500,-548.776788,0.494205,-12.816000,-1024.785795,-0.500000,-0.496620,49484,17396.718750,-759
0.526000,54.866311,-381.763000,-541.508828,0.490644,-12.816000,-1024.789356,-0.500000,-0.495552,48642,17100.703125,-790
0.528000,54.075658,-408.694750,-533.705393,0.486695,-12.816000,-1024.793305,-0.500000,-0.503028,47675,16760.742188,-796
0.530000,53.231532,-435.222750,-525.374201,0.482338,-12.816000,-1024.797662,-0.500000,-0.501960,46580,16375.781250,-823
0.532000,52.334767,-461.320250,-516.523489,0.477552,-12.816000,-1024.802448,-0.500000,-0.466716,45686,16061.484375,-828
0.534000,51.386251,-486.961250,-507.162010,0.472315,-12.816000,-1024.807685,-0.500000,-0.501960,44670,15704.296875,-847
0.536000,50.386922,-512.121000,-497.299021,0.466605,-12.816000,-1024.813395,-0.500000,-0.496620,43690,15359.765625,-848
0.538000,49.337767,-536.774500,-486.944275,0.460401,-12.816000,-1024.819599,-0.500000,-0.498756,42656,14996.250000,-851
0.540000,48.239824,-560.897000,-476.108012,0.453684,-12.816000,-1024.826316,-0.500000,-0.499824,41541,14604.257812,-842
0.542000,47.094179,-584.465000,-464.800946,0.446432,-12.816000,-1024.833568,-0.500000,-0.504096,40371,14192.929688,-857
0.544000,45.901964,-607.455000,-453.034259,0.438628,-12.816000,-1024.841372,-0.500000,-0.504096,39313,13820.976562,-847
0.546000,44.664359,-629.844250,-440.819586,0.430254,-12.816000,-1024.849746,-0.500000,-0.492348,38247,13446.210938,-872
0.548000,43.382587,-651.610500,-428.169007,0.421295,-12.816000,-1024.858705,-0.500000,-0.501960,37172,13068.281250,-883
0.550000,42.057917,-672.732500,-415.095030,0.411737,-12.816000,-1024.868263,-0.500000,-0.508368,35976,12647.812500,-879
0.552000,40.691657,-693.189500,-401.610584,0.401568,-12.816000,-1024.878432,-0.500000,-0.506232,34848,12251.250000,-876
0.554000,39.285159,-712.961000,-387.729003,0.390778,-12.816000,-1024.889222,-0.500000,-0.505164,33760,11868.750000,-881
0.556000,37.839813,-732.027250,-373.464013,0.379361,-12.816000,-1024.900639,-0.500000,-0.499824,32742,11510.859375,-882
0.558000,36.357050,-750.369750,-358.829722,0.367312,-12.816000,-1024.912688,-0.500000,-0.499824,31699,11144.179688,-891
0.560000,34.838334,-767.970500,-343.840600,0.354630,-12.816000,-1024.925370,-0.500000,-0.504096,30604,10759.218750,-887
0.562000,33.285168,-784.811250,-328.511469,0.341317,-12.816000,-1024.938683,-0.500000,-0.503028,29503,10372.148438,-892
0.564000,31.699089,-800.876250,-312.857488,0.327376,-12.816000,-1024.952624,-0.500000,-0.498756,28330,9959.765625,-907
0.566000,30.081663,-816.149500,-296.894136,0.312816,-12.816000,-1024.967184,-0.500000,-0.505164,27229,9572.695312,-901
0.568000,28.434491,-830.615500,-280.637198,0.297649,-12.816000,-1024.982351,-0.500000,-0.501960,26123,9183.867188,-915
0.570000,26.759201,-844.260000,-264.102750,0.281888,-12.816000,-1024.998112,-0.500000,-0.498756,24963,8776.054688,-916
0.572000,25.057451,-857.069750,-247.307143,0.265551,-12.816000,-1025.014449,-0.500000,-0.504096,23728,8341.875000,-909
0.574000,23.330922,-869.032250,-230.266985,0.248660,-12.816000,-1025.031340,-0.500000,-0.504096,22614,7950.234375,-911
0.576000,21.581322,-880.135250,-212.999126,0.231239,-12.816000,-1025.048761,-0.500000,-0.499824,21498,7557.890625,-908
0.578000,19.810381,-890.367750,-195.520641,0.213317,-12.816000,-1025.066683,-0.500000,-0.499824,20308,7139.531250,-904
0.580000,18.019851,-899.719750,-177.848815,0.194923,-12.816000,-1025.085077,-0.500000,-0.503028,19141,6729.257812,-915
0.582000,16.211502,-908.182250,-160.001122,0.176093,-12.816000,-1025.103907,-0.500000,-0.504096,18022,6335.859375,-922
0.584000,14.387122,-915.746750,-141.995211,0.156862,-12.816000,-1025.123138,-0.500000,-0.505164,16825,5915.039062,-906
0.586000,12.548515,-922.405750,-123.848887,0.137269,-12.816000,-1025.142731,-0.500000,-0.496620,15577,5476.289062,-905
0.588000,10.697499,-928.152250,-105.580095,0.117358,-12.816000,-1025.162642,-0.500000,-0.495552,14406,5064.609375,-922
0.590000,8.835906,-932.981250,-87.206899,0.097170,-12.816000,-1025.182830,-0.500000,-0.494484,13159,4626.210938,-905
0.592000,6.965574,-936.887750,-68.747467,0.076753,-12.816000,-1025.203247,-0.500000,-0.498756,12035,4231.054688,-909
0.594000,5.088355,-939.867500,-50.220055,0.056152,-12.816000,-1025.223848,-0.500000,-0.497688,10836,3809.531250,-907
0.596000,3.206104,-941.918000,-31.642982,0.035418,-12.816000,-1025.244582,-0.500000,-0.500892,9711,3414.023438,-930
0.598000,1.320683,-943.037000,-13.034619,0.014598,-12.816000,-1025.265402,-0.500000,-0.498756,8457,2973.164062,-913
0.600000,-0.566044,-943.223750,5.586634,-0.006257,-12.816000,-1025.286257,-0.500000,-0.496620,7377,2593.476562,-928
0.602000,-2.452212,-942.477500,24.202362,-0.027097,-12.816000,-1025.307097,-0.500000,-0.501960,6272,2205.000000,-918
0.604000,-4.335954,-940.799250,42.794157,-0.047872,-12.816000,-1025.327872,-0.500000,-0.500892,5062,1779.609375,-928
0.606000,-6.215409,-938.191000,61.343636,-0.068532,-12.816000,-1025.348532,-0.500000,-0.506232,3876,1362.656250,-909
0.608000,-8.088718,-934.654750,79.832454,-0.089028,-12.816000,-1025.369028,-0.500000,-0.503028,2742,963.984375,-917
0.610000,-9.954028,-930.194250,98.242329,-0.109313,-12.816000,-1025.389313,-0.500000,-0.495552,1534,539.296875,-917
0.612000,-11.809495,-924.814250,116.555057,-0.129341,-12.816000,-1025.409341,-0.500000,-0.500892,347,121.992188,-922
0.614000,-13.653285,-918.519500,134.752529,-0.149066,-12.816000,-1025.429066,-0.500000,-0.498756,-812,-285.468750,-925
0.616000,-15.483573,-911.316250,152.816750,-0.168446,-12.816000,-1025.448446,-0.500000,-0.497688,-1917,-673.945312,-915
0.618000,-17.298550,-903.212000,170.729857,-0.187442,-12.816000,-1025.467442,-0.500000,-0.499824,-2998,-1053.984375,-913
0.620000,-19.096421,-894.214750,188.474137,-0.206014,-12.816000,-1025.486014,-0.500000,-0.505164,-4053,-1424.882812,-931
0.622000,-20.875409,-884.333250,206.032044,-0.224129,-12.816000,-1025.504129,-0.500000,-0.504096,-5256,-1847.812500,-916
0.624000,-22.633754,-873.577000,223.386214,-0.241754,-12.816000,-1025.521754,-0.500000,-0.500892,-6281,-2208.164062,-910
0.626000,-24.369717,-861.957250,240.519488,-0.258860,-12.816000,-1025.538860,-0.500000,-0.495552,-7510,-2640.234375,-913
0.628000,-26.081583,-849.485000,257.414922,-0.275421,-12.816000,-1025.555421,-0.500000,-0.496620,-8513,-2992.851562,-926
0.630000,-27.767657,-836.172500,274.055810,-0.291415,-12.816000,-1025.571415,-0.500000,-0.503028,-9514,-3344.765625,-916
0.632000,-29.426273,-822.033500,290.425697,-0.306822,-12.816000,-1025.586822,-0.500000,-0.497688,-10640,-3740.625000,-923
0.634000,-31.055791,-807.081500,306.508394,-0.321626,-12.816000,-1025.601626,-0.500000,-0.496620,-11769,-4137.539062,-907
0.636000,-32.654599,-791.331500,322.287999,-0.335815,-12.816000,-1025.615815,-0.500000,-0.504096,-12770,-4489.453125,-925
0.638000,-34.221117,-774.798750,337.748907,-0.349381,-12.816000,-1025.629381,-0.500000,-0.503028,-13893,-4884.257812,-922
0.640000,-35.753794,-757.500000,352.875831,-0.362316,-12.816000,-1025.642316,-0.500000,-0.498756,-15016,-5279.062500,-915
0.642000,-37.251117,-739.452250,367.653811,-0.374618,-12.816000,-1025.654618,-0.500000,-0.497688,-16164,-5682.656250,-913
0.644000,-38.711603,-720.673000,382.068234,-0.386287,-12.816000,-1025.666287,-0.500000,-0.496620,-17333,-6093.632812,-915
0.646000,-40.133809,-701.181500,396.104847,-0.397327,-12.816000,-1025.677327,-0.500000,-0.496620,-18500,-6503.906250,-912
0.648000,-41.516329,-680.996500,409.749770,-0.407743,-12.816000,-1025.687743,-0.500000,-0.498756,-19571,-6880.429688,-903
0.650000,-42.857795,-660.137750,422.989509,-0.417545,-12.816000,-1025.697545,-0.500000,-0.495552,-20615,-7247.460938,-916
0.652000,-44.156880,-638.626500,435.810972,-0.426742,-12.816000,-1025.706742,-0.500000,-0.490212,-21605,-7595.507812,-908
0.654000,-45.412301,-616.484000,448.201482,-0.435348,-12.816000,-1025.715348,-0.500000,-0.500892,-22668,-7969.218750,-912
0.656000,-46.622816,-593.731750,460.148784,-0.443378,-12.816000,-1025.723378,-0.500000,-0.503028,-23659,-8317.617188,-900
0.658000,-47.787228,-570.392000,471.641066,-0.450848,-12.816000,-1025.730848,-0.500000,-0.503028,-24646,-8664.609375,-895
0.660000,-48.904384,-546.488500,482.666963,-0.457777,-12.816000,-1025.737777,-0.500000,-0.497688,-25606,-9002.109375,-919
0.662000,-49.973182,-522.044750,493.215571,-0.464184,-12.816000,-1025.744184,-0.500000,-0.501960,-26591,-9348.398438,-901
0.664000,-50.992563,-497.084500,503.276461,-0.470089,-12.816000,-1025.750089,-0.500000,-0.504096,-27652,-9721.406250,-913
0.666000,-51.961520,-471.632750,512.839683,-0.475512,-12.816000,-1025.755512,-0.500000,-0.504096,-28709,-10093.007812,-910
0.668000,-52.879094,-445.714750,521.895780,-0.480477,-12.816000,-1025.760477,-0.500000,-0.492348,-29764,-10463.906250,-899
0.670000,-53.744379,-419.356000,530.435797,-0.485002,-12.816000,-1025.765002,-0.500000,-0.500892,-30963,-10885.429688,-890
0.672000,-54.556518,-392.582500,538.451290,-0.489112,-12.816000,-1025.769112,-0.500000,-0.499824,-32090,-11281.640625,-907
0.674000,-55.314709,-365.420750,545.934333,-0.492826,-12.816000,-1025.772826,-0.500000,-0.500892,-33185,-11666.601562,-888
0.676000,-56.018201,-337.897750,552.877525,-0.496165,-12.816000,-1025.776165,-0.500000,-0.499824,-34377,-12085.664062,-877
0.678000,-56.666300,-310.040500,559.274000,-0.499149,-12.816000,-1025.779149,-0.500000,-0.500892,-35468,-12469.218750,-893
0.680000,-57.258363,-281.876750,565.117435,-0.501798,-12.816000,-1025.781798,-0.500000,-0.497688,-36462,-12818.671875,-882
0.682000,-57.793807,-253.434250,570.402050,-0.504130,-12.816000,-1025.784130,-0.500000,-0.503028,-37549,-13200.820312,-888
0.684000,-58.272100,-224.741000,575.122619,-0.506161,-12.816000,-1025.786161,-0.500000,-0.497688,-38636,-13582.968750,-890
0.686000,-58.692771,-195.825750,579.274475,-0.507907,-12.816000,-1025.787907,-0.500000,-0.501960,-39695,-13955.273438,-881
0.688000,-59.055403,-166.716750,582.853512,-0.509381,-12.816000,-1025.789381,-0.500000,-0.495552,-40679,-14301.210938,-865
0.690000,-59.359638,-137.443000,585.856191,-0.510596,-12.816000,-1025.790596,-0.500000,-0.497688,-41682,-14653.828125,-884
0.692000,-59.605175,-108.033250,588.279543,-0.511562,-12.816000,-1025.791561,-0.500000,-0.503028,-42681,-15005.039062,-873
0.694000,-59.791771,-78.516750,590.121171,-0.512287,-12.815996,-1025.791976,-0.500000,-0.503028,-43650,-15345.703125,-869
0.696000,-59.919242,-48.922500,591.379254,-0.512778,-12.814557,-1025.677301,-0.500000,-0.503028,-44787,-15745.429688,-867
0.698000,-59.987461,-19.279750,592.052549,-0.513039,-12.285026,-983.315080,-0.500000,-0.495552,-45852,-16119.843750,-857
0.700000,-59.996361,10.382000,592.140388,-0.513073,9.960291,796.310211,0.500000,0.491280,-46827,-16462.617188,-666
0.702000,-59.945933,40.033500,591.642687,-0.512880,12.807462,1024.084054,0.500000,0.495552,-47437,-16677.070312,-205
0.704000,-59.836227,69.645250,590.559936,-0.512459,12.815977,1024.765711,0.500000,0.497688,-47581,-16727.695312,116
0.706000,-59.667352,99.188000,588.893206,-0.511804,12.816000,1024.768191,0.500000,0.498756,-47384,-16658.437500,302
0.708000,-59.439475,128.633000,586.644146,-0.510911,12.816000,1024.769089,0.500000,0.496620,-46925,-16497.070312,426
0.710000,-59.152820,157.950750,583.814980,-0.509772,12.816000,1024.770228,0.500000,0.506232,-46389,-16308.632812,491
0.712000,-58.807672,187.112000,580.408504,-0.508377,12.816000,1024.771623,0.500000,0.500892,-45743,-16081.523438,560
0.714000,-58.404372,216.088500,576.428088,-0.506714,12.816000,1024.773286,0.500000,0.496620,-45066,-15843.515625,624
0.716000,-57.943318,244.851250,571.877668,-0.504770,12.816000,1024.775230,0.500000,0.495552,-44254,-15558.046875,649
0.718000,-57.424967,273.372000,566.761744,-0.502530,12.816000,1024.777470,0.500000,0.505164,-43432,-15269.062500,697
0.720000,-56.849830,301.622500,561.085374,-0.499978,12.816000,1024.780022,0.500000,0.498756,-42656,-14996.250000,746
0.722000,-56.218477,329.574500,554.854171,-0.497096,12.816000,1024.782904,0.500000,0.495552,-41753,-14678.789062,768
0.724000,-55.531532,357.200500,548.074297,-0.493866,12.816000,1024.786134,0.500000,0.497688,-40742,-14323.359375,786
0.726000,-54.789675,384.473250,540.752457,-0.490266,12.816000,1024.789734,0.500000,0.499824,-39809,-13995.351562,817
0.728000,-53.993639,411.366250,532.895891,-0.486278,12.816000,1024.793722,0.500000,0.500892,-38830,-13651.171875,822
0.730000,-53.144210,437.852250,524.512368,-0.481879,12.816000,1024.798121,0.500000,0.497688,-37855,-13308.398438,850
0.732000,-52.242230,463.905250,515.610177,-0.477049,12.816000,1024.802951,0.500000,0.498756,-36863,-12959.648438,850
0.734000,-51.288589,489.499500,506.198122,-0.471765,12.816000,1024.808235,0.500000,0.496620,-35688,-12546.562500,874
0.736000,-50.284232,514.609750,496.285511,-0.466007,12.816000,1024.813993,0.500000,0.500892,-34568,-12152.812500,894
0.738000,-49.230150,539.211000,485.882144,-0.459753,12.816000,1024.820247,0.500000,0.503028,-33485,-11772.070312,901
0.740000,-48.127388,563.279000,474.998310,-0.452983,12.816000,1024.827017,0.500000,0.495552,-32508,-11428.593750,913
0.742000,-46.977034,586.790500,463.644772,-0.445677,12.816000,1024.834323,0.500000,0.492348,-31401,-11039.414062,907
0.744000,-45.780226,609.721250,451.832755,-0.437817,12.816000,1024.842183,0.500000,0.497688,-30230,-10627.734375,903
0.746000,-44.538149,632.049000,439.573941,-0.429385,12.816000,1024.850615,0.500000,0.498756,-29150,-10248.046875,925
0.748000,-43.252030,653.752250,426.880452,-0.420367,12.816000,1024.859633,0.500000,0.496620,-28133,-9890.507812,938
0.750000,-41.923140,674.808750,413.764839,-0.410748,12.816000,1024.869252,0.500000,0.496620,-26955,-9476.367188,944
0.752000,-40.552795,695.197750,400.240073,-0.400517,12.816000,1024.879483,0.500000,0.504096,-25821,-9077.695312,945
0.754000,-39.142349,714.899500,386.319527,-0.389665,12.816000,1024.890335,0.500000,0.493416,-24578,-8640.703125,959
0.756000,-37.693197,733.894500,372.016967,-0.378185,12.816000,1024.901815,0.500000,0.498756,-23322,-8199.140625,972
0.758000,-36.206771,752.163500,357.346536,-0.366073,12.816000,1024.913927,0.500000,0.500892,-22080,-7762.500000,956
0.760000,-34.684543,769.688750,342.322740,-0.353327,12.816000,1024.926673,0.500000,0.497688,-20831,-7323.398438,978
0.762000,-33.128016,786.453000,326.960436,-0.339951,12.816000,1024.940049,0.500000,0.503028,-19489,-6851.601562,982
0.764000,-31.538731,802.439500,311.274816,-0.325948,12.816000,1024.954052,0.500000,0.497688,-18275,-6424.804688,986
0.766000,-29.918258,817.632750,295.281390,-0.311327,12.816000,1024.968673,0.500000,0.499824,-17194,-6044.765625,1000
0.768000,-28.268200,832.017250,278.995973,-0.296099,12.816000,1024.983901,0.500000,0.498756,-15971,-5614.804688,995
0.770000,-26.590189,845.578750,262.434670,-0.280279,12.816000,1024.999721,0.500000,0.517980,-14795,-5201.367188,999
0.772000,-24.885885,858.304250,245.613856,-0.263886,12.816000,1025.016114,0.500000,0.499824,-13560,-4767.187500,1002
0.774000,-23.156972,870.181250,228.550165,-0.246941,12.816000,1025.033059,0.500000,0.507300,-12237,-4302.070312,1004
0.776000,-21.405160,881.197750,211.260472,-0.229469,12.816000,1025.050531,0.500000,0.498756,-10934,-3843.984375,1021
0.778000,-19.632181,891.342750,193.761872,-0.211498,12.816000,1025.068502,0.500000,0.507300,-9683,-3404.179688,1020
0.780000,-17.839789,900.606250,176.071670,-0.193059,12.816000,1025.086941,0.500000,0.500892,-8485,-2983.007812,1025
0.782000,-16.029756,908.979500,158.207358,-0.174187,12.816000,1025.105813,0.500000,0.504096,-7224,-2539.687500,1029
0.784000,-14.203871,916.453500,140.186602,-0.154918,12.816000,1025.125082,0.500000,0.495552,-5961,-2095.664062,1037
0.786000,-12.363942,923.021250,122.027222,-0.135292,12.816000,1025.144708,0.500000,0.498756,-4638,-1630.546875,1033
0.788000,-10.511786,928.676750,103.747174,-0.115351,12.816000,1025.164649,0.500000,0.501960,-3505,-1232.226562,1046
0.790000,-8.649235,933.413500,85.364535,-0.095138,12.816000,1025.184862,0.500000,0.495552,-2137,-751.289062,1045
0.792000,-6.778132,937.227250,66.897484,-0.074700,12.816000,1025.205300,0.500000,0.499824,-711,-249.960938,1047
0.794000,-4.900326,940.114500,48.364280,-0.054084,12.816000,1025.225916,0.500000,0.507300,577,202.851562,1052
0.796000,-3.017674,942.072000,29.783250,-0.033339,12.816000,1025.246661,0.500000,0.507300,2012,707.343750,1051
0.798000,-1.132038,943.097750,11.172770,-0.012513,12.816000,1025.267487,0.500000,0.494484,3448,1212.187500,1055
0.800000,0.754717,943.191000,-7.448759,0.008343,12.816000,1025.288343,0.500000,0.497688,4893,1720.195312,1067
0.802000,2.640726,942.351500,-26.062922,0.029178,12.816000,1025.309178,0.500000,0.498756,6256,2199.375000,1065
0.804000,4.524123,940.580250,-44.651312,0.049944,12.816000,1025.329944,0.500000,0.500892,7591,2668.710938,1069
0.806000,6.403047,937.879250,-63.195549,0.070590,12.816000,1025.350590,0.500000,0.500892,8961,3150.351562,1062
0.808000,8.275640,934.250250,-81.677295,0.091067,12.816000,1025.371067,0.500000,0.504096,10422,3663.984375,1066
0.810000,10.140048,929.697500,-100.078273,0.111328,12.816000,1025.391328,0.500000,0.496620,11884,4177.968750,1069
0.812000,11.994430,924.225750,-118.380289,0.131327,12.816000,1025.411327,0.500000,0.501960,13204,4642.031250,1077
0.814000,13.836951,917.839750,-136.565243,0.151020,12.816000,1025.431020,0.500000,0.497688,14586,5127.890625,1069
0.816000,15.665789,910.546250,-154.615154,0.170364,12.816000,1025.450364,0.500000,0.501960,16000,5625.000000,1081
0.818000,17.479136,902.352500,-172.512173,0.189318,12.816000,1025.469318,0.500000,0.498756,17331,6092.929688,1093
0.820000,19.275199,893.266250,-190.238603,0.207847,12.816000,1025.487847,0.500000,0.506232,18752,6592.500000,1092
0.822000,21.052201,883.296750,-207.776914,0.225914,12.816000,1025.505914,0.500000,0.500892,20085,7061.132812,1085
0.824000,22.808386,872.453750,-225.109763,0.243488,12.816000,1025.523488,0.500000,0.503028,21482,7552.265625,1088
0.826000,24.542016,860.748000,-242.220011,0.260541,12.816000,1025.540541,0.500000,0.497688,22822,8023.359375,1092
0.828000,26.251378,848.191500,-259.090739,0.277046,12.816000,1025.557046,0.500000,0.505164,24166,8495.859375,1094
0.830000,27.934782,834.795750,-275.705263,0.292982,12.816000,1025.572982,0.500000,0.503028,25484,8959.218750,1103
0.832000,29.590561,820.574500,-292.047155,0.308329,12.816000,1025.588329,0.500000,0.506232,26923,9465.117188,1097
0.834000,31.217080,805.542250,-308.100254,0.323073,12.816000,1025.603073,0.500000,0.501960,28273,9939.726562,1107
0.836000,32.812730,789.713000,-323.848686,0.337200,12.816000,1025.617200,0.500000,0.497688,29779,10469.179688,1105
0.838000,34.375932,773.103000,-339.276878,0.350703,12.816000,1025.630703,0.500000,0.501960,31315,11009.179688,1102
0.840000,35.905142,755.728750,-354.369575,0.363574,12.816000,1025.643574,0.500000,0.496620,32793,11528.789062,1109
0.842000,37.398847,737.607000,-369.111851,0.375813,12.816000,1025.655813,0.500000,0.498756,34337,12071.601562,1106
0.844000,38.855570,718.755750,-383.489129,0.387419,12.816000,1025.667419,0.500000,0.499824,35758,12571.171875,1108
0.846000,40.273870,699.193750,-397.487191,0.398396,12.816000,1025.678396,0.500000,0.504096,37118,13049.296875,1109
0.848000,41.652345,678.940500,-411.092196,0.408751,12.816000,1025.688751,0.500000,0.497688,38478,13527.421875,1107
0.850000,42.989632,658.015750,-424.290690,0.418491,12.816000,1025.698491,0.500000,0.498756,39835,14004.492188,1107
0.852000,44.284408,636.440500,-437.069622,0.427629,12.816000,1025.707629,0.500000,0.493416,41191,14481.210938,1109
0.854000,45.535394,614.235750,-449.416355,0.436177,12.816000,1025.716177,0.500000,0.498756,42397,14905.195312,1102
0.856000,46.741351,591.423500,-461.318679,0.444150,12.816000,1025.724150,0.500000,0.504096,43599,15327.773438,1095
0.858000,47.901088,568.026750,-472.764826,0.451565,12.816000,1025.731565,0.500000,0.509436,45038,15833.671875,1099
0.860000,49.013458,544.068250,-483.743477,0.458441,12.816000,1025.738441,0.500000,0.493416,46448,16329.375000,1095
0.862000,50.077361,519.571500,-494.243776,0.464797,12.816000,1025.744797,0.500000,0.496620,47882,16833.515625,1095
0.864000,51.091744,494.561000,-504.255338,0.470652,12.816000,1025.750652,0.500000,0.510504,49138,17275.078125,1100
0.866000,52.055605,469.061500,-513.768265,0.476029,12.816000,1025.756029,0.500000,0.500892,50577,17780.976562,1090
0.868000,52.967990,443.098250,-522.773149,0.480948,12.816000,1025.760948,0.500000,0.494484,51924,18254.531250,1097
0.870000,53.827998,416.697000,-531.261085,0.485432,12.816000,1025.765432,0.500000,0.507300,53181,18696.445312,1102
0.872000,54.634778,389.883250,-539.223681,0.489501,12.816000,1025.769501,0.500000,0.499824,54382,19118.671875,1102
0.874000,55.387531,362.684250,-546.653063,0.493176,12.816000,1025.773176,0.500000,0.499824,55732,19593.281250,1106
0.876000,56.085515,335.126750,-553.541883,0.496479,12.816000,1025.776479,0.500000,0.503028,57023,20047.148438,1106
0.878000,56.728038,307.237500,-559.883330,0.499429,12.816000,1025.779429,0.500000,0.493416,58287,20491.523438,1103
0.880000,57.314465,279.044500,-565.671134,0.502046,12.816000,1025.782046,0.500000,0.501960,59491,20914.804688,1102
0.882000,57.844216,250.575750,-570.899570,0.504346,12.816000,1025.784346,0.500000,0.500892,60848,21391.875000,1103
0.884000,58.316768,221.859250,-575.563469,0.506348,12.816000,1025.786348,0.500000,0.506232,62057,21816.914062,1112
0.886000,58.731653,192.923000,-579.658219,0.508066,12.816000,1025.788066,0.500000,0.507300,63420,22296.093750,1108
0.888000,59.088460,163.796250,-583.179770,0.509514,12.816000,1025.789514,0.500000,0.499824,64781,22774.570312,1110
0.890000,59.386838,134.507750,-586.124640,0.510704,12.816000,1025.790704,0.500000,0.503028,66325,23317.382812,1105
0.892000,59.626491,105.085750,-588.489918,0.511645,12.816000,1025.791643,0.500000,0.499824,67690,23797.265625,1112
0.894000,59.807181,75.560000,-590.273264,0.512346,12.815993,1025.791786,0.500000,0.500892,69207,24330.585938,1114
0.896000,59.928731,45.960000,-591.472915,0.512814,12.813390,1025.583984,0.500000,0.500892,70545,24800.976562,1111
0.898000,59.991021,16.314000,-592.087684,0.513053,11.870957,950.189620,0.500000,0.500892,71764,25229.531250,1111
0.900000,59.993987,-13.348000,-592.116964,0.513064,-11.155272,-891.908689,-0.500000,-0.497688,73057,25684.101562,881
0.902000,59.937629,-42.996750,-591.560726,0.512848,-12.811279,-1024.389456,-0.500000,-0.508368,73990,26012.109375,434
0.904000,59.822000,-72.603250,-590.419519,0.512404,-12.815987,-1024.766583,-0.500000,-0.495552,74377,26148.164062,39
0.906000,59.647216,-102.137500,-588.694473,0.511726,-12.816000,-1024.768271,-0.500000,-0.499824,74337,26134.101562,-193
0.908000,59.413450,-131.570750,-586.387293,0.510809,-12.816000,-1024.769191,-0.500000,-0.496620,74067,26039.179688,-376
0.910000,59.120933,-160.874250,-583.500260,0.509644,-12.816000,-1024.770356,-0.500000,-0.501960,73625,25883.789062,-447
0.912000,58.769953,-190.018750,-580.036229,0.508223,-12.816000,-1024.771777,-0.500000,0.000000,73042,25678.828125,-385
0.914000,58.360858,-218.975000,-575.998627,0.506533,-12.816000,-1024.773467,-0.500000,0.000000,72605,25525.195312,-270
0.916000,57.894053,-247.714750,-571.391445,0.504560,-12.816000,-1024.775440,-0.500000,0.000000,72327,25427.460938,-169
0.918000,57.369999,-276.209500,-566.219239,0.502290,-12.816000,-1024.777710,-0.500000,0.000000,72141,25362.070312,-115
0.920000,56.789215,-304.431250,-560.487123,0.499705,-12.816000,-1024.780295,-0.500000,0.000000,72030,25323.046875,-53
0.922000,56.152274,-332.352250,-554.200767,0.496789,-12.816000,-1024.783211,-0.500000,0.000000,71981,25305.820312,-18
0.924000,55.459806,-359.944250,-547.366387,0.493523,-12.816000,-1024.786477,-0.500000,0.000000,71968,25301.250000,0
0.926000,54.712497,-387.180250,-539.990739,0.489885,-12.816000,-1024.790115,-0.500000,0.000000,71969,25301.601562,1
0.928000,53.911085,-414.033500,-532.081119,0.485857,-12.816000,-1024.794143,-0.500000,0.000000,71970,25301.953125,1
0.930000,53.056363,-440.477500,-523.645347,0.481416,-12.816000,-1024.798584,-0.500000,0.000000,71970,25301.953125,0
0.932000,52.149175,-466.485750,-514.691766,0.476541,-12.816000,-1024.803459,-0.500000,0.000000,71970,25301.953125,0
0.934000,51.190420,-492.032750,-505.229228,0.471211,-12.816000,-1024.808789,-0.500000,0.000000,71970,25301.953125,0
0.936000,50.181044,-517.093250,-495.267092,0.465404,-12.816000,-1024.814596,-0.500000,0.000000,71970,25301.953125,0
0.938000,49.122047,-541.642250,-484.815208,0.459100,-12.816000,-1024.820900,-0.500000,0.000000,71970,25301.953125,0
0.940000,48.014475,-565.655750,-473.883912,0.452277,-12.816000,-1024.827723,-0.500000,0.000000,71970,25301.953125,0
0.942000,46.859424,-589.109750,-462.484012,0.444916,-12.816000,-1024.835084,-0.500000,0.000000,71970,25301.953125,0
0.944000,45.658036,-611.981500,-450.626783,0.436999,-12.816000,-1024.843001,-0.500000,0.000000,71970,25301.953125,0
0.946000,44.411498,-634.248000,-438.323949,0.428510,-12.816000,-1024.851490,-0.500000,0.000000,71970,25301.953125,0
0.948000,43.121044,-655.887250,-425.587675,0.419432,-12.816000,-1024.860568,-0.500000,0.000000,71970,25301.953125,0
0.950000,41.787949,-676.878000,-412.430557,0.409752,-12.816000,-1024.870248,-0.500000,0.000000,71970,25301.953125,0
0.952000,40.413532,-697.199250,-398.865605,0.399460,-12.816000,-1024.880540,-0.500000,0.000000,71970,25301.953125,0
0.954000,38.999152,-716.831250,-384.906231,0.388545,-12.816000,-1024.891455,-0.500000,0.000000,71970,25301.953125,0
0.956000,37.546207,-735.754250,-370.566241,0.377002,-12.816000,-1024.902998,-0.500000,0.000000,71970,25301.953125,0
0.958000,36.056135,-753.949750,-355.859815,0.364827,-12.816000,-1024.915173,-0.500000,0.000000,71970,25301.953125,0
0.960000,34.530408,-771.399750,-340.801494,0.352018,-12.816000,-1024.927982,-0.500000,0.000000,71970,25301.953125,0
0.962000,32.970536,-788.087000,-325.406170,0.338579,-12.816000,-1024.941421,-0.500000,0.000000,71970,25301.953125,0
0.964000,31.378060,-803.994750,-309.689066,0.324513,-12.816000,-1024.955487,-0.500000,0.000000,71970,25301.953125,0
0.966000,29.754557,-819.107500,-293.665724,0.309831,-12.816000,-1024.970169,-0.500000,0.000000,71970,25301.953125,0
0.968000,28.101630,-833.410500,-277.351990,0.294543,-12.816000,-1024.985457,-0.500000,0.000000,71970,25301.953125,0
0.970000,26.420915,-846.889250,-260.763994,0.278666,-12.816000,-1025.001334,-0.500000,0.000000,71970,25301.953125,0
0.972000,24.714073,-859.530750,-243.918140,0.262216,-12.816000,-1025.017784,-0.500000,0.000000,71970,25301.953125,0
0.974000,22.982792,-871.322000,-226.831086,0.245217,-12.816000,-1025.034783,-0.500000,0.000000,71970,25301.953125,0
0.976000,21.228785,-882.251500,-209.519729,0.227694,-12.816000,-1025.052306,-0.500000,0.000000,71970,25301.953125,0
0.978000,19.453786,-892.308750,-192.001187,0.209675,-12.816000,-1025.070325,-0.500000,0.000000,71970,25301.953125,0
0.980000,17.659550,-901.483750,-174.292784,0.191191,-12.816000,-1025.088809,-0.500000,0.000000,71970,25301.953125,0
0.982000,15.847851,-909.767250,-156.412030,0.172277,-12.816000,-1025.107723,-0.500000,0.000000,71970,25301.953125,0
0.984000,14.020481,-917.151250,-138.376607,0.152971,-12.816000,-1025.127029,-0.500000,0.000000,71970,25301.953125,0
0.986000,12.179246,-923.628250,-120.204350,0.133311,-12.816000,-1025.146689,-0.500000,0.000000,71970,25301.953125,0
0.988000,10.325968,-929.191750,-101.913228,0.113341,-12.816000,-1025.166659,-0.500000,0.000000,71970,25301.953125,0
0.990000,8.462479,-933.836500,-83.521328,0.093104,-12.816000,-1025.186896,-0.500000,0.000000,71970,25301.953125,0
0.992000,6.590622,-937.557750,-65.046838,0.072646,-12.816000,-1025.207354,-0.500000,0.000000,71970,25301.953125,0
0.994000,4.712248,-940.352000,-46.508026,0.052015,-12.816000,-1025.227985,-0.500000,0.000000,71970,25301.953125,0
0.996000,2.829214,-942.216500,-27.923224,0.031259,-12.816000,-1025.248741,-0.500000,0.000000,71970,25301.953125,0
0.998000,0.943382,-943.149000,-9.310810,0.010428,-12.816000,-1025.269572,-0.500000,0.000000,71970,25301.953125,0
1.000000,-0.943382,-943.149000,9.310810,-0.010428,-12.816000,-1025.290428,-0.500000,0.000000,71970,25301.953125,0
1.002000,-2.829214,-942.216500,27.923224,-0.031259,-12.816000,-1025.311259,-0.500000,0.000000,71970,25301.953125,0
1.004000,-4.712248,-940.352000,46.508026,-0.052015,-12.816000,-1025.332015,-0.500000,0.000000,71970,25301.953125,0
1.006000,-6.590622,-937.557750,65.046838,-0.072646,-12.816000,-1025.352646,-0.500000,0.000000,71970,25301.953125,0
1.008000,-8.462479,-933.836500,83.521328,-0.093104,-12.816000,-1025.373104,-0.500000,0.000000,71970,25301.953125,0
1.010000,-10.325968,-929.191750,101.913228,-0.113341,-12.816000,-1025.393341,-0.500000,0.000000,71970,25301.953125,0
1.012000,-12.179246,-923.628250,120.204350,-0.133311,-12.816000,-1025.413311,-0.500000,0.000000,71970,25301.953125,0
1.014000,-14.020481,-917.151250,138.376607,-0.152971,-12.816000,-1025.432971,-0.500000,0.000000,71970,25301.953125,0
1.016000,-15.847851,-909.767250,156.412030,-0.172277,-12.816000,-1025.452277,-0.500000,0.000000,71970,25301.953125,0
1.018000,-17.659550,-901.483750,174.292784,-0.191191,-12.816000,-1025.471191,-0.500000,0.000000,71970,25301.953125,0
1.020000,-19.453786,-892.308750,192.001187,-0.209675,-12.816000,-1025.489675,-0.500000,0.000000,71970,25301.953125,0
1.022000,-21.228785,-882.251500,209.519729,-0.227694,-12.816000,-1025.507694,-0.500000,0.000000,71970,25301.953125,0
1.024000,-22.982792,-871.322000,226.831086,-0.245217,-12.816000,-1025.525217,-0.500000,0.000000,71970,25301.953125,0
1.026000,-24.714073,-859.530750,243.918140,-0.262216,-12.816000,-1025.542216,-0.500000,0.000000,71970,25301.953125,0
1.028000,-26.420915,-846.889250,260.763994,-0.278666,-12.816000,-1025.558666,-0.500000,0.000000,71970,25301.953125,0
1.030000,-28.101630,-833.410500,277.351990,-0.294543,-12.816000,-1025.574543,-0.500000,0.000000,71970,25301.953125,0
1.032000,-29.754557,-819.107500,293.665724,-0.309831,-12.816000,-1025.589831,-0.500000,0.000000,71970,25301.953125,0
1.034000,-31.378060,-803.994750,309.689066,-0.324513,-12.816000,-1025.604513,-0.500000,0.000000,71970,25301.953125,0
1.036000,-32.970536,-788.087000,325.406170,-0.338579,-12.816000,-1025.618579,-0.500000,0.000000,71970,25301.953125,0
1.038000,-34.530408,-771.399750,340.801494,-0.352018,-12.816000,-1025.632018,-0.500000,0.000000,71970,25301.953125,0
1.040000,-36.056135,-753.949750,355.859815,-0.364827,-12.816000,-1025.644827,-0.500000,0.000000,71970,25301.953125,0
1.042000,-37.546207,-735.754250,370.566241,-0.377002,-12.816000,-1025.657002,-0.500000,0.000000,71970,25301.953125,0
1.044000,-38.999152,-716.831250,384.906231,-0.388545,-12.816000,-1025.668545,-0.500000,0.000000,71970,25301.953125,0
1.046000,-40.413532,-697.199250,398.865605,-0.399460,-12.816000,-1025.679460,-0.500000,0.000000,71970,25301.953125,0
1.048000,-41.787949,-676.878000,412.430557,-0.409752,-12.816000,-1025.689752,-0.500000,0.000000,71970,25301.953125,0
1.050000,-43.121044,-655.887250,425.587675,-0.419432,-12.816000,-1025.699432,-0.500000,0.000000,71970,25301.953125,0
1.052000,-44.411498,-634.248000,438.323949,-0.428510,-12.816000,-1025.708510,-0.500000,0.000000,71970,25301.953125,0
1.054000,-45.658036,-611.981500,450.626783,-0.436999,-12.816000,-1025.716999,-0.500000,0.000000,71970,25301.953125,0
1.056000,-46.859424,-589.109750,462.484012,-0.444916,-12.816000,-1025.724916,-0.500000,0.000000,71970,25301.953125,0
1.058000,-48.014475,-565.655750,473.883912,-0.452277,-12.816000,-1025.732277,-0.500000,0.000000,71970,25301.953125,0
1.060000,-49.122047,-541.642250,484.815208,-0.459100,-12.816000,-1025.739100,-0.500000,0.000000,71970,25301.953125,0
1.062000,-50.181044,-517.093250,495.267092,-0.465404,-12.816000,-1025.745404,-0.500000,0.000000,71970,25301.953125,0
1.064000,-51.190420,-492.032750,505.229228,-0.471211,-12.816000,-1025.751211,-0.500000,0.000000,71970,25301.953125,0
1.066000,-52.149175,-466.485750,514.691766,-0.476541,-12.816000,-1025.756541,-0.500000,0.000000,71970,25301.953125,0
1.068000,-53.056363,-440.477500,523.645347,-0.481416,-12.816000,-1025.761416,-0.500000,0.000000,71970,25301.953125,0
1.070000,-53.911085,-414.033500,532.081119,-0.485857,-12.816000,-1025.765857,-0.500000,0.000000,71970,25301.953125,0
1.072000,-54.712497,-387.180250,539.990739,-0.489885,-12.816000,-1025.769885,-0.500000,0.000000,71970,25301.953125,0
1.074000,-55.459806,-359.944250,547.366387,-0.493523,-12.816000,-1025.773523,-0.500000,0.000000,71970,25301.953125,0
1.076000,-56.152274,-332.352250,554.200767,-0.496789,-12.816000,-1025.776789,-0.500000,0.000000,71970,25301.953125,0
1.078000,-56.789215,-304.431250,560.487123,-0.499705,-12.816000,-1025.779705,-0.500000,0.000000,71970,25301.953125,0
1.080000,-57.369999,-276.209500,566.219239,-0.502290,-12.816000,-1025.782290,-0.500000,0.000000,71970,25301.953125,0
1.082000,-57.894053,-247.714750,571.391445,-0.504560,-12.816000,-1025.784560,-0.500000,0.000000,71970,25301.953125,0
1.084000,-58.360858,-218.975000,575.998627,-0.506533,-12.816000,-1025.786533,-0.500000,0.000000,71970,25301.953125,0
1.086000,-58.769953,-190.018750,580.036229,-0.508223,-12.816000,-1025.788223,-0.500000,0.000000,71970,25301.953125,0
1.088000,-59.120933,-160.874250,583.500260,-0.509644,-12.816000,-1025.789644,-0.500000,0.000000,71970,25301.953125,0
1.090000,-59.413450,-131.570750,586.387293,-0.510809,-12.816000,-1025.790809,-0.500000,0.000000,71970,25301.953125,0
1.092000,-59.647216,-102.137500,588.694473,-0.511726,-12.816000,-1025.791723,-0.500000,0.000000,71970,25301.953125,0
1.094000,-59.822000,-72.603250,590.419519,-0.512404,-12.815987,-1025.791391,-0.500000,0.000000,71970,25301.953125,0
1.096000,-59.937629,-42.996750,591.560726,-0.512848,-12.811279,-1025.415153,-0.500000,0.000000,71970,25301.953125,0
1.098000,-59.993987,-13.348000,592.116964,-0.513064,-11.155272,-892.934818,-0.500000,0.000000,71970,25301.953125,0
1.100000,-59.991021,16.314000,592.087684,-0.513053,11.870957,949.163515,0.500000,0.000000,71970,25301.953125,0
1.102000,-59.928731,45.960000,591.472915,-0.512814,12.813390,1024.558355,0.500000,0.000000,71970,25301.953125,0
1.104000,-59.807181,75.560000,590.273264,-0.512346,12.815993,1024.767093,0.500000,0.000000,71970,25301.953125,0
1.106000,-59.626491,105.085750,588.489918,-0.511645,12.816000,1024.768354,0.500000,0.000000,71970,25301.953125,0
1.108000,-59.386838,134.507750,586.124640,-0.510704,12.816000,1024.769296,0.500000,0.000000,71970,25301.953125,0
1.110000,-59.088460,163.796250,583.179770,-0.509514,12.816000,1024.770486,0.500000,0.000000,71970,25301.953125,0
1.112000,-58.731653,192.923000,579.658219,-0.508066,12.816000,1024.771934,0.500000,0.000000,71970,25301.953125,0
1.114000,-58.316768,221.859250,575.563469,-0.506348,12.816000,1024.773652,0.500000,0.000000,71970,25301.953125,0
1.116000,-57.844216,250.575750,570.899570,-0.504346,12.816000,1024.775654,0.500000,0.000000,71970,25301.953125,0
1.118000,-57.314465,279.044500,565.671134,-0.502046,12.816000,1024.777954,0.500000,0.000000,71970,25301.953125,0
1.120000,-56.728038,307.237500,559.883330,-0.499429,12.816000,1024.780571,0.500000,0.000000,71970,25301.953125,0
1.122000,-56.085515,335.126750,553.541883,-0.496479,12.816000,1024.783521,0.500000,0.000000,71970,25301.953125,0
1.124000,-55.387531,362.684250,546.653063,-0.493176,12.816000,1024.786824,0.500000,0.000000,71970,25301.953125,0
1.126000,-54.634778,389.883250,539.223681,-0.489501,12.816000,1024.790499,0.500000,0.000000,71970,25301.953125,0
1.128000,-53.827998,416.697000,531.261085,-0.485432,12.816000,1024.794568,0.500000,0.000000,71970,25301.953125,0
1.130000,-52.967990,443.098250,522.773149,-0.480948,12.816000,1024.799052,0.500000,0.000000,71970,25301.953125,0
1.132000,-52.055605,469.061500,513.768265,-0.476029,12.816000,1024.803971,0.500000,0.000000,71970,25301.953125,0
1.134000,-51.091744,494.561000,504.255338,-0.470652,12.816000,1024.809348,0.500000,0.000000,71970,25301.953125,0
1.136000,-50.077361,519.571500,494.243776,-0.464797,12.816000,1024.815203,0.500000,0.000000,71970,25301.953125,0
1.138000,-49.013458,544.068250,483.743477,-0.458441,12.816000,1024.821559,0.500000,0.000000,71970,25301.953125,0
1.140000,-47.901088,568.026750,472.764826,-0.451565,12.816000,1024.828435,0.500000,0.000000,71970,25301.953125,0
1.142000,-46.741351,591.423500,461.318679,-0.444150,12.816000,1024.835850,0.500000,0.000000,71970,25301.953125,0
1.144000,-45.535394,614.235750,449.416355,-0.436177,12.816000,1024.843823,0.500000,0.000000,71970,25301.953125,0
1.146000,-44.284408,636.440500,437.069622,-0.427629,12.816000,1024.852371,0.500000,0.000000,71970,25301.953125,0
1.148000,-42.989632,658.015750,424.290690,-0.418491,12.816000,1024.861509,0.500000,0.000000,71970,25301.953125,0
1.150000,-41.652345,678.940500,411.092196,-0.408751,12.816000,1024.871249,0.500000,0.000000,71970,25301.953125,0
1.152000,-40.273870,699.193750,397.487191,-0.398396,12.816000,1024.881604,0.500000,0.000000,71970,25301.953125,0
1.154000,-38.855570,718.755750,383.489129,-0.387419,12.816000,1024.892581,0.500000,0.000000,71970,25301.953125,0
1.156000,-37.398847,737.607000,369.111851,-0.375813,12.816000,1024.904187,0.500000,0.000000,71970,25301.953125,0
1.158000,-35.905142,755.728750,354.369575,-0.363574,12.816000,1024.916426,0.500000,0.000000,71970,25301.953125,0
1.160000,-34.375932,773.103000,339.276878,-0.350703,12.816000,1024.929297,0.500000,0.000000,71970,25301.953125,0
1.162000,-32.812730,789.713000,323.848686,-0.337200,12.816000,1024.942800,0.500000,0.000000,71970,25301.953125,0
1.164000,-31.217080,805.542250,308.100254,-0.323073,12.816000,1024.956927,0.500000,0.000000,71970,25301.953125,0
1.166000,-29.590561,820.574500,292.047155,-0.308329,12.816000,1024.971671,0.500000,0.000000,71970,25301.953125,0
1.168000,-27.934782,834.795750,275.705263,-0.292982,12.816000,1024.987018,0.500000,0.000000,71970,25301.953125,0
1.170000,-26.251378,848.191500,259.090739,-0.277046,12.816000,1025.002954,0.500000,0.000000,71970,25301.953125,0
1.172000,-24.542016,860.748000,242.220011,-0.260541,12.816000,1025.019459,0.500000,0.000000,71970,25301.953125,0
1.174000,-22.808386,872.453750,225.109763,-0.243488,12.816000,1025.036512,0.500000,0.000000,71970,25301.953125,0
1.176000,-21.052201,883.296750,207.776914,-0.225914,12.816000,1025.054086,0.500000,0.000000,71970,25301.953125,0
1.178000,-19.275199,893.266250,190.238603,-0.207847,12.816000,1025.072153,0.500000,0.000000,71970,25301.953125,0
1.180000,-17.479136,902.352500,172.512173,-0.189318,12.816000,1025.090682,0.500000,0.000000,71970,25301.953125,0
1.182000,-15.665789,910.546250,154.615154,-0.170364,12.816000,1025.109636,0.500000,0.000000,71970,25301.953125,0
1.184000,-13.836951,917.839750,136.565243,-0.151020,12.816000,1025.128980,0.500000,0.000000,71970,25301.953125,0
1.186000,-11.994430,924.225750,118.380289,-0.131327,12.816000,1025.148673,0.500000,0.000000,71970,25301.953125,0
1.188000,-10.140048,929.697500,100.078273,-0.111328,12.816000,1025.168672,0.500000,0.000000,71970,25301.953125,0
1.190000,-8.275640,934.250250,81.677295,-0.091067,12.816000,1025.188933,0.500000,0.000000,71970,25301.953125,0
1.192000,-6.403047,937.879250,63.195549,-0.070590,12.816000,1025.209410,0.500000,0.000000,71970,25301.953125,0
1.194000,-4.524123,940.580250,44.651312,-0.049944,12.816000,1025.230056,0.500000,0.000000,71970,25301.953125,0
1.196000,-2.640726,942.351500,26.062922,-0.029178,12.816000,1025.250822,0.500000,0.000000,71970,25301.953125,0
1.198000,-0.754717,943.191000,7.448759,-0.008343,12.816000,1025.271657,0.500000,0.000000,71970,25301.953125,0
1.200000,1.132038,943.097750,-11.172770,0.012513,12.816000,1025.292513,0.500000,0.000000,71970,25301.953125,0
1.202000,3.017674,942.072000,-29.783250,0.033339,12.816000,1025.313339,0.500000,0.000000,71970,25301.953125,0
1.204000,4.900326,940.114500,-48.364280,0.054084,12.816000,1025.334084,0.500000,0.000000,71970,25301.953125,0
1.206000,6.778132,937.227250,-66.897484,0.074700,12.816000,1025.354700,0.500000,0.000000,71970,25301.953125,0
1.208000,8.649235,933.413500,-85.364535,0.095138,12.816000,1025.375138,0.500000,0.000000,71970,25301.953125,0
1.210000,10.511786,928.676750,-103.747174,0.115351,12.816000,1025.395351,0.500000,0.000000,71970,25301.953125,0
1.212000,12.363942,923.021250,-122.027222,0.135292,12.816000,1025.415292,0.500000,0.000000,71970,25301.953125,0
1.214000,14.203871,916.453500,-140.186602,0.154918,12.816000,1025.434918,0.500000,0.000000,71970,25301.953125,0
1.216000,16.029756,908.979500,-158.207358,0.174187,12.816000,1025.454187,0.500000,0.000000,71970,25301.953125,0
1.218000,17.839789,900.606250,-176.071670,0.193059,12.816000,1025.473059,0.500000,0.000000,71970,25301.953125,0
1.220000,19.632181,891.342750,-193.761872,0.211498,12.816000,1025.491498,0.500000,0.000000,71970,25301.953125,0
1.222000,21.405160,881.197750,-211.260472,0.229469,12.816000,1025.509469,0.500000,0.000000,71970,25301.953125,0
1.224000,23.156972,870.181250,-228.550165,0.246941,12.816000,1025.526941,0.500000,0.000000,71970,25301.953125,0
1.226000,24.885885,858.304250,-245.613856,0.263886,12.816000,1025.543886,0.500000,0.000000,71970,25301.953125,0
1.228000,26.590189,845.578750,-262.434670,0.280279,12.816000,1025.560279,0.500000,0.000000,71970,25301.953125,0
1.230000,28.268200,832.017250,-278.995973,0.296099,12.816000,1025.576099,0.500000,0.000000,71970,25301.953125,0
1.232000,29.918258,817.632750,-295.281390,0.311327,12.816000,1025.591327,0.500000,0.000000,71970,25301.953125,0
1.234000,31.538731,802.439500,-311.274816,0.325948,12.816000,1025.605948,0.500000,0.000000,71970,25301.953125,0
1.236000,33.128016,786.453000,-326.960436,0.339951,12.816000,1025.619951,0.500000,0.000000,71970,25301.953125,0
1.238000,34.684543,769.688750,-342.322740,0.353327,12.816000,1025.633327,0.500000,0.000000,71970,25301.953125,0
1.240000,36.206771,752.163500,-357.346536,0.366073,12.816000,1025.646073,0.500000,0.000000,71970,25301.953125,0
1.242000,37.693197,733.894500,-372.016967,0.378185,12.816000,1025.658185,0.500000,0.000000,71970,25301.953125,0
1.244000,39.142349,714.899500,-386.319527,0.389665,12.816000,1025.669665,0.500000,0.000000,71970,25301.953125,0
1.246000,40.552795,695.197750,-400.240073,0.400517,12.816000,1025.680517,0.500000,0.000000,71970,25301.953125,0
1.248000,41.923140,674.808750,-413.764839,0.410748,12.816000,1025.690748,0.500000,0.000000,71970,25301.953125,0
1.250000,43.252030,653.752250,-426.880452,0.420367,12.816000,1025.700367,0.500000,0.000000,71970,25301.953125,0
1.252000,44.538149,632.049000,-439.573941,0.429385,12.816000,1025.709385,0.500000,0.000000,71970,25301.953125,0
1.254000,45.780226,609.721250,-451.832755,0.437817,12.816000,1025.717817,0.500000,0.000000,71970,25301.953125,0
1.256000,46.977034,586.790500,-463.644772,0.445677,12.816000,1025.725677,0.500000,0.000000,71970,25301.953125,0
1.258000,48.127388,563.279000,-474.998310,0.452983,12.816000,1025.732983,0.500000,0.000000,71970,25301.953125,0
1.260000,49.230150,539.211000,-485.882144,0.459753,12.816000,1025.739753,0.500000,0.000000,71970,25301.953125,0
1.262000,50.284232,514.609750,-496.285511,0.466007,12.816000,1025.746007,0.500000,0.000000,71970,25301.953125,0
1.264000,51.288589,489.499500,-506.198122,0.471765,12.816000,1025.751765,0.500000,0.000000,71970,25301.953125,0
1.266000,52.242230,463.905250,-515.610177,0.477049,12.816000,1025.757049,0.500000,0.000000,71970,25301.953125,0
1.268000,53.144210,437.852250,-524.512368,0.481879,12.816000,1025.761879,0.500000,0.000000,71970,25301.953125,0
1.270000,53.993639,411.366250,-532.895891,0.486278,12.816000,1025.766278,0.500000,0.000000,71970,25301.953125,0
1.272000,54.789675,384.473250,-540.752457,0.490266,12.816000,1025.770266,0.500000,0.000000,71970,25301.953125,0
1.274000,55.531532,357.200500,-548.074297,0.493866,12.816000,1025.773866,0.500000,0.000000,71970,25301.953125,0
1.276000,56.218477,329.574500,-554.854171,0.497096,12.816000,1025.777096,0.500000,0.000000,71970,25301.953125,0
1.278000,56.849830,301.622500,-561.085374,0.499978,12.816000,1025.779978,0.500000,0.000000,71970,25301.953125,0
1.280000,57.424967,273.372000,-566.761744,0.502530,12.816000,1025.782530,0.500000,0.000000,71970,25301.953125,0
1.282000,57.943318,244.851250,-571.877668,0.504770,12.816000,1025.784770,0.500000,0.000000,71970,25301.953125,0
1.284000,58.404372,216.088500,-576.428088,0.506714,12.816000,1025.786714,0.500000,0.000000,71970,25301.953125,0
1.286000,58.807672,187.112000,-580.408504,0.508377,12.816000,1025.788377,0.500000,0.000000,71970,25301.953125,0
1.288000,59.152820,157.950750,-583.814980,0.509772,12.816000,1025.789772,0.500000,0.000000,71970,25301.953125,0
1.290000,59.439475,128.633000,-586.644146,0.510911,12.816000,1025.790911,0.500000,0.000000,71970,25301.953125,0
1.292000,59.667352,99.188000,-588.893206,0.511804,12.816000,1025.791799,0.500000,0.000000,71970,25301.953125,0
1.294000,59.836227,69.645250,-590.559936,0.512459,12.815977,1025.790628,0.500000,0.000000,71970,25301.953125,0
1.296000,59.945933,40.033500,-591.642687,0.512880,12.807462,1025.109815,0.500000,0.000000,71970,25301.953125,0
1.298000,59.996361,10.382000,-592.140388,0.513073,9.960291,797.336358,0.500000,0.000000,71970,25301.953125,0
1.300000,59.987461,-19.279750,-592.052549,0.513039,-12.285026,-982.289001,-0.500000,0.000000,71970,25301.953125,0
1.302000,59.919242,-48.922500,-591.379254,0.512778,-12.814557,-1024.651746,-0.500000,0.000000,71970,25301.953125,0
1.304000,59.791771,-78.516750,-590.121171,0.512287,-12.815996,-1024.767403,-0.500000,0.000000,71970,25301.953125,0
1.306000,59.605175,-108.033250,-588.279543,0.511562,-12.816000,-1024.768437,-0.500000,0.000000,71970,25301.953125,0
1.308000,59.359638,-137.443000,-585.856191,0.510596,-12.816000,-1024.769404,-0.500000,0.000000,71970,25301.953125,0
1.310000,59.055403,-166.716750,-582.853512,0.509381,-12.816000,-1024.770619,-0.500000,0.000000,71970,25301.953125,0
1.312000,58.692771,-195.825750,-579.274475,0.507907,-12.816000,-1024.772093,-0.500000,0.000000,71970,25301.953125,0
1.314000,58.272100,-224.741000,-575.122619,0.506161,-12.816000,-1024.773839,-0.500000,0.000000,71970,25301.953125,0
1.316000,57.793807,-253.434250,-570.402050,0.504130,-12.816000,-1024.775870,-0.500000,0.000000,71970,25301.953125,0
1.318000,57.258363,-281.876750,-565.117435,0.501798,-12.816000,-1024.778202,-0.500000,0.000000,71970,25301.953125,0
1.320000,56.666300,-310.040500,-559.274000,0.499149,-12.816000,-1024.780851,-0.500000,0.000000,71970,25301.953125,0
1.322000,56.018201,-337.897750,-552.877525,0.496165,-12.816000,-1024.783835,-0.500000,0.000000,71970,25301.953125,0
1.324000,55.314709,-365.420750,-545.934333,0.492826,-12.816000,-1024.787174,-0.500000,0.000000,71970,25301.953125,0
1.326000,54.556518,-392.582500,-538.451290,0.489112,-12.816000,-1024.790888,-0.500000,0.000000,71970,25301.953125,0
1.328000,53.744379,-419.356000,-530.435797,0.485002,-12.816000,-1024.794998,-0.500000,0.000000,71970,25301.953125,0
1.330000,52.879094,-445.714750,-521.895780,0.480477,-12.816000,-1024.799523,-0.500000,0.000000,71970,25301.953125,0
1.332000,51.961520,-471.632750,-512.839683,0.475512,-12.816000,-1024.804488,-0.500000,0.000000,71970,25301.953125,0
1.334000,50.992563,-497.084500,-503.276461,0.470089,-12.816000,-1024.809911,-0.500000,0.000000,71970,25301.953125,0
1.336000,49.973182,-522.044750,-493.215571,0.464184,-12.816000,-1024.815816,-0.500000,0.000000,71970,25301.953125,0
1.338000,48.904384,-546.488500,-482.666963,0.457777,-12.816000,-1024.822223,-0.500000,0.000000,71970,25301.953125,0
1.340000,47.787228,-570.392000,-471.641066,0.450848,-12.816000,-1024.829152,-0.500000,0.000000,71970,25301.953125,0
1.342000,46.622816,-593.731750,-460.148784,0.443378,-12.816000,-1024.836622,-0.500000,0.000000,71970,25301.953125,0
1.344000,45.412301,-616.484000,-448.201482,0.435348,-12.816000,-1024.844652,-0.500000,0.000000,71970,25301.953125,0
1.346000,44.156880,-638.626500,-435.810972,0.426742,-12.816000,-1024.853258,-0.500000,0.000000,71970,25301.953125,0
1.348000,42.857795,-660.137750,-422.989509,0.417545,-12.816000,-1024.862455,-0.500000,0.000000,71970,25301.953125,0
1.350000,41.516329,-680.996500,-409.749770,0.407743,-12.816000,-1024.872257,-0.500000,0.000000,71970,25301.953125,0
1.352000,40.133809,-701.181500,-396.104847,0.397327,-12.816000,-1024.882673,-0.500000,0.000000,71970,25301.953125,0
1.354000,38.711603,-720.673000,-382.068234,0.386287,-12.816000,-1024.893713,-0.500000,0.000000,71970,25301.953125,0
1.356000,37.251117,-739.452250,-367.653811,0.374618,-12.816000,-1024.905382,-0.500000,0.000000,71970,25301.953125,0
1.358000,35.753794,-757.500000,-352.875831,0.362316,-12.816000,-1024.917684,-0.500000,0.000000,71970,25301.953125,0
1.360000,34.221117,-774.798750,-337.748907,0.349381,-12.816000,-1024.930619,-0.500000,0.000000,71970,25301.953125,0
1.362000,32.654599,-791.331500,-322.287999,0.335815,-12.816000,-1024.944185,-0.500000,0.000000,71970,25301.953125,0
1.364000,31.055791,-807.081500,-306.508394,0.321626,-12.816000,-1024.958374,-0.500000,0.000000,71970,25301.953125,0
1.366000,29.426273,-822.033500,-290.425697,0.306822,-12.816000,-1024.973178,-0.500000,0.000000,71970,25301.953125,0
1.368000,27.767657,-836.172500,-274.055810,0.291415,-12.816000,-1024.988585,-0.500000,0.000000,71970,25301.953125,0
1.370000,26.081583,-849.485000,-257.414922,0.275421,-12.816000,-1025.004579,-0.500000,0.000000,71970,25301.953125,0
1.372000,24.369717,-861.957250,-240.519488,0.258860,-12.816000,-1025.021140,-0.500000,0.000000,71970,25301.953125,0
1.374000,22.633754,-873.577000,-223.386214,0.241754,-12.816000,-1025.038246,-0.500000,0.000000,71970,25301.953125,0
1.376000,20.875409,-884.333250,-206.032044,0.224129,-12.816000,-1025.055871,-0.500000,0.000000,71970,25301.953125,0
1.378000,19.096421,-894.214750,-188.474137,0.206014,-12.816000,-1025.073986,-0.500000,0.000000,71970,25301.953125,0
1.380000,17.298550,-903.212000,-170.729857,0.187442,-12.816000,-1025.092558,-0.500000,0.000000,71970,25301.953125,0
1.382000,15.483573,-911.316250,-152.816750,0.168446,-12.816000,-1025.111554,-0.500000,0.000000,71970,25301.953125,0
1.384000,13.653285,-918.519500,-134.752529,0.149066,-12.816000,-1025.130934,-0.500000,0.000000,71970,25301.953125,0
1.386000,11.809495,-924.814250,-116.555057,0.129341,-12.816000,-1025.150659,-0.500000,0.000000,71970,25301.953125,0
1.388000,9.954028,-930.194250,-98.242329,0.109313,-12.816000,-1025.170687,-0.500000,0.000000,71970,25301.953125,0
1.390000,8.088718,-934.654750,-79.832454,0.089028,-12.816000,-1025.190972,-0.500000,0.000000,71970,25301.953125,0
1.392000,6.215409,-938.191000,-61.343636,0.068532,-12.816000,-1025.211468,-0.500000,0.000000,71970,25301.953125,0
1.394000,4.335954,-940.799250,-42.794157,0.047872,-12.816000,-1025.232128,-0.500000,0.000000,71970,25301.953125,0
1.396000,2.452212,-942.477500,-24.202362,0.027097,-12.816000,-1025.252903,-0.500000,0.000000,71970,25301.953125,0
1.398000,0.566044,-943.223750,-5.586634,0.006257,-12.816000,-1025.273743,-0.500000,0.000000,71970,25301.953125,0
1.400000,-1.320683,-943.037000,13.034619,-0.014598,-12.816000,-1025.294598,-0.500000,0.000000,71970,25301.953125,0
1.402000,-3.206104,-941.918000,31.642982,-0.035418,-12.816000,-1025.315418,-0.500000,0.000000,71970,25301.953125,0
1.404000,-5.088355,-939.867500,50.220055,-0.056152,-12.816000,-1025.336152,-0.500000,0.000000,71970,25301.953125,0
1.406000,-6.965574,-936.887750,68.747467,-0.076753,-12.816000,-1025.356753,-0.500000,0.000000,71970,25301.953125,0
1.408000,-8.835906,-932.981250,87.206899,-0.097170,-12.816000,-1025.377170,-0.500000,0.000000,71970,25301.953125,0
1.410000,-10.697499,-928.152250,105.580095,-0.117358,-12.816000,-1025.397358,-0.500000,0.000000,71970,25301.953125,0
1.412000,-12.548515,-922.405750,123.848887,-0.137269,-12.816000,-1025.417269,-0.500000,0.000000,71970,25301.953125,0
1.414000,-14.387122,-915.746750,141.995211,-0.156862,-12.816000,-1025.436862,-0.500000,0.000000,71970,25301.953125,0
1.416000,-16.211502,-908.182250,160.001122,-0.176093,-12.816000,-1025.456093,-0.500000,0.000000,71970,25301.953125,0
1.418000,-18.019851,-899.719750,177.848815,-0.194923,-12.816000,-1025.474923,-0.500000,0.000000,71970,25301.953125,0
1.420000,-19.810381,-890.367750,195.520641,-0.213317,-12.816000,-1025.493317,-0.500000,0.000000,71970,25301.953125,0
1.422000,-21.581322,-880.135250,212.999126,-0.231239,-12.816000,-1025.511239,-0.500000,0.000000,71970,25301.953125,0
1.424000,-23.330922,-869.032250,230.266985,-0.248660,-12.816000,-1025.528660,-0.500000,0.000000,71970,25301.953125,0
1.426000,-25.057451,-857.069750,247.307143,-0.265551,-12.816000,-1025.545551,-0.500000,0.000000,71970,25301.953125,0
1.428000,-26.759201,-844.260000,264.102750,-0.281888,-12.816000,-1025.561888,-0.500000,0.000000,71970,25301.953125,0
1.430000,-28.434491,-830.615500,280.637198,-0.297649,-12.816000,-1025.577649,-0.500000,0.000000,71970,25301.953125,0
1.432000,-30.081663,-816.149500,296.894136,-0.312816,-12.816000,-1025.592816,-0.500000,0.000000,71970,25301.953125,0
1.434000,-31.699089,-800.876250,312.857488,-0.327376,-12.816000,-1025.607376,-0.500000,0.000000,71970,25301.953125,0
1.436000,-33.285168,-784.811250,328.511469,-0.341317,-12.816000,-1025.621317,-0.500000,0.000000,71970,25301.953125,0
1.438000,-34.838334,-767.970500,343.840600,-0.354630,-12.816000,-1025.634630,-0.500000,0.000000,71970,25301.953125,0
1.440000,-36.357050,-750.369750,358.829722,-0.367312,-12.816000,-1025.647312,-0.500000,0.000000,71970,25301.953125,0
1.442000,-37.839813,-732.027250,373.464013,-0.379361,-12.816000,-1025.659361,-0.500000,0.000000,71970,25301.953125,0
1.444000,-39.285159,-712.961000,387.729003,-0.390778,-12.816000,-1025.670778,-0.500000,0.000000,71970,25301.953125,0
1.446000,-40.691657,-693.189500,401.610584,-0.401568,-12.816000,-1025.681568,-0.500000,0.000000,71970,25301.953125,0
1.448000,-42.057917,-672.732500,415.095030,-0.411737,-12.816000,-1025.691737,-0.500000,0.000000,71970,25301.953125,0
1.450000,-43.382587,-651.610500,428.169007,-0.421295,-12.816000,-1025.701295,-0.500000,0.000000,71970,25301.953125,0
1.452000,-44.664359,-629.844250,440.819586,-0.430254,-12.816000,-1025.710254,-0.500000,0.000000,71970,25301.953125,0
1.454000,-45.901964,-607.455000,453.034259,-0.438628,-12.816000,-1025.718628,-0.500000,0.000000,71970,25301.953125,0
1.456000,-47.094179,-584.465000,464.800946,-0.446432,-12.816000,-1025.726432,-0.500000,0.000000,71970,25301.953125,0
1.458000,-48.239824,-560.897000,476.108012,-0.453684,-12.816000,-1025.733684,-0.500000,0.000000,71970,25301.953125,0
1.460000,-49.337767,-536.774500,486.944275,-0.460401,-12.816000,-1025.740401,-0.500000,0.000000,71970,25301.953125,0
1.462000,-50.386922,-512.121000,497.299021,-0.466605,-12.816000,-1025.746605,-0.500000,0.000000,71970,25301.953125,0
1.464000,-51.386251,-486.961250,507.162010,-0.472315,-12.816000,-1025.752315,-0.500000,0.000000,71970,25301.953125,0
1.466000,-52.334767,-461.320250,516.523489,-0.477552,-12.816000,-1025.757552,-0.500000,0.000000,71970,25301.953125,0
1.468000,-53.231532,-435.222750,525.374201,-0.482338,-12.816000,-1025.762338,-0.500000,0.000000,71970,25301.953125,0
1.470000,-54.075658,-408.694750,533.705393,-0.486695,-12.816000,-1025.766695,-0.500000,0.000000,71970,25301.953125,0
1.472000,-54.866311,-381.763000,541.508828,-0.490644,-12.816000,-1025.770644,-0.500000,0.000000,71970,25301.953125,0
1.474000,-55.602710,-354.453500,548.776788,-0.494205,-12.816000,-1025.774205,-0.500000,0.000000,71970,25301.953125,0
1.476000,-56.284125,-326.793250,555.502087,-0.497400,-12.816000,-1025.777400,-0.500000,0.000000,71970,25301.953125,0
1.478000,-56.909883,-298.810250,561.678075,-0.500248,-12.816000,-1025.780248,-0.500000,0.000000,71970,25301.953125,0
1.480000,-57.479366,-270.531750,567.298644,-0.502768,-12.816000,-1025.782768,-0.500000,0.000000,71970,25301.953125,0
1.482000,-57.992010,-241.985500,572.358237,-0.504978,-12.816000,-1025.784978,-0.500000,0.000000,71970,25301.953125,0
1.484000,-58.447308,-213.200000,576.851850,-0.506893,-12.816000,-1025.786893,-0.500000,0.000000,71970,25301.953125,0
1.486000,-58.844810,-184.203750,580.775039,-0.508528,-12.816000,-1025.788528,-0.500000,0.000000,71970,25301.953125,0
1.488000,-59.184123,-155.025500,584.123926,-0.509897,-12.816000,-1025.789897,-0.500000,0.000000,71970,25301.953125,0
1.490000,-59.464912,-125.693750,586.895198,-0.511012,-12.816000,-1025.791012,-0.500000,0.000000,71970,25301.953125,0
1.492000,-59.686898,-96.237750,589.086116,-0.511880,-12.816000,-1025.791871,-0.500000,0.000000,71970,25301.953125,0
1.494000,-59.849863,-66.686750,590.694512,-0.512511,-12.815959,-1025.789203,-0.500000,0.000000,71970,25301.953125,0
1.496000,-59.953645,-37.069500,591.718797,-0.512910,-12.800558,-1024.557546,-0.500000,0.000000,71970,25301.953125,0
1.498000,-59.998141,-7.415500,592.157957,-0.513080,-8.075115,-646.522242,-0.500000,0.000000,71970,25301.953125,0
1.500000,-59.983307,22.245500,592.011558,-0.513023,12.519847,1001.074752,0.500000,0.000000,71970,25301.953125,0
1.502000,-59.909159,51.884250,591.279745,-0.512739,12.815202,1024.703398,0.500000,0.000000,71970,25301.953125,0
1.504000,-59.775770,81.472250,589.963242,-0.512225,12.815998,1024.767603,0.500000,0.000000,71970,25301.953125,0
1.506000,-59.583270,110.979500,588.063350,-0.511476,12.816000,1024.768523,0.500000,0.000000,71970,25301.953125,0
1.508000,-59.331852,140.376750,585.581948,-0.510486,12.816000,1024.769514,0.500000,0.000000,71970,25301.953125,0
1.510000,-59.021763,169.635750,582.521491,-0.509245,12.816000,1024.770755,0.500000,0.000000,71970,25301.953125,0
1.512000,-58.653309,198.726500,578.885003,-0.507745,12.816000,1024.772255,0.500000,0.000000,71970,25301.953125,0
1.514000,-58.226857,227.620750,574.676082,-0.505971,12.816000,1024.774029,0.500000,0.000000,71970,25301.953125,0
1.516000,-57.742826,256.290250,569.898888,-0.503911,12.816000,1024.776089,0.500000,0.000000,71970,25301.953125,0
1.518000,-57.201696,284.706250,564.558147,-0.501548,12.816000,1024.778452,0.500000,0.000000,71970,25301.953125,0
1.520000,-56.604001,312.840500,558.659140,-0.498866,12.816000,1024.781134,0.500000,0.000000,71970,25301.953125,0
1.522000,-55.950334,340.665500,552.207699,-0.495847,12.816000,1024.784153,0.500000,0.000000,71970,25301.953125,0
1.524000,-55.241339,368.153750,545.210204,-0.492471,12.816000,1024.787529,0.500000,0.000000,71970,25301.953125,0
1.526000,-54.477719,395.277750,537.673575,-0.488719,12.816000,1024.791281,0.500000,0.000000,71970,25301.953125,0
1.528000,-53.660228,422.011000,529.605264,-0.484569,12.816000,1024.795431,0.500000,0.000000,71970,25301.953125,0
1.530000,-52.789675,448.326750,521.013250,-0.480000,12.816000,1024.800000,0.500000,0.000000,71970,25301.953125,0
1.532000,-51.866921,474.199250,511.906029,-0.474991,12.816000,1024.805009,0.500000,0.000000,71970,25301.953125,0
1.534000,-50.892878,499.603000,502.292607,-0.469520,12.816000,1024.810480,0.500000,0.000000,71970,25301.953125,0
1.536000,-49.868509,524.512750,492.182489,-0.463566,12.816000,1024.816434,0.500000,0.000000,71970,25301.953125,0
1.538000,-48.794827,548.903750,481.585675,-0.457108,12.816000,1024.822892,0.500000,0.000000,71970,25301.953125,0
1.540000,-47.672894,572.751750,470.512641,-0.450126,12.816000,1024.829874,0.500000,0.000000,71970,25301.953125,0
1.542000,-46.503820,596.033500,458.974338,-0.442600,12.816000,1024.837400,0.500000,0.000000,71970,25301.953125,0
1.544000,-45.288760,618.726000,446.982176,-0.434513,12.816000,1024.845487,0.500000,0.000000,71970,25301.953125,0
1.546000,-44.028916,640.806500,434.548013,-0.425849,12.816000,1024.854151,0.500000,0.000000,71970,25301.953125,0
1.548000,-42.725534,662.253500,421.684145,-0.416592,12.816000,1024.863408,0.500000,0.000000,71970,25301.953125,0
1.550000,-41.379902,683.045750,408.403291,-0.406729,12.816000,1024.873271,0.500000,0.000000,71970,25301.953125,0
1.552000,-39.993351,703.162250,394.718586,-0.396251,12.816000,1024.883749,0.500000,0.000000,71970,25301.953125,0
1.554000,-38.567253,722.583250,380.643561,-0.385148,12.816000,1024.894852,0.500000,0.000000,71970,25301.953125,0
1.556000,-37.103018,741.290000,366.192135,-0.373416,12.816000,1024.906584,0.500000,0.000000,71970,25301.953125,0
1.558000,-35.602093,759.264000,351.378597,-0.361051,12.816000,1024.918949,0.500000,0.000000,71970,25301.953125,0
1.560000,-34.065962,776.486750,336.217596,-0.348052,12.816000,1024.931948,0.500000,0.000000,71970,25301.953125,0
1.562000,-32.496146,792.941750,320.724125,-0.334424,12.816000,1024.945576,0.500000,0.000000,71970,25301.953125,0
1.564000,-30.894195,808.613000,304.913503,-0.320173,12.816000,1024.959827,0.500000,0.000000,71970,25301.953125,0
1.566000,-29.261694,823.484250,288.801367,-0.305308,12.816000,1024.974692,0.500000,0.000000,71970,25301.953125,0
1.568000,-27.600258,837.541250,272.403647,-0.289841,12.816000,1024.990159,0.500000,0.000000,71970,25301.953125,0
1.570000,-25.911529,850.770250,255.736559,-0.273790,12.816000,1025.006210,0.500000,0.000000,71970,25301.953125,0
1.572000,-24.197177,863.157750,238.816585,-0.257173,12.816000,1025.022827,0.500000,0.000000,71970,25301.953125,0
1.574000,-22.458898,874.691750,221.660456,-0.240014,12.816000,1025.039986,0.500000,0.000000,71970,25301.953125,0
1.576000,-20.698410,885.360750,204.285136,-0.222339,12.816000,1025.057661,0.500000,0.000000,71970,25301.953125,0
1.578000,-18.917455,895.154250,186.707808,-0.204177,12.816000,1025.075823,0.500000,0.000000,71970,25301.953125,0
1.580000,-17.117793,904.063000,168.945853,-0.185560,12.816000,1025.094440,0.500000,0.000000,71970,25301.953125,0
1.582000,-15.301203,912.077500,151.016834,-0.166525,12.816000,1025.113475,0.500000,0.000000,71970,25301.953125,0
1.584000,-13.469483,919.189750,132.938482,-0.147108,12.816000,1025.132892,0.500000,0.000000,71970,25301.953125,0
1.586000,-11.624444,925.393250,114.728673,-0.127351,12.816000,1025.152649,0.500000,0.000000,71970,25301.953125,0
1.588000,-9.767910,930.681750,96.405414,-0.107296,12.816000,1025.172704,0.500000,0.000000,71970,25301.953125,0
1.590000,-7.901717,935.050000,77.986823,-0.086987,12.816000,1025.193013,0.500000,0.000000,71970,25301.953125,0
1.592000,-6.027710,938.493750,59.491115,-0.066472,12.816000,1025.213528,0.500000,0.000000,71970,25301.953125,0
1.594000,-4.147742,941.009250,40.936579,-0.045799,12.816000,1025.234201,0.500000,0.000000,71970,25301.953125,0
1.596000,-2.263673,942.594000,22.341562,-0.025015,12.816000,1025.254985,0.500000,0.000000,71970,25301.953125,0
1.598000,-0.377366,943.247000,3.724453,-0.004172,12.816000,1025.275828,0.500000,0.000000,71970,25301.953125,0
1.600000,1.509315,942.967250,-14.896339,0.016682,12.816000,1025.296682,0.500000,0.000000,71970,25301.953125,0
1.602000,3.394503,941.754750,-33.502401,0.037496,12.816000,1025.317496,0.500000,0.000000,71970,25301.953125,0
1.604000,5.276334,939.611250,-52.075334,0.058219,12.816000,1025.338219,0.500000,0.000000,71970,25301.953125,0
1.606000,7.152948,936.538750,-70.596771,0.078804,12.816000,1025.358804,0.500000,0.000000,71970,25301.953125,0
1.608000,9.022489,932.539750,-89.048399,0.099200,12.816000,1025.379200,0.500000,0.000000,71970,25301.953125,0
1.610000,10.883107,927.618750,-107.411971,0.119362,12.816000,1025.399362,0.500000,0.000000,71970,25301.953125,0
1.612000,12.732964,921.780750,-125.669328,0.139244,12.816000,1025.419244,0.500000,0.000000,71970,25301.953125,0
1.614000,14.570230,915.031000,-143.802416,0.158802,12.816000,1025.438802,0.500000,0.000000,71970,25301.953125,0
1.616000,16.393088,907.376250,-161.793304,0.177994,12.816000,1025.457994,0.500000,0.000000,71970,25301.953125,0
1.618000,18.199735,898.824500,-179.624202,0.196783,12.816000,1025.476783,0.500000,0.000000,71970,25301.953125,0
1.620000,19.988386,889.384000,-197.277477,0.215131,12.816000,1025.495131,0.500000,0.000000,71970,25301.953125,0
1.622000,21.757271,879.063750,-214.735673,0.233005,12.816000,1025.513005,0.500000,0.000000,71970,25301.953125,0
1.624000,23.504641,867.874500,-231.981527,0.250373,12.816000,1025.530373,0.500000,0.000000,71970,25301.953125,0
1.626000,25.228769,855.827000,-248.997985,0.267210,12.816000,1025.547210,0.500000,0.000000,71970,25301.953125,0
1.628000,26.927949,842.933000,-265.768219,0.283490,12.816000,1025.563490,0.500000,0.000000,71970,25301.953125,0
1.630000,28.600501,829.205500,-282.275647,0.299192,12.816000,1025.579192,0.500000,0.000000,71970,25301.953125,0
1.632000,30.244771,814.658000,-298.503945,0.314300,12.816000,1025.594300,0.500000,0.000000,71970,25301.953125,0
1.634000,31.859133,799.305250,-314.437066,0.328798,12.816000,1025.608798,0.500000,0.000000,71970,25301.953125,0
1.636000,33.441992,783.162000,-330.059253,0.342677,12.816000,1025.622677,0.500000,0.000000,71970,25301.953125,0
1.638000,34.991781,766.244000,-345.355060,0.355927,12.816000,1025.635927,0.500000,0.000000,71970,25301.953125,0
1.640000,36.506968,748.568500,-360.309360,0.368546,12.816000,1025.648546,0.500000,0.000000,71970,25301.953125,0
1.642000,37.986055,730.153000,-374.907367,0.380531,12.816000,1025.660531,0.500000,0.000000,71970,25301.953125,0
1.644000,39.427580,711.015250,-389.134644,0.391885,12.816000,1025.671885,0.500000,0.000000,71970,25301.953125,0
1.646000,40.830116,691.174250,-402.977123,0.402613,12.816000,1025.682613,0.500000,0.000000,71970,25301.953125,0
1.648000,42.192277,670.650000,-416.421115,0.412720,12.816000,1025.692720,0.500000,0.000000,71970,25301.953125,0
1.650000,43.512716,649.462750,-429.453327,0.422218,12.816000,1025.702218,0.500000,0.000000,71970,25301.953125,0
1.652000,44.790128,627.633000,-442.060872,0.431118,12.816000,1025.711118,0.500000,0.000000,71970,25301.953125,0
1.654000,46.023248,605.182500,-454.231283,0.439434,12.816000,1025.719434,0.500000,0.000000,71970,25301.953125,0
1.656000,47.210858,582.133750,-465.952524,0.447182,12.816000,1025.727182,0.500000,0.000000,71970,25301.953125,0
1.658000,48.351783,558.509250,-477.213005,0.454379,12.816000,1025.734379,0.500000,0.000000,71970,25301.953125,0
1.660000,49.444895,534.332750,-488.001591,0.461045,12.816000,1025.741045,0.500000,0.000000,71970,25301.953125,0
1.662000,50.489114,509.627750,-498.307614,0.467198,12.816000,1025.747198,0.500000,0.000000,71970,25301.953125,0
1.664000,51.483406,484.418500,-508.120883,0.472859,12.816000,1025.752859,0.500000,0.000000,71970,25301.953125,0
1.666000,52.426788,458.730500,-517.431693,0.478051,12.816000,1025.758051,0.500000,0.000000,71970,25301.953125,0
1.668000,53.318328,432.588750,-526.230838,0.482793,12.816000,1025.762793,0.500000,0.000000,71970,25301.953125,0
1.670000,54.157143,406.019250,-534.509617,0.487108,12.816000,1025.767108,0.500000,0.000000,71970,25301.953125,0
1.672000,54.942405,379.048500,-542.259843,0.491017,12.816000,1025.771017,0.500000,0.000000,71970,25301.953125,0
1.674000,55.673337,351.702750,-549.473852,0.494541,12.816000,1025.774541,0.500000,0.000000,71970,25301.953125,0
1.676000,56.349216,324.009250,-556.144510,0.497700,12.816000,1025.777700,0.500000,0.000000,71970,25301.953125,0
1.678000,56.969374,295.995250,-562.265222,0.500515,12.816000,1025.780515,0.500000,0.000000,71970,25301.953125,0
1.680000,57.533197,267.688500,-567.829934,0.503003,12.816000,1025.783003,0.500000,0.000000,71970,25301.953125,0
1.682000,58.040128,239.117250,-572.833145,0.505182,12.816000,1025.785182,0.500000,0.000000,71970,25301.953125,0
1.684000,58.489666,210.309500,-577.269906,0.507069,12.816000,1025.787069,0.500000,0.000000,71970,25301.953125,0
1.686000,58.881366,181.293750,-581.135831,0.508677,12.816000,1025.788677,0.500000,0.000000,71970,25301.953125,0
1.688000,59.214841,152.098750,-584.427095,0.510020,12.816000,1025.790020,0.500000,0.000000,71970,25301.953125,0
1.690000,59.489761,122.753250,-587.140446,0.511109,12.816000,1025.791109,0.500000,0.000000,71970,25301.953125,0
1.692000,59.705854,93.286250,-589.273200,0.511954,12.816000,1025.791938,0.500000,0.000000,71970,25301.953125,0
1.694000,59.862906,63.727250,-590.823247,0.512561,12.815925,1025.786583,0.500000,0.000000,71970,25301.953125,0
1.696000,59.960763,34.105250,-591.789055,0.512937,12.788077,1023.559083,0.500000,0.000000,71970,25301.953125,0
1.698000,59.999327,4.449500,-592.169669,0.513085,5.353744,428.812600,0.500000,0.000000,71970,25301.953125,0
1.700000,59.978561,-25.210750,-591.964713,0.513005,-12.651484,-1011.605715,-0.500000,0.000000,71970,25301.953125,0
1.702000,59.898484,-54.846000,-591.174389,0.512698,-12.815559,-1024.731983,-0.500000,0.000000,71970,25301.953125,0
1.704000,59.759177,-84.427000,-589.799479,0.512161,-12.815999,-1024.767744,-0.500000,0.000000,71970,25301.953125,0
1.706000,59.560776,-113.924750,-587.841342,0.511388,-12.816000,-1024.768612,-0.500000,0.000000,71970,25301.953125,0
1.708000,59.303478,-143.309500,-585.301915,0.510373,-12.816000,-1024.769627,-0.500000,0.000000,71970,25301.953125,0
1.710000,58.987538,-172.552500,-582.183708,0.509107,-12.816000,-1024.770893,-0.500000,0.000000,71970,25301.953125,0
1.712000,58.613268,-201.625250,-578.489806,0.507580,-12.816000,-1024.772420,-0.500000,0.000000,71970,25301.953125,0
1.714000,58.181037,-230.498500,-574.223861,0.505778,-12.816000,-1024.774222,-0.500000,0.000000,71970,25301.953125,0
1.716000,57.691274,-259.143750,-569.390091,0.503688,-12.816000,-1024.776312,-0.500000,0.000000,71970,25301.953125,0
1.718000,57.144462,-287.532750,-563.993277,0.501295,-12.816000,-1024.778705,-0.500000,0.000000,71970,25301.953125,0
1.720000,56.541143,-315.637250,-558.038754,0.498580,-12.816000,-1024.781420,-0.500000,0.000000,71970,25301.953125,0
1.722000,55.881913,-343.430000,-551.532412,0.495526,-12.816000,-1024.784474,-0.500000,0.000000,71970,25301.953125,0
1.724000,55.167423,-370.883000,-544.480683,0.492113,-12.816000,-1024.787887,-0.500000,0.000000,71970,25301.953125,0
