khanfazel/E-wera--maxon_motor/Feedforward/feedforward_log.csv
t_s,q_joint_deg,qd_joint_deg_s,qdd_joint_deg_s2,tau_joint_ff_Nm,tau_dead_Nm,tau_joint_total_Nm,tau_motor_cmd_Nm,tau_motor_actual_Nm,motor_pos_counts,motor_pos_deg_est,motor_vel_native
0.000000,0.000000,943.265500,0.000000,0.000000,0.160200,12.816000,0.160200,0.161268,-847,-0.930542,20
0.002000,1.886531,942.799250,0.000000,0.027289,0.160200,12.843289,0.160541,0.158064,-811,-0.890991,50
0.004000,3.771197,941.400750,-37.220226,0.041649,0.160200,12.857649,0.160721,0.160200,-756,-0.830566,52
0.006000,5.652134,939.071000,-55.784328,0.062349,0.160200,12.878349,0.160979,0.161268,-685,-0.752563,59
0.008000,7.527481,935.812750,-74.293267,0.082899,0.160200,12.898899,0.161236,0.163404,-620,-0.681152,54
0.010000,9.395385,931.629250,-92.728741,0.103253,0.160200,12.919253,0.161491,0.161268,-549,-0.603149,69
0.012000,11.253998,926.524500,-111.072519,0.123362,0.160200,12.939362,0.161742,0.161268,-460,-0.505371,62
0.014000,13.101483,920.503500,-129.306462,0.143183,0.160200,12.959183,0.161990,0.162336,-376,-0.413086,70
0.016000,14.936012,913.572250,-147.412541,0.162671,0.160200,12.978671,0.162233,0.162336,-288,-0.316406,65
0.018000,16.755772,905.737500,-165.372849,0.181786,0.160200,12.997786,0.162472,0.166608,-203,-0.223022,66
0.020000,18.558962,897.007250,-183.169628,0.200489,0.160200,13.016489,0.162706,0.163404,-114,-0.125244,71
0.022000,20.343801,887.390000,-200.785278,0.218745,0.160200,13.034745,0.162934,0.159132,-23,-0.025269,72
0.024000,22.108522,876.895000,-218.202380,0.236520,0.160200,13.052520,0.163156,0.163404,64,0.070312,78
0.026000,23.851381,865.533250,-235.403712,0.253784,0.160200,13.069784,0.163372,0.162336,144,0.158203,77
0.028000,25.570655,853.315500,-252.372264,0.270511,0.160200,13.086511,0.163581,0.163404,229,0.251587,64
0.030000,27.264643,840.253750,-269.091255,0.286677,0.160200,13.102677,0.163783,0.160200,306,0.336182,84
0.032000,28.931670,826.361000,-285.544154,0.302262,0.160200,13.118262,0.163978,0.162336,379,0.416382,67
0.034000,30.570087,811.651500,-301.714692,0.317249,0.160200,13.133249,0.164166,0.164472,453,0.497681,57
0.036000,32.178276,796.139500,-317.586877,0.331624,0.160200,13.147624,0.164345,0.162336,536,0.588867,60
0.038000,33.754645,779.839750,-333.145014,0.345377,0.160200,13.161377,0.164517,0.164472,615,0.675659,58
0.040000,35.297635,762.769000,-348.373719,0.358502,0.160200,13.174502,0.164681,0.160200,689,0.756958,80
0.042000,36.805721,744.944000,-363.257932,0.370994,0.160200,13.186994,0.164837,0.159132,763,0.838257,61
0.044000,38.277411,726.382500,-377.782936,0.382852,0.160200,13.198852,0.164986,0.161268,840,0.922852,56
0.046000,39.711251,707.102750,-391.934367,0.394081,0.160200,13.210081,0.165126,0.168744,913,1.003052,78
0.048000,41.105822,687.123500,-405.698231,0.404683,0.160200,13.220683,0.165259,0.165540,990,1.087646,80
0.050000,42.459745,666.465000,-419.060918,0.414668,0.160200,13.230668,0.165383,0.160200,1071,1.176636,86
0.052000,43.771682,645.147500,-432.009215,0.424045,0.160200,13.240045,0.165501,0.165540,1151,1.264526,77
0.054000,45.040335,623.191750,-444.530316,0.432827,0.160200,13.248827,0.165610,0.168744,1236,1.357910,76
0.056000,46.264449,600.619750,-456.611842,0.441028,0.160200,13.257028,0.165713,0.169812,1324,1.454590,74
0.058000,47.442814,577.454250,-468.241844,0.448665,0.160200,13.264665,0.165808,0.165540,1425,1.565552,65
0.060000,48.574266,553.717500,-479.408822,0.455754,0.160200,13.271754,0.165897,0.167676,1516,1.665527,83
0.062000,49.657684,529.433000,-490.101734,0.462316,0.160200,13.278316,0.165979,0.164472,1604,1.762207,66
0.064000,50.691998,504.625250,-500.310006,0.468369,0.160200,13.284369,0.166055,0.165540,1688,1.854492,83
0.066000,51.676185,479.318500,-510.023544,0.473935,0.160200,13.289935,0.166124,0.163404,1779,1.954468,71
0.068000,52.609272,453.537750,-519.232741,0.479034,0.160200,13.295034,0.166188,0.166608,1862,2.045654,64
0.070000,53.490336,427.308250,-527.928493,0.483689,0.160200,13.299689,0.166246,0.165540,1948,2.140137,78
0.072000,54.318505,400.656500,-536.102199,0.487921,0.160200,13.303921,0.166299,0.168744,2029,2.229126,81
0.074000,55.092962,373.608500,-543.745778,0.491752,0.160200,13.307752,0.166347,0.165540,2110,2.318115,85
0.076000,55.812939,346.191000,-550.851670,0.495201,0.160200,13.311201,0.166390,0.166608,2193,2.409302,79
0.078000,56.477726,318.431250,-557.412850,0.498290,0.160200,13.314290,0.166429,0.167676,2273,2.497192,78
0.080000,57.086664,290.356250,-563.422828,0.501038,0.160200,13.317038,0.166463,0.166608,2359,2.591675,63
0.082000,57.639151,261.994500,-568.875663,0.503463,0.160200,13.319463,0.166493,0.168744,2444,2.685059,72
0.084000,58.134642,233.373750,-573.765962,0.505582,0.160200,13.321582,0.166520,0.163404,2536,2.786133,82
0.086000,58.572646,204.522000,-578.088888,0.507412,0.160200,13.323412,0.166543,0.166608,2622,2.880615,83
0.088000,58.952730,175.468250,-581.840169,0.508967,0.160200,13.324967,0.166562,0.165540,2702,2.968506,78
0.090000,59.274519,146.240750,-585.016093,0.510258,0.160200,13.326258,0.166578,0.164472,2788,3.062988,60
0.092000,59.537693,116.868500,-587.613520,0.511298,0.160200,13.327298,0.166591,0.166608,2877,3.160767,82
0.094000,59.741993,87.381000,-589.629883,0.512094,0.160200,13.328094,0.166601,0.169812,2964,3.256348,66
0.096000,59.887217,57.807000,-591.063187,0.512655,0.160200,13.328655,0.166608,0.166608,3048,3.348633,64
0.098000,59.973221,28.176000,-591.912014,0.512985,0.160200,13.328985,0.166612,0.165540,3130,3.438721,83
0.100000,59.999921,-1.483000,-592.175526,0.513087,-0.160200,-12.302913,-0.153786,-0.153792,3223,3.540894,19
0.102000,59.967289,-31.140750,-591.853461,0.512962,-0.160200,-12.303038,-0.153788,-0.152724,3219,3.536499,-45
0.104000,59.875358,-60.767500,-590.946139,0.512609,-0.160200,-12.303391,-0.153792,-0.151656,3152,3.462891,-74
0.106000,59.724219,-90.334250,-589.454456,0.512025,-0.160200,-12.303975,-0.153800,-0.159132,3064,3.366211,-95
0.108000,59.514021,-119.811500,-587.379888,0.511205,-0.160200,-12.304795,-0.153810,-0.152724,2958,3.249756,-72
0.110000,59.244973,-149.170500,-584.724485,0.510140,-0.160200,-12.305860,-0.153823,-0.152724,2853,3.134399,-77
0.112000,58.917339,-178.382000,-581.490875,0.508823,-0.160200,-12.307177,-0.153840,-0.154860,2762,3.034424,-82
0.114000,58.531445,-207.416750,-577.682254,0.507242,-0.160200,-12.308758,-0.153859,-0.154860,2675,2.938843,-61
0.116000,58.087672,-236.246500,-573.302388,0.505384,-0.160200,-12.310616,-0.153883,-0.152724,2589,2.844360,-69
0.118000,57.586459,-264.842750,-568.355609,0.503234,-0.160200,-12.312766,-0.153910,-0.154860,2492,2.737793,-64
0.120000,57.028301,-293.177250,-562.846808,0.500778,-0.160200,-12.315222,-0.153940,-0.151656,2409,2.646606,-74
0.122000,56.413750,-321.221750,-556.781433,0.497997,-0.160200,-12.318003,-0.153975,-0.150588,2322,2.551025,-74
0.124000,55.743414,-348.948750,-550.165481,0.494873,-0.160200,-12.321127,-0.154014,-0.155928,2245,2.466431,-76
0.126000,55.017955,-376.330500,-543.005495,0.491386,-0.160200,-12.324614,-0.154058,-0.155928,2167,2.380737,-74
0.128000,54.238092,-403.339750,-535.308555,0.487517,-0.160200,-12.328483,-0.154106,-0.148452,2082,2.287354,-65
0.130000,53.404596,-429.950500,-527.082272,0.483243,-0.160200,-12.332757,-0.154159,-0.154860,2009,2.207153,-54
0.132000,52.518290,-456.136500,-518.334780,0.478545,-0.160200,-12.337455,-0.154218,-0.147384,1942,2.133545,-63
0.134000,51.580050,-481.871000,-509.074730,0.473399,-0.160200,-12.342601,-0.154283,-0.152724,1873,2.057739,-75
0.136000,50.590806,-507.128750,-499.311279,0.467786,-0.160200,-12.348214,-0.154353,-0.153792,1804,1.981934,-56
0.138000,49.551535,-531.885500,-489.054081,0.461683,-0.160200,-12.354317,-0.154429,-0.147384,1733,1.903931,-71
0.140000,48.463264,-556.116250,-478.313278,0.455069,-0.160200,-12.360931,-0.154512,-0.154860,1657,1.820435,-68
0.142000,47.327070,-579.796750,-467.099493,0.447926,-0.160200,-12.368074,-0.154601,-0.154860,1577,1.732544,-66
0.144000,46.144077,-602.904250,-455.423814,0.440234,-0.160200,-12.375766,-0.154697,-0.152724,1495,1.642456,-75
0.146000,44.915453,-625.415500,-443.297786,0.431975,-0.160200,-12.384025,-0.154800,-0.152724,1407,1.545776,-56
0.148000,43.642415,-647.308250,-430.733401,0.423135,-0.160200,-12.392865,-0.154911,-0.155928,1329,1.460083,-65
0.150000,42.326220,-668.560750,-417.743082,0.413697,-0.160200,-12.402303,-0.155029,-0.155928,1257,1.380981,-52
0.152000,40.968172,-689.152250,-404.339676,0.403651,-0.160200,-12.412349,-0.155154,-0.155928,1188,1.305176,-71
0.154000,39.569611,-709.062500,-390.536436,0.392986,-0.160200,-12.423014,-0.155288,-0.154860,1117,1.227173,-57
0.156000,38.131922,-728.271250,-376.347012,0.381695,-0.160200,-12.434305,-0.155429,-0.154860,1028,1.129395,-67
0.158000,36.656526,-746.760000,-361.785435,0.369773,-0.160200,-12.446227,-0.155578,-0.156996,944,1.037109,-68
0.160000,35.144882,-764.510500,-346.866104,0.357218,-0.160200,-12.458782,-0.155735,-0.154860,863,0.948120,-55
0.162000,33.598484,-781.504750,-331.603773,0.344030,-0.160200,-12.471970,-0.155900,-0.155928,780,0.856934,-59
0.164000,32.018863,-797.726250,-316.013534,0.330214,-0.160200,-12.485786,-0.156072,-0.154860,697,0.765747,-66
0.166000,30.407579,-813.159000,-300.110802,0.315777,-0.160200,-12.500223,-0.156253,-0.149520,621,0.682251,-64
0.168000,28.766227,-827.787250,-283.911305,0.300730,-0.160200,-12.515270,-0.156441,-0.156996,531,0.583374,-70
0.170000,27.096430,-841.597500,-267.431059,0.285086,-0.160200,-12.530914,-0.156636,-0.160200,453,0.497681,-68
0.172000,25.399837,-854.575500,-250.686364,0.268863,-0.160200,-12.547137,-0.156839,-0.156996,368,0.404297,-71
0.174000,23.678128,-866.708000,-233.693775,0.252081,-0.160200,-12.563919,-0.157049,-0.156996,291,0.319702,-76
0.176000,21.933005,-877.983750,-216.470097,0.234765,-0.160200,-12.581235,-0.157265,-0.160200,214,0.235107,-80
0.178000,20.166193,-888.391250,-199.032362,0.216940,-0.160200,-12.599060,-0.157488,-0.156996,138,0.151611,-73
0.180000,18.379440,-897.920250,-181.397812,0.198638,-0.160200,-12.617362,-0.157717,-0.159132,57,0.062622,-68
0.182000,16.574512,-906.561500,-163.583885,0.179892,-0.160200,-12.636108,-0.157951,-0.158064,-19,-0.020874,-62
0.184000,14.753194,-914.306250,-145.608198,0.160738,-0.160200,-12.655262,-0.158191,-0.158064,-100,-0.109863,-67
0.186000,12.917287,-921.146750,-127.488525,0.141215,-0.160200,-12.674785,-0.158435,-0.156996,-179,-0.196655,-61
0.188000,11.068607,-927.076250,-109.242785,0.121364,-0.160200,-12.694636,-0.158683,-0.156996,-254,-0.279053,-62
0.190000,9.208982,-932.089000,-90.889019,0.101228,-0.160200,-12.714772,-0.158935,-0.155928,-339,-0.372437,-63
0.192000,7.340251,-936.180250,-72.445377,0.080852,-0.160200,-12.735148,-0.159189,-0.159132,-418,-0.459229,-69
0.194000,5.464261,-939.345750,-53.930097,0.060285,-0.160200,-12.755715,-0.159446,-0.159132,-494,-0.542725,-60
0.196000,3.582868,-941.582500,-35.361488,0.039573,-0.160200,-12.776427,-0.159705,-0.161268,-581,-0.638306,-61
0.198000,1.697931,-942.888000,-16.757912,0.018766,-0.160200,-12.797234,-0.159965,-0.153792,-673,-0.739380,-67
0.200000,-0.188684,-943.261000,1.862236,-0.002086,-0.160200,-12.818086,-0.160226,-0.159132,-759,-0.833862,-81
0.202000,-2.075113,-942.701250,20.480542,-0.022933,-0.160200,-12.838933,-0.160487,-0.162336,-859,-0.943726,-73
0.204000,-3.959489,-941.209500,39.078596,-0.043725,-0.160200,-12.859725,-0.160747,-0.162336,-952,-1.045898,-65
0.206000,-5.839951,-938.787000,57.638006,-0.064411,-0.160200,-12.880411,-0.161005,-0.159132,-1039,-1.141479,-71
0.208000,-7.714637,-935.436000,76.140422,-0.084944,-0.160200,-12.900944,-0.161262,-0.160200,-1133,-1.244751,-62
0.210000,-9.581695,-931.160250,94.567545,-0.105275,-0.160200,-12.921275,-0.161516,-0.164472,-1226,-1.346924,-84
0.212000,-11.439278,-925.963500,112.901154,-0.125358,-0.160200,-12.941358,-0.161767,-0.159132,-1313,-1.442505,-62
0.214000,-13.285549,-919.851000,131.123121,-0.145147,-0.160200,-12.961147,-0.162014,-0.163404,-1411,-1.550171,-69
0.216000,-15.118682,-912.829250,149.215425,-0.164600,-0.160200,-12.980600,-0.162257,-0.162336,-1511,-1.660034,-80
0.218000,-16.936866,-904.904750,167.160178,-0.183675,-0.160200,-12.999675,-0.162496,-0.154860,-1604,-1.762207,-86
0.220000,-18.738301,-896.085250,184.939632,-0.202335,-0.160200,-13.018335,-0.162729,-0.164472,-1704,-1.872070,-81
0.222000,-20.521207,-886.379750,202.536209,-0.220544,-0.160200,-13.036544,-0.162957,-0.163404,-1803,-1.980835,-69
0.224000,-22.283820,-875.797750,219.932506,-0.238269,-0.160200,-13.054269,-0.163178,-0.164472,-1899,-2.086304,-72
0.226000,-24.024398,-864.349750,237.111321,-0.255481,-0.160200,-13.071481,-0.163394,-0.165540,-1998,-2.195068,-82
0.228000,-25.741219,-852.047000,254.055668,-0.272153,-0.160200,-13.088153,-0.163602,-0.164472,-2081,-2.286255,-64
0.230000,-27.432586,-838.901750,270.748790,-0.288262,-0.160200,-13.104262,-0.163803,-0.166608,-2175,-2.389526,-64
0.232000,-29.096826,-824.926750,287.174181,-0.303788,-0.160200,-13.119788,-0.163997,-0.164472,-2261,-2.484009,-75
0.234000,-30.732293,-810.136250,303.315597,-0.318714,-0.160200,-13.134714,-0.164184,-0.165540,-2349,-2.580688,-68
0.236000,-32.337371,-794.544500,319.157079,-0.333027,-0.160200,-13.149027,-0.164363,-0.163404,-2440,-2.680664,-72
0.238000,-33.910471,-778.167000,334.682960,-0.346718,-0.160200,-13.162718,-0.164534,-0.166608,-2525,-2.774048,-72
0.240000,-35.450039,-761.020250,349.877888,-0.359779,-0.160200,-13.175779,-0.164697,-0.163404,-2611,-2.868530,-56
0.242000,-36.954552,-743.120750,364.726837,-0.372208,-0.160200,-13.188208,-0.164853,-0.161268,-2705,-2.971802,-64
0.244000,-38.422522,-724.486500,379.215124,-0.384004,-0.160200,-13.200004,-0.165000,-0.165540,-2799,-3.075073,-67
0.246000,-39.852498,-705.136000,393.328421,-0.395169,-0.160200,-13.211169,-0.165140,-0.165540,-2893,-3.178345,-67
0.248000,-41.243066,-685.088000,407.052774,-0.405709,-0.160200,-13.221709,-0.165271,-0.167676,-2985,-3.279419,-80
0.250000,-42.592850,-664.362500,420.374610,-0.415633,-0.160200,-13.231633,-0.165395,-0.165540,-3072,-3.375000,-79
0.252000,-43.900516,-642.980250,433.280756,-0.424950,-0.160200,-13.240950,-0.165512,-0.174084,-3160,-3.471680,-80
0.254000,-45.164771,-620.962000,445.758450,-0.433673,-0.160200,-13.249673,-0.165621,-0.164472,-3253,-3.573853,-75
0.256000,-46.384364,-598.329500,457.795354,-0.441817,-0.160200,-13.257817,-0.165723,-0.167676,-3346,-3.676025,-73
0.258000,-47.558089,-575.105750,469.379563,-0.449398,-0.160200,-13.265398,-0.165817,-0.163404,-3436,-3.774902,-86
0.260000,-48.684787,-551.313500,480.499624,-0.456434,-0.160200,-13.272434,-0.165905,-0.167676,-3527,-3.874878,-75
0.262000,-49.763343,-526.975500,491.144540,-0.462943,-0.160200,-13.278943,-0.165987,-0.165540,-3608,-3.963867,-74
0.264000,-50.792689,-502.116500,501.303785,-0.468947,-0.160200,-13.284947,-0.166062,-0.166608,-3687,-4.050659,-70
0.266000,-51.771809,-476.761250,510.967313,-0.474465,-0.160200,-13.290465,-0.166131,-0.166608,-3765,-4.136353,-70
0.268000,-52.699734,-450.934500,520.125568,-0.479519,-0.160200,-13.295519,-0.166194,-0.163404,-3849,-4.228638,-71
0.270000,-53.575547,-424.661750,528.769493,-0.484131,-0.160200,-13.300131,-0.166252,-0.166608,-3950,-4.339600,-77
0.272000,-54.398381,-397.969000,536.890542,-0.488322,-0.160200,-13.304322,-0.166304,-0.166608,-4046,-4.445068,-62
0.274000,-55.167423,-370.883000,544.480683,-0.492113,-0.160200,-13.308113,-0.166351,-0.167676,-4134,-4.541748,-86
0.276000,-55.881913,-343.430000,551.532412,-0.495526,-0.160200,-13.311526,-0.166394,-0.166608,-4217,-4.632935,-74
0.278000,-56.541143,-315.637250,558.038754,-0.498580,-0.160200,-13.314580,-0.166432,-0.168744,-4308,-4.732910,-79
0.280000,-57.144462,-287.532750,563.993277,-0.501295,-0.160200,-13.317295,-0.166466,-0.167676,-4405,-4.839478,-81
0.282000,-57.691274,-259.143750,569.390091,-0.503688,-0.160200,-13.319688,-0.166496,-0.165540,-4490,-4.932861,-87
0.284000,-58.181037,-230.498500,574.223861,-0.505778,-0.160200,-13.321778,-0.166522,-0.164472,-4574,-5.025146,-84
0.286000,-58.613268,-201.625250,578.489806,-0.507580,-0.160200,-13.323580,-0.166545,-0.163404,-4656,-5.115234,-70
0.288000,-58.987538,-172.552500,582.183708,-0.509107,-0.160200,-13.325107,-0.166564,-0.167676,-4739,-5.206421,-69
0.290000,-59.303478,-143.309500,585.301915,-0.510373,-0.160200,-13.326373,-0.166580,-0.167676,-4820,-5.295410,-66
0.292000,-59.560776,-113.924750,587.841342,-0.511388,-0.160200,-13.327388,-0.166592,-0.167676,-4904,-5.387695,-90
0.294000,-59.759177,-84.427000,589.799479,-0.512161,-0.160200,-13.328161,-0.166602,-0.164472,-4991,-5.483276,-76
0.296000,-59.898484,-54.846000,591.174389,-0.512698,-0.160200,-13.328698,-0.166609,-0.167676,-5074,-5.574463,-68
0.298000,-59.978561,-25.210750,591.964713,-0.513005,-0.160200,-13.329005,-0.166613,-0.165540,-5166,-5.675537,-75
0.300000,-59.999327,4.449500,592.169669,-0.513085,0.160200,12.302915,0.153786,0.152724,-5260,-5.778809,-16
0.302000,-59.960763,34.105250,591.789055,-0.512937,0.160200,12.303063,0.153788,0.152724,-5248,-5.765625,60
0.304000,-59.862906,63.727250,590.823247,-0.512561,0.160200,12.303439,0.153793,0.151656,-5167,-5.676636,85
0.306000,-59.705854,93.286250,589.273200,-0.511954,0.160200,12.304046,0.153801,0.156996,-5065,-5.564575,98
0.308000,-59.489761,122.753250,587.140446,-0.511109,0.160200,12.304891,0.153811,0.152724,-4951,-5.439331,95
0.310000,-59.214841,152.098750,584.427095,-0.510020,0.160200,12.305980,0.153825,0.151656,-4844,-5.321777,71
0.312000,-58.881366,181.293750,581.135831,-0.508677,0.160200,12.307323,0.153842,0.154860,-4759,-5.228394,65
0.314000,-58.489666,210.309500,577.269906,-0.507069,0.160200,12.308931,0.153862,0.151656,-4674,-5.135010,77
0.316000,-58.040128,239.117250,572.833145,-0.505182,0.160200,12.310818,0.153885,0.153792,-4597,-5.050415,70
0.318000,-57.533197,267.688500,567.829934,-0.503003,0.160200,12.312997,0.153912,0.158064,-4513,-4.958130,76
0.320000,-56.969374,295.995250,562.265222,-0.500515,0.160200,12.315485,0.153944,0.153792,-4438,-4.875732,59
0.322000,-56.349216,324.009250,556.144510,-0.497700,0.160200,12.318300,0.153979,0.150588,-4360,-4.790039,68
0.324000,-55.673337,351.702750,549.473852,-0.494541,0.160200,12.321459,0.154018,0.155928,-4275,-4.696655,78
0.326000,-54.942405,379.048500,542.259843,-0.491017,0.160200,12.324983,0.154062,0.154860,-4194,-4.607666,68
0.328000,-54.157143,406.019250,534.509617,-0.487108,0.160200,12.328892,0.154111,0.152724,-4123,-4.529663,62
0.330000,-53.318328,432.588750,526.230838,-0.482793,0.160200,12.333207,0.154165,0.153792,-4047,-4.446167,72
0.332000,-52.426788,458.730500,517.431693,-0.478051,0.160200,12.337949,0.154224,0.156996,-3972,-4.363770,68
0.334000,-51.483406,484.418500,508.120883,-0.472859,0.160200,12.343141,0.154289,0.152724,-3884,-4.267090,57
0.336000,-50.489114,509.627750,498.307614,-0.467198,0.160200,12.348802,0.154360,0.155928,-3807,-4.182495,57
0.338000,-49.444895,534.332750,488.001591,-0.461045,0.160200,12.354955,0.154437,0.153792,-3728,-4.095703,65
0.340000,-48.351783,558.509250,477.213005,-0.454379,0.160200,12.361621,0.154520,0.154860,-3650,-4.010010,68
0.342000,-47.210858,582.133750,465.952524,-0.447182,0.160200,12.368818,0.154610,0.152724,-3570,-3.922119,73
0.344000,-46.023248,605.182500,454.231283,-0.439434,0.160200,12.376566,0.154707,0.154860,-3489,-3.833130,72
0.346000,-44.790128,627.633000,442.060872,-0.431118,0.160200,12.384882,0.154811,0.154860,-3414,-3.750732,61
0.348000,-43.512716,649.462750,429.453327,-0.422218,0.160200,12.393782,0.154922,0.151656,-3339,-3.668335,56
0.350000,-42.192277,670.650000,416.421115,-0.412720,0.160200,12.403280,0.155041,0.152724,-3266,-3.588135,65
0.352000,-40.830116,691.174250,402.977123,-0.402613,0.160200,12.413387,0.155167,0.150588,-3191,-3.505737,54
0.354000,-39.427580,711.015250,389.134644,-0.391885,0.160200,12.424115,0.155301,0.154860,-3118,-3.425537,64
0.356000,-37.986055,730.153000,374.907367,-0.380531,0.160200,12.435469,0.155443,0.152724,-3046,-3.346436,66
0.358000,-36.506968,748.568500,360.309360,-0.368546,0.160200,12.447454,0.155593,0.154860,-2965,-3.257446,58
0.360000,-34.991781,766.244000,345.355060,-0.355927,0.160200,12.460073,0.155751,0.154860,-2888,-3.172852,65
0.362000,-33.441992,783.162000,330.059253,-0.342677,0.160200,12.473323,0.155917,0.152724,-2805,-3.081665,80
0.364000,-31.859133,799.305250,314.437066,-0.328798,0.160200,12.487202,0.156090,0.153792,-2726,-2.994873,63
0.366000,-30.244771,814.658000,298.503945,-0.314300,0.160200,12.501700,0.156271,0.156996,-2646,-2.906982,74
0.368000,-28.600501,829.205500,282.275647,-0.299192,0.160200,12.516808,0.156460,0.155928,-2565,-2.817993,73
0.370000,-26.927949,842.933000,265.768219,-0.283490,0.160200,12.532510,0.156656,0.161268,-2489,-2.734497,71
0.372000,-25.228769,855.827000,248.997985,-0.267210,0.160200,12.548790,0.156860,0.158064,-2405,-2.642212,78
0.374000,-23.504641,867.874500,231.981527,-0.250373,0.160200,12.565627,0.157070,0.154860,-2313,-2.541138,68
0.376000,-21.757271,879.063750,214.735673,-0.233005,0.160200,12.582995,0.157287,0.155928,-2229,-2.448853,79
0.378000,-19.988386,889.384000,197.277477,-0.215131,0.160200,12.600869,0.157511,0.158064,-2146,-2.357666,78
0.380000,-18.199735,898.824500,179.624202,-0.196783,0.160200,12.619217,0.157740,0.154860,-2070,-2.274170,58
0.382000,-16.393088,907.376250,161.793304,-0.177994,0.160200,12.638006,0.157975,0.158064,-1990,-2.186279,73
0.384000,-14.570230,915.031000,143.802416,-0.158802,0.160200,12.657198,0.158215,0.159132,-1905,-2.092896,73
0.386000,-12.732964,921.780750,125.669328,-0.139244,0.160200,12.676756,0.158459,0.159132,-1822,-2.001709,74
0.388000,-10.883107,927.618750,107.411971,-0.119362,0.160200,12.696638,0.158708,0.159132,-1736,-1.907227,59
0.390000,-9.022489,932.539750,89.048399,-0.099200,0.160200,12.716800,0.158960,0.156996,-1658,-1.821533,57
0.392000,-7.152948,936.538750,70.596771,-0.078804,0.160200,12.737196,0.159215,0.161268,-1568,-1.722656,65
0.394000,-5.276334,939.611250,52.075334,-0.058219,0.160200,12.757781,0.159472,0.155928,-1479,-1.624878,63
0.396000,-3.394503,941.754750,33.502401,-0.037496,0.160200,12.778504,0.159731,0.161268,-1405,-1.543579,59
0.398000,-1.509315,942.967250,14.896339,-0.016682,0.160200,12.799318,0.159991,0.162336,-1316,-1.445801,70
0.400000,0.377366,943.247000,-3.724453,0.004172,0.160200,12.820172,0.160252,0.159132,-1241,-1.363403,59
0.402000,2.263673,942.594000,-22.341562,0.025015,0.160200,12.841015,0.160513,0.162336,-1161,-1.275513,64
0.404000,4.147742,941.009250,-40.936579,0.045799,0.160200,12.861799,0.160772,0.163404,-1086,-1.193115,71
0.406000,6.027710,938.493750,-59.491115,0.066472,0.160200,12.882472,0.161031,0.161268,-1006,-1.105225,79
0.408000,7.901717,935.050000,-77.986823,0.086987,0.160200,12.902987,0.161287,0.164472,-928,-1.019531,74
0.410000,9.767910,930.681750,-96.405414,0.107296,0.160200,12.923296,0.161541,0.160200,-839,-0.921753,77
0.412000,11.624444,925.393250,-114.728673,0.127351,0.160200,12.943351,0.161792,0.159132,-753,-0.827271,83
0.414000,13.469483,919.189750,-132.938482,0.147108,0.160200,12.963108,0.162039,0.161268,-669,-0.734985,65
0.416000,15.301203,912.077500,-151.016834,0.166525,0.160200,12.982525,0.162282,0.161268,-577,-0.633911,78
0.418000,17.117793,904.063000,-168.945853,0.185560,0.160200,13.001560,0.162520,0.163404,-480,-0.527344,64
0.420000,18.917455,895.154250,-186.707808,0.204177,0.160200,13.020177,0.162752,0.165540,-389,-0.427368,81
0.422000,20.698410,885.360750,-204.285136,0.222339,0.160200,13.038339,0.162979,0.162336,-304,-0.333984,85
0.424000,22.458898,874.691750,-221.660456,0.240014,0.160200,13.056014,0.163200,0.161268,-225,-0.247192,81
0.426000,24.197177,863.157750,-238.816585,0.257173,0.160200,13.073173,0.163415,0.163404,-143,-0.157104,70
0.428000,25.911529,850.770250,-255.736559,0.273790,0.160200,13.089790,0.163622,0.162336,-54,-0.059326,66
0.430000,27.600258,837.541250,-272.403647,0.289841,0.160200,13.105841,0.163823,0.163404,24,0.026367,75
0.432000,29.261694,823.484250,-288.801367,0.305308,0.160200,13.121308,0.164016,0.163404,115,0.126343,61
0.434000,30.894195,808.613000,-304.913503,0.320173,0.160200,13.136173,0.164202,0.166608,202,0.221924,82
0.436000,32.496146,792.941750,-320.724125,0.334424,0.160200,13.150424,0.164380,0.162336,290,0.318604,62
0.438000,34.065962,776.486750,-336.217596,0.348052,0.160200,13.164052,0.164551,0.161268,376,0.413086,70
0.440000,35.602093,759.264000,-351.378597,0.361051,0.160200,13.177051,0.164713,0.165540,454,0.498779,61
0.442000,37.103018,741.290000,-366.192135,0.373416,0.160200,13.189416,0.164868,0.173016,534,0.586670,63
0.444000,38.567253,722.583250,-380.643561,0.385148,0.160200,13.201148,0.165014,0.165540,628,0.689941,62
0.446000,39.993351,703.162250,-394.718586,0.396251,0.160200,13.212251,0.165153,0.164472,721,0.792114,64
0.448000,41.379902,683.045750,-408.403291,0.406729,0.160200,13.222729,0.165284,0.164472,803,0.882202,56
0.450000,42.725534,662.253500,-421.684145,0.416592,0.160200,13.232592,0.165407,0.164472,889,0.976685,60
0.452000,44.028916,640.806500,-434.548013,0.425849,0.160200,13.241849,0.165523,0.165540,965,1.060181,62
0.454000,45.288760,618.726000,-446.982176,0.434513,0.160200,13.250513,0.165631,0.162336,1047,1.150269,77
0.456000,46.503820,596.033500,-458.974338,0.442600,0.160200,13.258600,0.165733,0.163404,1145,1.257935,79
0.458000,47.672894,572.751750,-470.512641,0.450126,0.160200,13.266126,0.165827,0.164472,1229,1.350220,87
0.460000,48.794827,548.903750,-481.585675,0.457108,0.160200,13.273108,0.165914,0.165540,1317,1.446899,64
0.462000,49.868509,524.512750,-492.182489,0.463566,0.160200,13.279566,0.165995,0.164472,1398,1.535889,62
0.464000,50.892878,499.603000,-502.292607,0.469520,0.160200,13.285520,0.166069,0.167676,1480,1.625977,65
0.466000,51.866921,474.199250,-511.906029,0.474991,0.160200,13.290991,0.166137,0.166608,1576,1.731445,76
0.468000,52.789675,448.326750,-521.013250,0.480000,0.160200,13.296000,0.166200,0.165540,1662,1.825928,87
0.470000,53.660228,422.011000,-529.605264,0.484569,0.160200,13.300569,0.166257,0.166608,1756,1.929199,80
0.472000,54.477719,395.277750,-537.673575,0.488719,0.160200,13.304719,0.166309,0.166608,1845,2.026978,65
0.474000,55.241339,368.153750,-545.210204,0.492471,0.160200,13.308471,0.166356,0.166608,1926,2.115967,65
0.476000,55.950334,340.665500,-552.207699,0.495847,0.160200,13.311847,0.166398,0.164472,2006,2.203857,66
0.478000,56.604001,312.840500,-558.659140,0.498866,0.160200,13.314866,0.166436,0.164472,2087,2.292847,68
0.480000,57.201696,284.706250,-564.558147,0.501548,0.160200,13.317548,0.166469,0.168744,2170,2.384033,76
0.482000,57.742826,256.290250,-569.898888,0.503911,0.160200,13.319911,0.166499,0.168744,2259,2.481812,76
0.484000,58.226857,227.620750,-574.676082,0.505971,0.160200,13.321971,0.166525,0.167676,2346,2.577393,89
0.486000,58.653309,198.726500,-578.885003,0.507745,0.160200,13.323745,0.166547,0.167676,2448,2.689453,77
0.488000,59.021763,169.635750,-582.521491,0.509245,0.160200,13.325245,0.166566,0.168744,2551,2.802612,77
0.490000,59.331852,140.376750,-585.581948,0.510486,0.160200,13.326486,0.166581,0.165540,2651,2.912476,81
0.492000,59.583270,110.979500,-588.063350,0.511476,0.160200,13.327476,0.166593,0.165540,2750,3.021240,76
0.494000,59.775770,81.472250,-589.963242,0.512225,0.160200,13.328225,0.166603,0.166608,2841,3.121216,84
0.496000,59.909159,51.884250,-591.279745,0.512739,0.160200,13.328739,0.166609,0.164472,2932,3.221191,68
0.498000,59.983307,22.245500,-592.011558,0.513023,0.160200,13.329023,0.166613,0.167676,3026,3.324463,66
0.500000,59.998141,-7.415500,-592.157957,0.513080,-0.160200,-12.302920,-0.153786,-0.153792,3115,3.422241,12
0.502000,59.953645,-37.069500,-591.718797,0.512910,-0.160200,-12.303090,-0.153789,-0.154860,3093,3.398071,-67
0.504000,59.849863,-66.686750,-590.694512,0.512511,-0.160200,-12.303489,-0.153794,-0.151656,3006,3.302490,-83
0.506000,59.686898,-96.237750,-589.086116,0.511880,-0.160200,-12.304120,-0.153801,-0.156996,2898,3.183838,-84
0.508000,59.464912,-125.693750,-586.895198,0.511012,-0.160200,-12.304988,-0.153812,-0.156996,2790,3.065186,-73
0.510000,59.184123,-155.025500,-584.123926,0.509897,-0.160200,-12.306103,-0.153826,-0.156996,2686,2.950928,-68
0.512000,58.844810,-184.203750,-580.775039,0.508528,-0.160200,-12.307472,-0.153843,-0.152724,2598,2.854248,-71
0.514000,58.447308,-213.200000,-576.851850,0.506893,-0.160200,-12.309107,-0.153864,-0.150588,2498,2.744385,-70
0.516000,57.992010,-241.985500,-572.358237,0.504978,-0.160200,-12.311022,-0.153888,-0.156996,2402,2.638916,-59
0.518000,57.479366,-270.531750,-567.298644,0.502768,-0.160200,-12.313232,-0.153915,-0.155928,2308,2.535645,-67
0.520000,56.909883,-298.810250,-561.678075,0.500248,-0.160200,-12.315752,-0.153947,-0.154860,2220,2.438965,-64
0.522000,56.284125,-326.793250,-555.502087,0.497400,-0.160200,-12.318600,-0.153982,-0.156996,2129,2.338989,-55
0.524000,55.602710,-354.453500,-548.776788,0.494205,-0.160200,-12.321795,-0.154022,-0.153792,2047,2.248901,-64
0.526000,54.866311,-381.763000,-541.508828,0.490644,-0.160200,-12.325356,-0.154067,-0.153792,1964,2.157715,-59
0.528000,54.075658,-408.694750,-533.705393,0.486695,-0.160200,-12.329305,-0.154116,-0.155928,1896,2.083008,-59
0.530000,53.231532,-435.222750,-525.374201,0.482338,-0.160200,-12.333662,-0.154171,-0.152724,1821,2.000610,-59
0.532000,52.334767,-461.320250,-516.523489,0.477552,-0.160200,-12.338448,-0.154231,-0.156996,1734,1.905029,-76
0.534000,51.386251,-486.961250,-507.162010,0.472315,-0.160200,-12.343685,-0.154296,-0.153792,1659,1.822632,-55
0.536000,50.386922,-512.121000,-497.299021,0.466605,-0.160200,-12.349395,-0.154367,-0.156996,1587,1.743530,-68
0.538000,49.337767,-536.774500,-486.944275,0.460401,-0.160200,-12.355599,-0.154445,-0.155928,1516,1.665527,-59
0.540000,48.239824,-560.897000,-476.108012,0.453684,-0.160200,-12.362316,-0.154529,-0.154860,1448,1.590820,-59
0.542000,47.094179,-584.465000,-464.800946,0.446432,-0.160200,-12.369568,-0.154620,-0.154860,1377,1.512817,-68
0.544000,45.901964,-607.455000,-453.034259,0.438628,-0.160200,-12.377372,-0.154717,-0.155928,1295,1.422729,-56
0.546000,44.664359,-629.844250,-440.819586,0.430254,-0.160200,-12.385746,-0.154822,-0.158064,1215,1.334839,-73
0.548000,43.382587,-651.610500,-428.169007,0.421295,-0.160200,-12.394705,-0.154934,-0.153792,1146,1.259033,-69
0.550000,42.057917,-672.732500,-415.095030,0.411737,-0.160200,-12.404263,-0.155053,-0.153792,1066,1.171143,-67
0.552000,40.691657,-693.189500,-401.610584,0.401568,-0.160200,-12.414432,-0.155180,-0.152724,987,1.084351,-56
0.554000,39.285159,-712.961000,-387.729003,0.390778,-0.160200,-12.425222,-0.155315,-0.155928,918,1.008545,-72
0.556000,37.839813,-732.027250,-373.464013,0.379361,-0.160200,-12.436639,-0.155458,-0.155928,834,0.916260,-65
0.558000,36.357050,-750.369750,-358.829722,0.367312,-0.160200,-12.448688,-0.155609,-0.160200,759,0.833862,-70
0.560000,34.838334,-767.970500,-343.840600,0.354630,-0.160200,-12.461370,-0.155767,-0.159132,684,0.751465,-61
0.562000,33.285168,-784.811250,-328.511469,0.341317,-0.160200,-12.474683,-0.155934,-0.155928,602,0.661377,-74
0.564000,31.699089,-800.876250,-312.857488,0.327376,-0.160200,-12.488624,-0.156108,-0.155928,524,0.575684,-61
0.566000,30.081663,-816.149500,-296.894136,0.312816,-0.160200,-12.503184,-0.156290,-0.153792,443,0.486694,-65
0.568000,28.434491,-830.615500,-280.637198,0.297649,-0.160200,-12.518351,-0.156479,-0.159132,359,0.394409,-75
0.570000,26.759201,-844.260000,-264.102750,0.281888,-0.160200,-12.534112,-0.156676,-0.154860,263,0.288940,-72
0.572000,25.057451,-857.069750,-247.307143,0.265551,-0.160200,-12.550449,-0.156881,-0.159132,183,0.201050,-74
0.574000,23.330922,-869.032250,-230.266985,0.248660,-0.160200,-12.567340,-0.157092,-0.158064,108,0.118652,-57
0.576000,21.581322,-880.135250,-212.999126,0.231239,-0.160200,-12.584761,-0.157310,-0.163404,27,0.029663,-69
0.578000,19.810381,-890.367750,-195.520641,0.213317,-0.160200,-12.602683,-0.157534,-0.158064,-68,-0.074707,-66
0.580000,18.019851,-899.719750,-177.848815,0.194923,-0.160200,-12.621077,-0.157763,-0.154860,-143,-0.157104,-62
0.582000,16.211502,-908.182250,-160.001122,0.176093,-0.160200,-12.639907,-0.157999,-0.154860,-222,-0.243896,-77
0.584000,14.387122,-915.746750,-141.995211,0.156862,-0.160200,-12.659138,-0.158239,-0.155928,-296,-0.325195,-71
0.586000,12.548515,-922.405750,-123.848887,0.137269,-0.160200,-12.678731,-0.158484,-0.155928,-373,-0.409790,-60
0.588000,10.697499,-928.152250,-105.580095,0.117358,-0.160200,-12.698642,-0.158733,-0.159132,-451,-0.495483,-68
0.590000,8.835906,-932.981250,-87.206899,0.097170,-0.160200,-12.718830,-0.158985,-0.158064,-542,-0.595459,-76
0.592000,6.965574,-936.887750,-68.747467,0.076753,-0.160200,-12.739247,-0.159241,-0.158064,-622,-0.683350,-75
0.594000,5.088355,-939.867500,-50.220055,0.056152,-0.160200,-12.759848,-0.159498,-0.162336,-705,-0.774536,-61
0.596000,3.206104,-941.918000,-31.642982,0.035418,-0.160200,-12.780582,-0.159757,-0.159132,-792,-0.870117,-70
0.598000,1.320683,-943.037000,-13.034619,0.014598,-0.160200,-12.801402,-0.160018,-0.130296,-871,-0.956909,-70
0.600000,-0.566044,-943.223750,5.586634,-0.006257,-0.160200,-12.822257,-0.160278,-0.167676,-949,-1.042603,-64
0.602000,-2.452212,-942.477500,24.202362,-0.027097,-0.160200,-12.843097,-0.160539,-0.159132,-1029,-1.130493,-63
0.604000,-4.335954,-940.799250,42.794157,-0.047872,-0.160200,-12.863872,-0.160798,-0.162336,-1124,-1.234863,-69
0.606000,-6.215409,-938.191000,61.343636,-0.068532,-0.160200,-12.884532,-0.161057,-0.159132,-1210,-1.329346,-78
0.608000,-8.088718,-934.654750,79.832454,-0.089028,-0.160200,-12.905028,-0.161313,-0.160200,-1303,-1.431519,-83
0.610000,-9.954028,-930.194250,98.242329,-0.109313,-0.160200,-12.925313,-0.161566,-0.158064,-1390,-1.527100,-63
0.612000,-11.809495,-924.814250,116.555057,-0.129341,-0.160200,-12.945341,-0.161817,-0.163404,-1490,-1.636963,-63
0.614000,-13.653285,-918.519500,134.752529,-0.149066,-0.160200,-12.965066,-0.162063,-0.163404,-1588,-1.744629,-63
0.616000,-15.483573,-911.316250,152.816750,-0.168446,-0.160200,-12.984446,-0.162306,-0.159132,-1670,-1.834717,-66
0.618000,-17.298550,-903.212000,170.729857,-0.187442,-0.160200,-13.003442,-0.162543,-0.163404,-1751,-1.923706,-75
0.620000,-19.096421,-894.214750,188.474137,-0.206014,-0.160200,-13.022014,-0.162775,-0.164472,-1836,-2.017090,-78
0.622000,-20.875409,-884.333250,206.032044,-0.224129,-0.160200,-13.040129,-0.163002,-0.163404,-1919,-2.108276,-78
0.624000,-22.633754,-873.577000,223.386214,-0.241754,-0.160200,-13.057754,-0.163222,-0.165540,-2005,-2.202759,-62
0.626000,-24.369717,-861.957250,240.519488,-0.258860,-0.160200,-13.074860,-0.163436,-0.163404,-2083,-2.288452,-63
0.628000,-26.081583,-849.485000,257.414922,-0.275421,-0.160200,-13.091421,-0.163643,-0.163404,-2161,-2.374146,-61
0.630000,-27.767657,-836.172500,274.055810,-0.291415,-0.160200,-13.107415,-0.163843,-0.167676,-2240,-2.460938,-73
0.632000,-29.426273,-822.033500,290.425697,-0.306822,-0.160200,-13.122822,-0.164035,-0.168744,-2318,-2.546631,-83
0.634000,-31.055791,-807.081500,306.508394,-0.321626,-0.160200,-13.137626,-0.164220,-0.164472,-2396,-2.632324,-78
0.636000,-32.654599,-791.331500,322.287999,-0.335815,-0.160200,-13.151815,-0.164398,-0.163404,-2479,-2.723511,-73
0.638000,-34.221117,-774.798750,337.748907,-0.349381,-0.160200,-13.165381,-0.164567,-0.165540,-2554,-2.805908,-78
0.640000,-35.753794,-757.500000,352.875831,-0.362316,-0.160200,-13.178316,-0.164729,-0.163404,-2631,-2.890503,-84
0.642000,-37.251117,-739.452250,367.653811,-0.374618,-0.160200,-13.190618,-0.164883,-0.163404,-2710,-2.977295,-67
0.644000,-38.711603,-720.673000,382.068234,-0.386287,-0.160200,-13.202287,-0.165029,-0.167676,-2788,-3.062988,-62
0.646000,-40.133809,-701.181500,396.104847,-0.397327,-0.160200,-13.213327,-0.165167,-0.165540,-2870,-3.153076,-63
0.648000,-41.516329,-680.996500,409.749770,-0.407743,-0.160200,-13.223743,-0.165297,-0.167676,-2947,-3.237671,-71
0.650000,-42.857795,-660.137750,422.989509,-0.417545,-0.160200,-13.233545,-0.165419,-0.164472,-3034,-3.333252,-77
0.652000,-44.156880,-638.626500,435.810972,-0.426742,-0.160200,-13.242742,-0.165534,-0.163404,-3113,-3.420044,-85
0.654000,-45.412301,-616.484000,448.201482,-0.435348,-0.160200,-13.251348,-0.165642,-0.167676,-3197,-3.512329,-71
0.656000,-46.622816,-593.731750,460.148784,-0.443378,-0.160200,-13.259378,-0.165742,-0.166608,-3285,-3.609009,-80
0.658000,-47.787228,-570.392000,471.641066,-0.450848,-0.160200,-13.266848,-0.165836,-0.164472,-3376,-3.708984,-61
0.660000,-48.904384,-546.488500,482.666963,-0.457777,-0.160200,-13.273777,-0.165922,-0.165540,-3461,-3.802368,-69
0.662000,-49.973182,-522.044750,493.215571,-0.464184,-0.160200,-13.280184,-0.166002,-0.167676,-3542,-3.891357,-68
0.664000,-50.992563,-497.084500,503.276461,-0.470089,-0.160200,-13.286089,-0.166076,-0.169812,-3623,-3.980347,-69
0.666000,-51.961520,-471.632750,512.839683,-0.475512,-0.160200,-13.291512,-0.166144,-0.165540,-3710,-4.075928,-68
0.668000,-52.879094,-445.714750,521.895780,-0.480477,-0.160200,-13.296477,-0.166206,-0.166608,-3795,-4.169312,-63
0.670000,-53.744379,-419.356000,530.435797,-0.485002,-0.160200,-13.301002,-0.166263,-0.165540,-3877,-4.259399,-69
0.672000,-54.556518,-392.582500,538.451290,-0.489112,-0.160200,-13.305112,-0.166314,-0.164472,-3970,-4.361572,-68
0.674000,-55.314709,-365.420750,545.934333,-0.492826,-0.160200,-13.308826,-0.166360,-0.166608,-4054,-4.453857,-67
0.676000,-56.018201,-337.897750,552.877525,-0.496165,-0.160200,-13.312165,-0.166402,-0.166608,-4133,-4.540649,-73
0.678000,-56.666300,-310.040500,559.274000,-0.499149,-0.160200,-13.315149,-0.166439,-0.163404,-4217,-4.632935,-82
0.680000,-57.258363,-281.876750,565.117435,-0.501798,-0.160200,-13.317798,-0.166472,-0.165540,-4298,-4.721924,-83
0.682000,-57.793807,-253.434250,570.402050,-0.504130,-0.160200,-13.320130,-0.166502,-0.164472,-4379,-4.810913,-79
0.684000,-58.272100,-224.741000,575.122619,-0.506161,-0.160200,-13.322161,-0.166527,-0.167676,-4471,-4.911987,-73
0.686000,-58.692771,-195.825750,579.274475,-0.507907,-0.160200,-13.323907,-0.166549,-0.168744,-4559,-5.008667,-73
0.688000,-59.055403,-166.716750,582.853512,-0.509381,-0.160200,-13.325381,-0.166567,-0.164472,-4646,-5.104248,-67
0.690000,-59.359638,-137.443000,585.856191,-0.510596,-0.160200,-13.326596,-0.166582,-0.167676,-4733,-5.199829,-79
0.692000,-59.605175,-108.033250,588.279543,-0.511562,-0.160200,-13.327562,-0.166595,-0.168744,-4819,-5.294312,-66
0.694000,-59.791771,-78.516750,590.121171,-0.512287,-0.160200,-13.328287,-0.166604,-0.165540,-4914,-5.398682,-64
0.696000,-59.919242,-48.922500,591.379254,-0.512778,-0.160200,-13.328778,-0.166610,-0.165540,-5005,-5.498657,-78
0.698000,-59.987461,-19.279750,592.052549,-0.513039,-0.160200,-13.329039,-0.166613,-0.164472,-5089,-5.590942,-72
0.700000,-59.996361,10.382000,592.140388,-0.513073,0.160200,12.302927,0.153787,0.151656,-5167,-5.676636,-14
0.702000,-59.945933,40.033500,591.642687,-0.512880,0.160200,12.303120,0.153789,0.154860,-5157,-5.665649,47
0.704000,-59.836227,69.645250,590.559936,-0.512459,0.160200,12.303541,0.153794,0.151656,-5079,-5.579956,84
0.706000,-59.667352,99.188000,588.893206,-0.511804,0.160200,12.304196,0.153802,0.152724,-4981,-5.472290,85
0.708000,-59.439475,128.633000,586.644146,-0.510911,0.160200,12.305089,0.153814,0.156996,-4863,-5.342651,76
0.710000,-59.152820,157.950750,583.814980,-0.509772,0.160200,12.306228,0.153828,0.153792,-4770,-5.240479,67
0.712000,-58.807672,187.112000,580.408504,-0.508377,0.160200,12.307623,0.153845,0.154860,-4668,-5.128418,63
0.714000,-58.404372,216.088500,576.428088,-0.506714,0.160200,12.309286,0.153866,0.153792,-4584,-5.036133,67
0.716000,-57.943318,244.851250,571.877668,-0.504770,0.160200,12.311230,0.153890,0.155928,-4490,-4.932861,68
0.718000,-57.424967,273.372000,566.761744,-0.502530,0.160200,12.313470,0.153918,0.154860,-4395,-4.828491,65
0.720000,-56.849830,301.622500,561.085374,-0.499978,0.160200,12.316022,0.153950,0.151656,-4317,-4.742798,71
0.722000,-56.218477,329.574500,554.854171,-0.497096,0.160200,12.318904,0.153986,0.153792,-4236,-4.653809,61
0.724000,-55.531532,357.200500,548.074297,-0.493866,0.160200,12.322134,0.154027,0.158064,-4144,-4.552734,67
0.726000,-54.789675,384.473250,540.752457,-0.490266,0.160200,12.325734,0.154072,0.154860,-4056,-4.456055,64
0.728000,-53.993639,411.366250,532.895891,-0.486278,0.160200,12.329722,0.154122,0.151656,-3978,-4.370361,58
0.730000,-53.144210,437.852250,524.512368,-0.481879,0.160200,12.334121,0.154177,0.160200,-3905,-4.290161,70
0.732000,-52.242230,463.905250,515.610177,-0.477049,0.160200,12.338951,0.154237,0.152724,-3829,-4.206665,61
0.734000,-51.288589,489.499500,506.198122,-0.471765,0.160200,12.344235,0.154303,0.155928,-3759,-4.129761,74
0.736000,-50.284232,514.609750,496.285511,-0.466007,0.160200,12.349993,0.154375,0.156996,-3692,-4.056152,70
0.738000,-49.230150,539.211000,485.882144,-0.459753,0.160200,12.356247,0.154453,0.152724,-3625,-3.982544,58
0.740000,-48.127388,563.279000,474.998310,-0.452983,0.160200,12.363017,0.154538,0.159132,-3557,-3.907837,69
0.742000,-46.977034,586.790500,463.644772,-0.445677,0.160200,12.370323,0.154629,0.153792,-3479,-3.822144,57
0.744000,-45.780226,609.721250,451.832755,-0.437817,0.160200,12.378183,0.154727,0.152724,-3397,-3.732056,62
0.746000,-44.538149,632.049000,439.573941,-0.429385,0.160200,12.386615,0.154833,0.150588,-3326,-3.654053,59
0.748000,-43.252030,653.752250,426.880452,-0.420367,0.160200,12.395633,0.154945,0.156996,-3260,-3.581543,69
0.750000,-41.923140,674.808750,413.764839,-0.410748,0.160200,12.405252,0.155066,0.152724,-3193,-3.507935,53
0.752000,-40.552795,695.197750,400.240073,-0.400517,0.160200,12.415483,0.155194,0.155928,-3124,-3.432129,66
0.754000,-39.142349,714.899500,386.319527,-0.389665,0.160200,12.426335,0.155329,0.154860,-3054,-3.355225,74
0.756000,-37.693197,733.894500,372.016967,-0.378185,0.160200,12.437815,0.155473,0.163404,-2984,-3.278320,56
0.758000,-36.206771,752.163500,357.346536,-0.366073,0.160200,12.449927,0.155624,0.156996,-2915,-3.202515,76
0.760000,-34.684543,769.688750,342.322740,-0.353327,0.160200,12.462673,0.155783,0.159132,-2842,-3.122314,59
0.762000,-33.128016,786.453000,326.960436,-0.339951,0.160200,12.476049,0.155951,0.154860,-2768,-3.041016,75
0.764000,-31.538731,802.439500,311.274816,-0.325948,0.160200,12.490052,0.156126,0.156996,-2685,-2.949829,72
0.766000,-29.918258,817.632750,295.281390,-0.311327,0.160200,12.504673,0.156308,0.161268,-2612,-2.869629,65
0.768000,-28.268200,832.017250,278.995973,-0.296099,0.160200,12.519901,0.156499,0.159132,-2539,-2.789429,66
0.770000,-26.590189,845.578750,262.434670,-0.280279,0.160200,12.535721,0.156697,0.155928,-2467,-2.710327,75
0.772000,-24.885885,858.304250,245.613856,-0.263886,0.160200,12.552114,0.156901,0.156996,-2391,-2.626831,59
0.774000,-23.156972,870.181250,228.550165,-0.246941,0.160200,12.569059,0.157113,0.158064,-2315,-2.543335,63
0.776000,-21.405160,881.197750,211.260472,-0.229469,0.160200,12.586531,0.157332,0.154860,-2241,-2.462036,80
0.778000,-19.632181,891.342750,193.761872,-0.211498,0.160200,12.604502,0.157556,0.159132,-2158,-2.370850,58
0.780000,-17.839789,900.606250,176.071670,-0.193059,0.160200,12.622941,0.157787,0.152724,-2067,-2.270874,72
0.782000,-16.029756,908.979500,158.207358,-0.174187,0.160200,12.641813,0.158023,0.159132,-1987,-2.182983,68
0.784000,-14.203871,916.453500,140.186602,-0.154918,0.160200,12.661082,0.158264,0.154860,-1896,-2.083008,69
0.786000,-12.363942,923.021250,122.027222,-0.135292,0.160200,12.680708,0.158509,0.158064,-1804,-1.981934,63
0.788000,-10.511786,928.676750,103.747174,-0.115351,0.160200,12.700649,0.158758,0.161268,-1711,-1.879761,63
0.790000,-8.649235,933.413500,85.364535,-0.095138,0.160200,12.720862,0.159011,0.159132,-1619,-1.778687,73
0.792000,-6.778132,937.227250,66.897484,-0.074700,0.160200,12.741300,0.159266,0.155928,-1538,-1.689697,64
0.794000,-4.900326,940.114500,48.364280,-0.054084,0.160200,12.761916,0.159524,0.161268,-1446,-1.588623,72
0.796000,-3.017674,942.072000,29.783250,-0.033339,0.160200,12.782661,0.159783,0.158064,-1360,-1.494141,78
0.798000,-1.132038,943.097750,11.172770,-0.012513,0.160200,12.803487,0.160044,0.162336,-1270,-1.395264,82
0.800000,0.754717,943.191000,-7.448759,0.008343,0.160200,12.824343,0.160304,0.159132,-1176,-1.291992,68
0.802000,2.640726,942.351500,-26.062922,0.029178,0.160200,12.845178,0.160565,0.162336,-1084,-1.190918,65
0.804000,4.524123,940.580250,-44.651312,0.049944,0.160200,12.865944,0.160824,0.159132,-1001,-1.099731,72
0.806000,6.403047,937.879250,-63.195549,0.070590,0.160200,12.886590,0.161082,0.162336,-916,-1.006348,74
0.808000,8.275640,934.250250,-81.677295,0.091067,0.160200,12.907067,0.161338,0.163404,-820,-0.900879,87
0.810000,10.140048,929.697500,-100.078273,0.111328,0.160200,12.927328,0.161592,0.161268,-727,-0.798706,64
0.812000,11.994430,924.225750,-118.380289,0.131327,0.160200,12.947327,0.161842,0.161268,-649,-0.713013,67
0.814000,13.836951,917.839750,-136.565243,0.151020,0.160200,12.967020,0.162088,0.164472,-569,-0.625122,65
0.816000,15.665789,910.546250,-154.615154,0.170364,0.160200,12.986364,0.162330,0.162336,-489,-0.537231,68
0.818000,17.479136,902.352500,-172.512173,0.189318,0.160200,13.005318,0.162566,0.162336,-392,-0.430664,76
0.820000,19.275199,893.266250,-190.238603,0.207847,0.160200,13.023847,0.162798,0.162336,-309,-0.339478,81
0.822000,21.052201,883.296750,-207.776914,0.225914,0.160200,13.041914,0.163024,0.160200,-219,-0.240601,65
0.824000,22.808386,872.453750,-225.109763,0.243488,0.160200,13.059488,0.163244,0.163404,-139,-0.152710,73
0.826000,24.542016,860.748000,-242.220011,0.260541,0.160200,13.076541,0.163457,0.159132,-41,-0.045044,65
0.828000,26.251378,848.191500,-259.090739,0.277046,0.160200,13.093046,0.163663,0.163404,36,0.039551,69
0.830000,27.934782,834.795750,-275.705263,0.292982,0.160200,13.108982,0.163862,0.164472,112,0.123047,85
0.832000,29.590561,820.574500,-292.047155,0.308329,0.160200,13.124329,0.164054,0.161268,189,0.207642,78
0.834000,31.217080,805.542250,-308.100254,0.323073,0.160200,13.139073,0.164238,0.162336,267,0.293335,75
0.836000,32.812730,789.713000,-323.848686,0.337200,0.160200,13.153200,0.164415,0.165540,345,0.379028,62
0.838000,34.375932,773.103000,-339.276878,0.350703,0.160200,13.166703,0.164584,0.165540,429,0.471313,72
0.840000,35.905142,755.728750,-354.369575,0.363574,0.160200,13.179574,0.164745,0.161268,504,0.553711,62
0.842000,37.398847,737.607000,-369.111851,0.375813,0.160200,13.191813,0.164898,0.163404,581,0.638306,62
0.844000,38.855570,718.755750,-383.489129,0.387419,0.160200,13.203419,0.165043,0.164472,662,0.727295,68
0.846000,40.273870,699.193750,-397.487191,0.398396,0.160200,13.214396,0.165180,0.163404,742,0.815186,57
0.848000,41.652345,678.940500,-411.092196,0.408751,0.160200,13.224751,0.165309,0.164472,830,0.911865,69
0.850000,42.989632,658.015750,-424.290690,0.418491,0.160200,13.234491,0.165431,0.162336,924,1.015137,74
0.852000,44.284408,636.440500,-437.069622,0.427629,0.160200,13.243629,0.165545,0.165540,1012,1.111816,57
0.854000,45.535394,614.235750,-449.416355,0.436177,0.160200,13.252177,0.165652,0.166608,1101,1.209595,80
0.856000,46.741351,591.423500,-461.318679,0.444150,0.160200,13.260150,0.165752,0.163404,1194,1.311768,83
0.858000,47.901088,568.026750,-472.764826,0.451565,0.160200,13.267565,0.165845,0.167676,1285,1.411743,80
0.860000,49.013458,544.068250,-483.743477,0.458441,0.160200,13.274441,0.165931,0.164472,1377,1.512817,78
0.862000,50.077361,519.571500,-494.243776,0.464797,0.160200,13.280797,0.166010,0.160200,1476,1.621582,65
0.864000,51.091744,494.561000,-504.255338,0.470652,0.160200,13.286652,0.166083,0.164472,1576,1.731445,83
0.866000,52.055605,469.061500,-513.768265,0.476029,0.160200,13.292029,0.166150,0.167676,1670,1.834717,65
0.868000,52.967990,443.098250,-522.773149,0.480948,0.160200,13.296948,0.166212,0.167676,1753,1.925903,77
0.870000,53.827998,416.697000,-531.261085,0.485432,0.160200,13.301432,0.166268,0.168744,1837,2.018188,87
0.872000,54.634778,389.883250,-539.223681,0.489501,0.160200,13.305501,0.166319,0.164472,1923,2.112671,61
0.874000,55.387531,362.684250,-546.653063,0.493176,0.160200,13.309176,0.166365,0.165540,2022,2.221436,80
0.876000,56.085515,335.126750,-553.541883,0.496479,0.160200,13.312479,0.166406,0.167676,2119,2.328003,65
0.878000,56.728038,307.237500,-559.883330,0.499429,0.160200,13.315429,0.166443,0.161268,2201,2.418091,72
0.880000,57.314465,279.044500,-565.671134,0.502046,0.160200,13.318046,0.166476,0.165540,2282,2.507080,68
0.882000,57.844216,250.575750,-570.899570,0.504346,0.160200,13.320346,0.166504,0.162336,2366,2.599365,66
0.884000,58.316768,221.859250,-575.563469,0.506348,0.160200,13.322348,0.166529,0.164472,2454,2.696045,67
0.886000,58.731653,192.923000,-579.658219,0.508066,0.160200,13.324066,0.166551,0.165540,2547,2.798218,64
0.888000,59.088460,163.796250,-583.179770,0.509514,0.160200,13.325514,0.166569,0.165540,2645,2.905884,64
0.890000,59.386838,134.507750,-586.124640,0.510704,0.160200,13.326704,0.166584,0.164472,2732,3.001465,79
0.892000,59.626491,105.085750,-588.489918,0.511645,0.160200,13.327645,0.166596,0.165540,2812,3.089355,81
0.894000,59.807181,75.560000,-590.273264,0.512346,0.160200,13.328346,0.166604,0.163404,2893,3.178345,80
0.896000,59.928731,45.960000,-591.472915,0.512814,0.160200,13.328814,0.166610,0.167676,2972,3.265137,82
0.898000,59.991021,16.314000,-592.087684,0.513053,0.160200,13.329053,0.166613,0.167676,3061,3.362915,61
0.900000,59.993987,-13.348000,-592.116964,0.513064,-0.160200,-12.302936,-0.153787,-0.153792,3146,3.456299,10
0.902000,59.937629,-42.996750,-591.560726,0.512848,-0.160200,-12.303152,-0.153789,-0.153792,3132,3.440918,-56
0.904000,59.822000,-72.603250,-590.419519,0.512404,-0.160200,-12.303596,-0.153795,-0.149520,3065,3.367310,-75
0.906000,59.647216,-102.137500,-588.694473,0.511726,-0.160200,-12.304274,-0.153803,-0.156996,2971,3.264038,-93
0.908000,59.413450,-131.570750,-586.387293,0.510809,-0.160200,-12.305191,-0.153815,-0.150588,2876,3.159668,-91
0.910000,59.120933,-160.874250,-583.500260,0.509644,-0.160200,-12.306356,-0.153829,-0.152724,2779,3.053101,-91
0.912000,58.769953,-190.018750,-580.036229,0.508223,-0.160200,-12.307777,-0.153847,-0.152724,2690,2.955322,-64
0.914000,58.360858,-218.975000,-575.998627,0.506533,-0.160200,-12.309467,-0.153868,-0.150588,2597,2.853149,-80
0.916000,57.894053,-247.714750,-571.391445,0.504560,-0.160200,-12.311440,-0.153893,-0.154860,2517,2.765259,-81
0.918000,57.369999,-276.209500,-566.219239,0.502290,-0.160200,-12.313710,-0.153921,-0.159132,2432,2.671875,-66
0.920000,56.789215,-304.431250,-560.487123,0.499705,-0.160200,-12.316295,-0.153954,-0.154860,2358,2.590576,-75
0.922000,56.152274,-332.352250,-554.200767,0.496789,-0.160200,-12.319211,-0.153990,-0.152724,2285,2.510376,-55
0.924000,55.459806,-359.944250,-547.366387,0.493523,-0.160200,-12.322477,-0.154031,-0.154860,2211,2.429077,-63
0.926000,54.712497,-387.180250,-539.990739,0.489885,-0.160200,-12.326115,-0.154076,-0.153792,2129,2.338989,-71
0.928000,53.911085,-414.033500,-532.081119,0.485857,-0.160200,-12.330143,-0.154127,-0.151656,2057,2.259888,-59
0.930000,53.056363,-440.477500,-523.645347,0.481416,-0.160200,-12.334584,-0.154182,-0.154860,1988,2.184082,-72
0.932000,52.149175,-466.485750,-514.691766,0.476541,-0.160200,-12.339459,-0.154243,-0.156996,1918,2.107178,-50
0.934000,51.190420,-492.032750,-505.229228,0.471211,-0.160200,-12.344789,-0.154310,-0.154860,1835,2.015991,-51
0.936000,50.181044,-517.093250,-495.267092,0.465404,-0.160200,-12.350596,-0.154382,-0.150588,1762,1.935791,-71
0.938000,49.122047,-541.642250,-484.815208,0.459100,-0.160200,-12.356900,-0.154461,-0.161268,1691,1.857788,-60
0.940000,48.014475,-565.655750,-473.883912,0.452277,-0.160200,-12.363723,-0.154547,-0.155928,1622,1.781982,-62
0.942000,46.859424,-589.109750,-462.484012,0.444916,-0.160200,-12.371084,-0.154639,-0.148452,1554,1.707275,-61
0.944000,45.658036,-611.981500,-450.626783,0.436999,-0.160200,-12.379001,-0.154738,-0.152724,1476,1.621582,-84
0.946000,44.411498,-634.248000,-438.323949,0.428510,-0.160200,-12.387490,-0.154844,-0.156996,1404,1.542480,-64
0.948000,43.121044,-655.887250,-425.587675,0.419432,-0.160200,-12.396568,-0.154957,-0.153792,1333,1.464478,-72
0.950000,41.787949,-676.878000,-412.430557,0.409752,-0.160200,-12.406248,-0.155078,-0.155928,1257,1.380981,-52
0.952000,40.413532,-697.199250,-398.865605,0.399460,-0.160200,-12.416540,-0.155207,-0.155928,1186,1.302979,-64
0.954000,38.999152,-716.831250,-384.906231,0.388545,-0.160200,-12.427455,-0.155343,-0.154860,1113,1.222778,-56
0.956000,37.546207,-735.754250,-370.566241,0.377002,-0.160200,-12.438998,-0.155487,-0.158064,1038,1.140381,-57
0.958000,36.056135,-753.949750,-355.859815,0.364827,-0.160200,-12.451173,-0.155640,-0.160200,956,1.050293,-62
0.960000,34.530408,-771.399750,-340.801494,0.352018,-0.160200,-12.463982,-0.155800,-0.155928,886,0.973389,-79
0.962000,32.970536,-788.087000,-325.406170,0.338579,-0.160200,-12.477421,-0.155968,-0.154860,808,0.887695,-60
0.964000,31.378060,-803.994750,-309.689066,0.324513,-0.160200,-12.491487,-0.156144,-0.153792,730,0.802002,-69
0.966000,29.754557,-819.107500,-293.665724,0.309831,-0.160200,-12.506169,-0.156327,-0.159132,648,0.711914,-70
0.968000,28.101630,-833.410500,-277.351990,0.294543,-0.160200,-12.521457,-0.156518,-0.156996,565,0.620728,-75
0.970000,26.420915,-846.889250,-260.763994,0.278666,-0.160200,-12.537334,-0.156717,-0.155928,479,0.526245,-57
0.972000,24.714073,-859.530750,-243.918140,0.262216,-0.160200,-12.553784,-0.156922,-0.160200,400,0.439453,-63
0.974000,22.982792,-871.322000,-226.831086,0.245217,-0.160200,-12.570783,-0.157135,-0.156996,309,0.339478,-81
0.976000,21.228785,-882.251500,-209.519729,0.227694,-0.160200,-12.588306,-0.157354,-0.154860,224,0.246094,-73
0.978000,19.453786,-892.308750,-192.001187,0.209675,-0.160200,-12.606325,-0.157579,-0.159132,148,0.162598,-78
0.980000,17.659550,-901.483750,-174.292784,0.191191,-0.160200,-12.624809,-0.157810,-0.155928,73,0.080200,-65
0.982000,15.847851,-909.767250,-156.412030,0.172277,-0.160200,-12.643723,-0.158047,-0.156996,-4,-0.004395,-62
0.984000,14.020481,-917.151250,-138.376607,0.152971,-0.160200,-12.663029,-0.158288,-0.161268,-86,-0.094482,-81
0.986000,12.179246,-923.628250,-120.204350,0.133311,-0.160200,-12.682689,-0.158534,-0.161268,-177,-0.194458,-68
0.988000,10.325968,-929.191750,-101.913228,0.113341,-0.160200,-12.702659,-0.158783,-0.156996,-258,-0.283447,-62
0.990000,8.462479,-933.836500,-83.521328,0.093104,-0.160200,-12.722896,-0.159036,-0.160200,-343,-0.376831,-79
0.992000,6.590622,-937.557750,-65.046838,0.072646,-0.160200,-12.743354,-0.159292,-0.160200,-436,-0.479004,-59
0.994000,4.712248,-940.352000,-46.508026,0.052015,-0.160200,-12.763985,-0.159550,-0.159132,-519,-0.570190,-78
0.996000,2.829214,-942.216500,-27.923224,0.031259,-0.160200,-12.784741,-0.159809,-0.160200,-605,-0.664673,-71
0.998000,0.943382,-943.149000,-9.310810,0.010428,-0.160200,-12.805572,-0.160070,-0.161268,-692,-0.760254,-58
1.000000,-0.943382,-943.149000,9.310810,-0.010428,-0.160200,-12.826428,-0.160330,-0.159132,-773,-0.849243,-68
1.002000,-2.829214,-942.216500,27.923224,-0.031259,-0.160200,-12.847259,-0.160591,-0.156996,-859,-0.943726,-79
1.004000,-4.712248,-940.352000,46.508026,-0.052015,-0.160200,-12.868015,-0.160850,-0.161268,-951,-1.044800,-79
1.006000,-6.590622,-937.557750,65.046838,-0.072646,-0.160200,-12.888646,-0.161108,-0.159132,-1049,-1.152466,-76
1.008000,-8.462479,-933.836500,83.521328,-0.093104,-0.160200,-12.909104,-0.161364,-0.162336,-1132,-1.243652,-71
1.010000,-10.325968,-929.191750,101.913228,-0.113341,-0.160200,-12.929341,-0.161617,-0.164472,-1217,-1.337036,-74
1.012000,-12.179246,-923.628250,120.204350,-0.133311,-0.160200,-12.949311,-0.161866,-0.162336,-1298,-1.426025,-67
1.014000,-14.020481,-917.151250,138.376607,-0.152971,-0.160200,-12.968971,-0.162112,-0.160200,-1383,-1.519409,-74
1.016000,-15.847851,-909.767250,156.412030,-0.172277,-0.160200,-12.988277,-0.162353,-0.163404,-1464,-1.608398,-79
1.018000,-17.659550,-901.483750,174.292784,-0.191191,-0.160200,-13.007191,-0.162590,-0.161268,-1548,-1.700684,-85
1.020000,-19.453786,-892.308750,192.001187,-0.209675,-0.160200,-13.025675,-0.162821,-0.166608,-1633,-1.794067,-71
1.022000,-21.228785,-882.251500,209.519729,-0.227694,-0.160200,-13.043694,-0.163046,-0.162336,-1723,-1.892944,-81
1.024000,-22.982792,-871.322000,226.831086,-0.245217,-0.160200,-13.061217,-0.163265,-0.165540,-1803,-1.980835,-86
1.026000,-24.714073,-859.530750,243.918140,-0.262216,-0.160200,-13.078216,-0.163478,-0.159132,-1883,-2.068726,-83
1.028000,-26.420915,-846.889250,260.763994,-0.278666,-0.160200,-13.094666,-0.163683,-0.161268,-1964,-2.157715,-83
1.030000,-28.101630,-833.410500,277.351990,-0.294543,-0.160200,-13.110543,-0.163882,-0.162336,-2051,-2.253296,-63
1.032000,-29.754557,-819.107500,293.665724,-0.309831,-0.160200,-13.125831,-0.164073,-0.163404,-2137,-2.347778,-82
1.034000,-31.378060,-803.994750,309.689066,-0.324513,-0.160200,-13.140513,-0.164256,-0.163404,-2218,-2.436768,-83
1.036000,-32.970536,-788.087000,325.406170,-0.338579,-0.160200,-13.154579,-0.164432,-0.163404,-2297,-2.523560,-79
1.038000,-34.530408,-771.399750,340.801494,-0.352018,-0.160200,-13.168018,-0.164600,-0.166608,-2376,-2.610352,-78
1.040000,-36.056135,-753.949750,355.859815,-0.364827,-0.160200,-13.180827,-0.164760,-0.165540,-2454,-2.696045,-76
1.042000,-37.546207,-735.754250,370.566241,-0.377002,-0.160200,-13.193002,-0.164913,-0.160200,-2545,-2.796021,-55
1.044000,-38.999152,-716.831250,384.906231,-0.388545,-0.160200,-13.204545,-0.165057,-0.166608,-2626,-2.885010,-68
1.046000,-40.413532,-697.199250,398.865605,-0.399460,-0.160200,-13.215460,-0.165193,-0.169812,-2705,-2.971802,-72
1.048000,-41.787949,-676.878000,412.430557,-0.409752,-0.160200,-13.225752,-0.165322,-0.167676,-2782,-3.056396,-72
1.050000,-43.121044,-655.887250,425.587675,-0.419432,-0.160200,-13.235432,-0.165443,-0.164472,-2874,-3.157471,-73
1.052000,-44.411498,-634.248000,438.323949,-0.428510,-0.160200,-13.244510,-0.165556,-0.167676,-2961,-3.253052,-57
1.054000,-45.658036,-611.981500,450.626783,-0.436999,-0.160200,-13.252999,-0.165662,-0.166608,-3053,-3.354126,-82
1.056000,-46.859424,-589.109750,462.484012,-0.444916,-0.160200,-13.260916,-0.165761,-0.169812,-3132,-3.440918,-84
1.058000,-48.014475,-565.655750,473.883912,-0.452277,-0.160200,-13.268277,-0.165853,-0.163404,-3220,-3.537598,-57
1.060000,-49.122047,-541.642250,484.815208,-0.459100,-0.160200,-13.275100,-0.165939,-0.167676,-3309,-3.635376,-65
1.062000,-50.181044,-517.093250,495.267092,-0.465404,-0.160200,-13.281404,-0.166018,-0.167676,-3412,-3.748535,-78
1.064000,-51.190420,-492.032750,505.229228,-0.471211,-0.160200,-13.287211,-0.166090,-0.164472,-3514,-3.860596,-77
1.066000,-52.149175,-466.485750,514.691766,-0.476541,-0.160200,-13.292541,-0.166157,-0.163404,-3610,-3.966064,-73
1.068000,-53.056363,-440.477500,523.645347,-0.481416,-0.160200,-13.297416,-0.166218,-0.168744,-3695,-4.059448,-73
1.070000,-53.911085,-414.033500,532.081119,-0.485857,-0.160200,-13.301857,-0.166273,-0.164472,-3783,-4.156128,-86
1.072000,-54.712497,-387.180250,539.990739,-0.489885,-0.160200,-13.305885,-0.166324,-0.165540,-3885,-4.268188,-65
1.074000,-55.459806,-359.944250,547.366387,-0.493523,-0.160200,-13.309523,-0.166369,-0.164472,-3987,-4.380249,-78
1.076000,-56.152274,-332.352250,554.200767,-0.496789,-0.160200,-13.312789,-0.166410,-0.168744,-4087,-4.490112,-81
1.078000,-56.789215,-304.431250,560.487123,-0.499705,-0.160200,-13.315705,-0.166446,-0.165540,-4188,-4.601074,-66
1.080000,-57.369999,-276.209500,566.219239,-0.502290,-0.160200,-13.318290,-0.166479,-0.164472,-4291,-4.714233,-71
1.082000,-57.894053,-247.714750,571.391445,-0.504560,-0.160200,-13.320560,-0.166507,-0.166608,-4386,-4.818604,-70
1.084000,-58.360858,-218.975000,575.998627,-0.506533,-0.160200,-13.322533,-0.166532,-0.164472,-4478,-4.919678,-72
1.086000,-58.769953,-190.018750,580.036229,-0.508223,-0.160200,-13.324223,-0.166553,-0.165540,-4578,-5.029541,-68
1.088000,-59.120933,-160.874250,583.500260,-0.509644,-0.160200,-13.325644,-0.166571,-0.167676,-4678,-5.139404,-86
1.090000,-59.413450,-131.570750,586.387293,-0.510809,-0.160200,-13.326809,-0.166585,-0.167676,-4775,-5.245972,-87
1.092000,-59.647216,-102.137500,588.694473,-0.511726,-0.160200,-13.327726,-0.166597,-0.167676,-4875,-5.355835,-74
1.094000,-59.822000,-72.603250,590.419519,-0.512404,-0.160200,-13.328404,-0.166605,-0.163404,-4976,-5.466797,-81
1.096000,-59.937629,-42.996750,591.560726,-0.512848,-0.160200,-13.328848,-0.166611,-0.166608,-5079,-5.579956,-82
1.098000,-59.993987,-13.348000,592.116964,-0.513064,-0.160200,-13.329064,-0.166613,-0.166608,-5172,-5.682129,-70
1.100000,-59.991021,16.314000,592.087684,-0.513053,0.160200,12.302947,0.153787,0.153792,-5253,-5.771118,-23
1.102000,-59.928731,45.960000,591.472915,-0.512814,0.160200,12.303186,0.153790,0.153792,-5249,-5.766724,50
1.104000,-59.807181,75.560000,590.273264,-0.512346,0.160200,12.303654,0.153796,0.153792,-5170,-5.679932,69
1.106000,-59.626491,105.085750,588.489918,-0.511645,0.160200,12.304355,0.153804,0.151656,-5060,-5.559082,72
1.108000,-59.386838,134.507750,586.124640,-0.510704,0.160200,12.305296,0.153816,0.154860,-4946,-5.433838,94
1.110000,-59.088460,163.796250,583.179770,-0.509514,0.160200,12.306486,0.153831,0.156996,-4855,-5.333862,87
1.112000,-58.731653,192.923000,579.658219,-0.508066,0.160200,12.307934,0.153849,0.150588,-4752,-5.220703,69
1.114000,-58.316768,221.859250,575.563469,-0.506348,0.160200,12.309652,0.153871,0.156996,-4654,-5.113037,80
1.116000,-57.844216,250.575750,570.899570,-0.504346,0.160200,12.311654,0.153896,0.154860,-4578,-5.029541,77
1.118000,-57.314465,279.044500,565.671134,-0.502046,0.160200,12.313954,0.153924,0.147384,-4496,-4.939453,64
1.120000,-56.728038,307.237500,559.883330,-0.499429,0.160200,12.316571,0.153957,0.151656,-4411,-4.846069,57
1.122000,-56.085515,335.126750,553.541883,-0.496479,0.160200,12.319521,0.153994,0.154860,-4333,-4.760376,74
1.124000,-55.387531,362.684250,546.653063,-0.493176,0.160200,12.322824,0.154035,0.151656,-4258,-4.677979,65
1.126000,-54.634778,389.883250,539.223681,-0.489501,0.160200,12.326499,0.154081,0.159132,-4178,-4.590088,67
1.128000,-53.827998,416.697000,531.261085,-0.485432,0.160200,12.330568,0.154132,0.154860,-4107,-4.512085,66
1.130000,-52.967990,443.098250,522.773149,-0.480948,0.160200,12.335052,0.154188,0.153792,-4037,-4.435181,60
1.132000,-52.055605,469.061500,513.768265,-0.476029,0.160200,12.339971,0.154250,0.155928,-3959,-4.349487,68
1.134000,-51.091744,494.561000,504.255338,-0.470652,0.160200,12.345348,0.154317,0.152724,-3872,-4.253906,57
1.136000,-50.077361,519.571500,494.243776,-0.464797,0.160200,12.351203,0.154390,0.153792,-3796,-4.170410,59
1.138000,-49.013458,544.068250,483.743477,-0.458441,0.160200,12.357559,0.154469,0.154860,-3719,-4.085815,60
1.140000,-47.901088,568.026750,472.764826,-0.451565,0.160200,12.364435,0.154555,0.154860,-3646,-4.005615,62
1.142000,-46.741351,591.423500,461.318679,-0.444150,0.160200,12.371850,0.154648,0.152724,-3574,-3.926514,56
1.144000,-45.535394,614.235750,449.416355,-0.436177,0.160200,12.379823,0.154748,0.152724,-3505,-3.850708,69
1.146000,-44.284408,636.440500,437.069622,-0.427629,0.160200,12.388371,0.154855,0.151656,-3435,-3.773804,67
1.148000,-42.989632,658.015750,424.290690,-0.418491,0.160200,12.397509,0.154969,0.156996,-3368,-3.700195,55
1.150000,-41.652345,678.940500,411.092196,-0.408751,0.160200,12.407249,0.155091,0.156996,-3292,-3.616699,71
1.152000,-40.273870,699.193750,397.487191,-0.398396,0.160200,12.417604,0.155220,0.159132,-3221,-3.538696,55
1.154000,-38.855570,718.755750,383.489129,-0.387419,0.160200,12.428581,0.155357,0.155928,-3146,-3.456299,58
1.156000,-37.398847,737.607000,369.111851,-0.375813,0.160200,12.440187,0.155502,0.153792,-3073,-3.376099,72
1.158000,-35.905142,755.728750,354.369575,-0.363574,0.160200,12.452426,0.155655,0.160200,-2988,-3.282715,61
1.160000,-34.375932,773.103000,339.276878,-0.350703,0.160200,12.465297,0.155816,0.156996,-2908,-3.194824,61
1.162000,-32.812730,789.713000,323.848686,-0.337200,0.160200,12.478800,0.155985,0.152724,-2835,-3.114624,82
1.164000,-31.217080,805.542250,308.100254,-0.323073,0.160200,12.492927,0.156162,0.154860,-2756,-3.027832,74
1.166000,-29.590561,820.574500,292.047155,-0.308329,0.160200,12.507671,0.156346,0.156996,-2675,-2.938843,76
1.168000,-27.934782,834.795750,275.705263,-0.292982,0.160200,12.523018,0.156538,0.154860,-2600,-2.856445,57
1.170000,-26.251378,848.191500,259.090739,-0.277046,0.160200,12.538954,0.156737,0.155928,-2524,-2.772949,60
1.172000,-24.542016,860.748000,242.220011,-0.260541,0.160200,12.555459,0.156943,0.158064,-2438,-2.678467,67
1.174000,-22.808386,872.453750,225.109763,-0.243488,0.160200,12.572512,0.157156,0.155928,-2361,-2.593872,59
1.176000,-21.052201,883.296750,207.776914,-0.225914,0.160200,12.590086,0.157376,0.154860,-2279,-2.503784,70
1.178000,-19.275199,893.266250,190.238603,-0.207847,0.160200,12.608153,0.157602,0.155928,-2200,-2.416992,68
1.180000,-17.479136,902.352500,172.512173,-0.189318,0.160200,12.626682,0.157834,0.153792,-2115,-2.323608,75
1.182000,-15.665789,910.546250,154.615154,-0.170364,0.160200,12.645636,0.158070,0.155928,-2033,-2.233521,81
1.184000,-13.836951,917.839750,136.565243,-0.151020,0.160200,12.664980,0.158312,0.159132,-1957,-2.150024,72
1.186000,-11.994430,924.225750,118.380289,-0.131327,0.160200,12.684673,0.158558,0.152724,-1881,-2.066528,57
1.188000,-10.140048,929.697500,100.078273,-0.111328,0.160200,12.704672,0.158808,0.160200,-1806,-1.984131,81
1.190000,-8.275640,934.250250,81.677295,-0.091067,0.160200,12.724933,0.159062,0.156996,-1724,-1.894043,73
1.192000,-6.403047,937.879250,63.195549,-0.070590,0.160200,12.745410,0.159318,0.163404,-1648,-1.810547,77
1.194000,-4.524123,940.580250,44.651312,-0.049944,0.160200,12.766056,0.159576,0.159132,-1566,-1.720459,69
1.196000,-2.640726,942.351500,26.062922,-0.029178,0.160200,12.786822,0.159835,0.160200,-1489,-1.635864,76
1.198000,-0.754717,943.191000,7.448759,-0.008343,0.160200,12.807657,0.160096,0.161268,-1413,-1.552368,60
1.200000,1.132038,943.097750,-11.172770,0.012513,0.160200,12.828513,0.160356,0.158064,-1338,-1.469971,65
1.202000,3.017674,942.072000,-29.783250,0.033339,0.160200,12.849339,0.160617,0.161268,-1257,-1.380981,65
1.204000,4.900326,940.114500,-48.364280,0.054084,0.160200,12.870084,0.160876,0.163404,-1174,-1.289795,68
1.206000,6.778132,937.227250,-66.897484,0.074700,0.160200,12.890700,0.161134,0.160200,-1094,-1.201904,76
1.208000,8.649235,933.413500,-85.364535,0.095138,0.160200,12.911138,0.161389,0.161268,-1000,-1.098633,61
1.210000,10.511786,928.676750,-103.747174,0.115351,0.160200,12.931351,0.161642,0.163404,-913,-1.003052,85
1.212000,12.363942,923.021250,-122.027222,0.135292,0.160200,12.951292,0.161891,0.165540,-823,-0.904175,79
1.214000,14.203871,916.453500,-140.186602,0.154918,0.160200,12.970918,0.162136,0.163404,-737,-0.809692,65
1.216000,16.029756,908.979500,-158.207358,0.174187,0.160200,12.990187,0.162377,0.163404,-653,-0.717407,74
1.218000,17.839789,900.606250,-176.071670,0.193059,0.160200,13.009059,0.162613,0.159132,-573,-0.629517,67
1.220000,19.632181,891.342750,-193.761872,0.211498,0.160200,13.027498,0.162844,0.162336,-475,-0.521851,64
1.222000,21.405160,881.197750,-211.260472,0.229469,0.160200,13.045469,0.163068,0.166608,-388,-0.426270,77
1.224000,23.156972,870.181250,-228.550165,0.246941,0.160200,13.062941,0.163287,0.167676,-299,-0.328491,74
1.226000,24.885885,858.304250,-245.613856,0.263886,0.160200,13.079886,0.163499,0.167676,-212,-0.232910,78
1.228000,26.590189,845.578750,-262.434670,0.280279,0.160200,13.096279,0.163703,0.162336,-127,-0.139526,64
1.230000,28.268200,832.017250,-278.995973,0.296099,0.160200,13.112099,0.163901,0.162336,-36,-0.039551,80
1.232000,29.918258,817.632750,-295.281390,0.311327,0.160200,13.127327,0.164092,0.164472,56,0.061523,66
1.234000,31.538731,802.439500,-311.274816,0.325948,0.160200,13.141948,0.164274,0.160200,144,0.158203,67
1.236000,33.128016,786.453000,-326.960436,0.339951,0.160200,13.155951,0.164449,0.164472,243,0.266968,73
1.238000,34.684543,769.688750,-342.322740,0.353327,0.160200,13.169327,0.164617,0.166608,322,0.353760,73
1.240000,36.206771,752.163500,-357.346536,0.366073,0.160200,13.182073,0.164776,0.158064,399,0.438354,67
1.242000,37.693197,733.894500,-372.016967,0.378185,0.160200,13.194185,0.164927,0.164472,485,0.532837,57
1.244000,39.142349,714.899500,-386.319527,0.389665,0.160200,13.205665,0.165071,0.164472,572,0.628418,77
1.246000,40.552795,695.197750,-400.240073,0.400517,0.160200,13.216517,0.165206,0.167676,653,0.717407,81
1.248000,41.923140,674.808750,-413.764839,0.410748,0.160200,13.226748,0.165334,0.162336,734,0.806396,85
1.250000,43.252030,653.752250,-426.880452,0.420367,0.160200,13.236367,0.165455,0.165540,815,0.895386,64
1.252000,44.538149,632.049000,-439.573941,0.429385,0.160200,13.245385,0.165567,0.170880,904,0.993164,67
1.254000,45.780226,609.721250,-451.832755,0.437817,0.160200,13.253817,0.165673,0.163404,988,1.085449,85
1.256000,46.977034,586.790500,-463.644772,0.445677,0.160200,13.261677,0.165771,0.166608,1072,1.177734,71
1.258000,48.127388,563.279000,-474.998310,0.452983,0.160200,13.268983,0.165862,0.166608,1162,1.276611,73
1.260000,49.230150,539.211000,-485.882144,0.459753,0.160200,13.275753,0.165947,0.163404,1243,1.365601,80
1.262000,50.284232,514.609750,-496.285511,0.466007,0.160200,13.282007,0.166025,0.168744,1336,1.467773,73
1.264000,51.288589,489.499500,-506.198122,0.471765,0.160200,13.287765,0.166097,0.166608,1420,1.560059,91
1.266000,52.242230,463.905250,-515.610177,0.477049,0.160200,13.293049,0.166163,0.163404,1504,1.652344,81
1.268000,53.144210,437.852250,-524.512368,0.481879,0.160200,13.297879,0.166223,0.165540,1586,1.742432,77
1.270000,53.993639,411.366250,-532.895891,0.486278,0.160200,13.302278,0.166278,0.169812,1669,1.833618,63
1.272000,54.789675,384.473250,-540.752457,0.490266,0.160200,13.306266,0.166328,0.166608,1753,1.925903,80
1.274000,55.531532,357.200500,-548.074297,0.493866,0.160200,13.309866,0.166373,0.170880,1838,2.019287,85
1.276000,56.218477,329.574500,-554.854171,0.497096,0.160200,13.313096,0.166414,0.165540,1931,2.121460,79
1.278000,56.849830,301.622500,-561.085374,0.499978,0.160200,13.315978,0.166450,0.166608,2011,2.209351,79
1.280000,57.424967,273.372000,-566.761744,0.502530,0.160200,13.318530,0.166482,0.166608,2094,2.300537,85
1.282000,57.943318,244.851250,-571.877668,0.504770,0.160200,13.320770,0.166510,0.173016,2196,2.412598,70
1.284000,58.404372,216.088500,-576.428088,0.506714,0.160200,13.322714,0.166534,0.165540,2287,2.512573,71
1.286000,58.807672,187.112000,-580.408504,0.508377,0.160200,13.324377,0.166555,0.170880,2373,2.607056,75
1.288000,59.152820,157.950750,-583.814980,0.509772,0.160200,13.325772,0.166572,0.167676,2471,2.714722,66
1.290000,59.439475,128.633000,-586.644146,0.510911,0.160200,13.326911,0.166586,0.166608,2553,2.804810,69
1.292000,59.667352,99.188000,-588.893206,0.511804,0.160200,13.327804,0.166598,0.165540,2633,2.892700,70
1.294000,59.836227,69.645250,-590.559936,0.512459,0.160200,13.328459,0.166606,0.167676,2712,2.979492,63
1.296000,59.945933,40.033500,-591.642687,0.512880,0.160200,13.328880,0.166611,0.166608,2792,3.067383,68
1.298000,59.996361,10.382000,-592.140388,0.513073,0.160200,13.329073,0.166613,0.164472,2873,3.156372,72
1.300000,59.987461,-19.279750,-592.052549,0.513039,-0.160200,-12.302961,-0.153787,-0.155928,2950,3.240967,15
1.302000,59.919242,-48.922500,-591.379254,0.512778,-0.160200,-12.303222,-0.153790,-0.150588,2943,3.233276,-51
1.304000,59.791771,-78.516750,-590.121171,0.512287,-0.160200,-12.303713,-0.153796,-0.149520,2879,3.162964,-73
1.306000,59.605175,-108.033250,-588.279543,0.511562,-0.160200,-12.304438,-0.153805,-0.152724,2787,3.061890,-75
1.308000,59.359638,-137.443000,-585.856191,0.510596,-0.160200,-12.305404,-0.153818,-0.149520,2686,2.950928,-87
1.310000,59.055403,-166.716750,-582.853512,0.509381,-0.160200,-12.306619,-0.153833,-0.158064,2590,2.845459,-70
1.312000,58.692771,-195.825750,-579.274475,0.507907,-0.160200,-12.308093,-0.153851,-0.152724,2502,2.748779,-89
1.314000,58.272100,-224.741000,-575.122619,0.506161,-0.160200,-12.309839,-0.153873,-0.155928,2410,2.647705,-62
1.316000,57.793807,-253.434250,-570.402050,0.504130,-0.160200,-12.311870,-0.153898,-0.151656,2332,2.562012,-61
1.318000,57.258363,-281.876750,-565.117435,0.501798,-0.160200,-12.314202,-0.153928,-0.156996,2253,2.475220,-64
1.320000,56.666300,-310.040500,-559.274000,0.499149,-0.160200,-12.316851,-0.153961,-0.152724,2173,2.387329,-59
1.322000,56.018201,-337.897750,-552.877525,0.496165,-0.160200,-12.319835,-0.153998,-0.153792,2088,2.293945,-74
1.324000,55.314709,-365.420750,-545.934333,0.492826,-0.160200,-12.323174,-0.154040,-0.153792,2010,2.208252,-55
1.326000,54.556518,-392.582500,-538.451290,0.489112,-0.160200,-12.326888,-0.154086,-0.153792,1940,2.131348,-64
1.328000,53.744379,-419.356000,-530.435797,0.485002,-0.160200,-12.330998,-0.154137,-0.148452,1855,2.037964,-63
1.330000,52.879094,-445.714750,-521.895780,0.480477,-0.160200,-12.335523,-0.154194,-0.152724,1780,1.955566,-70
1.332000,51.961520,-471.632750,-512.839683,0.475512,-0.160200,-12.340488,-0.154256,-0.155928,1704,1.872070,-77
1.334000,50.992563,-497.084500,-503.276461,0.470089,-0.160200,-12.345911,-0.154324,-0.153792,1628,1.788574,-62
1.336000,49.973182,-522.044750,-493.215571,0.464184,-0.160200,-12.351816,-0.154398,-0.152724,1561,1.714966,-59
1.338000,48.904384,-546.488500,-482.666963,0.457777,-0.160200,-12.358223,-0.154478,-0.152724,1491,1.638062,-63
1.340000,47.787228,-570.392000,-471.641066,0.450848,-0.160200,-12.365152,-0.154564,-0.155928,1414,1.553467,-72
1.342000,46.622816,-593.731750,-460.148784,0.443378,-0.160200,-12.372622,-0.154658,-0.156996,1324,1.454590,-60
1.344000,45.412301,-616.484000,-448.201482,0.435348,-0.160200,-12.380652,-0.154758,-0.153792,1245,1.367798,-50
1.346000,44.156880,-638.626500,-435.810972,0.426742,-0.160200,-12.389258,-0.154866,-0.151656,1172,1.287598,-71
1.348000,42.857795,-660.137750,-422.989509,0.417545,-0.160200,-12.398455,-0.154981,-0.154860,1100,1.208496,-55
1.350000,41.516329,-680.996500,-409.749770,0.407743,-0.160200,-12.408257,-0.155103,-0.155928,1016,1.116211,-61
1.352000,40.133809,-701.181500,-396.104847,0.397327,-0.160200,-12.418673,-0.155233,-0.154860,929,1.020630,-64
1.354000,38.711603,-720.673000,-382.068234,0.386287,-0.160200,-12.429713,-0.155371,-0.152724,841,0.923950,-58
1.356000,37.251117,-739.452250,-367.653811,0.374618,-0.160200,-12.441382,-0.155517,-0.154860,759,0.833862,-74
1.358000,35.753794,-757.500000,-352.875831,0.362316,-0.160200,-12.453684,-0.155671,-0.153792,671,0.737183,-64
1.360000,34.221117,-774.798750,-337.748907,0.349381,-0.160200,-12.466619,-0.155833,-0.154860,585,0.642700,-79
1.362000,32.654599,-791.331500,-322.287999,0.335815,-0.160200,-12.480185,-0.156002,-0.154860,498,0.547119,-68
1.364000,31.055791,-807.081500,-306.508394,0.321626,-0.160200,-12.494374,-0.156180,-0.148452,409,0.449341,-81
1.366000,29.426273,-822.033500,-290.425697,0.306822,-0.160200,-12.509178,-0.156365,-0.155928,322,0.353760,-75
1.368000,27.767657,-836.172500,-274.055810,0.291415,-0.160200,-12.524585,-0.156557,-0.158064,235,0.258179,-71
1.370000,26.081583,-849.485000,-257.414922,0.275421,-0.160200,-12.540579,-0.156757,-0.159132,145,0.159302,-59
1.372000,24.369717,-861.957250,-240.519488,0.258860,-0.160200,-12.557140,-0.156964,-0.152724,51,0.056030,-60
1.374000,22.633754,-873.577000,-223.386214,0.241754,-0.160200,-12.574246,-0.157178,-0.156996,-40,-0.043945,-79
1.376000,20.875409,-884.333250,-206.032044,0.224129,-0.160200,-12.591871,-0.157398,-0.160200,-133,-0.146118,-71
1.378000,19.096421,-894.214750,-188.474137,0.206014,-0.160200,-12.609986,-0.157625,-0.158064,-212,-0.232910,-57
1.380000,17.298550,-903.212000,-170.729857,0.187442,-0.160200,-12.628558,-0.157857,-0.160200,-288,-0.316406,-65
1.382000,15.483573,-911.316250,-152.816750,0.168446,-0.160200,-12.647554,-0.158094,-0.156996,-383,-0.420776,-75
1.384000,13.653285,-918.519500,-134.752529,0.149066,-0.160200,-12.666934,-0.158337,-0.158064,-470,-0.516357,-75
1.386000,11.809495,-924.814250,-116.555057,0.129341,-0.160200,-12.686659,-0.158583,-0.155928,-560,-0.615234,-58
1.388000,9.954028,-930.194250,-98.242329,0.109313,-0.160200,-12.706687,-0.158834,-0.160200,-651,-0.715210,-70
1.390000,8.088718,-934.654750,-79.832454,0.089028,-0.160200,-12.726972,-0.159087,-0.158064,-748,-0.821777,-76
1.392000,6.215409,-938.191000,-61.343636,0.068532,-0.160200,-12.747468,-0.159343,-0.155928,-844,-0.927246,-65
1.394000,4.335954,-940.799250,-42.794157,0.047872,-0.160200,-12.768128,-0.159602,-0.160200,-941,-1.033813,-57
1.396000,2.452212,-942.477500,-24.202362,0.027097,-0.160200,-12.788903,-0.159861,-0.156996,-1037,-1.139282,-62
1.398000,0.566044,-943.223750,-5.586634,0.006257,-0.160200,-12.809743,-0.160122,-0.161268,-1129,-1.240356,-80
1.400000,-1.320683,-943.037000,13.034619,-0.014598,-0.160200,-12.830598,-0.160382,-0.162336,-1222,-1.342529,-82
1.402000,-3.206104,-941.918000,31.642982,-0.035418,-0.160200,-12.851418,-0.160643,-0.160200,-1322,-1.452393,-64
1.404000,-5.088355,-939.867500,50.220055,-0.056152,-0.160200,-12.872152,-0.160902,-0.161268,-1410,-1.549072,-67
1.406000,-6.965574,-936.887750,68.747467,-0.076753,-0.160200,-12.892753,-0.161159,-0.162336,-1496,-1.643555,-88
1.408000,-8.835906,-932.981250,87.206899,-0.097170,-0.160200,-12.913170,-0.161415,-0.158064,-1590,-1.746826,-84
1.410000,-10.697499,-928.152250,105.580095,-0.117358,-0.160200,-12.933358,-0.161667,-0.162336,-1675,-1.840210,-68
1.412000,-12.548515,-922.405750,123.848887,-0.137269,-0.160200,-12.953269,-0.161916,-0.162336,-1761,-1.934692,-62
1.414000,-14.387122,-915.746750,141.995211,-0.156862,-0.160200,-12.972862,-0.162161,-0.159132,-1848,-2.030273,-75
1.416000,-16.211502,-908.182250,160.001122,-0.176093,-0.160200,-12.992093,-0.162401,-0.163404,-1929,-2.119263,-82
1.418000,-18.019851,-899.719750,177.848815,-0.194923,-0.160200,-13.010923,-0.162637,-0.162336,-2013,-2.211548,-79
1.420000,-19.810381,-890.367750,195.520641,-0.213317,-0.160200,-13.029317,-0.162866,-0.162336,-2096,-2.302734,-58
1.422000,-21.581322,-880.135250,212.999126,-0.231239,-0.160200,-13.047239,-0.163090,-0.164472,-2191,-2.407104,-75
1.424000,-23.330922,-869.032250,230.266985,-0.248660,-0.160200,-13.064660,-0.163308,-0.163404,-2269,-2.492798,-81
1.426000,-25.057451,-857.069750,247.307143,-0.265551,-0.160200,-13.081551,-0.163519,-0.164472,-2357,-2.589478,-59
1.428000,-26.759201,-844.260000,264.102750,-0.281888,-0.160200,-13.097888,-0.163724,-0.163404,-2438,-2.678467,-65
1.430000,-28.434491,-830.615500,280.637198,-0.297649,-0.160200,-13.113649,-0.163921,-0.162336,-2529,-2.778442,-68
1.432000,-30.081663,-816.149500,296.894136,-0.312816,-0.160200,-13.128816,-0.164110,-0.163404,-2608,-2.865234,-77
1.434000,-31.699089,-800.876250,312.857488,-0.327376,-0.160200,-13.143376,-0.164292,-0.166608,-2692,-2.957520,-78
1.436000,-33.285168,-784.811250,328.511469,-0.341317,-0.160200,-13.157317,-0.164466,-0.163404,-2777,-3.050903,-71
1.438000,-34.838334,-767.970500,343.840600,-0.354630,-0.160200,-13.170630,-0.164633,-0.162336,-2863,-3.145386,-65
1.440000,-36.357050,-750.369750,358.829722,-0.367312,-0.160200,-13.183312,-0.164791,-0.162336,-2957,-3.248657,-70
1.442000,-37.839813,-732.027250,373.464013,-0.379361,-0.160200,-13.195361,-0.164942,-0.165540,-3053,-3.354126,-72
1.444000,-39.285159,-712.961000,387.729003,-0.390778,-0.160200,-13.206778,-0.165085,-0.167676,-3151,-3.461792,-77
1.446000,-40.691657,-693.189500,401.610584,-0.401568,-0.160200,-13.217568,-0.165220,-0.165540,-3238,-3.557373,-81
1.448000,-42.057917,-672.732500,415.095030,-0.411737,-0.160200,-13.227737,-0.165347,-0.168744,-3331,-3.659546,-52
1.450000,-43.382587,-651.610500,428.169007,-0.421295,-0.160200,-13.237295,-0.165466,-0.164472,-3424,-3.761719,-71
1.452000,-44.664359,-629.844250,440.819586,-0.430254,-0.160200,-13.246254,-0.165578,-0.163404,-3526,-3.873779,-86
1.454000,-45.901964,-607.455000,453.034259,-0.438628,-0.160200,-13.254628,-0.165683,-0.163404,-3627,-3.984741,-63
1.456000,-47.094179,-584.465000,464.800946,-0.446432,-0.160200,-13.262432,-0.165780,-0.165540,-3728,-4.095703,-67
1.458000,-48.239824,-560.897000,476.108012,-0.453684,-0.160200,-13.269684,-0.165871,-0.168744,-3826,-4.203369,-64
1.460000,-49.337767,-536.774500,486.944275,-0.460401,-0.160200,-13.276401,-0.165955,-0.165540,-3918,-4.304443,-69
1.462000,-50.386922,-512.121000,497.299021,-0.466605,-0.160200,-13.282605,-0.166033,-0.167676,-4008,-4.403320,-83
1.464000,-51.386251,-486.961250,507.162010,-0.472315,-0.160200,-13.288315,-0.166104,-0.166608,-4094,-4.497803,-72
1.466000,-52.334767,-461.320250,516.523489,-0.477552,-0.160200,-13.293552,-0.166169,-0.165540,-4184,-4.596680,-80
1.468000,-53.231532,-435.222750,525.374201,-0.482338,-0.160200,-13.298338,-0.166229,-0.167676,-4270,-4.691162,-61
1.470000,-54.075658,-408.694750,533.705393,-0.486695,-0.160200,-13.302695,-0.166284,-0.166608,-4362,-4.792236,-80
1.472000,-54.866311,-381.763000,541.508828,-0.490644,-0.160200,-13.306644,-0.166333,-0.167676,-4451,-4.890015,-72
1.474000,-55.602710,-354.453500,548.776788,-0.494205,-0.160200,-13.310205,-0.166378,-0.164472,-4540,-4.987793,-83
1.476000,-56.284125,-326.793250,555.502087,-0.497400,-0.160200,-13.313400,-0.166418,-0.162336,-4620,-5.075684,-75
1.478000,-56.909883,-298.810250,561.678075,-0.500248,-0.160200,-13.316248,-0.166453,-0.166608,-4704,-5.167969,-71
1.480000,-57.479366,-270.531750,567.298644,-0.502768,-0.160200,-13.318768,-0.166485,-0.174084,-4785,-5.256958,-63
1.482000,-57.992010,-241.985500,572.358237,-0.504978,-0.160200,-13.320978,-0.166512,-0.167676,-4870,-5.350342,-79
1.484000,-58.447308,-213.200000,576.851850,-0.506893,-0.160200,-13.322893,-0.166536,-0.167676,-4966,-5.455811,-85
1.486000,-58.844810,-184.203750,580.775039,-0.508528,-0.160200,-13.324528,-0.166557,-0.165540,-5059,-5.557983,-67
1.488000,-59.184123,-155.025500,584.123926,-0.509897,-0.160200,-13.325897,-0.166574,-0.162336,-5141,-5.648071,-69
1.490000,-59.464912,-125.693750,586.895198,-0.511012,-0.160200,-13.327012,-0.166588,-0.167676,-5225,-5.740356,-85
1.492000,-59.686898,-96.237750,589.086116,-0.511880,-0.160200,-13.327880,-0.166599,-0.170880,-5310,-5.833740,-79
1.494000,-59.849863,-66.686750,590.694512,-0.512511,-0.160200,-13.328511,-0.166606,-0.166608,-5396,-5.928223,-67
1.496000,-59.953645,-37.069500,591.718797,-0.512910,-0.160200,-13.328910,-0.166611,-0.167676,-5481,-6.021606,-91
1.498000,-59.998141,-7.415500,592.157957,-0.513080,-0.160200,-13.329080,-0.166614,-0.168744,-5568,-6.117188,-77
1.500000,-59.983307,22.245500,592.011558,-0.513023,0.160200,12.302977,0.153787,0.152724,-5653,-6.210571,-28
1.502000,-59.909159,51.884250,591.279745,-0.512739,0.160200,12.303261,0.153791,0.154860,-5648,-6.205078,65
1.504000,-59.775770,81.472250,589.963242,-0.512225,0.160200,12.303775,0.153797,0.150588,-5575,-6.124878,81
1.506000,-59.583270,110.979500,588.063350,-0.511476,0.160200,12.304524,0.153807,0.151656,-5482,-6.022705,94
1.508000,-59.331852,140.376750,585.581948,-0.510486,0.160200,12.305514,0.153819,0.152724,-5376,-5.906250,72
1.510000,-59.021763,169.635750,582.521491,-0.509245,0.160200,12.306755,0.153834,0.154860,-5274,-5.794189,67
1.512000,-58.653309,198.726500,578.885003,-0.507745,0.160200,12.308255,0.153853,0.151656,-5182,-5.693115,61
1.514000,-58.226857,227.620750,574.676082,-0.505971,0.160200,12.310029,0.153875,0.151656,-5092,-5.594238,76
1.516000,-57.742826,256.290250,569.898888,-0.503911,0.160200,12.312089,0.153901,0.151656,-5007,-5.500854,66
1.518000,-57.201696,284.706250,564.558147,-0.501548,0.160200,12.314452,0.153931,0.154860,-4922,-5.407471,61
1.520000,-56.604001,312.840500,558.659140,-0.498866,0.160200,12.317134,0.153964,0.147384,-4840,-5.317383,64
1.522000,-55.950334,340.665500,552.207699,-0.495847,0.160200,12.320153,0.154002,0.151656,-4765,-5.234985,71
1.524000,-55.241339,368.153750,545.210204,-0.492471,0.160200,12.323529,0.154044,0.152724,-4690,-5.152588,71
1.526000,-54.477719,395.277750,537.673575,-0.488719,0.160200,12.327281,0.154091,0.154860,-4610,-5.064697,72
1.528000,-53.660228,422.011000,529.605264,-0.484569,0.160200,12.331431,0.154143,0.153792,-4531,-4.977905,72
1.530000,-52.789675,448.326750,521.013250,-0.480000,0.160200,12.336000,0.154200,0.154860,-4451,-4.890015,72
1.532000,-51.866921,474.199250,511.906029,-0.474991,0.160200,12.341009,0.154263,0.153792,-4368,-4.798828,76
1.534000,-50.892878,499.603000,502.292607,-0.469520,0.160200,12.346480,0.154331,0.158064,-4282,-4.704346,59
1.536000,-49.868509,524.512750,492.182489,-0.463566,0.160200,12.352434,0.154405,0.154860,-4208,-4.623047,77
1.538000,-48.794827,548.903750,481.585675,-0.457108,0.160200,12.358892,0.154486,0.158064,-4126,-4.532959,56
1.540000,-47.672894,572.751750,470.512641,-0.450126,0.160200,12.365874,0.154573,0.155928,-4045,-4.443970,74
1.542000,-46.503820,596.033500,458.974338,-0.442600,0.160200,12.373400,0.154667,0.156996,-3969,-4.360474,77
1.544000,-45.288760,618.726000,446.982176,-0.434513,0.160200,12.381487,0.154769,0.151656,-3880,-4.262695,63
1.546000,-44.028916,640.806500,434.548013,-0.425849,0.160200,12.390151,0.154877,0.153792,-3795,-4.169312,65
1.548000,-42.725534,662.253500,421.684145,-0.416592,0.160200,12.399408,0.154993,0.152724,-3720,-4.086914,57
1.550000,-41.379902,683.045750,408.403291,-0.406729,0.160200,12.409271,0.155116,0.152724,-3642,-4.001221,55
1.552000,-39.993351,703.162250,394.718586,-0.396251,0.160200,12.419749,0.155247,0.154860,-3570,-3.922119,67
1.554000,-38.567253,722.583250,380.643561,-0.385148,0.160200,12.430852,0.155386,0.156996,-3486,-3.829834,70
1.556000,-37.103018,741.290000,366.192135,-0.373416,0.160200,12.442584,0.155532,0.155928,-3403,-3.738647,57
1.558000,-35.602093,759.264000,351.378597,-0.361051,0.160200,12.454949,0.155687,0.153792,-3318,-3.645264,53
1.560000,-34.065962,776.486750,336.217596,-0.348052,0.160200,12.467948,0.155849,0.154860,-3236,-3.555176,69
1.562000,-32.496146,792.941750,320.724125,-0.334424,0.160200,12.481576,0.156020,0.154860,-3157,-3.468384,63
1.564000,-30.894195,808.613000,304.913503,-0.320173,0.160200,12.495827,0.156198,0.154860,-3076,-3.379395,66
1.566000,-29.261694,823.484250,288.801367,-0.305308,0.160200,12.510692,0.156384,0.163404,-3004,-3.300293,65
1.568000,-27.600258,837.541250,272.403647,-0.289841,0.160200,12.526159,0.156577,0.156996,-2934,-3.223389,61
1.570000,-25.911529,850.770250,255.736559,-0.273790,0.160200,12.542210,0.156778,0.160200,-2857,-3.138794,62
1.572000,-24.197177,863.157750,238.816585,-0.257173,0.160200,12.558827,0.156985,0.155928,-2776,-3.049805,59
1.574000,-22.458898,874.691750,221.660456,-0.240014,0.160200,12.575986,0.157200,0.154860,-2697,-2.963013,62
1.576000,-20.698410,885.360750,204.285136,-0.222339,0.160200,12.593661,0.157421,0.158064,-2611,-2.868530,77
1.578000,-18.917455,895.154250,186.707808,-0.204177,0.160200,12.611823,0.157648,0.160200,-2527,-2.776245,65
1.580000,-17.117793,904.063000,168.945853,-0.185560,0.160200,12.630440,0.157880,0.158064,-2448,-2.689453,84
1.582000,-15.301203,912.077500,151.016834,-0.166525,0.160200,12.649475,0.158118,0.159132,-2371,-2.604858,76
1.584000,-13.469483,919.189750,132.938482,-0.147108,0.160200,12.668892,0.158361,0.162336,-2293,-2.519165,78
1.586000,-11.624444,925.393250,114.728673,-0.127351,0.160200,12.688649,0.158608,0.158064,-2212,-2.430176,77
1.588000,-9.767910,930.681750,96.405414,-0.107296,0.160200,12.708704,0.158859,0.162336,-2120,-2.329102,61
1.590000,-7.901717,935.050000,77.986823,-0.086987,0.160200,12.729013,0.159113,0.155928,-2044,-2.245605,66
1.592000,-6.027710,938.493750,59.491115,-0.066472,0.160200,12.749528,0.159369,0.160200,-1950,-2.142334,60
1.594000,-4.147742,941.009250,40.936579,-0.045799,0.160200,12.770201,0.159628,0.159132,-1864,-2.047852,72
1.596000,-2.263673,942.594000,22.341562,-0.025015,0.160200,12.790985,0.159887,0.159132,-1774,-1.948975,82
1.598000,-0.377366,943.247000,3.724453,-0.004172,0.160200,12.811828,0.160148,0.159132,-1698,-1.865479,61
1.600000,1.509315,942.967250,-14.896339,0.016682,0.160200,12.832682,0.160409,0.161268,-1604,-1.762207,79
1.602000,3.394503,941.754750,-33.502401,0.037496,0.160200,12.853496,0.160669,0.163404,-1506,-1.654541,73
1.604000,5.276334,939.611250,-52.075334,0.058219,0.160200,12.874219,0.160928,0.161268,-1416,-1.555664,63
1.606000,7.152948,936.538750,-70.596771,0.078804,0.160200,12.894804,0.161185,0.164472,-1339,-1.471069,64
1.608000,9.022489,932.539750,-89.048399,0.099200,0.160200,12.915200,0.161440,0.162336,-1261,-1.385376,78
1.610000,10.883107,927.618750,-107.411971,0.119362,0.160200,12.935362,0.161692,0.161268,-1174,-1.289795,65
1.612000,12.732964,921.780750,-125.669328,0.139244,0.160200,12.955244,0.161941,0.163404,-1097,-1.205200,62
1.614000,14.570230,915.031000,-143.802416,0.158802,0.160200,12.974802,0.162185,0.165540,-1020,-1.120605,61
1.616000,16.393088,907.376250,-161.793304,0.177994,0.160200,12.993994,0.162425,0.161268,-942,-1.034912,81
1.618000,18.199735,898.824500,-179.624202,0.196783,0.160200,13.012783,0.162660,0.162336,-861,-0.945923,67
1.620000,19.988386,889.384000,-197.277477,0.215131,0.160200,13.031131,0.162889,0.166608,-778,-0.854736,70
1.622000,21.757271,879.063750,-214.735673,0.233005,0.160200,13.049005,0.163113,0.165540,-681,-0.748169,68
1.624000,23.504641,867.874500,-231.981527,0.250373,0.160200,13.066373,0.163330,0.162336,-600,-0.659180,71
1.626000,25.228769,855.827000,-248.997985,0.267210,0.160200,13.083210,0.163540,0.162336,-506,-0.555908,66
1.628000,26.927949,842.933000,-265.768219,0.283490,0.160200,13.099490,0.163744,0.167676,-412,-0.452637,78
1.630000,28.600501,829.205500,-282.275647,0.299192,0.160200,13.115192,0.163940,0.163404,-320,-0.351562,63
1.632000,30.244771,814.658000,-298.503945,0.314300,0.160200,13.130300,0.164129,0.158064,-228,-0.250488,77
1.634000,31.859133,799.305250,-314.437066,0.328798,0.160200,13.144798,0.164310,0.164472,-129,-0.141724,67
1.636000,33.441992,783.162000,-330.059253,0.342677,0.160200,13.158677,0.164483,0.166608,-39,-0.042847,69
1.638000,34.991781,766.244000,-345.355060,0.355927,0.160200,13.171927,0.164649,0.163404,51,0.056030,72
1.640000,36.506968,748.568500,-360.309360,0.368546,0.160200,13.184546,0.164807,0.163404,146,0.160400,79
1.642000,37.986055,730.153000,-374.907367,0.380531,0.160200,13.196531,0.164957,0.162336,235,0.258179,77
1.644000,39.427580,711.015250,-389.134644,0.391885,0.160200,13.207885,0.165099,0.166608,319,0.350464,64
1.646000,40.830116,691.174250,-402.977123,0.402613,0.160200,13.218613,0.165233,0.165540,418,0.459229,59
1.648000,42.192277,670.650000,-416.421115,0.412720,0.160200,13.228720,0.165359,0.165540,515,0.565796,63
1.650000,43.512716,649.462750,-429.453327,0.422218,0.160200,13.238218,0.165478,0.167676,601,0.660278,75
1.652000,44.790128,627.633000,-442.060872,0.431118,0.160200,13.247118,0.165589,0.165540,688,0.755859,71
1.654000,46.023248,605.182500,-454.231283,0.439434,0.160200,13.255434,0.165693,0.166608,774,0.850342,63
1.656000,47.210858,582.133750,-465.952524,0.447182,0.160200,13.263182,0.165790,0.161268,868,0.953613,58
1.658000,48.351783,558.509250,-477.213005,0.454379,0.160200,13.270379,0.165880,0.163404,965,1.060181,64
1.660000,49.444895,534.332750,-488.001591,0.461045,0.160200,13.277045,0.165963,0.167676,1057,1.161255,64
1.662000,50.489114,509.627750,-498.307614,0.467198,0.160200,13.283198,0.166040,0.166608,1146,1.259033,76
1.664000,51.483406,484.418500,-508.120883,0.472859,0.160200,13.288859,0.166111,0.167676,1247,1.369995,64
1.666000,52.426788,458.730500,-517.431693,0.478051,0.160200,13.294051,0.166176,0.166608,1347,1.479858,65
1.668000,53.318328,432.588750,-526.230838,0.482793,0.160200,13.298793,0.166235,0.166608,1435,1.576538,86
1.670000,54.157143,406.019250,-534.509617,0.487108,0.160200,13.303108,0.166289,0.165540,1530,1.680908,80
1.672000,54.942405,379.048500,-542.259843,0.491017,0.160200,13.307017,0.166338,0.163404,1636,1.797363,68
1.674000,55.673337,351.702750,-549.473852,0.494541,0.160200,13.310541,0.166382,0.165540,1721,1.890747,81
1.676000,56.349216,324.009250,-556.144510,0.497700,0.160200,13.313700,0.166421,0.168744,1814,1.992920,80
1.678000,56.969374,295.995250,-562.265222,0.500515,0.160200,13.316515,0.166456,0.165540,1908,2.096191,68
1.680000,57.533197,267.688500,-567.829934,0.503003,0.160200,13.319003,0.166488,0.169812,2010,2.208252,83
1.682000,58.040128,239.117250,-572.833145,0.505182,0.160200,13.321182,0.166515,0.165540,2116,2.324707,74
1.684000,58.489666,210.309500,-577.269906,0.507069,0.160200,13.323069,0.166538,0.167676,2212,2.430176,72
1.686000,58.881366,181.293750,-581.135831,0.508677,0.160200,13.324677,0.166558,0.164472,2315,2.543335,87
1.688000,59.214841,152.098750,-584.427095,0.510020,0.160200,13.326020,0.166575,0.163404,2409,2.646606,95
1.690000,59.489761,122.753250,-587.140446,0.511109,0.160200,13.327109,0.166589,0.165540,2498,2.744385,74
1.692000,59.705854,93.286250,-589.273200,0.511954,0.160200,13.327954,0.166599,0.161268,2584,2.838867,80
1.694000,59.862906,63.727250,-590.823247,0.512561,0.160200,13.328561,0.166607,0.167676,2669,2.932251,85
1.696000,59.960763,34.105250,-591.789055,0.512937,0.160200,13.328937,0.166612,0.167676,2750,3.021240,80
1.698000,59.999327,4.449500,-592.169669,0.513085,0.160200,13.329085,0.166614,0.166608,2835,3.114624,76
1.700000,59.978561,-25.210750,-591.964713,0.513005,-0.160200,-12.302995,-0.153787,-0.151656,2922,3.210205,13
1.702000,59.898484,-54.846000,-591.174389,0.512698,-0.160200,-12.303302,-0.153791,-0.149520,2905,3.191528,-54
1.704000,59.759177,-84.427000,-589.799479,0.512161,-0.160200,-12.303839,-0.153798,-0.154860,2826,3.104736,-85
1.706000,59.560776,-113.924750,-587.841342,0.511388,-0.160200,-12.304612,-0.153808,-0.154860,2720,2.988281,-102
1.708000,59.303478,-143.309500,-585.301915,0.510373,-0.160200,-12.305627,-0.153820,-0.155928,2597,2.853149,-79
1.710000,58.987538,-172.552500,-582.183708,0.509107,-0.160200,-12.306893,-0.153836,-0.150588,2481,2.725708,-74
1.712000,58.613268,-201.625250,-578.489806,0.507580,-0.160200,-12.308420,-0.153855,-0.152724,2385,2.620239,-74
1.714000,58.181037,-230.498500,-574.223861,0.505778,-0.160200,-12.310222,-0.153878,-0.152724,2305,2.532349,-61
1.716000,57.691274,-259.143750,-569.390091,0.503688,-0.160200,-12.312312,-0.153904,-0.152724,2218,2.436768,-77
1.718000,57.144462,-287.532750,-563.993277,0.501295,-0.160200,-12.314705,-0.153934,-0.151656,2131,2.341187,-84
1.720000,56.541143,-315.637250,-558.038754,0.498580,-0.160200,-12.317420,-0.153968,-0.151656,2045,2.246704,-68
1.722000,55.881913,-343.430000,-551.532412,0.495526,-0.160200,-12.320474,-0.154006,-0.153792,1968,2.162109,-61
1.724000,55.167423,-370.883000,-544.480683,0.492113,-0.160200,-12.323887,-0.154049,-0.156996,1887,2.073120,-56
1.726000,54.398381,-397.969000,-536.890542,0.488322,-0.160200,-12.327678,-0.154096,-0.152724,1805,1.983032,-57
1.728000,53.575547,-424.661750,-528.769493,0.484131,-0.160200,-12.331869,-0.154148,-0.150588,1719,1.888550,-77
1.730000,52.699734,-450.934500,-520.125568,0.479519,-0.160200,-12.336481,-0.154206,-0.151656,1628,1.788574,-61
1.732000,51.771809,-476.761250,-510.967313,0.474465,-0.160200,-12.341535,-0.154269,-0.151656,1543,1.695190,-72
1.734000,50.792689,-502.116500,-501.303785,0.468947,-0.160200,-12.347053,-0.154338,-0.154860,1458,1.601807,-60
1.736000,49.763343,-526.975500,-491.144540,0.462943,-0.160200,-12.353057,-0.154413,-0.158064,1372,1.507324,-63
1.738000,48.684787,-551.313500,-480.499624,0.456434,-0.160200,-12.359566,-0.154495,-0.158064,1302,1.430420,-65
1.740000,47.558089,-575.105750,-469.379563,0.449398,-0.160200,-12.366602,-0.154583,-0.151656,1224,1.344727,-58
1.742000,46.384364,-598.329500,-457.795354,0.441817,-0.160200,-12.374183,-0.154677,-0.152724,1152,1.265625,-62
1.744000,45.164771,-620.962000,-445.758450,0.433673,-0.160200,-12.382327,-0.154779,-0.153792,1075,1.181030,-78
1.746000,43.900516,-642.980250,-433.280756,0.424950,-0.160200,-12.391050,-0.154888,-0.152724,1003,1.101929,-56
1.748000,42.592850,-664.362500,-420.374610,0.415633,-0.160200,-12.400367,-0.155005,-0.156996,925,1.016235,-63
1.750000,41.243066,-685.088000,-407.052774,0.405709,-0.160200,-12.410291,-0.155129,-0.156996,856,0.940430,-71
1.752000,39.852498,-705.136000,-393.328421,0.395169,-0.160200,-12.420831,-0.155260,-0.156996,783,0.860229,-70
1.754000,38.422522,-724.486500,-379.215124,0.384004,-0.160200,-12.431996,-0.155400,-0.153792,707,0.776733,-79
1.756000,36.954552,-743.120750,-364.726837,0.372208,-0.160200,-12.443792,-0.155547,-0.154860,632,0.694336,-86
1.758000,35.450039,-761.020250,-349.877888,0.359779,-0.160200,-12.456221,-0.155703,-0.153792,550,0.604248,-74
1.760000,33.910471,-778.167000,-334.682960,0.346718,-0.160200,-12.469282,-0.155866,-0.156996,467,0.513062,-83
1.762000,32.337371,-794.544500,-319.157079,0.333027,-0.160200,-12.482973,-0.156037,-0.160200,391,0.429565,-74
1.764000,30.732293,-810.136250,-303.315597,0.318714,-0.160200,-12.497286,-0.156216,-0.159132,313,0.343872,-71
1.766000,29.096826,-824.926750,-287.174181,0.303788,-0.160200,-12.512212,-0.156403,-0.159132,235,0.258179,-62
1.768000,27.432586,-838.901750,-270.748790,0.288262,-0.160200,-12.527738,-0.156597,-0.154860,146,0.160400,-60
1.770000,25.741219,-852.047000,-254.055668,0.272153,-0.160200,-12.543847,-0.156798,-0.154860,59,0.064819,-76
1.772000,24.024398,-864.349750,-237.111321,0.255481,-0.160200,-12.560519,-0.157006,-0.154860,-21,-0.023071,-60
1.774000,22.283820,-875.797750,-219.932506,0.238269,-0.160200,-12.577731,-0.157222,-0.155928,-99,-0.108765,-65
1.776000,20.521207,-886.379750,-202.536209,0.220544,-0.160200,-12.595456,-0.157443,-0.160200,-176,-0.193359,-71
1.778000,18.738301,-896.085250,-184.939632,0.202335,-0.160200,-12.613665,-0.157671,-0.155928,-256,-0.281250,-75
1.780000,16.936866,-904.904750,-167.160178,0.183675,-0.160200,-12.632325,-0.157904,-0.163404,-337,-0.370239,-66
1.782000,15.118682,-912.829250,-149.215425,0.164600,-0.160200,-12.651400,-0.158143,-0.158064,-420,-0.461426,-64
1.784000,13.285549,-919.851000,-131.123121,0.145147,-0.160200,-12.670853,-0.158386,-0.160200,-496,-0.544922,-70
1.786000,11.439278,-925.963500,-112.901154,0.125358,-0.160200,-12.690642,-0.158633,-0.159132,-574,-0.630615,-70
1.788000,9.581695,-931.160250,-94.567545,0.105275,-0.160200,-12.710725,-0.158884,-0.162336,-648,-0.711914,-72
1.790000,7.714637,-935.436000,-76.140422,0.084944,-0.160200,-12.731056,-0.159138,-0.155928,-731,-0.803101,-76
1.792000,5.839951,-938.787000,-57.638006,0.064411,-0.160200,-12.751589,-0.159395,-0.159132,-810,-0.889893,-79
1.794000,3.959489,-941.209500,-39.078596,0.043725,-0.160200,-12.772275,-0.159653,-0.161268,-889,-0.976685,-76
1.796000,2.075113,-942.701250,-20.480542,0.022933,-0.160200,-12.793067,-0.159913,-0.161268,-965,-1.060181,-69
1.798000,0.188684,-943.261000,-1.862236,0.002086,-0.160200,-12.813914,-0.160174,-0.159132,-1041,-1.143677,-60
1.800000,-1.697931,-942.888000,16.757912,-0.018766,-0.160200,-12.834766,-0.160435,-0.159132,-1126,-1.237061,-84
1.802000,-3.582868,-941.582500,35.361488,-0.039573,-0.160200,-12.855573,-0.160695,-0.160200,-1225,-1.345825,-83
1.804000,-5.464261,-939.345750,53.930097,-0.060285,-0.160200,-12.876285,-0.160954,-0.160200,-1310,-1.439209,-76
1.806000,-7.340251,-936.180250,72.445377,-0.080852,-0.160200,-12.896852,-0.161211,-0.161268,-1392,-1.529297,-76
1.808000,-9.208982,-932.089000,90.889019,-0.101228,-0.160200,-12.917228,-0.161465,-0.162336,-1486,-1.632568,-64
1.810000,-11.068607,-927.076250,109.242785,-0.121364,-0.160200,-12.937364,-0.161717,-0.162336,-1580,-1.735840,-78
1.812000,-12.917287,-921.146750,127.488526,-0.141215,-0.160200,-12.957215,-0.161965,-0.164472,-1668,-1.832520,-64
1.814000,-14.753194,-914.306250,145.608198,-0.160738,-0.160200,-12.976738,-0.162209,-0.164472,-1749,-1.921509,-59
1.816000,-16.574512,-906.561500,163.583885,-0.179892,-0.160200,-12.995892,-0.162449,-0.167676,-1830,-2.010498,-84
1.818000,-18.379440,-897.920250,181.397812,-0.198638,-0.160200,-13.014638,-0.162683,-0.161268,-1915,-2.103882,-80
1.820000,-20.166193,-888.391250,199.032362,-0.216940,-0.160200,-13.032940,-0.162912,-0.158064,-2000,-2.197266,-64
1.822000,-21.933005,-877.983750,216.470097,-0.234765,-0.160200,-13.050765,-0.163135,-0.163404,-2088,-2.293945,-82
1.824000,-23.678128,-866.708000,233.693775,-0.252081,-0.160200,-13.068081,-0.163351,-0.162336,-2178,-2.392822,-65
1.826000,-25.399837,-854.575500,250.686364,-0.268863,-0.160200,-13.084863,-0.163561,-0.162336,-2266,-2.489502,-80
