khanfazel/E-wera--maxon_motor/Feedforward/feedforward_logqqq.csv
t_s,q_joint_deg,qd_joint_deg_s,qdd_joint_deg_s2,tau_joint_ff_Nm,tau_dead_Nm,tau_joint_total_Nm,tau_motor_cmd_Nm,tau_motor_actual_Nm,motor_pos_counts,motor_pos_deg_est,motor_vel_native
0.000000,0.000000,471.633000,0.000000,0.000000,0.160200,12.816000,0.160200,0.159132,2,0.703125,16
0.002000,0.943266,471.399750,0.000000,0.013646,0.160200,12.829646,0.160371,0.161268,27,9.492188,36
0.004000,1.885599,470.700250,-18.610113,0.020839,0.160200,12.836839,0.160460,0.159132,70,24.609375,47
0.006000,2.826067,469.535500,-27.892164,0.031224,0.160200,12.847224,0.160590,0.159132,120,42.187500,50
0.008000,3.763741,467.906500,-37.146633,0.041567,0.160200,12.857567,0.160720,0.158064,173,60.820312,48
0.010000,4.697693,465.814500,-46.364370,0.051854,0.160200,12.867854,0.160848,0.162336,231,81.210938,51
0.012000,5.626999,463.262000,-55.536259,0.062073,0.160200,12.878073,0.160976,0.162336,295,103.710938,55
0.014000,6.550741,460.251750,-64.653231,0.072209,0.160200,12.888209,0.161103,0.159132,361,126.914062,59
0.016000,7.468006,456.786250,-73.706270,0.082249,0.160200,12.898249,0.161228,0.160200,428,150.468750,64
0.018000,8.377886,452.868750,-82.686425,0.092182,0.160200,12.908182,0.161352,0.160200,495,174.023438,69
0.020000,9.279481,448.503500,-91.584814,0.101994,0.160200,12.917994,0.161475,0.156996,564,198.281250,59
0.022000,10.171900,443.695000,-100.392639,0.111673,0.160200,12.927673,0.161596,0.161268,637,223.945312,70
0.024000,11.054261,438.447750,-109.101190,0.121209,0.160200,12.937209,0.161715,0.162336,710,249.609375,61
0.026000,11.925691,432.766500,-117.701856,0.130589,0.160200,12.946589,0.161832,0.166608,783,275.273438,75
0.028000,12.785327,426.657500,-126.186132,0.139804,0.160200,12.955804,0.161948,0.163404,862,303.046875,74
0.030000,13.632321,420.127000,-134.545628,0.148843,0.160200,12.964843,0.162061,0.158064,944,331.875000,65
0.032000,14.465835,413.180750,-142.772077,0.157696,0.160200,12.973696,0.162171,0.162336,1027,361.054688,67
0.034000,15.285044,405.825750,-150.857346,0.166355,0.160200,12.982355,0.162279,0.165540,1106,388.828125,64
0.036000,16.089138,398.069500,-158.793438,0.174810,0.160200,12.990810,0.162385,0.161268,1185,416.601562,77
0.038000,16.877322,389.919750,-166.572507,0.183054,0.160200,12.999054,0.162488,0.163404,1264,444.375000,78
0.040000,17.648817,381.384500,-174.186859,0.191080,0.160200,13.007080,0.162588,0.165540,1344,472.500000,77
0.042000,18.402860,372.472250,-181.628966,0.198880,0.160200,13.014880,0.162686,0.163404,1421,499.570312,80
0.044000,19.138706,363.191500,-188.891468,0.206448,0.160200,13.022448,0.162781,0.163404,1499,526.992188,77
0.046000,19.855626,353.551250,-195.967183,0.213778,0.160200,13.029778,0.162872,0.162336,1577,554.414062,73
0.048000,20.552911,343.561750,-202.849116,0.220866,0.160200,13.036866,0.162961,0.165540,1654,581.484375,67
0.050000,21.229873,333.232500,-209.530459,0.227705,0.160200,13.043705,0.163046,0.161268,1733,609.257812,68
0.052000,21.885841,322.573500,-216.004607,0.234293,0.160200,13.050293,0.163129,0.163404,1812,637.031250,63
0.054000,22.520167,311.595750,-222.265158,0.240624,0.160200,13.056624,0.163208,0.164472,1889,664.101562,73
0.056000,23.132224,300.310000,-228.305921,0.246697,0.160200,13.062697,0.163284,0.162336,1970,692.578125,70
0.058000,23.721407,288.727250,-234.120922,0.252507,0.160200,13.068507,0.163356,0.163404,2050,720.703125,68
0.060000,24.287133,276.858750,-239.704411,0.258053,0.160200,13.074053,0.163426,0.158064,2128,748.125000,75
0.062000,24.828842,264.716500,-245.050867,0.263332,0.160200,13.079332,0.163492,0.162336,2212,777.656250,64
0.064000,25.345999,252.312750,-250.155003,0.268343,0.160200,13.084343,0.163554,0.166608,2288,804.375000,73
0.066000,25.838093,239.659250,-255.011772,0.273085,0.160200,13.089085,0.163614,0.162336,2364,831.093750,76
0.068000,26.304636,226.768750,-259.616371,0.277555,0.160200,13.093555,0.163669,0.164472,2446,859.921875,71
0.070000,26.745168,213.654250,-263.964246,0.281754,0.160200,13.097754,0.163722,0.162336,2528,888.750000,75
0.072000,27.159253,200.328250,-268.051100,0.285681,0.160200,13.101681,0.163771,0.166608,2603,915.117188,81
0.074000,27.546481,186.804250,-271.872889,0.289335,0.160200,13.105335,0.163817,0.164472,2684,943.593750,81
0.076000,27.906470,173.095500,-275.425835,0.292717,0.160200,13.108717,0.163859,0.161268,2767,972.773438,69
0.078000,28.238863,159.215500,-278.706425,0.295825,0.160200,13.111825,0.163898,0.166608,2852,1002.656250,72
0.080000,28.543332,145.178250,-281.711414,0.298661,0.160200,13.114661,0.163933,0.156996,2940,1033.593750,80
0.082000,28.819576,130.997250,-284.437831,0.301225,0.160200,13.117225,0.163965,0.167676,3033,1066.289062,84
0.084000,29.067321,116.686750,-286.882981,0.303516,0.160200,13.119516,0.163994,0.165540,3122,1097.578125,68
0.086000,29.286323,102.261000,-289.044444,0.305534,0.160200,13.121534,0.164019,0.166608,3206,1127.109375,72
0.088000,29.476365,87.734000,-290.920084,0.307282,0.160200,13.123282,0.164041,0.164472,3290,1156.640625,86
0.090000,29.637259,73.120500,-292.508046,0.308757,0.160200,13.124757,0.164059,0.165540,3376,1186.875000,75
0.092000,29.768847,58.434500,-293.806760,0.309962,0.160200,13.125962,0.164075,0.164472,3460,1216.406250,70
0.094000,29.870997,43.690500,-294.814941,0.310895,0.160200,13.126895,0.164086,0.165540,3543,1245.585938,75
0.096000,29.943609,28.903500,-295.531593,0.311558,0.160200,13.127558,0.164094,0.162336,3626,1274.765625,82
0.098000,29.986611,14.087750,-295.956007,0.311950,0.160200,13.127950,0.164099,0.160200,3720,1307.812500,77
0.100000,29.999960,-0.741750,-296.087763,0.312072,-0.160200,-12.503928,-0.156299,-0.153792,3804,1337.343750,19
0.102000,29.983644,-15.570250,-295.926731,0.311923,-0.160200,-12.504077,-0.156301,-0.155928,3799,1335.585938,-53
0.104000,29.937679,-30.383750,-295.473069,0.311504,-0.160200,-12.504496,-0.156306,-0.155928,3732,1312.031250,-83
0.106000,29.862109,-45.167000,-294.727228,0.310814,-0.160200,-12.505186,-0.156315,-0.150588,3635,1277.929688,-95
0.108000,29.757011,-59.905750,-293.689944,0.309854,-0.160200,-12.506146,-0.156327,-0.156996,3536,1243.125000,-83
0.110000,29.622486,-74.585250,-292.362243,0.308622,-0.160200,-12.507378,-0.156342,-0.156996,3426,1204.453125,-82
0.112000,29.458670,-89.190750,-290.745437,0.307119,-0.160200,-12.508881,-0.156361,-0.156996,3338,1173.515625,-71
0.114000,29.265723,-103.708500,-288.841127,0.305345,-0.160200,-12.510655,-0.156383,-0.151656,3256,1144.687500,-67
0.116000,29.043836,-118.123500,-286.651194,0.303299,-0.160200,-12.512701,-0.156409,-0.155928,3166,1113.046875,-65
0.118000,28.793229,-132.421500,-284.177805,0.300980,-0.160200,-12.515020,-0.156438,-0.155928,3085,1084.570312,-66
0.120000,28.514150,-146.588500,-281.423404,0.298390,-0.160200,-12.517610,-0.156470,-0.154860,3008,1057.500000,-78
0.122000,28.206875,-160.610750,-278.390717,0.295527,-0.160200,-12.520473,-0.156506,-0.153792,2928,1029.375000,-78
0.124000,27.871707,-174.474250,-275.082741,0.292391,-0.160200,-12.523609,-0.156545,-0.155928,2848,1001.250000,-76
0.126000,27.508978,-188.165250,-271.502748,0.288982,-0.160200,-12.527018,-0.156588,-0.155928,2770,973.828125,-78
0.128000,27.119046,-201.670000,-267.654278,0.285300,-0.160200,-12.530700,-0.156634,-0.155928,2692,946.406250,-77
0.130000,26.702298,-214.975250,-263.541136,0.281346,-0.160200,-12.534654,-0.156683,-0.156996,2612,918.281250,-76
0.132000,26.259145,-228.068250,-259.167390,0.277120,-0.160200,-12.538880,-0.156736,-0.156996,2533,890.507812,-76
0.134000,25.790025,-240.935500,-254.537365,0.272623,-0.160200,-12.543377,-0.156792,-0.156996,2455,863.085938,-70
0.136000,25.295403,-253.564500,-249.655639,0.267854,-0.160200,-12.548146,-0.156852,-0.155928,2376,835.312500,-66
0.138000,24.775767,-265.942750,-244.527040,0.262816,-0.160200,-12.553184,-0.156915,-0.159132,2299,808.242188,-64
0.140000,24.231632,-278.058000,-239.156639,0.257510,-0.160200,-12.558490,-0.156981,-0.156996,2219,780.117188,-67
0.142000,23.663535,-289.898500,-233.549747,0.251938,-0.160200,-12.564062,-0.157051,-0.152724,2139,751.992188,-64
0.144000,23.072038,-301.452000,-227.711907,0.246101,-0.160200,-12.569899,-0.157124,-0.156996,2060,724.218750,-67
0.146000,22.457727,-312.707750,-221.648893,0.240003,-0.160200,-12.575997,-0.157200,-0.160200,1979,695.742188,-71
0.148000,21.821207,-323.654250,-215.366700,0.233645,-0.160200,-12.582355,-0.157279,-0.158064,1896,666.562500,-70
0.150000,21.163110,-334.280250,-208.871541,0.227032,-0.160200,-12.588968,-0.157362,-0.159132,1815,638.085938,-71
0.152000,20.484086,-344.576000,-202.169838,0.220168,-0.160200,-12.595832,-0.157448,-0.156996,1734,609.609375,-80
0.154000,19.784806,-354.531250,-195.268218,0.213056,-0.160200,-12.602944,-0.157537,-0.154860,1654,581.484375,-68
0.156000,19.065961,-364.135750,-188.173506,0.205702,-0.160200,-12.610298,-0.157629,-0.163404,1576,554.062500,-67
0.158000,18.328263,-373.380000,-180.892718,0.198110,-0.160200,-12.617890,-0.157724,-0.156996,1497,526.289062,-66
0.160000,17.572441,-382.255250,-173.433052,0.190287,-0.160200,-12.625713,-0.157821,-0.159132,1419,498.867188,-63
0.162000,16.799242,-390.752500,-165.801887,0.182239,-0.160200,-12.633761,-0.157922,-0.160200,1343,472.148438,-74
0.164000,16.009431,-398.863000,-158.006767,0.173974,-0.160200,-12.642026,-0.158025,-0.159132,1267,445.429688,-73
0.166000,15.203790,-406.579250,-150.055401,0.165498,-0.160200,-12.650502,-0.158131,-0.158064,1193,419.414062,-63
0.168000,14.383114,-413.893750,-141.955652,0.156819,-0.160200,-12.659181,-0.158240,-0.158064,1117,392.695312,-70
0.170000,13.548215,-420.798750,-133.715530,0.147947,-0.160200,-12.668053,-0.158351,-0.162336,1038,364.921875,-67
0.172000,12.699919,-427.287750,-125.343182,0.138890,-0.160200,-12.677110,-0.158464,-0.159132,962,338.203125,-76
0.174000,11.839064,-433.354250,-116.846888,0.129658,-0.160200,-12.686342,-0.158579,-0.159132,885,311.132812,-75
0.176000,10.966502,-438.992000,-108.235049,0.120262,-0.160200,-12.695738,-0.158697,-0.162336,806,283.359375,-76
0.178000,10.083096,-444.195500,-99.516181,0.110712,-0.160200,-12.705288,-0.158816,-0.161268,727,255.585938,-67
0.180000,9.189720,-448.960000,-90.698906,0.101018,-0.160200,-12.714982,-0.158937,-0.162336,648,227.812500,-69
0.182000,8.287256,-453.280750,-81.791943,0.091194,-0.160200,-12.724806,-0.159060,-0.158064,568,199.687500,-67
0.184000,7.376597,-457.153000,-72.804099,0.081250,-0.160200,-12.734750,-0.159184,-0.160200,489,171.914062,-77
0.186000,6.458644,-460.573250,-63.744263,0.071199,-0.160200,-12.744801,-0.159310,-0.158064,403,141.679688,-79
0.188000,5.534304,-463.538250,-54.621393,0.061054,-0.160200,-12.754946,-0.159437,-0.162336,322,113.203125,-77
0.190000,4.604491,-466.044750,-45.444510,0.050829,-0.160200,-12.765171,-0.159565,-0.155928,244,85.781250,-75
0.192000,3.670125,-468.090250,-36.222689,0.040535,-0.160200,-12.775465,-0.159693,-0.162336,164,57.656250,-80
0.194000,2.732130,-469.672750,-26.965049,0.030187,-0.160200,-12.785813,-0.159823,-0.158064,83,29.179688,-78
0.196000,1.791434,-470.791000,-17.680744,0.019799,-0.160200,-12.796201,-0.159953,-0.161268,3,1.054688,-80
0.198000,0.848966,-471.444000,-8.378956,0.009384,-0.160200,-12.806616,-0.160083,-0.158064,-80,-28.125000,-75
0.200000,-0.094342,-471.630500,0.931118,-0.001043,-0.160200,-12.817043,-0.160213,-0.159132,-166,-58.359375,-68
0.202000,-1.037556,-471.350750,10.240271,-0.011469,-0.160200,-12.827469,-0.160343,-0.158064,-247,-86.835938,-70
0.204000,-1.979745,-470.604750,19.539298,-0.021879,-0.160200,-12.837879,-0.160473,-0.162336,-330,-116.015625,-68
0.206000,-2.919975,-469.393500,28.819003,-0.032261,-0.160200,-12.848261,-0.160603,-0.158064,-407,-143.085938,-68
0.208000,-3.857319,-467.718000,38.070211,-0.042599,-0.160200,-12.858599,-0.160732,-0.159132,-486,-170.859375,-64
0.210000,-4.790847,-465.580000,47.283772,-0.052880,-0.160200,-12.868880,-0.160861,-0.161268,-566,-198.984375,-64
0.212000,-5.719639,-462.981750,56.450577,-0.063090,-0.160200,-12.879090,-0.160989,-0.160200,-644,-226.406250,-71
0.214000,-6.642774,-459.925500,65.561560,-0.073217,-0.160200,-12.889217,-0.161115,-0.161268,-723,-254.179688,-73
0.216000,-7.559341,-456.414750,74.607713,-0.083248,-0.160200,-12.899248,-0.161241,-0.161268,-802,-281.953125,-71
0.218000,-8.468433,-452.452500,83.580089,-0.093169,-0.160200,-12.909169,-0.161365,-0.159132,-879,-309.023438,-78
0.220000,-9.369151,-448.042500,92.469816,-0.102968,-0.160200,-12.918968,-0.161487,-0.162336,-958,-336.796875,-80
0.222000,-10.260603,-443.189750,101.268104,-0.112633,-0.160200,-12.928633,-0.161608,-0.159132,-1039,-365.273438,-75
0.224000,-11.141910,-437.899000,109.966253,-0.122154,-0.160200,-12.938154,-0.161727,-0.162336,-1117,-392.695312,-79
0.226000,-12.012199,-432.175000,118.555661,-0.131518,-0.160200,-12.947518,-0.161844,-0.165540,-1197,-420.820312,-82
0.228000,-12.870610,-426.023500,127.027834,-0.140716,-0.160200,-12.956716,-0.161959,-0.159132,-1279,-449.648438,-79
0.230000,-13.716293,-419.450750,135.374395,-0.149736,-0.160200,-12.965736,-0.162072,-0.161268,-1361,-478.476562,-77
0.232000,-14.548413,-412.463500,143.587090,-0.158571,-0.160200,-12.974571,-0.162182,-0.161268,-1444,-507.656250,-69
0.234000,-15.366147,-405.068000,151.657799,-0.167209,-0.160200,-12.983209,-0.162290,-0.164472,-1527,-536.835938,-71
0.236000,-16.168685,-397.272250,159.578539,-0.175644,-0.160200,-12.991644,-0.162396,-0.162336,-1611,-566.367188,-77
0.238000,-16.955236,-389.083750,167.341480,-0.183867,-0.160200,-12.999867,-0.162498,-0.161268,-1695,-595.898438,-82
0.240000,-17.725020,-380.510000,174.938944,-0.191870,-0.160200,-13.007870,-0.162598,-0.161268,-1776,-624.375000,-83
0.242000,-18.477276,-371.560250,182.363418,-0.199647,-0.160200,-13.015647,-0.162696,-0.162336,-1858,-653.203125,-76
0.244000,-19.211261,-362.243250,189.607562,-0.207192,-0.160200,-13.023192,-0.162790,-0.160200,-1943,-683.085938,-71
0.246000,-19.926249,-352.568000,196.664211,-0.214498,-0.160200,-13.030498,-0.162881,-0.164472,-2026,-712.265625,-83
0.248000,-20.621533,-342.544000,203.526387,-0.221561,-0.160200,-13.037561,-0.162970,-0.163404,-2111,-742.148438,-81
0.250000,-21.296425,-332.181250,210.187305,-0.228375,-0.160200,-13.044375,-0.163055,-0.164472,-2197,-772.382812,-71
0.252000,-21.950258,-321.490000,216.640378,-0.234937,-0.160200,-13.050937,-0.163137,-0.165540,-2281,-801.914062,-82
0.254000,-22.582385,-310.481000,222.879225,-0.241243,-0.160200,-13.057243,-0.163216,-0.163404,-2370,-833.203125,-71
0.256000,-23.192182,-299.165000,228.897677,-0.247289,-0.160200,-13.063289,-0.163291,-0.162336,-2451,-861.679688,-71
0.258000,-23.779045,-287.553000,234.689782,-0.253074,-0.160200,-13.069074,-0.163363,-0.162336,-2531,-889.804688,-70
0.260000,-24.342394,-275.656500,240.249812,-0.258593,-0.160200,-13.074593,-0.163432,-0.164472,-2611,-917.929688,-73
0.262000,-24.881671,-263.487750,245.572270,-0.263845,-0.160200,-13.079845,-0.163498,-0.162336,-2687,-944.648438,-77
0.264000,-25.396345,-251.058500,250.651893,-0.268830,-0.160200,-13.084830,-0.163560,-0.163404,-2763,-971.367188,-76
0.266000,-25.885905,-238.380500,255.483656,-0.273544,-0.160200,-13.089544,-0.163619,-0.162336,-2841,-998.789062,-67
0.268000,-26.349867,-225.467000,260.062784,-0.277987,-0.160200,-13.093987,-0.163675,-0.164472,-2920,-1026.562500,-65
0.270000,-26.787773,-212.331000,264.384747,-0.282159,-0.160200,-13.098159,-0.163727,-0.164472,-2997,-1053.632812,-67
0.272000,-27.199191,-198.984750,268.445271,-0.286059,-0.160200,-13.102059,-0.163776,-0.163404,-3076,-1081.406250,-63
0.274000,-27.583712,-185.441250,272.240342,-0.289686,-0.160200,-13.105686,-0.163821,-0.163404,-3153,-1108.476562,-75
0.276000,-27.940956,-171.714750,275.766206,-0.293040,-0.160200,-13.109040,-0.163863,-0.165540,-3230,-1135.546875,-80
0.278000,-28.270571,-157.818750,279.019377,-0.296121,-0.160200,-13.112121,-0.163902,-0.164472,-3310,-1163.671875,-79
0.280000,-28.572231,-143.766500,281.996638,-0.298930,-0.160200,-13.114930,-0.163937,-0.160200,-3395,-1193.554688,-70
0.282000,-28.845637,-129.572000,284.695046,-0.301466,-0.160200,-13.117466,-0.163968,-0.166608,-3476,-1222.031250,-70
0.284000,-29.090519,-115.249250,287.111930,-0.303730,-0.160200,-13.119730,-0.163997,-0.163404,-3557,-1250.507812,-65
0.286000,-29.306634,-100.812500,289.244903,-0.305721,-0.160200,-13.121721,-0.164022,-0.163404,-3637,-1278.632812,-70
0.288000,-29.493769,-86.276250,291.091854,-0.307441,-0.160200,-13.123441,-0.164043,-0.165540,-3719,-1307.460938,-73
0.290000,-29.651739,-71.654750,292.650957,-0.308890,-0.160200,-13.124890,-0.164061,-0.166608,-3802,-1336.640625,-78
0.292000,-29.780388,-56.962250,293.920671,-0.310067,-0.160200,-13.126067,-0.164076,-0.161268,-3888,-1366.875000,-80
0.294000,-29.879588,-42.213500,294.899739,-0.310974,-0.160200,-13.126974,-0.164087,-0.166608,-3972,-1396.406250,-69
0.296000,-29.949242,-27.423250,295.587195,-0.311609,-0.160200,-13.127609,-0.164095,-0.162336,-4059,-1426.992188,-85
0.298000,-29.989281,-12.605500,295.982357,-0.311975,-0.160200,-13.127975,-0.164100,-0.161268,-4150,-1458.984375,-76
0.300000,-29.999664,2.224750,296.084835,-0.312069,0.160200,12.503931,0.156299,0.156996,-4232,-1487.812500,-21
0.302000,-29.980382,17.052750,295.894528,-0.311894,0.160200,12.504106,0.156301,0.154860,-4225,-1485.351562,48
0.304000,-29.931453,31.863750,295.411623,-0.311447,0.160200,12.504553,0.156307,0.156996,-4153,-1460.039062,81
0.306000,-29.852927,46.643250,294.636600,-0.310730,0.160200,12.505270,0.156316,0.155928,-4061,-1427.695312,86
0.308000,-29.744880,61.376750,293.570223,-0.309743,0.160200,12.506257,0.156328,0.155928,-3962,-1392.890625,94
0.310000,-29.607420,76.049250,292.213548,-0.308484,0.160200,12.507516,0.156344,0.151656,-3866,-1359.140625,77
0.312000,-29.440683,90.646750,290.567915,-0.306954,0.160200,12.509046,0.156363,0.154860,-3782,-1329.609375,76
0.314000,-29.244833,105.154750,288.634953,-0.305152,0.160200,12.510848,0.156386,0.156996,-3702,-1301.484375,73
0.316000,-29.020064,119.558750,286.416572,-0.303079,0.160200,12.512921,0.156412,0.158064,-3625,-1274.414062,64
0.318000,-28.766598,133.844250,283.914967,-0.300734,0.160200,12.515266,0.156441,0.156996,-3550,-1248.046875,64
0.320000,-28.484687,147.997500,281.132611,-0.298116,0.160200,12.517884,0.156474,0.161268,-3472,-1220.625000,72
0.322000,-28.174608,162.004750,278.072255,-0.295225,0.160200,12.520775,0.156510,0.156996,-3399,-1194.960938,68
0.324000,-27.836668,175.851250,274.736926,-0.292062,0.160200,12.523938,0.156549,0.156996,-3324,-1168.593750,65
0.326000,-27.471203,189.524000,271.129921,-0.288626,0.160200,12.527374,0.156592,0.156996,-3246,-1141.171875,69
0.328000,-27.078572,203.009750,267.254809,-0.284917,0.160200,12.531083,0.156639,0.159132,-3170,-1114.453125,75
0.330000,-26.659164,216.294500,263.115419,-0.280936,0.160200,12.535064,0.156688,0.153792,-3093,-1087.382812,77
0.332000,-26.213394,229.365250,258.715847,-0.276683,0.160200,12.539317,0.156741,0.158064,-3010,-1058.203125,78
0.334000,-25.741703,242.209250,254.060441,-0.272158,0.160200,12.543842,0.156798,0.158064,-2932,-1030.781250,79
0.336000,-25.244557,254.813750,249.153807,-0.267363,0.160200,12.548637,0.156858,0.159132,-2852,-1002.656250,73
0.338000,-24.722448,267.166500,244.000796,-0.262298,0.160200,12.553702,0.156921,0.161268,-2769,-973.476562,74
0.340000,-24.175891,279.254750,238.606502,-0.256965,0.160200,12.559035,0.156988,0.156996,-2691,-946.054688,80
0.342000,-23.605429,291.066750,232.976262,-0.251366,0.160200,12.564634,0.157058,0.152724,-2612,-918.281250,80
0.344000,-23.011624,302.591250,227.115641,-0.245503,0.160200,12.570497,0.157131,0.155928,-2532,-890.156250,75
0.346000,-22.395064,313.816500,221.030436,-0.239378,0.160200,12.576622,0.157208,0.159132,-2445,-859.570312,67
0.348000,-21.756358,324.731250,214.726664,-0.232995,0.160200,12.583005,0.157288,0.155928,-2367,-832.148438,76
0.350000,-21.096139,335.325000,208.210558,-0.226357,0.160200,12.589643,0.157371,0.155928,-2288,-804.375000,73
0.352000,-20.415058,345.587250,201.488561,-0.219468,0.160200,12.596532,0.157457,0.153792,-2206,-775.546875,69
0.354000,-19.713790,355.507500,194.567322,-0.212331,0.160200,12.603669,0.157546,0.160200,-2115,-743.554688,68
0.356000,-18.993028,365.076500,187.453683,-0.204953,0.160200,12.611047,0.157638,0.156996,-2032,-714.375000,73
0.358000,-18.253484,374.284500,180.154680,-0.197338,0.160200,12.618662,0.157733,0.159132,-1954,-686.953125,79
0.360000,-17.495890,383.122000,172.677530,-0.189492,0.160200,12.626508,0.157831,0.158064,-1877,-659.882812,76
0.362000,-16.720996,391.580750,165.029627,-0.181423,0.160200,12.634577,0.157932,0.159132,-1796,-631.406250,73
0.364000,-15.929567,399.652750,157.218533,-0.173136,0.160200,12.642864,0.158036,0.156996,-1719,-604.335938,69
0.366000,-15.122385,407.329250,149.251972,-0.164639,0.160200,12.651361,0.158142,0.162336,-1644,-577.968750,60
0.368000,-14.300250,414.602750,141.137823,-0.155941,0.160200,12.660059,0.158251,0.156996,-1571,-552.304688,74
0.370000,-13.463974,421.466500,132.884109,-0.147049,0.160200,12.668951,0.158362,0.160200,-1489,-523.476562,77
0.372000,-12.614384,427.913250,124.498992,-0.137975,0.160200,12.678025,0.158475,0.156996,-1414,-497.109375,72
0.374000,-11.752321,433.937000,115.990764,-0.128726,0.160200,12.687274,0.158591,0.158064,-1330,-467.578125,67
0.376000,-10.878636,439.532000,107.367837,-0.119314,0.160200,12.696686,0.158709,0.156996,-1246,-438.046875,66
0.378000,-9.994193,444.692000,98.638738,-0.109748,0.160200,12.706252,0.158828,0.158064,-1162,-408.515625,73
0.380000,-9.099868,449.412250,89.812101,-0.100042,0.160200,12.715958,0.158949,0.160200,-1079,-379.335938,80
0.382000,-8.196544,453.688250,80.896652,-0.090204,0.160200,12.725796,0.159072,0.156996,-991,-348.398438,76
0.384000,-7.285115,457.515500,71.901208,-0.080249,0.160200,12.735751,0.159197,0.154860,-913,-320.976562,75
0.386000,-6.366482,460.890250,62.834664,-0.070189,0.160200,12.745811,0.159323,0.159132,-835,-293.554688,79
0.388000,-5.441554,463.809500,53.705985,-0.060035,0.160200,12.755965,0.159450,0.156996,-755,-265.429688,79
0.390000,-4.511244,466.270000,44.524200,-0.049802,0.160200,12.766198,0.159577,0.159132,-677,-238.007812,76
0.392000,-3.576474,468.269250,35.298386,-0.039502,0.160200,12.776498,0.159706,0.160200,-599,-210.585938,76
0.394000,-2.638167,469.805750,26.037667,-0.029150,0.160200,12.786850,0.159836,0.165540,-510,-179.296875,67
0.396000,-1.697251,470.877500,16.751200,-0.018759,0.160200,12.797241,0.159966,0.160200,-432,-151.875000,72
0.398000,-0.754657,471.483500,7.448170,-0.008342,0.160200,12.807658,0.160096,0.156996,-354,-124.453125,79
0.400000,0.188683,471.623500,-1.862227,0.002086,0.160200,12.818086,0.160226,0.163404,-274,-96.328125,64
0.402000,1.131837,471.297000,-11.170781,0.012511,0.160200,12.828511,0.160356,0.164472,-187,-65.742188,73
0.404000,2.073871,470.504500,-20.468289,0.022919,0.160200,12.838919,0.160486,0.160200,-99,-34.804688,81
0.406000,3.013855,469.246750,-29.745558,0.033297,0.160200,12.849297,0.160616,0.158064,-20,-7.031250,77
0.408000,3.950858,467.525000,-38.993412,0.043629,0.160200,12.859629,0.160745,0.163404,58,20.390625,71
0.410000,4.883955,465.341000,-48.202707,0.053904,0.160200,12.869904,0.160874,0.161268,134,47.109375,66
0.412000,5.812222,462.696750,-57.364337,0.064107,0.160200,12.880107,0.161001,0.165540,210,73.828125,69
0.414000,6.734742,459.595000,-66.469241,0.074225,0.160200,12.890225,0.161128,0.159132,283,99.492188,70
0.416000,7.650602,456.038500,-75.508417,0.084245,0.160200,12.900245,0.161253,0.163404,359,126.210938,66
0.418000,8.558896,452.031250,-84.472926,0.094154,0.160200,12.910154,0.161377,0.158064,433,152.226562,70
0.420000,9.458727,447.577250,-93.353904,0.103941,0.160200,12.919941,0.161499,0.160200,506,177.890625,68
0.422000,10.349205,442.680500,-102.142568,0.113592,0.160200,12.929592,0.161620,0.156996,581,204.257812,67
0.424000,11.229449,437.346000,-110.830228,0.123098,0.160200,12.939098,0.161739,0.162336,658,231.328125,69
0.426000,12.098589,431.579000,-119.408293,0.132446,0.160200,12.948446,0.161856,0.162336,734,258.046875,78
0.428000,12.955765,425.385000,-127.868280,0.141626,0.160200,12.957626,0.161970,0.162336,812,285.468750,78
0.430000,13.800129,418.770500,-136.201824,0.150628,0.160200,12.966628,0.162083,0.161268,892,313.593750,80
0.432000,14.630847,411.742000,-144.400683,0.159443,0.160200,12.975443,0.162193,0.162336,972,341.718750,80
0.434000,15.447097,404.306500,-152.456752,0.168062,0.160200,12.984062,0.162301,0.160200,1054,370.546875,81
0.436000,16.248073,396.471000,-160.362062,0.176476,0.160200,12.992476,0.162406,0.164472,1135,399.023438,76
0.438000,17.032981,388.243250,-168.108798,0.184677,0.160200,13.000677,0.162508,0.162336,1217,427.851562,76
0.440000,17.801046,379.632000,-175.689298,0.192658,0.160200,13.008658,0.162608,0.159132,1299,456.679688,66
0.442000,18.551509,370.645250,-183.096067,0.200412,0.160200,13.016412,0.162705,0.162336,1379,484.804688,71
0.444000,19.283627,361.291750,-190.321781,0.207933,0.160200,13.023933,0.162799,0.161268,1464,514.687500,76
0.446000,19.996676,351.581000,-197.359293,0.215215,0.160200,13.031215,0.162890,0.167676,1545,543.164062,72
0.448000,20.689951,341.522750,-204.201646,0.222253,0.160200,13.038253,0.162978,0.164472,1624,570.937500,68
0.450000,21.362767,331.126750,-210.842072,0.229043,0.160200,13.045043,0.163063,0.164472,1705,599.414062,79
0.452000,22.014458,320.403250,-217.274007,0.235579,0.160200,13.051579,0.163145,0.164472,1794,630.703125,66
0.454000,22.644380,309.363000,-223.491088,0.241859,0.160200,13.057859,0.163223,0.164472,1883,661.992188,78
0.456000,23.251910,298.016750,-229.487169,0.247880,0.160200,13.063880,0.163298,0.161268,1965,690.820312,81
0.458000,23.836447,286.376000,-235.256321,0.253637,0.160200,13.069637,0.163370,0.161268,2046,719.296875,79
0.460000,24.397414,274.451750,-240.792837,0.259130,0.160200,13.075130,0.163439,0.162336,2125,747.070312,80
0.462000,24.934254,262.256250,-246.091245,0.264356,0.160200,13.080356,0.163504,0.164472,2204,774.843750,78
0.464000,25.446439,249.801500,-251.146303,0.269313,0.160200,13.085313,0.163566,0.162336,2287,804.023438,64
0.466000,25.933460,237.099750,-255.953014,0.274000,0.160200,13.090000,0.163625,0.162336,2369,832.851562,72
0.468000,26.394838,224.163500,-260.506625,0.278417,0.160200,13.094417,0.163680,0.166608,2448,860.625000,62
0.470000,26.830114,211.005500,-264.802632,0.282561,0.160200,13.098561,0.163732,0.163404,2529,889.101562,75
0.472000,27.238860,197.639000,-268.836787,0.286434,0.160200,13.102434,0.163780,0.167676,2607,916.523438,78
0.474000,27.620670,184.076750,-272.605102,0.290033,0.160200,13.106033,0.163825,0.165540,2689,945.351562,75
0.476000,27.975167,170.332750,-276.103849,0.293360,0.160200,13.109360,0.163867,0.162336,2768,973.125000,71
0.478000,28.302001,156.420250,-279.329570,0.296414,0.160200,13.112414,0.163905,0.164472,2849,1001.601562,72
0.480000,28.600848,142.353000,-282.279074,0.299196,0.160200,13.115196,0.163940,0.163404,2932,1030.781250,70
0.482000,28.871413,128.145000,-284.949444,0.301705,0.160200,13.117705,0.163971,0.161268,3016,1060.312500,80
0.484000,29.113428,113.810500,-287.338041,0.303941,0.160200,13.119941,0.163999,0.166608,3101,1090.195312,83
0.486000,29.326655,99.363250,-289.442502,0.305906,0.160200,13.121906,0.164024,0.161268,3185,1119.726562,71
0.488000,29.510881,84.817750,-291.260745,0.307598,0.160200,13.123598,0.164045,0.164472,3269,1149.257812,75
0.490000,29.665926,70.188500,-292.790974,0.309020,0.160200,13.125020,0.164063,0.165540,3355,1179.492188,84
0.492000,29.791635,55.489750,-294.031675,0.310170,0.160200,13.126170,0.164077,0.162336,3440,1209.375000,74
0.494000,29.887885,40.736250,-294.981621,0.311050,0.160200,13.127050,0.164088,0.165540,3529,1240.664062,82
0.496000,29.954580,25.942250,-295.639873,0.311658,0.160200,13.127658,0.164096,0.166608,3615,1270.898438,71
0.498000,29.991654,11.122500,-296.005779,0.311996,0.160200,13.127996,0.164100,0.168744,3713,1305.351562,71
0.500000,29.999070,-3.708000,-296.078978,0.312064,-0.160200,-12.503936,-0.156299,-0.156996,3792,1333.125000,17
0.502000,29.976822,-18.534750,-295.859398,0.311861,-0.160200,-12.504139,-0.156302,-0.160200,3787,1331.367188,-54
0.504000,29.924931,-33.343250,-295.347256,0.311388,-0.160200,-12.504612,-0.156308,-0.152724,3725,1309.570312,-70
0.506000,29.843449,-48.118750,-294.543058,0.310644,-0.160200,-12.505356,-0.156317,-0.151656,3638,1278.984375,-91
0.508000,29.732456,-62.846750,-293.447599,0.309629,-0.160200,-12.506371,-0.156330,-0.152724,3538,1243.828125,-84
0.510000,29.592062,-77.512750,-292.061963,0.308343,-0.160200,-12.507657,-0.156346,-0.151656,3438,1208.671875,-82
0.512000,29.422405,-92.102000,-290.387520,0.306786,-0.160200,-12.509214,-0.156365,-0.158064,3347,1176.679688,-81
0.514000,29.223654,-106.600000,-288.425925,0.304957,-0.160200,-12.511043,-0.156388,-0.155928,3257,1145.039062,-70
0.516000,28.996005,-120.992750,-286.179118,0.302857,-0.160200,-12.513143,-0.156414,-0.154860,3166,1113.046875,-67
0.518000,28.739683,-135.265750,-283.649322,0.300484,-0.160200,-12.515516,-0.156444,-0.156996,3080,1082.812500,-69
0.520000,28.454942,-149.405250,-280.839038,0.297839,-0.160200,-12.518161,-0.156477,-0.156996,3002,1055.390625,-67
0.522000,28.142062,-163.396750,-277.751044,0.294921,-0.160200,-12.521079,-0.156513,-0.155928,2923,1027.617188,-71
0.524000,27.801355,-177.226500,-274.388394,0.291731,-0.160200,-12.524269,-0.156553,-0.156996,2841,998.789062,-67
0.526000,27.433156,-190.881500,-270.754414,0.288268,-0.160200,-12.527732,-0.156597,-0.156996,2762,971.015625,-68
0.528000,27.037829,-204.347500,-266.852697,0.284531,-0.160200,-12.531469,-0.156643,-0.158064,2682,942.890625,-65
0.530000,26.615766,-217.611250,-262.687100,0.280523,-0.160200,-12.535477,-0.156693,-0.154860,2601,914.414062,-69
0.532000,26.167384,-230.660000,-258.261745,0.276243,-0.160200,-12.539757,-0.156747,-0.155928,2522,886.640625,-64
0.534000,25.693126,-243.480750,-253.581005,0.271691,-0.160200,-12.544309,-0.156804,-0.156996,2443,858.867188,-66
0.536000,25.193461,-256.060750,-248.649511,0.266868,-0.160200,-12.549132,-0.156864,-0.153792,2363,830.742188,-65
0.538000,24.668883,-268.387250,-243.472138,0.261777,-0.160200,-12.554223,-0.156928,-0.158064,2279,801.210938,-73
0.540000,24.119912,-280.448500,-238.054006,0.256417,-0.160200,-12.559583,-0.156995,-0.158064,2194,771.328125,-83
0.542000,23.547089,-292.232500,-232.400473,0.250792,-0.160200,-12.565208,-0.157065,-0.159132,2107,740.742188,-65
0.544000,22.950982,-303.727250,-226.517129,0.244902,-0.160200,-12.571098,-0.157139,-0.154860,2027,712.617188,-68
0.546000,22.332180,-314.922000,-220.409793,0.238752,-0.160200,-12.577248,-0.157216,-0.158064,1944,683.437500,-69
0.548000,21.691294,-325.805500,-214.084503,0.232343,-0.160200,-12.583657,-0.157296,-0.159132,1862,654.609375,-84
0.550000,21.028958,-336.366500,-207.547515,0.225679,-0.160200,-12.590321,-0.157379,-0.152724,1780,625.781250,-80
0.552000,20.345828,-346.594750,-200.805292,0.218765,-0.160200,-12.597235,-0.157465,-0.155928,1698,596.953125,-81
0.554000,19.642579,-356.480250,-193.864501,0.211604,-0.160200,-12.604396,-0.157555,-0.158064,1619,569.179688,-76
0.556000,18.919907,-366.013500,-186.732007,0.204202,-0.160200,-12.611798,-0.157647,-0.160200,1540,541.406250,-82
0.558000,18.178525,-375.185000,-179.414861,0.196564,-0.160200,-12.619436,-0.157743,-0.160200,1460,513.281250,-76
0.560000,17.419167,-383.985250,-171.920300,0.188695,-0.160200,-12.627305,-0.157841,-0.158064,1383,486.210938,-67
0.562000,16.642584,-392.405750,-164.255735,0.180604,-0.160200,-12.635396,-0.157942,-0.161268,1306,459.140625,-73
0.564000,15.849544,-400.438000,-156.428744,0.172295,-0.160200,-12.643705,-0.158046,-0.158064,1225,430.664062,-66
0.566000,15.040832,-408.074750,-148.447068,0.163778,-0.160200,-12.652222,-0.158153,-0.158064,1146,402.890625,-63
0.568000,14.217245,-415.307750,-140.318599,0.155060,-0.160200,-12.660940,-0.158262,-0.160200,1062,373.359375,-80
0.570000,13.379601,-422.130000,-132.051375,0.146150,-0.160200,-12.669850,-0.158373,-0.156996,981,344.882812,-72
0.572000,12.528725,-428.535000,-123.653572,0.137057,-0.160200,-12.678943,-0.158487,-0.158064,904,317.812500,-69
0.574000,11.665461,-434.516000,-115.133492,0.127792,-0.160200,-12.688208,-0.158603,-0.154860,825,290.039062,-66
0.576000,10.790661,-440.067500,-106.499563,0.118364,-0.160200,-12.697636,-0.158720,-0.156996,746,262.265625,-65
0.578000,9.905191,-445.183750,-97.760321,0.108784,-0.160200,-12.707216,-0.158840,-0.153792,668,234.843750,-65
0.580000,9.009926,-449.860000,-88.924408,0.099063,-0.160200,-12.716937,-0.158962,-0.160200,588,206.718750,-65
0.582000,8.105751,-454.091250,-80.000561,0.089214,-0.160200,-12.726786,-0.159085,-0.163404,508,178.593750,-68
0.584000,7.193561,-457.873500,-70.997606,0.079248,-0.160200,-12.736752,-0.159209,-0.156996,427,150.117188,-69
0.586000,6.274257,-461.202750,-61.924444,0.069177,-0.160200,-12.746823,-0.159335,-0.155928,339,119.179688,-76
0.588000,5.348750,-464.076000,-52.790047,0.059015,-0.160200,-12.756985,-0.159462,-0.159132,253,88.945312,-67
0.590000,4.417953,-466.490750,-43.603449,0.048775,-0.160200,-12.767225,-0.159590,-0.156996,167,58.710938,-81
0.592000,3.482787,-468.443750,-34.373734,0.038469,-0.160200,-12.777531,-0.159719,-0.162336,84,29.531250,-78
0.594000,2.544178,-469.933750,-25.110027,0.028112,-0.160200,-12.787888,-0.159849,-0.161268,2,0.703125,-81
0.596000,1.603052,-470.959250,-15.821491,0.017718,-0.160200,-12.798282,-0.159979,-0.161268,-82,-28.828125,-76
0.598000,0.660341,-471.518500,-6.517309,0.007300,-0.160200,-12.808700,-0.160109,-0.163404,-165,-58.007812,-71
0.600000,-0.283022,-471.611750,2.793317,-0.003129,-0.160200,-12.819129,-0.160239,-0.159132,-248,-87.187500,-73
0.602000,-1.226106,-471.238750,12.101181,-0.013553,-0.160200,-12.829553,-0.160369,-0.160200,-330,-116.015625,-74
0.604000,-2.167977,-470.399750,21.397079,-0.023958,-0.160200,-12.839958,-0.160499,-0.155928,-414,-145.546875,-76
0.606000,-3.107705,-469.095500,30.671818,-0.034332,-0.160200,-12.850332,-0.160629,-0.158064,-493,-173.320312,-81
0.608000,-4.044359,-467.327250,39.916227,-0.044660,-0.160200,-12.860660,-0.160758,-0.159132,-579,-203.554688,-70
0.610000,-4.977014,-465.097250,49.121165,-0.054928,-0.160200,-12.870928,-0.160887,-0.162336,-667,-234.492188,-77
0.612000,-5.904748,-462.407000,58.277529,-0.065123,-0.160200,-12.881123,-0.161014,-0.159132,-746,-262.265625,-76
0.614000,-6.826642,-459.259500,67.376265,-0.075231,-0.160200,-12.891231,-0.161140,-0.158064,-825,-290.039062,-69
0.616000,-7.741786,-455.658250,76.408375,-0.085241,-0.160200,-12.901241,-0.161266,-0.160200,-903,-317.460938,-64
0.618000,-8.649275,-451.606250,85.364929,-0.095139,-0.160200,-12.911139,-0.161389,-0.155928,-987,-346.992188,-82
0.620000,-9.548211,-447.107500,94.237069,-0.104912,-0.160200,-12.920912,-0.161511,-0.162336,-1077,-378.632812,-73
0.622000,-10.437705,-442.166500,103.016022,-0.114550,-0.160200,-12.930550,-0.161632,-0.160200,-1168,-410.625000,-69
0.624000,-11.316877,-436.788500,111.693107,-0.124040,-0.160200,-12.940040,-0.161750,-0.161268,-1254,-440.859375,-66
0.626000,-12.184859,-430.978500,120.259744,-0.133371,-0.160200,-12.949371,-0.161867,-0.162336,-1333,-468.632812,-72
0.628000,-13.040791,-424.742500,128.707461,-0.142534,-0.160200,-12.958534,-0.161982,-0.161268,-1416,-497.812500,-74
0.630000,-13.883829,-418.086500,137.027905,-0.151519,-0.160200,-12.967519,-0.162094,-0.162336,-1500,-527.343750,-82
0.632000,-14.713137,-411.016750,145.212848,-0.160314,-0.160200,-12.976314,-0.162204,-0.166608,-1582,-556.171875,-86
0.634000,-15.527896,-403.540750,153.254197,-0.168913,-0.160200,-12.984913,-0.162311,-0.163404,-1666,-585.703125,-75
0.636000,-16.327300,-395.665500,161.143999,-0.177306,-0.160200,-12.993306,-0.162416,-0.161268,-1749,-614.882812,-70
0.638000,-17.110558,-387.399250,168.874454,-0.185485,-0.160200,-13.001485,-0.162519,-0.164472,-1841,-647.226562,-76
0.640000,-17.876897,-378.750000,176.437915,-0.193444,-0.160200,-13.009444,-0.162618,-0.161268,-1930,-678.515625,-83
0.642000,-18.625558,-369.726000,183.826905,-0.201175,-0.160200,-13.017175,-0.162715,-0.161268,-2016,-708.750000,-79
0.644000,-19.355801,-360.336750,191.034117,-0.208672,-0.160200,-13.024672,-0.162808,-0.161268,-2106,-740.390625,-88
0.646000,-20.066905,-350.590750,198.052424,-0.215930,-0.160200,-13.031930,-0.162899,-0.164472,-2199,-773.085938,-85
0.648000,-20.758164,-340.498000,204.874885,-0.222944,-0.160200,-13.038944,-0.162987,-0.165540,-2294,-806.484375,-82
0.650000,-21.428897,-330.069000,211.494754,-0.229708,-0.160200,-13.045708,-0.163071,-0.162336,-2388,-839.531250,-68
0.652000,-22.078440,-319.313500,217.905486,-0.236219,-0.160200,-13.052219,-0.163153,-0.162336,-2469,-868.007812,-66
0.654000,-22.706151,-308.242000,224.100741,-0.242473,-0.160200,-13.058473,-0.163231,-0.163404,-2548,-895.781250,-68
0.656000,-23.311408,-296.865750,230.074392,-0.248467,-0.160200,-13.064467,-0.163306,-0.161268,-2627,-923.554688,-64
0.658000,-23.893614,-285.196000,235.820533,-0.254199,-0.160200,-13.070199,-0.163377,-0.164472,-2704,-950.625000,-72
0.660000,-24.452192,-273.244250,241.333481,-0.259665,-0.160200,-13.075665,-0.163446,-0.161268,-2782,-978.046875,-77
0.662000,-24.986591,-261.022250,246.607786,-0.264864,-0.160200,-13.080864,-0.163511,-0.163404,-2860,-1005.468750,-75
0.664000,-25.496281,-248.542250,251.638230,-0.269794,-0.160200,-13.085794,-0.163572,-0.165540,-2942,-1034.296875,-70
0.666000,-25.980760,-235.816500,256.419841,-0.274454,-0.160200,-13.090454,-0.163631,-0.162336,-3023,-1062.773438,-79
0.668000,-26.439547,-222.857250,260.947890,-0.278843,-0.160200,-13.094843,-0.163686,-0.166608,-3099,-1089.492188,-75
0.670000,-26.872189,-209.678000,265.217899,-0.282961,-0.160200,-13.098961,-0.163737,-0.165540,-3178,-1117.265625,-67
0.672000,-27.278259,-196.291250,269.225645,-0.286806,-0.160200,-13.102806,-0.163785,-0.164472,-3255,-1144.335938,-69
0.674000,-27.657354,-182.710500,272.967166,-0.290378,-0.160200,-13.106378,-0.163830,-0.163404,-3334,-1172.109375,-64
0.676000,-28.009101,-168.949000,276.438762,-0.293678,-0.160200,-13.109678,-0.163871,-0.166608,-3414,-1200.234375,-68
0.678000,-28.333150,-155.020250,279.637000,-0.296705,-0.160200,-13.112705,-0.163909,-0.163404,-3494,-1228.359375,-68
0.680000,-28.629182,-140.938250,282.558717,-0.299459,-0.160200,-13.115459,-0.163943,-0.162336,-3575,-1256.835938,-68
0.682000,-28.896903,-126.717000,285.201025,-0.301940,-0.160200,-13.117940,-0.163974,-0.168744,-3655,-1284.960938,-70
0.684000,-29.136050,-112.370750,287.561310,-0.304150,-0.160200,-13.120150,-0.164002,-0.165540,-3738,-1314.140625,-83
0.686000,-29.346386,-97.913000,289.637238,-0.306087,-0.160200,-13.122087,-0.164026,-0.165540,-3821,-1343.320312,-81
0.688000,-29.527702,-83.358250,291.426756,-0.307753,-0.160200,-13.123753,-0.164047,-0.164472,-3904,-1372.500000,-79
0.690000,-29.679819,-68.721500,292.928096,-0.309147,-0.160200,-13.125147,-0.164064,-0.163404,-3990,-1402.734375,-73
0.692000,-29.802588,-54.016750,294.139771,-0.310270,-0.160200,-13.126270,-0.164078,-0.163404,-4074,-1432.265625,-82
0.694000,-29.895886,-39.258250,295.060585,-0.311123,-0.160200,-13.127123,-0.164089,-0.166608,-4160,-1462.500000,-81
0.696000,-29.959621,-24.461000,295.689627,-0.311704,-0.160200,-13.127704,-0.164096,-0.166608,-4247,-1493.085938,-74
0.698000,-29.993730,-9.639750,296.026274,-0.312015,-0.160200,-13.128015,-0.164100,-0.161268,-4331,-1522.617188,-81
0.700000,-29.998180,5.191000,296.070194,-0.312056,0.160200,12.503944,0.156299,0.153792,-4411,-1550.742188,-22
0.702000,-29.972966,20.016500,295.821343,-0.311826,0.160200,12.504174,0.156302,0.156996,-4405,-1548.632812,52
0.704000,-29.918114,34.822500,295.279968,-0.311325,0.160200,12.504675,0.156308,0.154860,-4340,-1525.781250,83
0.706000,-29.833676,49.594250,294.446603,-0.310554,0.160200,12.505446,0.156318,0.153792,-4251,-1494.492188,92
0.708000,-29.719737,64.316500,293.322073,-0.309513,0.160200,12.506487,0.156331,0.156996,-4135,-1453.710938,84
0.710000,-29.576410,78.975250,291.907490,-0.308200,0.160200,12.507800,0.156348,0.154860,-4017,-1412.226562,80
0.712000,-29.403836,93.556000,290.204252,-0.306615,0.160200,12.509385,0.156367,0.153792,-3924,-1379.531250,74
0.714000,-29.202186,108.044250,288.214044,-0.304760,0.160200,12.511240,0.156391,0.153792,-3842,-1350.703125,75
0.716000,-28.971659,122.425750,285.938834,-0.302632,0.160200,12.513368,0.156417,0.153792,-3762,-1322.578125,75
0.718000,-28.712483,136.686000,283.380872,-0.300232,0.160200,12.515768,0.156447,0.159132,-3683,-1294.804688,71
0.720000,-28.424915,150.811000,280.542687,-0.297560,0.160200,12.518440,0.156481,0.158064,-3605,-1267.382812,68
0.722000,-28.109239,164.787250,277.427085,-0.294615,0.160200,12.521385,0.156517,0.156996,-3530,-1241.015625,60
0.724000,-27.765766,178.600250,274.037149,-0.291397,0.160200,12.524603,0.156558,0.156996,-3451,-1213.242188,70
0.726000,-27.394838,192.236750,270.376229,-0.287906,0.160200,12.528094,0.156601,0.154860,-3371,-1185.117188,63
0.728000,-26.996819,205.683250,266.447946,-0.284143,0.160200,12.531857,0.156648,0.152724,-3293,-1157.695312,71
0.730000,-26.572105,218.926000,262.256184,-0.280107,0.160200,12.535893,0.156699,0.158064,-3213,-1129.570312,67
0.732000,-26.121115,231.952500,257.805089,-0.275800,0.160200,12.540200,0.156753,0.154860,-3130,-1100.390625,70
0.734000,-25.644295,244.749750,253.099061,-0.271221,0.160200,12.544779,0.156810,0.156996,-3047,-1071.210938,81
0.736000,-25.142116,257.305000,248.142755,-0.266371,0.160200,12.549629,0.156870,0.154860,-2961,-1040.976562,77
0.738000,-24.615075,269.605500,242.941072,-0.261253,0.160200,12.554747,0.156934,0.156996,-2880,-1012.500000,74
0.740000,-24.063694,281.639500,237.499155,-0.255866,0.160200,12.560134,0.157002,0.156996,-2797,-983.320312,65
0.742000,-23.488517,293.395250,231.822386,-0.250214,0.160200,12.565786,0.157072,0.154860,-2715,-954.492188,76
0.744000,-22.890113,304.860750,225.916378,-0.244299,0.160200,12.571701,0.157146,0.156996,-2632,-925.312500,75
0.746000,-22.269074,316.024500,219.786971,-0.238122,0.160200,12.577878,0.157223,0.159132,-2551,-896.835938,76
0.748000,-21.626015,326.876000,213.440226,-0.231688,0.160200,12.584312,0.157304,0.159132,-2473,-869.414062,66
0.750000,-20.961570,337.404250,206.882420,-0.224999,0.160200,12.591001,0.157388,0.159132,-2395,-841.992188,68
0.752000,-20.276398,347.599000,200.120037,-0.218060,0.160200,12.597940,0.157474,0.153792,-2316,-814.218750,62
0.754000,-19.571174,357.450000,193.159764,-0.210875,0.160200,12.605125,0.157564,0.154860,-2232,-784.687500,70
0.756000,-18.846598,366.947000,186.008483,-0.203449,0.160200,12.612551,0.157657,0.156996,-2153,-756.914062,70
0.758000,-18.103386,376.081750,178.673268,-0.195787,0.160200,12.620213,0.157753,0.160200,-2073,-728.789062,68
0.760000,-17.342271,384.844500,171.161370,-0.187896,0.160200,12.628104,0.157851,0.154860,-1996,-701.718750,65
0.762000,-16.564008,393.226500,163.480218,-0.179782,0.160200,12.636218,0.157953,0.159132,-1917,-673.945312,66
0.764000,-15.769365,401.219750,155.637408,-0.171453,0.160200,12.644547,0.158057,0.160200,-1835,-645.117188,63
0.766000,-14.959129,408.816250,147.640695,-0.162915,0.160200,12.653085,0.158164,0.155928,-1760,-618.750000,75
0.768000,-14.134100,416.008500,139.497987,-0.154177,0.160200,12.661823,0.158273,0.159132,-1685,-592.382812,73
0.770000,-13.295095,422.789500,131.217335,-0.145249,0.160200,12.670751,0.158384,0.155928,-1612,-566.718750,62
0.772000,-12.442942,429.152250,122.806928,-0.136139,0.160200,12.679861,0.158498,0.159132,-1539,-541.054688,74
0.774000,-11.578486,435.090500,114.275083,-0.126856,0.160200,12.689144,0.158614,0.159132,-1464,-514.687500,72
0.776000,-10.702580,440.599000,105.630236,-0.117413,0.160200,12.698587,0.158732,0.159132,-1388,-487.968750,62
0.778000,-9.816090,445.671500,96.880936,-0.107818,0.160200,12.708182,0.158852,0.159132,-1314,-461.953125,76
0.780000,-8.919894,450.303000,88.035835,-0.098084,0.160200,12.717916,0.158974,0.159132,-1237,-434.882812,79
0.782000,-8.014878,454.489500,79.103679,-0.088223,0.160200,12.727777,0.159097,0.158064,-1158,-407.109375,75
0.784000,-7.101936,458.226750,70.093301,-0.078245,0.160200,12.737755,0.159222,0.154860,-1079,-379.335938,74
0.786000,-6.181971,461.510750,61.013611,-0.068165,0.160200,12.747835,0.159348,0.158064,-993,-349.101562,78
0.788000,-5.255893,464.338250,51.873587,-0.057995,0.160200,12.758005,0.159475,0.159132,-910,-319.921875,68
0.790000,-4.324618,466.706750,42.682268,-0.047747,0.160200,12.768253,0.159603,0.159132,-831,-292.148438,69
0.792000,-3.389066,468.613750,33.448742,-0.037436,0.160200,12.778564,0.159732,0.161268,-744,-261.562500,77
0.794000,-2.450163,470.057250,24.182140,-0.027074,0.160200,12.788926,0.159862,0.158064,-665,-233.789062,69
0.796000,-1.508837,471.036000,14.891625,-0.016677,0.160200,12.799323,0.159992,0.161268,-582,-204.609375,76
0.798000,-0.566019,471.549000,5.586385,-0.006257,0.160200,12.809743,0.160122,0.158064,-500,-175.781250,80
0.800000,0.377359,471.595500,-3.724379,0.004171,0.160200,12.820171,0.160252,0.159132,-421,-148.007812,74
0.802000,1.320363,471.175750,-13.031461,0.014594,0.160200,12.830594,0.160382,0.159132,-343,-120.585938,77
0.804000,2.262062,470.290250,-22.325656,0.024997,0.160200,12.840997,0.160512,0.161268,-257,-90.351562,75
0.806000,3.201524,468.939500,-31.597775,0.035367,0.160200,12.851367,0.160642,0.161268,-176,-61.875000,73
0.808000,4.137820,467.125000,-40.838647,0.045689,0.160200,12.861689,0.160771,0.159132,-96,-33.750000,78
0.810000,5.070024,464.848750,-50.039137,0.055951,0.160200,12.871951,0.160899,0.162336,-16,-5.625000,73
0.812000,5.997215,462.113000,-59.190144,0.066138,0.160200,12.882138,0.161027,0.159132,62,21.796875,77
0.814000,6.918476,458.920000,-68.282622,0.076237,0.160200,12.892237,0.161153,0.161268,145,50.976562,73
0.816000,7.832895,455.273000,-77.307577,0.086236,0.160200,12.902236,0.161278,0.164472,221,77.695312,71
0.818000,8.739568,451.176250,-86.256087,0.096122,0.160200,12.912122,0.161402,0.161268,299,105.117188,73
0.820000,9.637600,446.633250,-95.119301,0.105882,0.160200,12.921882,0.161524,0.162336,382,134.296875,75
0.822000,10.526101,441.648250,-103.888457,0.115505,0.160200,12.931505,0.161644,0.159132,456,160.312500,62
0.824000,11.404193,436.226750,-112.554882,0.124980,0.160200,12.940980,0.161762,0.162336,536,188.437500,74
0.826000,12.271008,430.374000,-121.110006,0.134296,0.160200,12.950296,0.161879,0.164472,617,216.914062,74
0.828000,13.125689,424.095750,-129.545369,0.143441,0.160200,12.959441,0.161993,0.162336,695,244.335938,65
0.830000,13.967391,417.398000,-137.852632,0.152407,0.160200,12.968407,0.162105,0.159132,773,271.757812,69
0.832000,14.795281,410.287250,-146.023577,0.161183,0.160200,12.977183,0.162215,0.164472,854,300.234375,68
0.834000,15.608540,402.771000,-154.050127,0.169762,0.160200,12.985762,0.162322,0.161268,935,328.710938,79
0.836000,16.406365,394.856500,-161.924343,0.178133,0.160200,12.994133,0.162427,0.159132,1023,359.648438,71
0.838000,17.187966,386.551500,-169.638439,0.186291,0.160200,13.002291,0.162529,0.161268,1116,392.343750,78
0.840000,17.952571,377.864250,-177.184788,0.194227,0.160200,13.010227,0.162628,0.162336,1198,421.171875,83
0.842000,18.699423,368.803500,-184.555926,0.201935,0.160200,13.017935,0.162724,0.163404,1281,450.351562,71
0.844000,19.427785,359.378000,-191.744565,0.209409,0.160200,13.025409,0.162818,0.159132,1367,480.585938,70
0.846000,20.136935,349.596750,-198.743596,0.216643,0.160200,13.032643,0.162908,0.164472,1447,508.710938,71
0.848000,20.826172,339.470250,-205.546098,0.223631,0.160200,13.039631,0.162995,0.164472,1529,537.539062,77
0.850000,21.494816,329.008000,-212.145345,0.230371,0.160200,13.046371,0.163080,0.163404,1610,566.015625,76
0.852000,22.142204,318.220250,-218.534811,0.236856,0.160200,13.052856,0.163161,0.165540,1691,594.492188,79
0.854000,22.767697,307.118000,-224.708177,0.243084,0.160200,13.059084,0.163239,0.164472,1773,623.320312,80
0.856000,23.370676,295.711750,-230.659340,0.249052,0.160200,13.065052,0.163313,0.164472,1854,651.796875,81
0.858000,23.950544,284.013250,-236.382413,0.254757,0.160200,13.070757,0.163384,0.163404,1937,680.976562,72
0.860000,24.506729,272.034000,-241.871739,0.260197,0.160200,13.076197,0.163452,0.162336,2020,710.156250,69
0.862000,25.038680,259.785750,-247.121888,0.265369,0.160200,13.081369,0.163517,0.159132,2100,738.281250,67
0.864000,25.545872,247.280500,-252.127669,0.270272,0.160200,13.086272,0.163578,0.165540,2181,766.757812,69
0.866000,26.027802,234.530750,-256.884132,0.274905,0.160200,13.090905,0.163636,0.163404,2261,794.882812,66
0.868000,26.483995,221.549250,-261.386574,0.279267,0.160200,13.095267,0.163691,0.162336,2340,822.656250,69
0.870000,26.913999,208.348500,-265.630543,0.283358,0.160200,13.099358,0.163742,0.163404,2427,853.242188,79
0.872000,27.317389,194.941750,-269.611841,0.287175,0.160200,13.103175,0.163790,0.161268,2510,882.421875,79
0.874000,27.693766,181.342000,-273.326531,0.290720,0.160200,13.106720,0.163834,0.161268,2596,912.656250,69
0.876000,28.042757,167.563250,-276.770942,0.293993,0.160200,13.109993,0.163875,0.160200,2682,942.890625,83
0.878000,28.364019,153.618750,-279.941665,0.296992,0.160200,13.112992,0.163912,0.165540,2770,973.828125,68
0.880000,28.657232,139.522250,-282.835567,0.299719,0.160200,13.115719,0.163946,0.166608,2852,1002.656250,69
0.882000,28.922108,125.288000,-285.449785,0.302174,0.160200,13.118174,0.163977,0.164472,2935,1031.835938,79
0.884000,29.158384,110.929500,-287.781734,0.304356,0.160200,13.120356,0.164004,0.166608,3020,1061.718750,85
0.886000,29.365826,96.461500,-289.829109,0.306266,0.160200,13.122266,0.164028,0.163404,3107,1092.304688,72
0.888000,29.544230,81.898250,-291.589885,0.307904,0.160200,13.123904,0.164049,0.164472,3203,1126.054688,72
0.890000,29.693419,67.253750,-293.062320,0.309272,0.160200,13.125272,0.164066,0.164472,3301,1160.507812,77
0.892000,29.813245,52.543000,-294.244959,0.310368,0.160200,13.126368,0.164080,0.164472,3395,1193.554688,81
0.894000,29.903591,37.780250,-295.136632,0.311193,0.160200,13.127193,0.164090,0.166608,3485,1225.195312,85
0.896000,29.964366,22.979750,-295.736457,0.311747,0.160200,13.127747,0.164097,0.168744,3571,1255.429688,73
0.898000,29.995510,8.157000,-296.043842,0.312031,0.160200,13.128031,0.164100,0.163404,3657,1285.664062,85
0.900000,29.996994,-6.674000,-296.058482,0.312045,-0.160200,-12.503955,-0.156299,-0.155928,3749,1318.007812,21
0.902000,29.968814,-21.498500,-295.780363,0.311788,-0.160200,-12.504212,-0.156303,-0.155928,3747,1317.304688,-47
0.904000,29.911000,-36.301500,-295.209760,0.311261,-0.160200,-12.504739,-0.156309,-0.160200,3675,1291.992188,-85
0.906000,29.823608,-51.068750,-294.347236,0.310462,-0.160200,-12.505538,-0.156319,-0.164472,3560,1251.562500,-84
0.908000,29.706725,-65.785500,-293.193646,0.309393,-0.160200,-12.506607,-0.156333,-0.159132,3434,1207.265625,-94
0.910000,29.560466,-80.437000,-291.750130,0.308053,-0.160200,-12.507947,-0.156349,-0.153792,3323,1168.242188,-74
0.912000,29.384977,-95.009250,-290.018115,0.306442,-0.160200,-12.509558,-0.156369,-0.154860,3227,1134.492188,-67
0.914000,29.180429,-109.487500,-287.999313,0.304559,-0.160200,-12.511441,-0.156393,-0.156996,3134,1101.796875,-65
0.916000,28.947027,-123.857250,-285.695722,0.302404,-0.160200,-12.513596,-0.156420,-0.151656,3049,1071.914062,-69
0.918000,28.685000,-138.105000,-283.109619,0.299977,-0.160200,-12.516023,-0.156450,-0.155928,2971,1044.492188,-67
0.920000,28.394607,-152.215750,-280.243562,0.297277,-0.160200,-12.518723,-0.156484,-0.159132,2890,1016.015625,-70
0.922000,28.076137,-166.176000,-277.100384,0.294305,-0.160200,-12.521695,-0.156521,-0.158064,2808,987.187500,-66
0.924000,27.729903,-179.972250,-273.683193,0.291060,-0.160200,-12.524940,-0.156562,-0.158064,2714,954.140625,-66
0.926000,27.356248,-193.590250,-269.995370,0.287542,-0.160200,-12.528458,-0.156606,-0.154860,2621,921.445312,-72
0.928000,26.955542,-207.016750,-266.040560,0.283752,-0.160200,-12.532248,-0.156653,-0.153792,2541,893.320312,-74
0.930000,26.528181,-220.238500,-261.822674,0.279689,-0.160200,-12.536311,-0.156704,-0.158064,2463,865.898438,-68
0.932000,26.074588,-233.242750,-257.345883,0.275354,-0.160200,-12.540646,-0.156758,-0.156996,2374,834.609375,-74
0.934000,25.595210,-246.016500,-252.614614,0.270748,-0.160200,-12.545252,-0.156816,-0.155928,2296,807.187500,-68
0.936000,25.090522,-258.546500,-247.633546,0.265871,-0.160200,-12.550129,-0.156877,-0.158064,2215,778.710938,-73
0.938000,24.561024,-270.821000,-242.407604,0.260726,-0.160200,-12.555274,-0.156941,-0.161268,2134,750.234375,-77
0.940000,24.007238,-282.828000,-236.941956,0.255313,-0.160200,-12.560687,-0.157009,-0.156996,2053,721.757812,-81
0.942000,23.429712,-294.555000,-231.242006,0.249635,-0.160200,-12.566365,-0.157080,-0.158064,1972,693.281250,-82
0.944000,22.829018,-305.990750,-225.313392,0.243693,-0.160200,-12.572307,-0.157154,-0.160200,1888,663.750000,-78
0.946000,22.205749,-317.124000,-219.161974,0.237491,-0.160200,-12.578509,-0.157231,-0.154860,1795,631.054688,-83
0.948000,21.560522,-327.943500,-212.793838,0.231031,-0.160200,-12.584969,-0.157312,-0.155928,1712,601.875000,-74
0.950000,20.893975,-338.439000,-206.215279,0.224317,-0.160200,-12.591683,-0.157396,-0.155928,1632,573.750000,-77
0.952000,20.206766,-348.599750,-199.432802,0.217353,-0.160200,-12.598647,-0.157483,-0.160200,1552,545.625000,-69
0.954000,19.499576,-358.415500,-192.453116,0.210143,-0.160200,-12.605857,-0.157573,-0.159132,1455,511.523438,-66
0.956000,18.773104,-367.877000,-185.283121,0.202693,-0.160200,-12.613307,-0.157666,-0.158064,1373,482.695312,-73
0.958000,18.028068,-376.975000,-177.929907,0.195008,-0.160200,-12.620992,-0.157762,-0.159132,1289,453.164062,-65
0.960000,17.265204,-385.700000,-170.400747,0.187095,-0.160200,-12.628905,-0.157861,-0.162336,1209,425.039062,-73
0.962000,16.485268,-394.043500,-162.703085,0.178959,-0.160200,-12.637041,-0.157963,-0.158064,1126,395.859375,-73
0.964000,15.689030,-401.997500,-154.844533,0.170608,-0.160200,-12.645392,-0.158067,-0.151656,1047,368.085938,-68
0.966000,14.877278,-409.553750,-146.832862,0.162050,-0.160200,-12.653950,-0.158174,-0.156996,965,339.257812,-73
0.968000,14.050815,-416.705250,-138.675995,0.153293,-0.160200,-12.662707,-0.158284,-0.159132,882,310.078125,-78
0.970000,13.210457,-423.444750,-130.381997,0.144346,-0.160200,-12.671654,-0.158396,-0.156996,803,282.304688,-77
0.972000,12.357036,-429.765250,-121.959070,0.135218,-0.160200,-12.680782,-0.158510,-0.158064,725,254.882812,-73
0.974000,11.491396,-435.660750,-113.415543,0.125919,-0.160200,-12.690081,-0.158626,-0.160200,648,227.812500,-71
0.976000,10.614393,-441.125750,-104.759864,0.116460,-0.160200,-12.699540,-0.158744,-0.156996,565,198.632812,-75
0.978000,9.726893,-446.154500,-96.000593,0.106851,-0.160200,-12.709149,-0.158864,-0.158064,480,168.750000,-75
0.980000,8.829775,-450.742000,-87.146392,0.097104,-0.160200,-12.718896,-0.158986,-0.160200,400,140.625000,-75
0.982000,7.923925,-454.883750,-78.206015,0.087230,-0.160200,-12.728770,-0.159110,-0.154860,316,111.093750,-67
0.984000,7.010240,-458.575500,-69.188303,0.077242,-0.160200,-12.738758,-0.159234,-0.156996,232,81.562500,-71
0.986000,6.089623,-461.814000,-60.102175,0.067152,-0.160200,-12.748848,-0.159361,-0.159132,151,53.085938,-76
0.988000,5.162984,-464.595750,-50.956614,0.056973,-0.160200,-12.759027,-0.159488,-0.160200,66,23.203125,-78
0.990000,4.231240,-466.918250,-41.760664,0.046719,-0.160200,-12.769281,-0.159616,-0.159132,-41,-14.414062,-72
0.992000,3.295311,-468.779000,-32.523419,0.036402,-0.160200,-12.779598,-0.159745,-0.161268,-129,-45.351562,-67
0.994000,2.356124,-470.176000,-23.254013,0.026036,-0.160200,-12.789964,-0.159875,-0.162336,-218,-76.640625,-78
0.996000,1.414607,-471.108250,-13.961612,0.015636,-0.160200,-12.800364,-0.160005,-0.159132,-300,-105.468750,-72
0.998000,0.471691,-471.574500,-4.655405,0.005214,-0.160200,-12.810786,-0.160135,-0.159132,-389,-136.757812,-68
1.000000,-0.471691,-471.574500,4.655405,-0.005214,-0.160200,-12.821214,-0.160265,-0.163404,-477,-167.695312,-78
1.002000,-1.414607,-471.108250,13.961612,-0.015636,-0.160200,-12.831636,-0.160395,-0.160200,-562,-197.578125,-69
1.004000,-2.356124,-470.176000,23.254013,-0.026036,-0.160200,-12.842036,-0.160525,-0.158064,-647,-227.460938,-64
1.006000,-3.295311,-468.779000,32.523419,-0.036402,-0.160200,-12.852402,-0.160655,-0.160200,-728,-255.937500,-77
1.008000,-4.231240,-466.918250,41.760664,-0.046719,-0.160200,-12.862719,-0.160784,-0.160200,-809,-284.414062,-67
1.010000,-5.162984,-464.595750,50.956614,-0.056973,-0.160200,-12.872973,-0.160912,-0.163404,-887,-311.835938,-66
1.012000,-6.089623,-461.814000,60.102175,-0.067152,-0.160200,-12.883152,-0.161039,-0.162336,-967,-339.960938,-69
1.014000,-7.010240,-458.575500,69.188303,-0.077242,-0.160200,-12.893242,-0.161166,-0.159132,-1048,-368.437500,-67
1.016000,-7.923925,-454.883750,78.206015,-0.087230,-0.160200,-12.903230,-0.161290,-0.160200,-1127,-396.210938,-68
1.018000,-8.829775,-450.742000,87.146392,-0.097104,-0.160200,-12.913104,-0.161414,-0.163404,-1208,-424.687500,-73
1.020000,-9.726893,-446.154500,96.000593,-0.106851,-0.160200,-12.922851,-0.161536,-0.161268,-1290,-453.515625,-74
1.022000,-10.614393,-441.125750,104.759864,-0.116460,-0.160200,-12.932460,-0.161656,-0.162336,-1371,-481.992188,-80
1.024000,-11.491396,-435.660750,113.415543,-0.125919,-0.160200,-12.941919,-0.161774,-0.162336,-1454,-511.171875,-84
1.026000,-12.357036,-429.765250,121.959070,-0.135218,-0.160200,-12.951218,-0.161890,-0.161268,-1538,-540.703125,-75
1.028000,-13.210457,-423.444750,130.381997,-0.144346,-0.160200,-12.960346,-0.162004,-0.161268,-1620,-569.531250,-68
1.030000,-14.050815,-416.705250,138.675995,-0.153293,-0.160200,-12.969293,-0.162116,-0.162336,-1704,-599.062500,-69
1.032000,-14.877278,-409.553750,146.832862,-0.162050,-0.160200,-12.978050,-0.162226,-0.164472,-1785,-627.539062,-81
1.034000,-15.689030,-401.997500,154.844533,-0.170608,-0.160200,-12.986608,-0.162333,-0.164472,-1879,-660.585938,-72
1.036000,-16.485268,-394.043500,162.703085,-0.178959,-0.160200,-12.994959,-0.162437,-0.163404,-1963,-690.117188,-80
1.038000,-17.265204,-385.700000,170.400747,-0.187095,-0.160200,-13.003095,-0.162539,-0.161268,-2046,-719.296875,-82
1.040000,-18.028068,-376.975000,177.929907,-0.195008,-0.160200,-13.011008,-0.162638,-0.158064,-2131,-749.179688,-70
1.042000,-18.773104,-367.877000,185.283121,-0.202693,-0.160200,-13.018693,-0.162734,-0.161268,-2216,-779.062500,-70
1.044000,-19.499576,-358.415500,192.453116,-0.210143,-0.160200,-13.026143,-0.162827,-0.162336,-2298,-807.890625,-83
1.046000,-20.206766,-348.599750,199.432802,-0.217353,-0.160200,-13.033353,-0.162917,-0.165540,-2381,-837.070312,-79
1.048000,-20.893975,-338.439000,206.215279,-0.224317,-0.160200,-13.040317,-0.163004,-0.161268,-2461,-865.195312,-79
1.050000,-21.560522,-327.943500,212.793838,-0.231031,-0.160200,-13.047031,-0.163088,-0.162336,-2541,-893.320312,-78
1.052000,-22.205749,-317.124000,219.161974,-0.237491,-0.160200,-13.053491,-0.163169,-0.164472,-2621,-921.445312,-75
1.054000,-22.829018,-305.990750,225.313392,-0.243693,-0.160200,-13.059693,-0.163246,-0.161268,-2698,-948.515625,-67
1.056000,-23.429712,-294.555000,231.242006,-0.249635,-0.160200,-13.065635,-0.163320,-0.163404,-2775,-975.585938,-65
1.058000,-24.007238,-282.828000,236.941956,-0.255313,-0.160200,-13.071313,-0.163391,-0.163404,-2853,-1003.007812,-62
1.060000,-24.561024,-270.821000,242.407604,-0.260726,-0.160200,-13.076726,-0.163459,-0.161268,-2929,-1029.726562,-77
1.062000,-25.090522,-258.546500,247.633546,-0.265871,-0.160200,-13.081871,-0.163523,-0.162336,-3006,-1056.796875,-80
1.064000,-25.595210,-246.016500,252.614614,-0.270748,-0.160200,-13.086748,-0.163584,-0.161268,-3086,-1084.921875,-74
1.066000,-26.074588,-233.242750,257.345883,-0.275354,-0.160200,-13.091354,-0.163642,-0.162336,-3163,-1111.992188,-79
1.068000,-26.528181,-220.238500,261.822674,-0.279689,-0.160200,-13.095689,-0.163696,-0.162336,-3242,-1139.765625,-76
1.070000,-26.955542,-207.016750,266.040560,-0.283752,-0.160200,-13.099752,-0.163747,-0.162336,-3322,-1167.890625,-77
1.072000,-27.356248,-193.590250,269.995370,-0.287542,-0.160200,-13.103542,-0.163794,-0.162336,-3403,-1196.367188,-79
1.074000,-27.729903,-179.972250,273.683193,-0.291060,-0.160200,-13.107060,-0.163838,-0.167676,-3486,-1225.546875,-83
1.076000,-28.076137,-166.176000,277.100384,-0.294305,-0.160200,-13.110305,-0.163879,-0.162336,-3574,-1256.484375,-68
1.078000,-28.394607,-152.215750,280.243562,-0.297277,-0.160200,-13.113277,-0.163916,-0.165540,-3656,-1285.312500,-74
1.080000,-28.685000,-138.105000,283.109619,-0.299977,-0.160200,-13.115977,-0.163950,-0.165540,-3740,-1314.843750,-82
1.082000,-28.947027,-123.857250,285.695722,-0.302404,-0.160200,-13.118404,-0.163980,-0.165540,-3823,-1344.023438,-75
1.084000,-29.180429,-109.487500,287.999313,-0.304559,-0.160200,-13.120559,-0.164007,-0.163404,-3916,-1376.718750,-84
1.086000,-29.384977,-95.009250,290.018115,-0.306442,-0.160200,-13.122442,-0.164031,-0.162336,-4001,-1406.601562,-75
1.088000,-29.560466,-80.437000,291.750130,-0.308053,-0.160200,-13.124053,-0.164051,-0.163404,-4086,-1436.484375,-76
1.090000,-29.706725,-65.785500,293.193646,-0.309393,-0.160200,-13.125393,-0.164067,-0.167676,-4171,-1466.367188,-82
1.092000,-29.823608,-51.068750,294.347236,-0.310462,-0.160200,-13.126462,-0.164081,-0.162336,-4256,-1496.250000,-77
1.094000,-29.911000,-36.301500,295.209760,-0.311261,-0.160200,-13.127261,-0.164091,-0.164472,-4339,-1525.429688,-71
1.096000,-29.968814,-21.498500,295.780363,-0.311788,-0.160200,-13.127788,-0.164097,-0.163404,-4423,-1554.960938,-70
1.098000,-29.996994,-6.674000,296.058482,-0.312045,-0.160200,-13.128045,-0.164101,-0.163404,-4504,-1583.437500,-73
1.100000,-29.995510,8.157000,296.043842,-0.312031,0.160200,12.503969,0.156300,0.153792,-4582,-1610.859375,-19
1.102000,-29.964366,22.979750,295.736457,-0.311747,0.160200,12.504253,0.156303,0.154860,-4575,-1608.398438,58
1.104000,-29.903591,37.780250,295.136632,-0.311193,0.160200,12.504807,0.156310,0.156996,-4502,-1582.734375,86
1.106000,-29.813245,52.543000,294.244959,-0.310368,0.160200,12.505632,0.156320,0.155928,-4410,-1550.390625,94
1.108000,-29.693419,67.253750,293.062320,-0.309272,0.160200,12.506728,0.156334,0.153792,-4313,-1516.289062,94
1.110000,-29.544230,81.898250,291.589885,-0.307904,0.160200,12.508096,0.156351,0.154860,-4211,-1480.429688,77
1.112000,-29.365826,96.461500,289.829109,-0.306266,0.160200,12.509734,0.156372,0.154860,-4114,-1446.328125,78
1.114000,-29.158384,110.929500,287.781734,-0.304356,0.160200,12.511644,0.156396,0.156996,-4021,-1413.632812,76
1.116000,-28.922108,125.288000,285.449785,-0.302174,0.160200,12.513826,0.156423,0.155928,-3938,-1384.453125,75
1.118000,-28.657232,139.522250,282.835567,-0.299719,0.160200,12.516281,0.156454,0.154860,-3853,-1354.570312,64
1.120000,-28.364019,153.618750,279.941665,-0.296992,0.160200,12.519008,0.156488,0.158064,-3771,-1325.742188,64
1.122000,-28.042757,167.563250,276.770942,-0.293993,0.160200,12.522007,0.156525,0.155928,-3697,-1299.726562,72
1.124000,-27.693766,181.342000,273.326531,-0.290720,0.160200,12.525280,0.156566,0.160200,-3625,-1274.414062,61
1.126000,-27.317389,194.941750,269.611841,-0.287175,0.160200,12.528825,0.156610,0.154860,-3552,-1248.750000,75
1.128000,-26.913999,208.348500,265.630543,-0.283358,0.160200,12.532642,0.156658,0.152724,-3474,-1221.328125,75
1.130000,-26.483995,221.549250,261.386574,-0.279267,0.160200,12.536733,0.156709,0.155928,-3401,-1195.664062,62
1.132000,-26.027802,234.530750,256.884132,-0.274905,0.160200,12.541095,0.156764,0.155928,-3326,-1169.296875,71
1.134000,-25.545872,247.280500,252.127669,-0.270272,0.160200,12.545728,0.156822,0.152724,-3248,-1141.875000,74
1.136000,-25.038680,259.785750,247.121888,-0.265369,0.160200,12.550631,0.156883,0.155928,-3171,-1114.804688,80
1.138000,-24.506729,272.034000,241.871739,-0.260197,0.160200,12.555803,0.156948,0.155928,-3082,-1083.515625,83
1.140000,-23.950544,284.013250,236.382413,-0.254757,0.160200,12.561243,0.157016,0.155928,-2995,-1052.929688,81
1.142000,-23.370676,295.711750,230.659340,-0.249052,0.160200,12.566948,0.157087,0.154860,-2914,-1024.453125,79
1.144000,-22.767697,307.118000,224.708177,-0.243084,0.160200,12.572916,0.157161,0.154860,-2833,-995.976562,78
1.146000,-22.142204,318.220250,218.534811,-0.236856,0.160200,12.579144,0.157239,0.156996,-2752,-967.500000,77
1.148000,-21.494816,329.008000,212.145345,-0.230371,0.160200,12.585629,0.157320,0.158064,-2672,-939.375000,70
1.150000,-20.826172,339.470250,205.546098,-0.223631,0.160200,12.592369,0.157405,0.155928,-2580,-907.031250,80
1.152000,-20.136935,349.596750,198.743596,-0.216643,0.160200,12.599357,0.157492,0.159132,-2500,-878.906250,76
1.154000,-19.427785,359.378000,191.744565,-0.209409,0.160200,12.606591,0.157582,0.155928,-2422,-851.484375,75
1.156000,-18.699423,368.803500,184.555926,-0.201935,0.160200,12.614065,0.157676,0.159132,-2341,-823.007812,78
1.158000,-17.952571,377.864250,177.184788,-0.194227,0.160200,12.621773,0.157772,0.156996,-2255,-792.773438,63
1.160000,-17.187966,386.551500,169.638439,-0.186291,0.160200,12.629709,0.157871,0.153792,-2172,-763.593750,67
1.162000,-16.406365,394.856500,161.924343,-0.178133,0.160200,12.637867,0.157973,0.155928,-2085,-733.007812,78
1.164000,-15.608540,402.771000,154.050127,-0.169762,0.160200,12.646238,0.158078,0.156996,-2003,-704.179688,79
1.166000,-14.795281,410.287250,146.023577,-0.161183,0.160200,12.654817,0.158185,0.158064,-1925,-676.757812,78
1.168000,-13.967391,417.398000,137.852632,-0.152407,0.160200,12.663593,0.158295,0.153792,-1842,-647.578125,62
1.170000,-13.125689,424.095750,129.545369,-0.143441,0.160200,12.672559,0.158407,0.156996,-1747,-614.179688,76
1.172000,-12.271008,430.374000,121.110006,-0.134296,0.160200,12.681704,0.158521,0.162336,-1667,-586.054688,76
1.174000,-11.404193,436.226750,112.554882,-0.124980,0.160200,12.691020,0.158638,0.158064,-1583,-556.523438,69
1.176000,-10.526101,441.648250,103.888457,-0.115505,0.160200,12.700495,0.158756,0.156996,-1509,-530.507812,71
1.178000,-9.637600,446.633250,95.119301,-0.105882,0.160200,12.710118,0.158876,0.161268,-1433,-503.789062,64
1.180000,-8.739568,451.176250,86.256087,-0.096122,0.160200,12.719878,0.158998,0.158064,-1352,-475.312500,63
1.182000,-7.832895,455.273000,77.307577,-0.086236,0.160200,12.729764,0.159122,0.164472,-1277,-448.945312,67
1.184000,-6.918476,458.920000,68.282622,-0.076237,0.160200,12.739763,0.159247,0.162336,-1199,-421.523438,69
1.186000,-5.997215,462.113000,59.190144,-0.066138,0.160200,12.749862,0.159373,0.160200,-1121,-394.101562,79
1.188000,-5.070024,464.848750,50.039137,-0.055951,0.160200,12.760049,0.159501,0.161268,-1044,-367.031250,79
1.190000,-4.137820,467.125000,40.838647,-0.045689,0.160200,12.770311,0.159629,0.158064,-965,-339.257812,73
1.192000,-3.201524,468.939500,31.597775,-0.035367,0.160200,12.780633,0.159758,0.159132,-877,-308.320312,67
1.194000,-2.262062,470.290250,22.325656,-0.024997,0.160200,12.791003,0.159888,0.162336,-788,-277.031250,68
1.196000,-1.320363,471.175750,13.031461,-0.014594,0.160200,12.801406,0.160018,0.161268,-689,-242.226562,68
1.198000,-0.377359,471.595500,3.724379,-0.004171,0.160200,12.811829,0.160148,0.160200,-591,-207.773438,66
1.200000,0.566019,471.549000,-5.586385,0.006257,0.160200,12.822257,0.160278,0.159132,-502,-176.484375,63
1.202000,1.508837,471.036000,-14.891625,0.016677,0.160200,12.832677,0.160408,0.158064,-413,-145.195312,68
1.204000,2.450163,470.057250,-24.182140,0.027074,0.160200,12.843074,0.160538,0.159132,-328,-115.312500,80
1.206000,3.389066,468.613750,-33.448742,0.037436,0.160200,12.853436,0.160668,0.160200,-244,-85.781250,77
1.208000,4.324618,466.706750,-42.682268,0.047747,0.160200,12.863747,0.160797,0.160200,-166,-58.359375,75
1.210000,5.255893,464.338250,-51.873587,0.057995,0.160200,12.873995,0.160925,0.160200,-85,-29.882812,67
1.212000,6.181971,461.510750,-61.013611,0.068165,0.160200,12.884165,0.161052,0.161268,5,1.757812,67
1.214000,7.101936,458.226750,-70.093301,0.078245,0.160200,12.894245,0.161178,0.161268,83,29.179688,66
1.216000,8.014878,454.489500,-79.103679,0.088223,0.160200,12.904223,0.161303,0.161268,160,56.250000,73
1.218000,8.919894,450.303000,-88.035835,0.098084,0.160200,12.914084,0.161426,0.162336,235,82.617188,71
1.220000,9.816090,445.671500,-96.880936,0.107818,0.160200,12.923818,0.161548,0.160200,316,111.093750,75
1.222000,10.702580,440.599000,-105.630236,0.117413,0.160200,12.933413,0.161668,0.160200,406,142.734375,63
1.224000,11.578486,435.090500,-114.275083,0.126856,0.160200,12.942856,0.161786,0.160200,480,168.750000,63
1.226000,12.442942,429.152250,-122.806928,0.136139,0.160200,12.952139,0.161902,0.164472,571,200.742188,78
1.228000,13.295095,422.789500,-131.217335,0.145249,0.160200,12.961249,0.162016,0.161268,649,228.164062,73
1.230000,14.134100,416.008500,-139.497987,0.154177,0.160200,12.970177,0.162127,0.159132,727,255.585938,72
1.232000,14.959129,408.816250,-147.640695,0.162915,0.160200,12.978915,0.162236,0.162336,808,284.062500,77
1.234000,15.769365,401.219750,-155.637408,0.171453,0.160200,12.987453,0.162343,0.162336,889,312.539062,74
1.236000,16.564008,393.226500,-163.480218,0.179782,0.160200,12.995782,0.162447,0.163404,975,342.773438,78
1.238000,17.342271,384.844500,-171.161370,0.187896,0.160200,13.003896,0.162549,0.162336,1056,371.250000,74
1.240000,18.103386,376.081750,-178.673268,0.195787,0.160200,13.011787,0.162647,0.163404,1137,399.726562,71
1.242000,18.846598,366.947000,-186.008483,0.203449,0.160200,13.019449,0.162743,0.165540,1217,427.851562,71
1.244000,19.571174,357.450000,-193.159764,0.210875,0.160200,13.026875,0.162836,0.162336,1299,456.679688,66
1.246000,20.276398,347.599000,-200.120037,0.218060,0.160200,13.034060,0.162926,0.165540,1379,484.804688,65
1.248000,20.961570,337.404250,-206.882420,0.224999,0.160200,13.040999,0.163012,0.161268,1463,514.335938,70
1.250000,21.626015,326.876000,-213.440226,0.231688,0.160200,13.047688,0.163096,0.161268,1544,542.812500,72
1.252000,22.269074,316.024500,-219.786971,0.238122,0.160200,13.054122,0.163177,0.163404,1623,570.585938,69
1.254000,22.890113,304.860750,-225.916378,0.244299,0.160200,13.060299,0.163254,0.162336,1703,598.710938,71
1.256000,23.488517,293.395250,-231.822386,0.250214,0.160200,13.066214,0.163328,0.162336,1789,628.945312,76
1.258000,24.063694,281.639500,-237.499155,0.255866,0.160200,13.071866,0.163398,0.164472,1867,656.367188,76
1.260000,24.615075,269.605500,-242.941072,0.261253,0.160200,13.077253,0.163466,0.164472,1947,684.492188,83
1.262000,25.142116,257.305000,-248.142755,0.266371,0.160200,13.082371,0.163530,0.162336,2028,712.968750,76
1.264000,25.644295,244.749750,-253.099061,0.271221,0.160200,13.087221,0.163590,0.164472,2107,740.742188,74
1.266000,26.121115,231.952500,-257.805089,0.275800,0.160200,13.091800,0.163647,0.164472,2186,768.515625,75
1.268000,26.572105,218.926000,-262.256184,0.280107,0.160200,13.096107,0.163701,0.165540,2265,796.289062,74
1.270000,26.996819,205.683250,-266.447946,0.284143,0.160200,13.100143,0.163752,0.163404,2344,824.062500,75
1.272000,27.394838,192.236750,-270.376229,0.287906,0.160200,13.103906,0.163799,0.164472,2424,852.187500,72
1.274000,27.765766,178.600250,-274.037149,0.291397,0.160200,13.107397,0.163842,0.162336,2503,879.960938,68
1.276000,28.109239,164.787250,-277.427085,0.294615,0.160200,13.110615,0.163883,0.160200,2582,907.734375,68
1.278000,28.424915,150.811000,-280.542687,0.297560,0.160200,13.113560,0.163919,0.162336,2664,936.562500,77
1.280000,28.712483,136.686000,-283.380872,0.300232,0.160200,13.116232,0.163953,0.163404,2745,965.039062,76
1.282000,28.971659,122.425750,-285.938834,0.302632,0.160200,13.118632,0.163983,0.162336,2826,993.515625,81
1.284000,29.202186,108.044250,-288.214044,0.304760,0.160200,13.120760,0.164009,0.161268,2910,1023.046875,81
1.286000,29.403836,93.556000,-290.204252,0.306615,0.160200,13.122615,0.164033,0.164472,2995,1052.929688,70
1.288000,29.576410,78.975250,-291.907490,0.308200,0.160200,13.124200,0.164052,0.162336,3081,1083.164062,85
1.290000,29.719737,64.316500,-293.322073,0.309513,0.160200,13.125513,0.164069,0.162336,3167,1113.398438,72
1.292000,29.833676,49.594250,-294.446603,0.310554,0.160200,13.126554,0.164082,0.163404,3256,1144.687500,83
1.294000,29.918114,34.822500,-295.279968,0.311325,0.160200,13.127325,0.164092,0.165540,3351,1178.085938,82
1.296000,29.972966,20.016500,-295.821343,0.311826,0.160200,13.127826,0.164098,0.164472,3438,1208.671875,82
1.298000,29.998180,5.191000,-296.070194,0.312056,0.160200,13.128056,0.164101,0.165540,3527,1239.960938,80
1.300000,29.993730,-9.639750,-296.026274,0.312015,-0.160200,-12.503985,-0.156300,-0.147384,3609,1268.789062,22
1.302000,29.959621,-24.461000,-295.689627,0.311704,-0.160200,-12.504296,-0.156304,-0.152724,3605,1267.382812,-49
1.304000,29.895886,-39.258250,-295.060585,0.311123,-0.160200,-12.504877,-0.156311,-0.156996,3534,1242.421875,-81
1.306000,29.802588,-54.016750,-294.139771,0.310270,-0.160200,-12.505730,-0.156322,-0.153792,3436,1207.968750,-99
1.308000,29.679819,-68.721500,-292.928096,0.309147,-0.160200,-12.506853,-0.156336,-0.155928,3331,1171.054688,-92
1.310000,29.527702,-83.358250,-291.426756,0.307753,-0.160200,-12.508247,-0.156353,-0.150588,3234,1136.953125,-85
1.312000,29.346386,-97.913000,-289.637238,0.306087,-0.160200,-12.509913,-0.156374,-0.154860,3145,1105.664062,-77
1.314000,29.136050,-112.370750,-287.561310,0.304150,-0.160200,-12.511850,-0.156398,-0.158064,3060,1075.781250,-79
1.316000,28.896903,-126.717000,-285.201025,0.301940,-0.160200,-12.514060,-0.156426,-0.154860,2973,1045.195312,-68
1.318000,28.629182,-140.938250,-282.558717,0.299459,-0.160200,-12.516541,-0.156457,-0.155928,2891,1016.367188,-67
1.320000,28.333150,-155.020250,-279.637000,0.296705,-0.160200,-12.519295,-0.156491,-0.156996,2810,987.890625,-65
1.322000,28.009101,-168.949000,-276.438762,0.293678,-0.160200,-12.522322,-0.156529,-0.156996,2731,960.117188,-66
1.324000,27.657354,-182.710500,-272.967166,0.290378,-0.160200,-12.525622,-0.156570,-0.160200,2653,932.695312,-72
1.326000,27.278259,-196.291250,-269.225645,0.286806,-0.160200,-12.529194,-0.156615,-0.155928,2573,904.570312,-70
1.328000,26.872189,-209.678000,-265.217899,0.282961,-0.160200,-12.533039,-0.156663,-0.155928,2494,876.796875,-72
1.330000,26.439547,-222.857250,-260.947890,0.278843,-0.160200,-12.537157,-0.156714,-0.155928,2415,849.023438,-74
1.332000,25.980760,-235.816500,-256.419841,0.274454,-0.160200,-12.541546,-0.156769,-0.153792,2338,821.953125,-81
1.334000,25.496281,-248.542250,-251.638230,0.269794,-0.160200,-12.546206,-0.156828,-0.158064,2260,794.531250,-79
1.336000,24.986591,-261.022250,-246.607786,0.264864,-0.160200,-12.551136,-0.156889,-0.155928,2178,765.703125,-80
1.338000,24.452192,-273.244250,-241.333481,0.259665,-0.160200,-12.556335,-0.156954,-0.159132,2098,737.578125,-79
1.340000,23.893614,-285.196000,-235.820533,0.254199,-0.160200,-12.561801,-0.157023,-0.154860,2018,709.453125,-84
1.342000,23.311408,-296.865750,-230.074392,0.248467,-0.160200,-12.567533,-0.157094,-0.156996,1937,680.976562,-79
1.344000,22.706151,-308.242000,-224.100741,0.242473,-0.160200,-12.573527,-0.157169,-0.154860,1856,652.500000,-76
1.346000,22.078440,-319.313500,-217.905486,0.236219,-0.160200,-12.579781,-0.157247,-0.154860,1774,623.671875,-75
1.348000,21.428897,-330.069000,-211.494754,0.229708,-0.160200,-12.586292,-0.157329,-0.159132,1693,595.195312,-70
1.350000,20.758164,-340.498000,-204.874885,0.222944,-0.160200,-12.593056,-0.157413,-0.155928,1614,567.421875,-72
1.352000,20.066905,-350.590750,-198.052424,0.215930,-0.160200,-12.600070,-0.157501,-0.159132,1535,539.648438,-76
1.354000,19.355801,-360.336750,-191.034117,0.208672,-0.160200,-12.607328,-0.157592,-0.160200,1454,511.171875,-72
1.356000,18.625558,-369.726000,-183.826905,0.201175,-0.160200,-12.614825,-0.157685,-0.160200,1376,483.750000,-75
1.358000,17.876897,-378.750000,-176.437915,0.193444,-0.160200,-12.622556,-0.157782,-0.156996,1298,456.328125,-80
1.360000,17.110558,-387.399250,-168.874454,0.185485,-0.160200,-12.630515,-0.157881,-0.155928,1221,429.257812,-72
1.362000,16.327300,-395.665500,-161.143999,0.177306,-0.160200,-12.638694,-0.157984,-0.156996,1134,398.671875,-73
1.364000,15.527896,-403.540750,-153.254197,0.168913,-0.160200,-12.647087,-0.158089,-0.155928,1045,367.382812,-78
1.366000,14.713137,-411.016750,-145.212848,0.160314,-0.160200,-12.655686,-0.158196,-0.155928,967,339.960938,-68
1.368000,13.883829,-418.086500,-137.027905,0.151519,-0.160200,-12.664481,-0.158306,-0.161268,889,312.539062,-66
1.370000,13.040791,-424.742500,-128.707461,0.142534,-0.160200,-12.673466,-0.158418,-0.158064,809,284.414062,-68
1.372000,12.184859,-430.978500,-120.259744,0.133371,-0.160200,-12.682629,-0.158533,-0.159132,730,256.640625,-66
1.374000,11.316877,-436.788500,-111.693107,0.124040,-0.160200,-12.691960,-0.158650,-0.163404,651,228.867188,-68
1.376000,10.437705,-442.166500,-103.016022,0.114550,-0.160200,-12.701450,-0.158768,-0.158064,571,200.742188,-66
1.378000,9.548211,-447.107500,-94.237069,0.104912,-0.160200,-12.711088,-0.158889,-0.154860,487,171.210938,-78
1.380000,8.649275,-451.606250,-85.364929,0.095139,-0.160200,-12.720861,-0.159011,-0.159132,406,142.734375,-80
1.382000,7.741786,-455.658250,-76.408375,0.085241,-0.160200,-12.730759,-0.159134,-0.160200,323,113.554688,-80
1.384000,6.826642,-459.259500,-67.376265,0.075231,-0.160200,-12.740769,-0.159260,-0.160200,243,85.429688,-81
1.386000,5.904748,-462.407000,-58.277529,0.065123,-0.160200,-12.750877,-0.159386,-0.160200,160,56.250000,-78
1.388000,4.977014,-465.097250,-49.121165,0.054928,-0.160200,-12.761072,-0.159513,-0.163404,77,27.070312,-73
1.390000,4.044359,-467.327250,-39.916227,0.044660,-0.160200,-12.771340,-0.159642,-0.160200,-6,-2.109375,-69
1.392000,3.107705,-469.095500,-30.671818,0.034332,-0.160200,-12.781668,-0.159771,-0.155928,-88,-30.937500,-72
1.394000,2.167977,-470.399750,-21.397079,0.023958,-0.160200,-12.792042,-0.159901,-0.160200,-170,-59.765625,-77
1.396000,1.226106,-471.238750,-12.101181,0.013553,-0.160200,-12.802447,-0.160031,-0.158064,-252,-88.593750,-79
1.398000,0.283022,-471.611750,-2.793317,0.003129,-0.160200,-12.812871,-0.160161,-0.158064,-334,-117.421875,-80
1.400000,-0.660341,-471.518500,6.517309,-0.007300,-0.160200,-12.823300,-0.160291,-0.162336,-414,-145.546875,-74
1.402000,-1.603052,-470.959250,15.821491,-0.017718,-0.160200,-12.833718,-0.160421,-0.161268,-499,-175.429688,-70
1.404000,-2.544178,-469.933750,25.110027,-0.028112,-0.160200,-12.844112,-0.160551,-0.158064,-584,-205.312500,-68
1.406000,-3.482787,-468.443750,34.373734,-0.038469,-0.160200,-12.854469,-0.160681,-0.159132,-671,-235.898438,-70
1.408000,-4.417953,-466.490750,43.603449,-0.048775,-0.160200,-12.864775,-0.160810,-0.161268,-760,-267.187500,-69
1.410000,-5.348750,-464.076000,52.790047,-0.059015,-0.160200,-12.875015,-0.160938,-0.165540,-842,-296.015625,-71
1.412000,-6.274257,-461.202750,61.924444,-0.069177,-0.160200,-12.885177,-0.161065,-0.161268,-926,-325.546875,-80
1.414000,-7.193561,-457.873500,70.997606,-0.079248,-0.160200,-12.895248,-0.161191,-0.162336,-1007,-354.023438,-80
1.416000,-8.105751,-454.091250,80.000561,-0.089214,-0.160200,-12.905214,-0.161315,-0.159132,-1092,-383.906250,-67
1.418000,-9.009926,-449.860000,88.924408,-0.099063,-0.160200,-12.915063,-0.161438,-0.164472,-1176,-413.437500,-72
1.420000,-9.905191,-445.183750,97.760321,-0.108784,-0.160200,-12.924784,-0.161560,-0.161268,-1258,-442.265625,-77
1.422000,-10.790661,-440.067500,106.499563,-0.118364,-0.160200,-12.934364,-0.161680,-0.161268,-1339,-470.742188,-82
1.424000,-11.665461,-434.516000,115.133492,-0.127792,-0.160200,-12.943792,-0.161797,-0.168744,-1428,-502.031250,-68
1.426000,-12.528725,-428.535000,123.653572,-0.137057,-0.160200,-12.953057,-0.161913,-0.164472,-1519,-534.023438,-81
1.428000,-13.379601,-422.130000,132.051375,-0.146150,-0.160200,-12.962150,-0.162027,-0.165540,-1615,-567.773438,-70
1.430000,-14.217245,-415.307750,140.318599,-0.155060,-0.160200,-12.971060,-0.162138,-0.161268,-1714,-602.578125,-74
1.432000,-15.040832,-408.074750,148.447068,-0.163778,-0.160200,-12.979778,-0.162247,-0.159132,-1797,-631.757812,-67
1.434000,-15.849544,-400.438000,156.428744,-0.172295,-0.160200,-12.988295,-0.162354,-0.161268,-1887,-663.398438,-71
1.436000,-16.642584,-392.405750,164.255735,-0.180604,-0.160200,-12.996604,-0.162458,-0.162336,-1977,-695.039062,-78
1.438000,-17.419167,-383.985250,171.920300,-0.188695,-0.160200,-13.004695,-0.162559,-0.164472,-2061,-724.570312,-86
1.440000,-18.178525,-375.185000,179.414861,-0.196564,-0.160200,-13.012564,-0.162657,-0.164472,-2151,-756.210938,-82
1.442000,-18.919907,-366.013500,186.732007,-0.204202,-0.160200,-13.020202,-0.162753,-0.160200,-2243,-788.554688,-71
1.444000,-19.642579,-356.480250,193.864501,-0.211604,-0.160200,-13.027604,-0.162845,-0.159132,-2328,-818.437500,-76
1.446000,-20.345828,-346.594750,200.805292,-0.218765,-0.160200,-13.034765,-0.162935,-0.164472,-2416,-849.375000,-73
1.448000,-21.028958,-336.366500,207.547515,-0.225679,-0.160200,-13.041679,-0.163021,-0.162336,-2504,-880.312500,-71
1.450000,-21.691294,-325.805500,214.084503,-0.232343,-0.160200,-13.048343,-0.163104,-0.163404,-2593,-911.601562,-75
1.452000,-22.332180,-314.922000,220.409793,-0.238752,-0.160200,-13.054752,-0.163184,-0.164472,-2673,-939.726562,-72
1.454000,-22.950982,-303.727250,226.517129,-0.244902,-0.160200,-13.060902,-0.163261,-0.162336,-2751,-967.148438,-78
1.456000,-23.547089,-292.232500,232.400473,-0.250792,-0.160200,-13.066792,-0.163335,-0.165540,-2831,-995.273438,-78
1.458000,-24.119912,-280.448500,238.054006,-0.256417,-0.160200,-13.072417,-0.163405,-0.164472,-2907,-1021.992188,-74
1.460000,-24.668883,-268.387250,243.472138,-0.261777,-0.160200,-13.077777,-0.163472,-0.165540,-2987,-1050.117188,-75
1.462000,-25.193461,-256.060750,248.649511,-0.266868,-0.160200,-13.082868,-0.163536,-0.166608,-3067,-1078.242188,-72
1.464000,-25.693126,-243.480750,253.581005,-0.271691,-0.160200,-13.087691,-0.163596,-0.161268,-3145,-1105.664062,-68
1.466000,-26.167384,-230.660000,258.261745,-0.276243,-0.160200,-13.092243,-0.163653,-0.164472,-3224,-1133.437500,-70
1.468000,-26.615766,-217.611250,262.687100,-0.280523,-0.160200,-13.096523,-0.163707,-0.161268,-3304,-1161.562500,-79
1.470000,-27.037829,-204.347500,266.852697,-0.284531,-0.160200,-13.100531,-0.163757,-0.161268,-3405,-1197.070312,-81
1.472000,-27.433156,-190.881500,270.754414,-0.288268,-0.160200,-13.104268,-0.163803,-0.165540,-3487,-1225.898438,-75
1.474000,-27.801355,-177.226500,274.388394,-0.291731,-0.160200,-13.107731,-0.163847,-0.163404,-3579,-1258.242188,-78
1.476000,-28.142062,-163.396750,277.751044,-0.294921,-0.160200,-13.110921,-0.163887,-0.164472,-3660,-1286.718750,-74
1.478000,-28.454942,-149.405250,280.839038,-0.297839,-0.160200,-13.113839,-0.163923,-0.164472,-3759,-1321.523438,-76
1.480000,-28.739683,-135.265750,283.649322,-0.300484,-0.160200,-13.116484,-0.163956,-0.161268,-3847,-1352.460938,-71
1.482000,-28.996005,-120.992750,286.179118,-0.302857,-0.160200,-13.118857,-0.163986,-0.162336,-3932,-1382.343750,-86
1.484000,-29.223654,-106.600000,288.425925,-0.304957,-0.160200,-13.120957,-0.164012,-0.164472,-4018,-1412.578125,-77
1.486000,-29.422405,-92.102000,290.387520,-0.306786,-0.160200,-13.122786,-0.164035,-0.165540,-4103,-1442.460938,-75
1.488000,-29.592062,-77.512750,292.061963,-0.308343,-0.160200,-13.124343,-0.164054,-0.161268,-4193,-1474.101562,-75
1.490000,-29.732456,-62.846750,293.447599,-0.309629,-0.160200,-13.125629,-0.164070,-0.163404,-4284,-1506.093750,-82
1.492000,-29.843449,-48.118750,294.543058,-0.310644,-0.160200,-13.126644,-0.164083,-0.168744,-4367,-1535.273438,-83
1.494000,-29.924931,-33.343250,295.347256,-0.311388,-0.160200,-13.127388,-0.164092,-0.163404,-4451,-1564.804688,-70
1.496000,-29.976822,-18.534750,295.859398,-0.311861,-0.160200,-13.127861,-0.164098,-0.166608,-4533,-1593.632812,-70
1.498000,-29.999070,-3.708000,296.078978,-0.312064,-0.160200,-13.128064,-0.164101,-0.164472,-4615,-1622.460938,-70
1.500000,-29.991654,11.122500,296.005779,-0.311996,0.160200,12.504004,0.156300,0.156996,-4693,-1649.882812,-19
1.502000,-29.954580,25.942250,295.639873,-0.311658,0.160200,12.504342,0.156304,0.155928,-4686,-1647.421875,54
1.504000,-29.887885,40.736250,294.981621,-0.311050,0.160200,12.504950,0.156312,0.153792,-4619,-1623.867188,75
1.506000,-29.791635,55.489750,294.031675,-0.310170,0.160200,12.505830,0.156323,0.155928,-4517,-1588.007812,83
1.508000,-29.665926,70.188500,292.790974,-0.309020,0.160200,12.506980,0.156337,0.155928,-4399,-1546.523438,81
1.510000,-29.510881,84.817750,291.260745,-0.307598,0.160200,12.508402,0.156355,0.154860,-4301,-1512.070312,75
1.512000,-29.326655,99.363250,289.442502,-0.305906,0.160200,12.510094,0.156376,0.154860,-4198,-1475.859375,82
1.514000,-29.113428,113.810500,287.338041,-0.303941,0.160200,12.512059,0.156401,0.159132,-4115,-1446.679688,78
1.516000,-28.871413,128.145000,284.949444,-0.301705,0.160200,12.514295,0.156429,0.156996,-4037,-1419.257812,74
1.518000,-28.600848,142.353000,282.279074,-0.299196,0.160200,12.516804,0.156460,0.154860,-3949,-1388.320312,64
1.520000,-28.302001,156.420250,279.329570,-0.296414,0.160200,12.519586,0.156495,0.155928,-3873,-1361.601562,75
1.522000,-27.975167,170.332750,276.103849,-0.293360,0.160200,12.522640,0.156533,0.156996,-3800,-1335.937500,63
1.524000,-27.620670,184.076750,272.605102,-0.290033,0.160200,12.525967,0.156575,0.154860,-3725,-1309.570312,65
1.526000,-27.238860,197.639000,268.836787,-0.286434,0.160200,12.529566,0.156620,0.159132,-3652,-1283.906250,70
1.528000,-26.830114,211.005500,264.802632,-0.282561,0.160200,12.533439,0.156668,0.156996,-3578,-1257.890625,63
1.530000,-26.394838,224.163500,260.506625,-0.278417,0.160200,12.537583,0.156720,0.162336,-3503,-1231.523438,71
1.532000,-25.933460,237.099750,255.953014,-0.274000,0.160200,12.542000,0.156775,0.153792,-3427,-1204.804688,76
1.534000,-25.446439,249.801500,251.146303,-0.269313,0.160200,12.546687,0.156834,0.155928,-3347,-1176.679688,80
1.536000,-24.934254,262.256250,246.091245,-0.264356,0.160200,12.551644,0.156896,0.156996,-3267,-1148.554688,81
1.538000,-24.397414,274.451750,240.792837,-0.259130,0.160200,12.556870,0.156961,0.156996,-3187,-1120.429688,79
1.540000,-23.836447,286.376000,235.256321,-0.253637,0.160200,12.562363,0.157030,0.156996,-3098,-1089.140625,82
1.542000,-23.251910,298.016750,229.487169,-0.247880,0.160200,12.568120,0.157102,0.153792,-2996,-1053.281250,82
1.544000,-22.644380,309.363000,223.491088,-0.241859,0.160200,12.574141,0.157177,0.158064,-2904,-1020.937500,78
1.546000,-22.014458,320.403250,217.274007,-0.235579,0.160200,12.580421,0.157255,0.160200,-2822,-992.109375,80
1.548000,-21.362767,331.126750,210.842072,-0.229043,0.160200,12.586957,0.157337,0.155928,-2740,-963.281250,82
1.550000,-20.689951,341.522750,204.201646,-0.222253,0.160200,12.593747,0.157422,0.154860,-2658,-934.453125,81
1.552000,-19.996676,351.581000,197.359293,-0.215215,0.160200,12.600785,0.157510,0.154860,-2575,-905.273438,74
1.554000,-19.283627,361.291750,190.321781,-0.207933,0.160200,12.608067,0.157601,0.158064,-2495,-877.148438,72
1.556000,-18.551509,370.645250,183.096067,-0.200412,0.160200,12.615588,0.157695,0.156996,-2415,-849.023438,73
1.558000,-17.801046,379.632000,175.689298,-0.192658,0.160200,12.623342,0.157792,0.159132,-2333,-820.195312,69
1.560000,-17.032981,388.243250,168.108798,-0.184677,0.160200,12.631323,0.157892,0.158064,-2252,-791.718750,66
1.562000,-16.248073,396.471000,160.362062,-0.176476,0.160200,12.639524,0.157994,0.159132,-2166,-761.484375,75
1.564000,-15.447097,404.306500,152.456752,-0.168062,0.160200,12.647938,0.158099,0.154860,-2068,-727.031250,77
1.566000,-14.630847,411.742000,144.400683,-0.159443,0.160200,12.656557,0.158207,0.158064,-1987,-698.554688,80
1.568000,-13.800129,418.770500,136.201824,-0.150628,0.160200,12.665372,0.158317,0.158064,-1895,-666.210938,67
1.570000,-12.955765,425.385000,127.868280,-0.141626,0.160200,12.674374,0.158430,0.153792,-1812,-637.031250,73
1.572000,-12.098589,431.579000,119.408293,-0.132446,0.160200,12.683554,0.158544,0.162336,-1727,-607.148438,67
1.574000,-11.229449,437.346000,110.830228,-0.123098,0.160200,12.692902,0.158661,0.159132,-1645,-578.320312,63
1.576000,-10.349205,442.680500,102.142568,-0.113592,0.160200,12.702408,0.158780,0.160200,-1570,-551.953125,75
1.578000,-9.458727,447.577250,93.353904,-0.103941,0.160200,12.712059,0.158901,0.158064,-1488,-523.125000,72
1.580000,-8.558896,452.031250,84.472926,-0.094154,0.160200,12.721846,0.159023,0.159132,-1406,-494.296875,65
1.582000,-7.650602,456.038500,75.508417,-0.084245,0.160200,12.731755,0.159147,0.162336,-1314,-461.953125,70
1.584000,-6.734742,459.595000,66.469241,-0.074225,0.160200,12.741775,0.159272,0.161268,-1233,-433.476562,76
1.586000,-5.812222,462.696750,57.364337,-0.064107,0.160200,12.751893,0.159399,0.162336,-1147,-403.242188,67
1.588000,-4.883955,465.341000,48.202707,-0.053904,0.160200,12.762096,0.159526,0.156996,-1069,-375.820312,65
1.590000,-3.950858,467.525000,38.993412,-0.043629,0.160200,12.772371,0.159655,0.159132,-989,-347.695312,68
1.592000,-3.013855,469.246750,29.745558,-0.033297,0.160200,12.782703,0.159784,0.159132,-911,-320.273438,66
1.594000,-2.073871,470.504500,20.468289,-0.022919,0.160200,12.793081,0.159914,0.162336,-831,-292.148438,70
1.596000,-1.131837,471.297000,11.170781,-0.012511,0.160200,12.803489,0.160044,0.162336,-748,-262.968750,70
1.598000,-0.188683,471.623500,1.862227,-0.002086,0.160200,12.813914,0.160174,0.161268,-668,-234.843750,70
1.600000,0.754657,471.483500,-7.448170,0.008342,0.160200,12.824342,0.160304,0.161268,-581,-204.257812,81
1.602000,1.697251,470.877500,-16.751200,0.018759,0.160200,12.834759,0.160434,0.156996,-499,-175.429688,77
1.604000,2.638167,469.805750,-26.037667,0.029150,0.160200,12.845150,0.160564,0.159132,-410,-144.140625,74
1.606000,3.576474,468.269250,-35.298386,0.039502,0.160200,12.855502,0.160694,0.160200,-324,-113.906250,81
1.608000,4.511244,466.270000,-44.524200,0.049802,0.160200,12.865802,0.160823,0.161268,-244,-85.781250,77
1.610000,5.441554,463.809500,-53.705985,0.060035,0.160200,12.876035,0.160950,0.161268,-165,-58.007812,79
1.612000,6.366482,460.890250,-62.834664,0.070189,0.160200,12.886189,0.161077,0.163404,-84,-29.531250,80
1.614000,7.285115,457.515500,-71.901208,0.080249,0.160200,12.896249,0.161203,0.154860,-6,-2.109375,74
1.616000,8.196544,453.688250,-80.896652,0.090204,0.160200,12.906204,0.161328,0.156996,73,25.664062,74
1.618000,9.099868,449.412250,-89.812101,0.100042,0.160200,12.916042,0.161451,0.162336,153,53.789062,74
1.620000,9.994193,444.692000,-98.638738,0.109748,0.160200,12.925748,0.161572,0.159132,229,80.507812,65
1.622000,10.878636,439.532000,-107.367837,0.119314,0.160200,12.935314,0.161691,0.162336,307,107.929688,72
1.624000,11.752321,433.937000,-115.990764,0.128726,0.160200,12.944726,0.161809,0.159132,388,136.406250,64
1.626000,12.614384,427.913250,-124.498992,0.137975,0.160200,12.953975,0.161925,0.164472,474,166.640625,75
1.628000,13.463974,421.466500,-132.884109,0.147049,0.160200,12.963049,0.162038,0.159132,555,195.117188,77
1.630000,14.300250,414.602750,-141.137823,0.155941,0.160200,12.971941,0.162149,0.164472,636,223.593750,75
1.632000,15.122385,407.329250,-149.251972,0.164639,0.160200,12.980639,0.162258,0.162336,725,254.882812,65
1.634000,15.929567,399.652750,-157.218533,0.173136,0.160200,12.989136,0.162364,0.163404,812,285.468750,76
1.636000,16.720996,391.580750,-165.029627,0.181423,0.160200,12.997423,0.162468,0.163404,903,317.460938,81
1.638000,17.495890,383.122000,-172.677530,0.189492,0.160200,13.005492,0.162569,0.160200,998,350.859375,79
1.640000,18.253484,374.284500,-180.154680,0.197338,0.160200,13.013338,0.162667,0.163404,1082,380.390625,84
1.642000,18.993028,365.076500,-187.453683,0.204953,0.160200,13.020953,0.162762,0.162336,1173,412.382812,68
1.644000,19.713790,355.507500,-194.567322,0.212331,0.160200,13.028331,0.162854,0.161268,1261,443.320312,75
1.646000,20.415058,345.587250,-201.488561,0.219468,0.160200,13.035468,0.162943,0.163404,1346,473.203125,69
1.648000,21.096139,335.325000,-208.210558,0.226357,0.160200,13.042357,0.163029,0.162336,1434,504.140625,84
1.650000,21.756358,324.731250,-214.726664,0.232995,0.160200,13.048995,0.163112,0.164472,1522,535.078125,69
1.652000,22.395064,313.816500,-221.030436,0.239378,0.160200,13.055378,0.163192,0.163404,1611,566.367188,80
1.654000,23.011624,302.591250,-227.115641,0.245503,0.160200,13.061503,0.163269,0.161268,1697,596.601562,71
1.656000,23.605429,291.066750,-232.976262,0.251366,0.160200,13.067366,0.163342,0.162336,1781,626.132812,76
1.658000,24.175891,279.254750,-238.606502,0.256965,0.160200,13.072965,0.163412,0.160200,1863,654.960938,80
1.660000,24.722448,267.166500,-244.000796,0.262298,0.160200,13.078298,0.163479,0.164472,1949,685.195312,85
1.662000,25.244557,254.813750,-249.153807,0.267363,0.160200,13.083363,0.163542,0.162336,2033,714.726562,75
1.664000,25.741703,242.209250,-254.060441,0.272158,0.160200,13.088158,0.163602,0.160200,2114,743.203125,69
1.666000,26.213394,229.365250,-258.715847,0.276683,0.160200,13.092683,0.163659,0.161268,2196,772.031250,68
1.668000,26.659164,216.294500,-263.115419,0.280936,0.160200,13.096936,0.163712,0.164472,2277,800.507812,76
1.670000,27.078572,203.009750,-267.254809,0.284917,0.160200,13.100917,0.163761,0.163404,2374,834.609375,83
1.672000,27.471203,189.524000,-271.129921,0.288626,0.160200,13.104626,0.163808,0.161268,2471,868.710938,77
1.674000,27.836668,175.851250,-274.736926,0.292062,0.160200,13.108062,0.163851,0.164472,2561,900.351562,75
1.676000,28.174608,162.004750,-278.072255,0.295225,0.160200,13.111225,0.163890,0.164472,2644,929.531250,74
1.678000,28.484687,147.997500,-281.132611,0.298116,0.160200,13.114116,0.163926,0.162336,2737,962.226562,69
1.680000,28.766598,133.844250,-283.914967,0.300734,0.160200,13.116734,0.163959,0.163404,2820,991.406250,69
1.682000,29.020064,119.558750,-286.416572,0.303079,0.160200,13.119079,0.163988,0.164472,2904,1020.937500,82
1.684000,29.244833,105.154750,-288.634953,0.305152,0.160200,13.121152,0.164014,0.169812,2990,1051.171875,83
1.686000,29.440683,90.646750,-290.567915,0.306954,0.160200,13.122954,0.164037,0.166608,3084,1084.218750,72
1.688000,29.607420,76.049250,-292.213548,0.308484,0.160200,13.124484,0.164056,0.165540,3180,1117.968750,83
1.690000,29.744880,61.376750,-293.570223,0.309743,0.160200,13.125743,0.164072,0.163404,3274,1151.015625,86
1.692000,29.852927,46.643250,-294.636600,0.310730,0.160200,13.126730,0.164084,0.163404,3370,1184.765625,79
1.694000,29.931453,31.863750,-295.411623,0.311447,0.160200,13.127447,0.164093,0.163404,3462,1217.109375,76
1.696000,29.980382,17.052750,-295.894528,0.311894,0.160200,13.127894,0.164099,0.163404,3548,1247.343750,85
1.698000,29.999664,2.224750,-296.084835,0.312069,0.160200,13.128069,0.164101,0.164472,3639,1279.335938,87
1.700000,29.989281,-12.605500,-295.982357,0.311975,-0.160200,-12.504025,-0.156300,-0.153792,3730,1311.328125,21
1.702000,29.949242,-27.423250,-295.587195,0.311609,-0.160200,-12.504391,-0.156305,-0.151656,3729,1310.976562,-45
1.704000,29.879588,-42.213500,-294.899739,0.310974,-0.160200,-12.505026,-0.156313,-0.153792,3659,1286.367188,-71
1.706000,29.780388,-56.962250,-293.920671,0.310067,-0.160200,-12.505933,-0.156324,-0.156996,3561,1251.914062,-101
1.708000,29.651739,-71.654750,-292.650957,0.308890,-0.160200,-12.507110,-0.156339,-0.159132,3460,1216.406250,-95
1.710000,29.493769,-86.276250,-291.091854,0.307441,-0.160200,-12.508559,-0.156357,-0.156996,3354,1179.140625,-90
1.712000,29.306634,-100.812500,-289.244903,0.305721,-0.160200,-12.510279,-0.156378,-0.151656,3245,1140.820312,-77
1.714000,29.090519,-115.249250,-287.111930,0.303730,-0.160200,-12.512270,-0.156403,-0.154860,3156,1109.531250,-85
1.716000,28.845637,-129.572000,-284.695046,0.301466,-0.160200,-12.514534,-0.156432,-0.155928,3071,1079.648438,-73
1.718000,28.572231,-143.766500,-281.996638,0.298930,-0.160200,-12.517070,-0.156463,-0.159132,2978,1046.953125,-72
1.720000,28.270571,-157.818750,-279.019377,0.296121,-0.160200,-12.519879,-0.156498,-0.155928,2884,1013.906250,-78
1.722000,27.940956,-171.714750,-275.766206,0.293040,-0.160200,-12.522960,-0.156537,-0.154860,2782,978.046875,-66
1.724000,27.583712,-185.441250,-272.240342,0.289686,-0.160200,-12.526314,-0.156579,-0.158064,2684,943.593750,-67
1.726000,27.199191,-198.984750,-268.445271,0.286059,-0.160200,-12.529941,-0.156624,-0.158064,2592,911.250000,-76
1.728000,26.787773,-212.331000,-264.384747,0.282159,-0.160200,-12.533841,-0.156673,-0.161268,2495,877.148438,-77
1.730000,26.349867,-225.467000,-260.062784,0.277987,-0.160200,-12.538013,-0.156725,-0.155928,2407,846.210938,-78
1.732000,25.885905,-238.380500,-255.483656,0.273544,-0.160200,-12.542456,-0.156781,-0.152724,2326,817.734375,-75
1.734000,25.396345,-251.058500,-250.651893,0.268830,-0.160200,-12.547170,-0.156840,-0.155928,2245,789.257812,-84
1.736000,24.881671,-263.487750,-245.572270,0.263845,-0.160200,-12.552155,-0.156902,-0.160200,2160,759.375000,-75
1.738000,24.342394,-275.656500,-240.249812,0.258593,-0.160200,-12.557407,-0.156968,-0.155928,2078,730.546875,-75
1.740000,23.779045,-287.553000,-234.689782,0.253074,-0.160200,-12.562926,-0.157037,-0.155928,1995,701.367188,-71
1.742000,23.192182,-299.165000,-228.897677,0.247289,-0.160200,-12.568711,-0.157109,-0.158064,1906,670.078125,-77
1.744000,22.582385,-310.481000,-222.879225,0.241243,-0.160200,-12.574757,-0.157184,-0.159132,1816,638.437500,-74
1.746000,21.950258,-321.490000,-216.640378,0.234937,-0.160200,-12.581063,-0.157263,-0.158064,1732,608.906250,-83
1.748000,21.296425,-332.181250,-210.187305,0.228375,-0.160200,-12.587625,-0.157345,-0.154860,1650,580.078125,-80
1.750000,20.621533,-342.544000,-203.526387,0.221561,-0.160200,-12.594439,-0.157430,-0.156996,1560,548.437500,-68
1.752000,19.926249,-352.568000,-196.664211,0.214498,-0.160200,-12.601502,-0.157519,-0.156996,1468,516.093750,-64
1.754000,19.211261,-362.243250,-189.607562,0.207192,-0.160200,-12.608808,-0.157610,-0.159132,1390,488.671875,-72
1.756000,18.477276,-371.560250,-182.363418,0.199647,-0.160200,-12.616353,-0.157704,-0.156996,1302,457.734375,-74
1.758000,17.725020,-380.510000,-174.938944,0.191870,-0.160200,-12.624130,-0.157802,-0.162336,1224,430.312500,-67
1.760000,16.955236,-389.083750,-167.341480,0.183867,-0.160200,-12.632133,-0.157902,-0.158064,1147,403.242188,-67
1.762000,16.168685,-397.272250,-159.578539,0.175644,-0.160200,-12.640356,-0.158004,-0.155928,1068,375.468750,-66
1.764000,15.366147,-405.068000,-151.657799,0.167209,-0.160200,-12.648791,-0.158110,-0.156996,989,347.695312,-64
1.766000,14.548413,-412.463500,-143.587090,0.158571,-0.160200,-12.657429,-0.158218,-0.159132,906,318.515625,-67
1.768000,13.716293,-419.450750,-135.374395,0.149736,-0.160200,-12.666264,-0.158328,-0.165540,826,290.390625,-73
1.770000,12.870610,-426.023500,-127.027834,0.140716,-0.160200,-12.675284,-0.158441,-0.155928,739,259.804688,-78
1.772000,12.012199,-432.175000,-118.555661,0.131518,-0.160200,-12.684482,-0.158556,-0.155928,660,232.031250,-79
1.774000,11.141910,-437.899000,-109.966253,0.122154,-0.160200,-12.693846,-0.158673,-0.158064,568,199.687500,-69
1.776000,10.260603,-443.189750,-101.268104,0.112633,-0.160200,-12.703367,-0.158792,-0.162336,490,172.265625,-72
1.778000,9.369151,-448.042500,-92.469816,0.102968,-0.160200,-12.713032,-0.158913,-0.160200,407,143.085938,-80
1.780000,8.468433,-452.452500,-83.580089,0.093169,-0.160200,-12.722831,-0.159035,-0.161268,324,113.906250,-80
1.782000,7.559341,-456.414750,-74.607713,0.083248,-0.160200,-12.732752,-0.159159,-0.160200,243,85.429688,-79
1.784000,6.642774,-459.925500,-65.561560,0.073217,-0.160200,-12.742783,-0.159285,-0.160200,160,56.250000,-79
1.786000,5.719639,-462.981750,-56.450577,0.063090,-0.160200,-12.752910,-0.159411,-0.159132,67,23.554688,-79
1.788000,4.790847,-465.580000,-47.283772,0.052880,-0.160200,-12.763120,-0.159539,-0.162336,-26,-9.140625,-78
1.790000,3.857319,-467.718000,-38.070211,0.042599,-0.160200,-12.773401,-0.159668,-0.161268,-120,-42.187500,-73
1.792000,2.919975,-469.393500,-28.819003,0.032261,-0.160200,-12.783739,-0.159797,-0.160200,-202,-71.015625,-80
1.794000,1.979745,-470.604750,-19.539298,0.021879,-0.160200,-12.794121,-0.159927,-0.162336,-285,-100.195312,-82
1.796000,1.037556,-471.350750,-10.240271,0.011469,-0.160200,-12.804531,-0.160057,-0.160200,-367,-129.023438,-77
1.798000,0.094342,-471.630500,-0.931118,0.001043,-0.160200,-12.814957,-0.160187,-0.159132,-455,-159.960938,-79
1.800000,-0.848966,-471.444000,8.378956,-0.009384,-0.160200,-12.825384,-0.160317,-0.160200,-551,-193.710938,-81
