khanfazel/E-wera--maxon_motor/PD_control/pd_feedforward_log_filtered.csv
t_s,q_ref_deg,qd_ref_deg_s,qdd_ref_deg_s2,q_link_deg,qd_link_raw_deg_s,qd_link_filt_deg_s,pos_error_deg,vel_error_deg_s,tau_joint_ff_Nm,tau_pd_joint_raw_Nm,tau_pd_joint_limited_Nm,tau_joint_total_Nm,tau_dead_motor_Nm,tau_motor_cmd_before_clamp_Nm,tau_motor_cmd_Nm,tau_motor_actual_Nm,motor_pos_counts,motor_vel_native
0.000000,0.000000,943.265500,0.000000,-0.096680,0.000000,0.000000,0.096680,943.265500,0.000000,4.997985,4.997985,4.997985,0.160200,0.222675,0.222675,-0.002136,-88,0
0.002000,1.886531,942.799250,0.000000,-0.094482,1.098633,0.109863,1.981013,942.689387,0.027289,6.146042,6.146042,6.173331,0.160200,0.237367,0.237367,0.223212,-86,39
0.004000,3.771197,941.400750,-37.220226,-0.009888,42.297363,4.328613,3.781085,937.072137,0.041649,7.216231,7.216231,7.257881,0.160200,0.250924,0.250924,0.236028,-9,122
0.006000,5.652134,939.071000,-55.784328,0.151611,80.749512,11.970703,5.500523,927.100297,0.062349,8.214364,8.214364,8.276713,0.160200,0.263659,0.263659,0.249912,138,148
0.008000,7.527481,935.812750,-74.293267,0.353760,101.074219,20.881055,7.173721,914.931695,0.082899,9.172748,9.172748,9.255647,0.160200,0.275896,0.275896,0.267000,322,186
0.010000,9.395385,931.629250,-92.728741,0.588867,117.553711,30.548320,8.806518,901.080930,0.103253,10.097644,10.097644,10.200897,0.160200,0.287711,0.287711,0.273408,536,168
0.012000,11.253998,926.524500,-111.072519,0.876709,143.920898,41.885578,10.377289,884.638922,0.123362,10.971084,10.971084,11.094446,0.160200,0.298881,0.298881,0.294768,798,222
0.014000,13.101483,920.503500,-129.306462,1.127197,125.244141,50.221434,11.974286,870.282066,0.143183,11.871461,11.871461,12.014644,0.160200,0.310383,0.310383,0.301176,1026,196
0.016000,14.936012,913.572250,-147.412541,1.446899,159.851074,61.184398,13.489113,852.387852,0.162671,12.703122,12.703122,12.865793,0.160200,0.321022,0.321022,0.311856,1317,256
0.018000,16.755772,905.737500,-165.372849,1.803955,178.527832,72.918742,14.951817,832.818758,0.181786,13.494174,13.494174,13.675960,0.160200,0.331149,0.331149,0.320400,1642,215
0.020000,18.558962,897.007250,-183.169628,2.122559,159.301758,81.557043,16.436403,815.450207,0.200489,14.310115,14.310115,14.510604,0.160200,0.341583,0.341583,0.332148,1932,228
0.022000,20.343801,887.390000,-200.785278,2.505981,191.711426,92.572482,17.837820,794.817518,0.218745,15.058159,15.058159,15.276903,0.160200,0.351161,0.351161,0.339624,2281,318
0.024000,22.108522,876.895000,-218.202380,2.887207,190.612793,102.376513,19.221315,774.518487,0.236520,15.797002,15.797002,16.033522,0.160200,0.360619,0.360619,0.352440,2628,338
0.026000,23.851381,865.533250,-235.403712,3.290405,201.599121,112.298774,20.560976,753.234476,0.253784,16.503912,16.503912,16.757696,0.160200,0.369671,0.369671,0.360984,2995,327
0.028000,25.570655,853.315500,-252.372264,3.665039,187.316895,119.800586,21.905616,733.514914,0.270511,17.222054,17.222054,17.492566,0.160200,0.378857,0.378857,0.366324,3336,316
0.030000,27.264643,840.253750,-269.091255,4.058350,196.655273,127.486054,23.206293,712.767696,0.286677,17.907961,17.907961,18.194638,0.160200,0.387633,0.387633,0.378072,3694,321
0.032000,28.931670,826.361000,-285.544154,4.521973,231.811523,137.918601,24.409697,688.442399,0.302262,18.515712,18.515712,18.817974,0.160200,0.395425,0.395425,0.390888,4116,369
0.034000,30.570087,811.651500,-301.714692,4.949341,213.684082,145.495149,25.620746,666.156351,0.317249,19.138810,19.138810,19.456058,0.160200,0.403401,0.403401,0.391956,4505,356
0.036000,32.178276,796.139500,-317.586877,5.384399,217.529297,152.698564,26.793877,643.440936,0.331624,19.736497,19.736497,20.068120,0.160200,0.411052,0.411052,0.404772,4901,420
0.038000,33.754645,779.839750,-333.145014,5.859009,237.304688,161.159176,27.895636,618.680574,0.345377,20.279878,20.279878,20.625255,0.160200,0.418016,0.418016,0.410112,5333,433
0.040000,35.297635,762.769000,-348.373719,6.397339,269.165039,171.959763,28.900296,590.809237,0.358502,20.747656,20.747656,21.106158,0.160200,0.424027,0.424027,0.418656,5823,396
0.042000,36.805721,744.944000,-363.257932,6.914795,258.728027,180.636589,29.890926,564.307411,0.370994,21.214034,21.214034,21.585028,0.160200,0.430013,0.430013,0.423996,6294,443
0.044000,38.277411,726.382500,-377.782936,7.458618,271.911621,189.764092,30.818793,536.618408,0.382852,21.635857,21.635857,22.018709,0.160200,0.435434,0.435434,0.433608,6789,458
0.046000,39.711251,707.102750,-391.934367,8.045288,293.334961,200.121179,31.665963,506.981571,0.394081,21.998185,21.998185,22.392266,0.160200,0.440103,0.440103,0.435744,7323,446
0.048000,41.105822,687.123500,-405.698231,8.609985,282.348633,208.343925,32.495837,478.779575,0.404683,22.357461,22.357461,22.762144,0.160200,0.444727,0.444727,0.437880,7837,481
0.050000,42.459745,666.465000,-419.060918,9.244995,317.504883,219.260020,33.214750,447.204980,0.414668,22.631296,22.631296,23.045964,0.160200,0.448275,0.448275,0.444288,8415,474
0.052000,43.771682,645.147500,-432.009215,9.942627,348.815918,232.215610,33.829055,412.931890,0.424045,22.827100,22.827100,23.251145,0.160200,0.450839,0.450839,0.443220,9050,485
0.054000,45.040335,623.191750,-444.530316,10.613892,335.632324,242.557282,34.426443,380.634468,0.432827,23.022915,23.022915,23.455742,0.160200,0.453397,0.453397,0.451764,9661,488
0.056000,46.264449,600.619750,-456.611842,11.280762,333.435059,251.645059,34.983687,348.974691,0.441028,23.197546,23.197546,23.638574,0.160200,0.455682,0.455682,0.459240,10268,491
0.058000,47.442814,577.454250,-468.241844,11.956421,337.829590,260.263512,35.486393,317.190738,0.448665,23.338211,23.338211,23.786876,0.160200,0.457536,0.457536,0.452832,10883,510
0.060000,48.574266,553.717500,-479.408822,12.717773,380.676270,272.304788,35.856493,281.412712,0.455754,23.376958,23.376958,23.832713,0.160200,0.458109,0.458109,0.460308,11576,516
0.062000,49.657684,529.433000,-490.101734,13.491211,386.718750,283.746184,36.166473,245.686816,0.462316,23.379254,23.379254,23.841570,0.160200,0.458220,0.458220,0.462444,12280,526
0.064000,50.691998,504.625250,-500.310006,14.228394,368.591309,292.230697,36.463604,212.394553,0.468369,23.386444,23.386444,23.854812,0.160200,0.458385,0.458385,0.458172,12951,527
0.066000,51.676185,479.318500,-510.023544,14.909546,340.576172,297.065244,36.766639,182.253256,0.473935,23.413738,23.413738,23.887672,0.160200,0.458796,0.458796,0.459240,13571,525
0.068000,52.609272,453.537750,-519.232741,15.656616,373.535156,304.712235,36.952656,148.825515,0.479034,23.352341,23.352341,23.831376,0.160200,0.458092,0.458092,0.454968,14251,544
0.070000,53.490336,427.308250,-527.928493,16.370728,357.055664,309.946578,37.119608,117.361672,0.483689,23.289583,23.289583,23.773272,0.160200,0.457366,0.457366,0.460308,14901,521
0.072000,54.318505,400.656500,-536.102199,17.088135,358.703613,314.822282,37.230370,85.834218,0.487921,23.192166,23.192166,23.680087,0.160200,0.456201,0.456201,0.454968,15554,537
0.074000,55.092962,373.608500,-543.745778,17.891235,401.550293,323.495083,37.201727,50.113417,0.491752,22.987635,22.987635,23.479387,0.160200,0.453692,0.453692,0.458172,16285,555
0.076000,55.812939,346.191000,-550.851670,18.664673,386.718750,329.817450,37.148266,16.373550,0.495201,22.778316,22.778316,23.273517,0.160200,0.451119,0.451119,0.460308,16989,528
0.078000,56.477726,318.431250,-557.412850,19.394165,364.746094,333.310314,37.083561,-14.879064,0.498290,22.575152,22.575152,23.073442,0.160200,0.448618,0.448618,0.448560,17653,543
0.080000,57.086664,290.356250,-563.422828,20.201660,403.747559,340.354038,36.885004,-49.997788,0.501038,22.269979,22.269979,22.771017,0.160200,0.444838,0.444838,0.448560,18388,520
0.082000,57.639151,261.994500,-568.875663,20.952026,375.183105,343.836945,36.687125,-81.842445,0.503463,21.982363,21.982363,22.485826,0.160200,0.441273,0.441273,0.443220,19071,540
0.084000,58.134642,233.373750,-573.765962,21.715576,381.774902,347.630741,36.419066,-114.256991,0.505582,21.648893,21.648893,22.154476,0.160200,0.437131,0.437131,0.444288,19766,508
0.086000,58.572646,204.522000,-578.088888,22.472534,378.479004,350.715567,36.100112,-146.193567,0.507412,21.286836,21.286836,21.794248,0.160200,0.432628,0.432628,0.434676,20455,504
0.088000,58.952730,175.468250,-581.840169,23.176758,352.111816,350.855192,35.775972,-175.386942,0.508967,20.935974,20.935974,21.444940,0.160200,0.428262,0.428262,0.437880,21096,501
0.090000,59.274519,146.240750,-585.016093,23.950195,386.718750,354.441548,35.324324,-208.200798,0.510258,20.488265,20.488265,20.998523,0.160200,0.422682,0.422682,0.429336,21800,496
0.092000,59.537693,116.868500,-587.613520,24.695068,372.436523,356.241045,34.842625,-239.372545,0.511298,20.030796,20.030796,20.542094,0.160200,0.416976,0.416976,0.420792,22478,513
0.094000,59.741993,87.381000,-589.629883,25.380615,342.773438,354.894285,34.361378,-267.513285,0.512094,19.589475,19.589475,20.101569,0.160200,0.411470,0.411470,0.415452,23102,488
0.096000,59.887217,57.807000,-591.063187,26.112305,365.844727,355.989329,33.774912,-298.182329,0.512655,19.070641,19.070641,19.583296,0.160200,0.404991,0.404991,0.412248,23768,487
0.098000,59.973221,28.176000,-591.912014,26.784668,336.181641,354.008560,33.188553,-325.832560,0.512985,18.567678,18.567678,19.080663,0.160200,0.398708,0.398708,0.405840,24380,486
0.100000,59.999921,-1.483000,-592.175526,27.415283,315.307617,350.138466,32.584638,-351.621466,0.513087,18.063737,18.063737,18.576824,-0.160200,0.072010,0.072010,0.401568,24954,471
0.102000,59.967289,-31.140750,-591.853461,28.030518,307.617188,345.886338,31.936771,-377.027088,0.512962,17.534954,17.534954,18.047916,-0.160200,0.065399,0.065399,0.071556,25514,412
0.104000,59.875358,-60.767500,-590.946139,28.497437,233.459473,334.643651,31.377921,-395.411151,0.512609,17.097314,17.097314,17.609923,-0.160200,0.059924,0.059924,0.058740,25939,253
0.106000,59.724219,-90.334250,-589.454456,28.784180,143.371582,315.516444,30.940039,-405.850694,0.512025,16.775165,16.775165,17.287190,-0.160200,0.055890,0.055890,0.058740,26200,117
0.108000,59.514021,-119.811500,-587.379888,28.954468,85.144043,292.479204,30.559553,-412.290704,0.511205,16.509020,16.509020,17.020224,-0.160200,0.052553,0.052553,0.057672,26355,60
0.110000,59.244973,-149.170500,-584.724485,29.029175,37.353516,266.966635,30.215798,-416.137135,0.510140,16.278892,16.278892,16.789032,-0.160200,0.049663,0.049663,0.056604,26423,28
0.112000,58.917339,-178.382000,-581.490875,29.056641,13.732910,241.643263,29.860698,-420.025263,0.508823,16.041615,16.041615,16.550439,-0.160200,0.046680,0.046680,0.046992,26448,11
0.114000,58.531445,-207.416750,-577.682254,29.064331,3.845215,217.863458,29.467114,-425.280208,0.507242,15.773674,15.773674,16.280915,-0.160200,0.043311,0.043311,0.048060,26455,3
0.116000,58.087672,-236.246500,-573.302388,29.065430,0.549316,196.132044,29.022242,-432.378544,0.505384,15.464750,15.464750,15.970134,-0.160200,0.039427,0.039427,0.042720,26456,0
0.118000,57.586459,-264.842750,-568.355609,29.065430,0.000000,176.518840,28.521029,-441.361590,0.503234,15.111541,15.111541,15.614776,-0.160200,0.034985,0.034985,0.037380,26456,0
0.120000,57.028301,-293.177250,-562.846808,29.065430,0.000000,158.866956,27.962871,-452.044206,0.500778,14.714648,14.714648,15.215426,-0.160200,0.029993,0.029993,0.037380,26456,0
0.122000,56.413750,-321.221750,-556.781433,29.064331,-0.549316,142.925328,27.349419,-464.147078,0.497997,14.276541,14.276541,14.774538,-0.160200,0.024482,0.024482,0.030972,26455,0
0.124000,55.743414,-348.948750,-550.165481,29.064331,0.000000,128.632796,26.679083,-477.581546,0.494873,13.796713,13.796713,14.291586,-0.160200,0.018445,0.018445,0.026700,26455,0
0.126000,55.017955,-376.330500,-543.005495,29.063232,-0.549316,115.714584,25.954723,-492.045084,0.491386,13.278496,13.278496,13.769882,-0.160200,0.011924,0.011924,0.021360,26454,0
0.128000,54.238092,-403.339750,-535.308555,29.063232,0.000000,104.143126,25.174860,-507.482876,0.487517,12.721272,12.721272,13.208789,-0.160200,0.004910,0.004910,0.012816,26454,-1
0.130000,53.404596,-429.950500,-527.082272,29.062134,-0.549316,93.673882,24.342462,-523.624382,0.483243,12.128273,12.128273,12.611516,-0.160200,-0.002556,-0.002556,0.005340,26453,-1
0.132000,52.518290,-456.136500,-518.334780,29.061035,-0.549316,84.251562,23.457255,-540.388062,0.478545,11.499756,11.499756,11.978301,-0.160200,-0.010471,-0.010471,-0.004272,26452,-1
0.134000,51.580050,-481.871000,-509.074730,29.058838,-1.098633,75.716542,22.521212,-557.587542,0.473399,10.837904,10.837904,11.311303,-0.160200,-0.018809,-0.018809,-0.012816,26450,-1
0.136000,50.590806,-507.128750,-499.311279,29.055542,-1.647949,67.980093,21.535264,-575.108843,0.467786,10.143881,10.143881,10.611667,-0.160200,-0.027554,-0.027554,-0.022428,26447,-4
0.138000,49.551535,-531.885500,-489.054081,29.050049,-2.746582,60.907426,20.501486,-592.792926,0.461683,9.419789,9.419789,9.881471,-0.160200,-0.036682,-0.036682,-0.025632,26442,-5
0.140000,48.463264,-556.116250,-478.313278,29.041260,-4.394531,54.377230,19.422004,-610.493480,0.455069,8.667691,8.667691,9.122760,-0.160200,-0.046165,-0.046165,-0.040584,26434,-9
0.142000,47.327070,-579.796750,-467.099493,29.030273,-5.493164,48.390191,18.296797,-628.186941,0.447926,7.887698,7.887698,8.335624,-0.160200,-0.056005,-0.056005,-0.045924,26424,-9
0.144000,46.144077,-602.904250,-455.423814,29.017090,-6.591797,42.891992,17.126987,-645.796242,0.440234,7.080900,7.080900,7.521134,-0.160200,-0.066186,-0.066186,-0.057672,26412,-11
0.146000,44.915453,-625.415500,-443.297786,29.002808,-7.141113,37.888681,15.912645,-663.304181,0.431975,6.247429,6.247429,6.679405,-0.160200,-0.076707,-0.076707,-0.060876,26399,-14
0.148000,43.642415,-647.308250,-430.733401,28.983032,-9.887695,33.111044,14.659383,-680.419294,0.423135,5.392240,5.392240,5.815375,-0.160200,-0.087508,-0.087508,-0.079032,26381,-16
0.150000,42.326220,-668.560750,-417.743082,28.957764,-12.634277,28.536512,13.368456,-697.097262,0.413697,4.516333,4.516333,4.930030,-0.160200,-0.098575,-0.098575,-0.086508,26358,-27
0.152000,40.968172,-689.152250,-404.339676,28.924805,-16.479492,24.034911,12.043367,-713.187161,0.403651,3.622635,3.622635,4.026286,-0.160200,-0.109871,-0.109871,-0.096120,26328,-35
0.154000,39.569611,-709.062500,-390.536436,28.886353,-19.226074,19.708813,10.683258,-728.771313,0.392986,2.710194,2.710194,3.103180,-0.160200,-0.121410,-0.121410,-0.108936,26293,-39
0.156000,38.131922,-728.271250,-376.347012,28.838013,-24.169922,15.320939,9.293909,-743.592189,0.381695,1.783887,1.783887,2.165582,-0.160200,-0.133130,-0.133130,-0.122820,26249,-47
0.158000,36.656526,-746.760000,-361.785435,28.785278,-26.367188,11.152127,7.871248,-757.912127,0.369773,0.839853,0.839853,1.209626,-0.160200,-0.145080,-0.145080,-0.133500,26201,-52
0.160000,35.144882,-764.510500,-346.866104,28.725952,-29.663086,7.070605,6.418930,-771.581105,0.357218,-0.118888,-0.118888,0.238329,-0.160200,-0.157221,-0.157221,-0.145248,26147,-52
0.162000,33.598484,-781.504750,-331.603773,28.660034,-32.958984,3.067646,4.938450,-784.572396,0.344030,-1.091284,-1.091284,-0.747254,-0.160200,-0.169541,-0.169541,-0.152724,26087,-53
0.164000,32.018863,-797.726250,-316.013534,28.584229,-37.902832,-1.029402,3.434634,-796.696848,0.330214,-2.073396,-2.073396,-1.743182,-0.160200,-0.181990,-0.181990,-0.169812,26018,-88
0.166000,30.407579,-813.159000,-300.110802,28.482056,-51.086426,-6.035104,1.925523,-807.123896,0.315777,-3.049856,-3.049856,-2.734078,-0.160200,-0.194376,-0.194376,-0.178356,25925,-96
0.168000,28.766227,-827.787250,-283.911305,28.376587,-52.734375,-10.705031,0.389640,-817.082219,0.300730,-4.040215,-4.040215,-3.739485,-0.160200,-0.206944,-0.206944,-0.193308,25829,-103
0.170000,27.096430,-841.597500,-267.431059,28.255737,-60.424805,-15.677008,-1.159307,-825.920492,0.285086,-5.032690,-5.032690,-4.747604,-0.160200,-0.219545,-0.219545,-0.206124,25719,-110
0.172000,25.399837,-854.575500,-250.686364,28.120605,-67.565918,-20.865899,-2.720768,-833.709601,0.268863,-6.027316,-6.027316,-5.758453,-0.160200,-0.232181,-0.232181,-0.216804,25596,-124
0.174000,23.678128,-866.708000,-233.693775,27.947021,-86.791992,-27.458509,-4.268893,-839.249491,0.252081,-7.002019,-7.002019,-6.749937,-0.160200,-0.244574,-0.244574,-0.234960,25438,-159
0.176000,21.933005,-877.983750,-216.470097,27.733887,-106.567383,-35.369396,-5.800882,-842.614354,0.234765,-7.955475,-7.955475,-7.720711,-0.160200,-0.256709,-0.256709,-0.238164,25244,-132
0.178000,20.166193,-888.391250,-199.032362,27.520752,-106.567383,-42.489195,-7.354559,-845.902055,0.216940,-8.921777,-8.921777,-8.704837,-0.160200,-0.269010,-0.269010,-0.261660,25050,-193
0.180000,18.379440,-897.920250,-181.397812,27.316406,-102.172852,-48.457560,-8.936966,-849.462690,0.198638,-9.907058,-9.907058,-9.708420,-0.160200,-0.281555,-0.281555,-0.265932,24864,-202
0.182000,16.574512,-906.561500,-163.583885,27.095581,-110.412598,-54.653064,-10.521069,-851.908436,0.179892,-10.887537,-10.887537,-10.707645,-0.160200,-0.294046,-0.294046,-0.279816,24663,-176
0.184000,14.753194,-914.306250,-145.608198,26.808838,-143.371582,-63.524916,-12.055644,-850.781334,0.160738,-11.819054,-11.819054,-11.658316,-0.160200,-0.305929,-0.305929,-0.296904,24402,-246
0.186000,12.917287,-921.146750,-127.488525,26.481445,-163.696289,-73.542053,-13.564158,-847.604697,0.141215,-12.723921,-12.723921,-12.582706,-0.160200,-0.317484,-0.317484,-0.308652,24104,-215
0.188000,11.068607,-927.076250,-109.242785,26.139771,-170.837402,-83.271588,-15.071164,-843.804662,0.121364,-13.624601,-13.624601,-13.503237,-0.160200,-0.328990,-0.328990,-0.316128,23793,-248
0.190000,9.208982,-932.089000,-90.889019,25.799194,-170.288086,-91.973238,-16.590212,-840.115762,0.101228,-14.533220,-14.533220,-14.431992,-0.160200,-0.340600,-0.340600,-0.328944,23483,-244
0.192000,7.340251,-936.180250,-72.445377,25.469604,-164.794922,-99.255406,-18.129353,-836.924844,0.080852,-15.456720,-15.456720,-15.375868,-0.160200,-0.352398,-0.352398,-0.340692,23183,-241
0.194000,5.464261,-939.345750,-53.930097,25.076294,-196.655273,-108.995393,-19.612033,-830.350357,0.060285,-16.328013,-16.328013,-16.267729,-0.160200,-0.363547,-0.363547,-0.356712,22825,-334
0.196000,3.582868,-941.582500,-35.361488,24.709351,-183.471680,-116.443022,-21.126483,-825.139478,0.039573,-17.225854,-17.225854,-17.186281,-0.160200,-0.375029,-0.375029,-0.359916,22491,-301
0.198000,1.697931,-942.888000,-16.757912,24.294067,-207.641602,-125.562880,-22.596136,-817.325120,0.018766,-18.082699,-18.082699,-18.063932,-0.160200,-0.385999,-0.385999,-0.373800,22113,-330
0.200000,-0.188684,-943.261000,1.862236,23.862305,-215.881348,-134.594726,-24.050989,-808.666274,-0.002086,-18.926080,-18.926080,-18.928165,-0.160200,-0.396802,-0.396802,-0.385548,21720,-379
0.202000,-2.075113,-942.701250,20.480542,23.416260,-223.022461,-143.437500,-25.491373,-799.263750,-0.022933,-19.756729,-19.756729,-19.779661,-0.160200,-0.407446,-0.407446,-0.399432,21314,-386
0.204000,-3.959489,-941.209500,39.078596,22.921875,-247.192383,-153.812988,-26.881364,-787.396512,-0.043725,-20.543689,-20.543689,-20.587414,-0.160200,-0.417543,-0.417543,-0.410112,20864,-352
0.206000,-5.839951,-938.787000,57.638006,22.394531,-263.671875,-164.798877,-28.234482,-773.988123,-0.064411,-21.300056,-21.300056,-21.364467,-0.160200,-0.427256,-0.427256,-0.416520,20384,-394
0.208000,-7.714637,-935.436000,76.140422,21.882568,-255.981445,-173.917134,-29.597205,-761.518866,-0.084944,-22.067207,-22.067207,-22.152152,-0.160200,-0.437102,-0.437102,-0.426132,19918,-448
0.210000,-9.581695,-931.160250,94.567545,21.350830,-265.869141,-183.112334,-30.932525,-748.047916,-0.105275,-22.812374,-22.812374,-22.917649,-0.160200,-0.446671,-0.446671,-0.435744,19434,-438
0.212000,-11.439278,-925.963500,112.901154,20.812500,-269.165039,-191.717605,-32.251778,-734.245895,-0.125358,-23.545993,-23.545993,-23.671351,-0.160200,-0.456092,-0.456092,-0.446424,18944,-459
0.214000,-13.285549,-919.851000,131.123121,20.252197,-280.151367,-200.560981,-33.537746,-719.290019,-0.145147,-24.253237,-24.253237,-24.398384,-0.160200,-0.465180,-0.465180,-0.454968,18434,-460
0.216000,-15.118682,-912.829250,149.215425,19.671021,-290.588379,-209.563721,-34.789703,-703.265529,-0.164600,-24.934110,-24.934110,-25.098709,-0.160200,-0.473934,-0.473934,-0.464580,17905,-513
0.218000,-16.936866,-904.904750,167.160178,19.020630,-325.195312,-221.126880,-35.957496,-683.777870,-0.183675,-25.545437,-25.545437,-25.729112,-0.160200,-0.481814,-0.481814,-0.472056,17313,-527
0.220000,-18.738301,-896.085250,184.939632,18.360352,-330.139160,-232.028108,-37.098653,-664.057142,-0.202335,-26.139272,-26.139272,-26.341608,-0.160200,-0.489470,-0.489470,-0.470988,16712,-545
0.222000,-20.521207,-886.379750,202.536209,17.696777,-331.787109,-242.004008,-38.217984,-644.375742,-0.220544,-26.719982,-26.719982,-26.940526,-0.160200,-0.496957,-0.496957,-0.491280,16108,-545
0.224000,-22.283820,-875.797750,219.932506,16.893677,-401.550293,-257.958637,-39.177497,-617.839113,-0.238269,-27.167169,-27.167169,-27.405438,-0.160200,-0.502768,-0.500000,-0.494484,15377,-569
0.226000,-24.024398,-864.349750,237.111321,16.110352,-391.662598,-271.329033,-40.134750,-593.020717,-0.255481,-27.621973,-27.621973,-27.877454,-0.160200,-0.508668,-0.500000,-0.496620,14664,-615
0.228000,-25.741219,-852.047000,254.055668,15.301758,-404.296875,-284.625817,-41.042977,-567.421183,-0.272153,-28.042738,-28.042738,-28.314892,-0.160200,-0.514136,-0.500000,-0.500892,13928,-616
0.230000,-27.432586,-838.901750,270.748790,14.528320,-386.718750,-294.835110,-41.960906,-544.066640,-0.288262,-28.481185,-28.481185,-28.769447,-0.160200,-0.519818,-0.500000,-0.503028,13224,-610
0.232000,-29.096826,-824.926750,287.174181,13.777954,-375.183105,-302.869910,-42.874780,-522.056840,-0.303788,-28.924196,-28.924196,-29.227984,-0.160200,-0.525550,-0.500000,-0.496620,12541,-624
0.234000,-30.732293,-810.136250,303.315597,12.962769,-407.592773,-313.342196,-43.695062,-496.794054,-0.318714,-29.293002,-29.293002,-29.611716,-0.160200,-0.530346,-0.500000,-0.496620,11799,-622
0.236000,-32.337371,-794.544500,319.157079,12.061890,-450.439453,-327.051922,-44.399261,-467.492578,-0.333027,-29.569750,-29.569750,-29.902778,-0.160200,-0.533985,-0.500000,-0.503028,10979,-631
0.238000,-33.910471,-778.167000,334.682960,11.226929,-417.480469,-336.094777,-45.137400,-442.072223,-0.346718,-29.887553,-29.887553,-30.234271,-0.160200,-0.538128,-0.500000,-0.501960,10219,-652
0.240000,-35.450039,-761.020250,349.877888,10.346924,-440.002441,-346.485543,-45.796963,-414.534707,-0.359779,-30.146271,-30.000000,-30.359779,-0.160200,-0.539697,-0.500000,-0.498756,9418,-645
0.242000,-36.954552,-743.120750,364.726837,9.458130,-444.396973,-356.276686,-46.412682,-386.844064,-0.372208,-30.377405,-30.000000,-30.372208,-0.160200,-0.539853,-0.500000,-0.504096,8609,-679
0.244000,-38.422522,-724.486500,379.215124,8.564941,-446.594238,-365.308441,-46.987463,-359.178059,-0.384004,-30.583660,-30.000000,-30.384004,-0.160200,-0.540000,-0.500000,-0.495552,7796,-671
0.246000,-39.852498,-705.136000,393.328421,7.726685,-419.128418,-370.690439,-47.579183,-334.445561,-0.395169,-30.815622,-30.000000,-30.395169,-0.160200,-0.540140,-0.500000,-0.496620,7033,-661
0.248000,-41.243066,-685.088000,407.052774,6.925781,-400.451660,-373.666561,-48.168847,-311.421439,-0.405709,-31.055273,-30.000000,-30.405709,-0.160200,-0.540271,-0.500000,-0.500892,6304,-687
0.250000,-42.592850,-664.362500,420.374610,6.119385,-403.198242,-376.619729,-48.712235,-287.742771,-0.415633,-31.263229,-30.000000,-30.415633,-0.160200,-0.540395,-0.500000,-0.500892,5570,-686
0.252000,-43.900516,-642.980250,433.280756,5.309692,-404.846191,-379.442375,-49.210208,-263.537875,-0.424950,-31.440687,-30.000000,-30.424950,-0.160200,-0.540512,-0.500000,-0.500892,4833,-659
0.254000,-45.164771,-620.962000,445.758450,4.436279,-436.706543,-385.168792,-49.601050,-235.793208,-0.433673,-31.534168,-30.000000,-30.433673,-0.160200,-0.540621,-0.500000,-0.494484,4038,-677
0.256000,-46.384364,-598.329500,457.795354,3.520020,-458.129883,-392.464901,-49.904384,-205.864599,-0.441817,-31.562758,-30.000000,-30.441817,-0.160200,-0.540723,-0.500000,-0.498756,3204,-693
0.258000,-47.558089,-575.105750,469.379563,2.704834,-407.592773,-393.977688,-50.262923,-181.128062,-0.449398,-31.652257,-30.000000,-30.449398,-0.160200,-0.540817,-0.500000,-0.498756,2462,-683
0.260000,-48.684787,-551.313500,480.499624,1.886353,-409.240723,-395.503992,-50.571140,-155.809508,-0.456434,-31.707968,-30.000000,-30.456434,-0.160200,-0.540905,-0.500000,-0.494484,1717,-663
0.262000,-49.763343,-526.975500,491.144540,0.899780,-493.286133,-405.282206,-50.663123,-121.693294,-0.462943,-31.585525,-30.000000,-30.462943,-0.160200,-0.540987,-0.500000,-0.499824,819,-683
0.264000,-50.792689,-502.116500,501.303785,-0.005493,-452.636719,-410.017657,-50.787196,-92.098843,-0.468947,-31.506361,-30.000000,-30.468947,-0.160200,-0.541062,-0.500000,-0.499824,-5,-686
0.266000,-51.771809,-476.761250,510.967313,-0.850342,-422.424316,-411.258323,-50.921467,-65.502927,-0.474465,-31.449127,-30.000000,-30.474465,-0.160200,-0.541131,-0.500000,-0.499824,-774,-683
0.268000,-52.699734,-450.934500,520.125568,-1.716064,-432.861328,-413.418624,-50.983670,-37.515876,-0.479519,-31.340584,-30.000000,-30.479519,-0.160200,-0.541194,-0.500000,-0.501960,-1562,-698
0.270000,-53.575547,-424.661750,528.769493,-2.541138,-412.536621,-413.330423,-51.034409,-11.331327,-0.484131,-31.234477,-30.000000,-30.484131,-0.160200,-0.541252,-0.500000,-0.501960,-2313,-703
0.272000,-54.398381,-397.969000,536.890542,-3.370605,-414.733887,-413.470770,-51.027776,15.501770,-0.488322,-31.089927,-30.000000,-30.488322,-0.160200,-0.541304,-0.500000,-0.496620,-3068,-710
0.274000,-55.167423,-370.883000,544.480683,-4.204468,-416.931152,-413.816808,-50.962955,42.933808,-0.492113,-30.906697,-30.000000,-30.492113,-0.160200,-0.541351,-0.500000,-0.498756,-3827,-685
0.276000,-55.881913,-343.430000,551.532412,-5.037231,-416.381836,-414.073311,-50.844682,70.643311,-0.495526,-30.689361,-30.000000,-30.495526,-0.160200,-0.541394,-0.500000,-0.501960,-4585,-676
0.278000,-56.541143,-315.637250,558.038754,-5.933716,-448.242188,-417.490198,-50.607427,101.852948,-0.498580,-30.381017,-30.000000,-30.498580,-0.160200,-0.541432,-0.500000,-0.498756,-5401,-698
0.280000,-57.144462,-287.532750,563.993277,-6.870850,-468.566895,-422.597868,-50.273612,135.065118,-0.501295,-30.003203,-30.000000,-30.501295,-0.160200,-0.541466,-0.500000,-0.495552,-6254,-702
0.282000,-57.691274,-259.143750,569.390091,-7.751953,-440.551758,-424.393257,-49.939321,165.249507,-0.503688,-29.640951,-29.640951,-30.144639,-0.160200,-0.537008,-0.500000,-0.496620,-7056,-687
0.284000,-58.181037,-230.498500,574.223861,-8.761597,-504.821777,-432.436109,-49.419440,201.937609,-0.505778,-29.131275,-29.131275,-29.637054,-0.160200,-0.530663,-0.500000,-0.503028,-7975,-678
0.286000,-58.613268,-201.625250,578.489806,-9.642700,-440.551758,-433.247674,-48.970568,231.622424,-0.507580,-28.701645,-28.701645,-29.209225,-0.160200,-0.525315,-0.500000,-0.497688,-8777,-690
0.288000,-58.987538,-172.552500,582.183708,-10.543579,-450.439453,-434.966852,-48.443959,262.414352,-0.509107,-28.218732,-28.218732,-28.727839,-0.160200,-0.519298,-0.500000,-0.498756,-9597,-699
0.290000,-59.303478,-143.309500,585.301915,-11.424683,-440.551758,-435.525342,-47.878795,292.215842,-0.510373,-27.717453,-27.717453,-28.227826,-0.160200,-0.513048,-0.500000,-0.495552,-10399,-701
0.292000,-59.560776,-113.924750,587.841342,-12.269531,-422.424316,-434.215240,-47.291245,320.290490,-0.511388,-27.211540,-27.211540,-27.722928,-0.160200,-0.506737,-0.500000,-0.507300,-11168,-706
0.294000,-59.759177,-84.427000,589.799479,-13.115479,-422.973633,-433.091079,-46.643698,348.664079,-0.512161,-26.667413,-26.667413,-27.179574,-0.160200,-0.499945,-0.499945,-0.501960,-11938,-705
0.296000,-59.898484,-54.846000,591.174389,-13.959229,-421.875000,-431.969471,-45.939255,377.123471,-0.512698,-26.088080,-26.088080,-26.600779,-0.160200,-0.492710,-0.492710,-0.503028,-12706,-715
0.298000,-59.978561,-25.210750,591.964713,-14.866699,-453.735352,-434.146059,-45.111862,408.935309,-0.513005,-25.416088,-25.416088,-25.929093,-0.160200,-0.484314,-0.484314,-0.496620,-13532,-700
0.300000,-59.999327,4.449500,592.169669,-15.709351,-421.325684,-432.864022,-44.289976,437.313522,-0.513085,-24.765439,-24.765439,-25.278523,0.160200,-0.155782,-0.155782,-0.487008,-14299,-705
0.302000,-59.960763,34.105250,591.789055,-16.608032,-449.340820,-434.511702,-43.352731,468.616952,-0.512937,-24.029004,-24.029004,-24.541941,0.160200,-0.146574,-0.146574,-0.155928,-15117,-611
0.304000,-59.862906,63.727250,590.823247,-17.419922,-405.944824,-431.655014,-42.442984,495.382264,-0.512561,-23.333128,-23.333128,-23.845689,0.160200,-0.137871,-0.137871,-0.146316,-15856,-475
0.306000,-59.705854,93.286250,589.273200,-18.002197,-291.137695,-417.603282,-41.703657,510.889532,-0.511954,-22.800303,-22.800303,-23.312257,0.160200,-0.131203,-0.131203,-0.137772,-16386,-344
0.308000,-59.489761,122.753250,587.140446,-18.383423,-190.612793,-394.904233,-41.106338,517.657483,-0.511109,-22.399985,-22.399985,-22.911094,0.160200,-0.126189,-0.126189,-0.129228,-16733,-259
0.310000,-59.214841,152.098750,584.427095,-18.689941,-153.259277,-370.739737,-40.524900,522.838487,-0.510020,-22.017677,-22.017677,-22.527697,0.160200,-0.121396,-0.121396,-0.129228,-17012,-174
0.312000,-58.881366,181.293750,581.135831,-18.910767,-110.412598,-344.707024,-39.970599,526.000774,-0.508677,-21.662516,-21.662516,-22.171193,0.160200,-0.116940,-0.116940,-0.116412,-17213,-169
0.314000,-58.489666,210.309500,577.269906,-19.078857,-84.045410,-318.640862,-39.410809,528.950362,-0.507069,-21.305115,-21.305115,-21.812184,0.160200,-0.112452,-0.112452,-0.115344,-17366,-124
0.316000,-58.040128,239.117250,572.833145,-19.203003,-62.072754,-292.984051,-38.837125,532.101301,-0.505182,-20.938174,-20.938174,-21.443356,0.160200,-0.107842,-0.107842,-0.112140,-17479,-90
0.318000,-57.533197,267.688500,567.829934,-19.297485,-47.241211,-268.409767,-38.235712,536.098267,-0.503003,-20.549863,-20.549863,-21.052866,0.160200,-0.102961,-0.102961,-0.108936,-17565,-75
0.320000,-56.969374,295.995250,562.265222,-19.372192,-37.353516,-245.304142,-37.597182,541.299392,-0.500515,-20.132574,-20.132574,-20.633089,0.160200,-0.097714,-0.097714,-0.107868,-17633,-62
0.322000,-56.349216,324.009250,556.144510,-19.430420,-29.113770,-223.685105,-36.918796,547.694355,-0.497700,-19.684688,-19.684688,-20.182388,0.160200,-0.092080,-0.092080,-0.096120,-17686,-46
0.324000,-55.673337,351.702750,549.473852,-19.479858,-24.719238,-203.788518,-36.193479,555.491268,-0.494541,-19.200792,-19.200792,-19.695333,0.160200,-0.085992,-0.085992,-0.090780,-17731,-30
0.326000,-54.942405,379.048500,542.259843,-19.516113,-18.127441,-185.222411,-35.426292,564.270911,-0.491017,-18.686175,-18.686175,-19.177191,0.160200,-0.079515,-0.079515,-0.085440,-17764,-20
0.328000,-54.157143,406.019250,534.509617,-19.541382,-12.634277,-167.963597,-34.615761,573.982847,-0.487108,-18.140198,-18.140198,-18.627306,0.160200,-0.072641,-0.072641,-0.079032,-17787,-20
0.330000,-53.318328,432.588750,526.230838,-19.562256,-10.437012,-152.210939,-33.756072,584.799689,-0.482793,-17.558407,-17.558407,-18.041200,0.160200,-0.065315,-0.065315,-0.071556,-17806,-15
0.332000,-52.426788,458.730500,517.431693,-19.578735,-8.239746,-137.813819,-32.848053,596.544319,-0.478051,-16.942235,-16.942235,-17.420285,0.160200,-0.057554,-0.057554,-0.065148,-17821,-11
0.334000,-51.483406,484.418500,508.120883,-19.589722,-5.493164,-124.581754,-31.893684,609.000254,-0.472859,-16.294025,-16.294025,-16.766885,0.160200,-0.049386,-0.049386,-0.056604,-17831,-5
0.336000,-50.489114,509.627750,498.307614,-19.595215,-2.746582,-112.398237,-30.893899,622.025987,-0.467198,-15.615089,-15.615089,-16.082286,0.160200,-0.040829,-0.040829,-0.050196,-17836,-2
0.338000,-49.444895,534.332750,488.001591,-19.595215,0.000000,-101.158413,-29.849680,635.491163,-0.461045,-14.906708,-14.906708,-15.367753,0.160200,-0.031897,-0.031897,-0.042720,-17836,0
0.340000,-48.351783,558.509250,477.213005,-19.595215,0.000000,-91.042572,-28.756568,649.551822,-0.454379,-14.165342,-14.165342,-14.619722,0.160200,-0.022547,-0.022547,-0.034176,-17836,0
0.342000,-47.210858,582.133750,465.952524,-19.595215,0.000000,-81.938315,-27.615643,664.072065,-0.447182,-13.392363,-13.392363,-13.839545,0.160200,-0.012794,-0.012794,-0.021360,-17836,0
0.344000,-46.023248,605.182500,454.231283,-19.594116,0.549316,-73.689551,-26.429132,678.872051,-0.439434,-12.590072,-12.590072,-13.029506,0.160200,-0.002669,-0.002669,-0.009612,-17835,1
0.346000,-44.790128,627.633000,442.060872,-19.593018,0.549316,-66.265665,-25.197110,693.898665,-0.431118,-11.758794,-11.758794,-12.189912,0.160200,0.007826,0.007826,-0.010680,-17834,1
0.348000,-43.512716,649.462750,429.453327,-19.590820,1.098633,-59.529235,-23.921896,708.991985,-0.422218,-10.900781,-10.900781,-11.322999,0.160200,0.018663,0.018663,0.002136,-17832,1
0.350000,-42.192277,670.650000,416.421115,-19.588623,1.098633,-53.466448,-22.603654,724.116448,-0.412720,-10.016322,-10.016322,-10.429042,0.160200,0.029837,0.029837,0.020292,-17830,3
0.352000,-40.830116,691.174250,402.977123,-19.584229,2.197266,-47.900077,-21.245887,739.074327,-0.402613,-9.108590,-9.108590,-9.511203,0.160200,0.041310,0.041310,0.032040,-17826,7
0.354000,-39.427580,711.015250,389.134644,-19.575439,4.394531,-42.670616,-19.852141,753.685866,-0.391885,-8.180693,-8.180693,-8.572578,0.160200,0.053043,0.053043,0.040584,-17818,9
0.356000,-37.986055,730.153000,374.907367,-19.561157,7.141113,-37.689443,-18.424898,767.842443,-0.380531,-7.234716,-7.234716,-7.615247,0.160200,0.065009,0.065009,0.053400,-17805,12
0.358000,-36.506968,748.568500,360.309360,-19.539185,10.986328,-32.821866,-16.967783,781.390366,-0.368546,-6.273679,-6.273679,-6.642224,0.160200,0.077172,0.077172,0.065148,-17785,22
0.360000,-34.991781,766.244000,345.355060,-19.508423,15.380859,-28.001593,-15.483358,794.245593,-0.355927,-5.299585,-5.299585,-5.655512,0.160200,0.089506,0.089506,0.076896,-17757,26
0.362000,-33.441992,783.162000,330.059253,-19.467773,20.324707,-23.168963,-13.974219,806.330963,-0.342677,-4.314425,-4.314425,-4.657102,0.160200,0.101986,0.101986,0.086508,-17720,34
0.364000,-31.859133,799.305250,314.437066,-19.424927,21.423340,-18.709733,-12.434206,818.014983,-0.328798,-3.312508,-3.312508,-3.641306,0.160200,0.114684,0.114684,0.104664,-17681,30
0.366000,-30.244771,814.658000,298.503945,-19.378784,23.071289,-14.531631,-10.865987,829.189631,-0.314300,-2.296027,-2.296027,-2.610327,0.160200,0.127571,0.127571,0.117480,-17639,38
0.368000,-28.600501,829.205500,282.275647,-19.329346,24.719238,-10.606544,-9.271155,839.812044,-0.299192,-1.266181,-1.266181,-1.565373,0.160200,0.140633,0.140633,0.126024,-17594,43
0.370000,-26.927949,842.933000,265.768219,-19.263428,32.958984,-6.249991,-7.664521,849.182991,-0.283490,-0.235678,-0.235678,-0.519168,0.160200,0.153710,0.153710,0.138840,-17534,62
0.372000,-25.228769,855.827000,248.997985,-19.179932,41.748047,-1.450187,-6.048837,857.277187,-0.267210,0.793668,0.793668,0.526458,0.160200,0.166781,0.166781,0.152724,-17458,67
0.374000,-23.504641,867.874500,231.981527,-19.082153,48.889160,3.583747,-4.422488,864.290753,-0.250373,1.823872,1.823872,1.573498,0.160200,0.179869,0.179869,0.163404,-17369,72
0.376000,-21.757271,879.063750,214.735673,-18.978882,51.635742,8.388947,-2.778389,870.674803,-0.233005,2.861621,2.861621,2.628617,0.160200,0.193058,0.193058,0.179424,-17275,96
0.378000,-19.988386,889.384000,197.277477,-18.860229,59.326172,13.482669,-1.128157,875.901331,-0.215131,3.897057,3.897057,3.681926,0.160200,0.206224,0.206224,0.197580,-17167,91
0.380000,-18.199735,898.824500,179.624202,-18.723999,68.115234,18.945926,0.524264,879.878574,-0.196783,4.927288,4.927288,4.730505,0.160200,0.219331,0.219331,0.206124,-17043,131
0.382000,-16.393088,907.376250,161.793304,-18.566895,78.552246,24.906558,2.173807,882.469692,-0.177994,5.948503,5.948503,5.770509,0.160200,0.232331,0.232331,0.220008,-16900,129
0.384000,-14.570230,915.031000,143.802416,-18.390015,88.439941,31.259896,3.819785,883.771104,-0.158802,6.960788,6.960788,6.801987,0.160200,0.245225,0.245225,0.230688,-16739,129
0.386000,-12.732964,921.780750,125.669328,-18.188965,100.524902,38.186397,5.456001,883.594353,-0.139244,7.959370,7.959370,7.820127,0.160200,0.257952,0.257952,0.244572,-16556,167
0.388000,-10.883107,927.618750,107.411971,-17.993408,97.778320,44.145589,7.110301,883.473161,-0.119362,8.969290,8.969290,8.849928,0.160200,0.270824,0.270824,0.257388,-16378,184
0.390000,-9.022489,932.539750,89.048399,-17.748413,122.497559,51.980786,8.725924,880.558964,-0.099200,9.940960,9.940960,9.841760,0.160200,0.283222,0.283222,0.273408,-16155,175
0.392000,-7.152948,936.538750,70.596771,-17.510010,119.201660,58.702874,10.357062,877.835876,-0.078804,10.923107,10.923107,10.844303,0.160200,0.295754,0.295754,0.290496,-15938,213
0.394000,-5.276334,939.611250,52.075334,-17.214478,147.766113,67.609198,11.938144,872.002052,-0.058219,11.858389,11.858389,11.800170,0.160200,0.307702,0.307702,0.299040,-15669,199
0.396000,-3.394503,941.754750,33.502401,-16.929932,142.272949,75.075573,13.535429,866.679177,-0.037496,12.806244,12.806244,12.768749,0.160200,0.319809,0.319809,0.305448,-15410,272
0.398000,-1.509315,942.967250,14.896339,-16.625610,152.160645,82.784080,15.116295,860.183170,-0.016682,13.737928,13.737928,13.721246,0.160200,0.331716,0.331716,0.319332,-15133,234
0.400000,0.377366,943.247000,-3.724453,-16.302612,161.499023,90.655574,16.679978,852.591426,0.004172,14.653377,14.653377,14.657549,0.160200,0.343419,0.343419,0.330012,-14839,321
0.402000,2.263673,942.594000,-22.341562,-15.957642,172.485352,98.838552,18.221315,843.755448,0.025015,15.548661,15.548661,15.573676,0.160200,0.354871,0.354871,0.347100,-14525,257
0.404000,4.147742,941.009250,-40.936579,-15.544556,206.542969,109.608994,19.692298,831.400256,0.045799,16.382542,16.382542,16.428340,0.160200,0.365554,0.365554,0.355644,-14149,338
0.406000,6.027710,938.493750,-59.491115,-15.105103,219.726562,120.620751,21.132813,817.872999,0.066472,17.191674,17.191674,17.258146,0.160200,0.375927,0.375927,0.368460,-13749,359
0.408000,7.901717,935.050000,-77.986823,-14.690918,207.092285,129.267904,22.592635,805.782096,0.086987,18.020121,18.020121,18.107108,0.160200,0.386539,0.386539,0.377004,-13372,382
0.410000,9.767910,930.681750,-96.405414,-14.256958,216.979980,138.039112,24.024868,792.642638,0.107296,18.826224,18.826224,18.933519,0.160200,0.396869,0.396869,0.385548,-12977,418
0.412000,11.624444,925.393250,-114.728673,-13.798828,229.064941,147.141695,25.423272,778.251555,0.127351,19.605109,19.605109,19.732460,0.160200,0.406856,0.406856,0.399432,-12560,401
0.414000,13.469483,919.189750,-132.938482,-13.219849,289.489746,161.376500,26.689332,757.813250,0.147108,20.271486,20.271486,20.418594,0.160200,0.415432,0.415432,0.411180,-12033,435
0.416000,15.301203,912.077500,-151.016834,-12.646362,286.743164,173.913166,27.947565,738.164334,0.166525,20.937216,20.937216,21.103740,0.160200,0.423997,0.423997,0.411180,-11511,473
0.418000,17.117793,904.063000,-168.945853,-12.045410,300.476074,186.569457,29.163203,717.493543,0.185560,21.571574,21.571574,21.757135,0.160200,0.432164,0.432164,0.421860,-10964,445
0.420000,18.917455,895.154250,-186.707808,-11.386230,329.589844,200.871496,30.303685,694.282754,0.204177,22.146724,22.146724,22.350901,0.160200,0.439586,0.439586,0.434676,-10364,480
0.422000,20.698410,885.360750,-204.285136,-10.762207,312.011719,211.985518,31.460617,673.375232,0.222339,22.743982,22.743982,22.966321,0.160200,0.447279,0.447279,0.443220,-9796,488
0.424000,22.458898,874.691750,-221.660456,-10.128296,316.955566,222.482523,32.587194,652.209227,0.240014,23.321343,23.321343,23.561358,0.160200,0.454717,0.454717,0.451764,-9219,516
0.426000,24.197177,863.157750,-238.816585,-9.424072,352.111816,235.445452,33.621249,627.712298,0.257173,23.824746,23.824746,24.081920,0.160200,0.461224,0.461224,0.453900,-8578,527
0.428000,25.911529,850.770250,-255.736559,-8.694580,364.746094,248.375516,34.606109,602.394734,0.273790,24.293801,24.293801,24.567590,0.160200,0.467295,0.467295,0.466716,-7914,536
0.430000,27.600258,837.541250,-272.403647,-7.977173,358.703613,259.408326,35.577431,578.132924,0.289841,24.760113,24.760113,25.049954,0.160200,0.473324,0.473324,0.466716,-7261,578
0.432000,29.261694,823.484250,-288.801367,-7.208130,384.521484,271.919642,36.469824,551.564608,0.305308,25.166133,25.166133,25.471441,0.160200,0.478593,0.478593,0.474192,-6561,594
0.434000,30.894195,808.613000,-304.913503,-6.472046,368.041992,281.531877,37.366241,527.081123,0.320173,25.585528,25.585528,25.905701,0.160200,0.484021,0.484021,0.481668,-5891,608
0.436000,32.496146,792.941750,-320.724125,-5.755737,358.154297,289.194119,38.251883,503.747631,0.334424,26.004362,26.004362,26.338787,0.160200,0.489435,0.489435,0.480600,-5239,587
0.438000,34.065962,776.486750,-336.217596,-5.024048,365.844727,296.859180,39.090010,479.627570,0.348052,26.390052,26.390052,26.738105,0.160200,0.494426,0.494426,0.483804,-4573,613
0.440000,35.602093,759.264000,-351.378597,-4.275879,374.084473,304.581709,39.877972,454.682291,0.361051,26.740778,26.740778,27.101828,0.160200,0.498973,0.498973,0.492348,-3892,642
0.442000,37.103018,741.290000,-366.192135,-3.505737,385.070801,312.630618,40.608755,428.659382,0.373416,27.050932,27.050932,27.424348,0.160200,0.503004,0.500000,0.498756,-3191,638
0.444000,38.567253,722.583250,-380.643561,-2.563110,471.313477,328.498904,41.130363,394.084346,0.385148,27.188530,27.188530,27.573678,0.160200,0.504871,0.500000,0.497688,-2333,674
0.446000,39.993351,703.162250,-394.718586,-1.721558,420.776367,337.726650,41.714909,365.435600,0.396251,27.395604,27.395604,27.791855,0.160200,0.507598,0.500000,0.501960,-1567,652
0.448000,41.379902,683.045750,-408.403291,-0.747070,487.243652,352.678351,42.126972,330.367399,0.406729,27.463703,27.463703,27.870432,0.160200,0.508580,0.500000,0.498756,-680,683
0.450000,42.725534,662.253500,-421.684145,0.182373,464.721680,363.882683,42.543161,298.370817,0.416592,27.550404,27.550404,27.966996,0.160200,0.509787,0.500000,0.497688,166,692
0.452000,44.028916,640.806500,-434.548013,1.143677,480.651855,375.559601,42.885239,265.246899,0.425849,27.585931,27.585931,28.011780,0.160200,0.510347,0.500000,0.504096,1041,718
0.454000,45.288760,618.726000,-446.982176,2.075317,465.820312,384.585672,43.213443,234.140328,0.434513,27.623546,27.623546,28.058059,0.160200,0.510926,0.500000,0.500892,1889,731
0.456000,46.503820,596.033500,-458.974338,2.969604,447.143555,390.841460,43.534216,205.192040,0.442600,27.667922,27.667922,28.110522,0.160200,0.511582,0.500000,0.499824,2703,693
0.458000,47.672894,572.751750,-470.512641,3.890259,460.327148,397.790029,43.782635,174.961721,0.450126,27.661387,27.661387,28.111513,0.160200,0.511594,0.500000,0.499824,3541,716
0.460000,48.794827,548.903750,-481.585675,4.858154,483.947754,406.405801,43.936673,142.497949,0.457108,27.585504,27.585504,28.042612,0.160200,0.510733,0.500000,0.501960,4422,752
0.462000,49.868509,524.512750,-492.182489,5.832642,487.243652,414.489587,44.035867,110.023163,0.463566,27.476061,27.476061,27.939627,0.160200,0.509445,0.500000,0.496620,5309,710
0.464000,50.892878,499.603000,-502.292607,6.855469,511.413574,424.181985,44.037409,75.421015,0.469520,27.295826,27.295826,27.765346,0.160200,0.507267,0.500000,0.503028,6240,743
0.466000,51.866921,474.199250,-511.906029,7.922241,533.386230,435.102410,43.944680,39.096840,0.474991,27.048988,27.048988,27.523979,0.160200,0.504250,0.500000,0.501960,7211,732
0.468000,52.789675,448.326750,-521.013250,8.951660,514.709473,443.063116,43.838015,5.263634,0.480000,26.806680,26.806680,27.286680,0.160200,0.501283,0.500000,0.500892,8148,727
0.470000,53.660228,422.011000,-529.605264,10.008545,528.442383,451.601043,43.651683,-29.590043,0.484569,26.510363,26.510363,26.994932,0.160200,0.497637,0.497637,0.496620,9110,748
0.472000,54.477719,395.277750,-537.673575,11.157715,574.584961,463.899435,43.320004,-68.621685,0.488719,26.103382,26.103382,26.592101,0.160200,0.492601,0.492601,0.494484,10156,738
0.474000,55.241339,368.153750,-545.210204,12.260742,551.513672,472.660858,42.980597,-104.507108,0.492471,25.708155,25.708155,26.200626,0.160200,0.487708,0.487708,0.490212,11160,727
0.476000,55.950334,340.665500,-552.207699,13.292358,515.808105,476.975583,42.657976,-136.310083,0.495847,25.344557,25.344557,25.840404,0.160200,0.483205,0.483205,0.490212,12099,727
0.478000,56.604001,312.840500,-558.659140,14.213013,460.327148,475.310740,42.390988,-162.470240,0.498866,25.044489,25.044489,25.543355,0.160200,0.479492,0.479492,0.483804,12937,755
0.480000,57.201696,284.706250,-564.558147,15.194092,490.539551,476.833621,42.007604,-192.127371,0.501548,24.655009,24.655009,25.156557,0.160200,0.474657,0.474657,0.477396,13830,707
0.482000,57.742826,256.290250,-569.898888,16.056519,431.213379,472.271597,41.686307,-215.981347,0.503911,24.333840,24.333840,24.837751,0.160200,0.470672,0.470672,0.476328,14615,709
0.484000,58.226857,227.620750,-574.676082,16.931030,437.255859,468.770023,41.295827,-241.149273,0.505971,23.963530,23.963530,24.469501,0.160200,0.466069,0.466069,0.473124,15411,716
0.486000,58.653309,198.726500,-578.885003,17.819824,444.396973,466.332718,40.833485,-267.606218,0.507745,23.542574,23.542574,24.050318,0.160200,0.460829,0.460829,0.465648,16220,696
0.488000,59.021763,169.635750,-582.521491,18.702026,441.101074,463.809553,40.319737,-294.173803,0.509245,23.089635,23.089635,23.598881,0.160200,0.455186,0.455186,0.460308,17023,699
0.490000,59.331852,140.376750,-585.581948,19.532593,415.283203,458.956918,39.799259,-318.580168,0.510486,22.643902,22.643902,23.154388,0.160200,0.449630,0.449630,0.452832,17779,665
0.492000,59.583270,110.979500,-588.063350,20.351074,409.240723,453.985299,39.232196,-343.005799,0.511476,22.169610,22.169610,22.681087,0.160200,0.443714,0.443714,0.446424,18524,678
0.494000,59.775770,81.472250,-589.963242,21.173950,411.437988,449.730568,38.601820,-368.258318,0.512225,21.652314,21.652314,22.164539,0.160200,0.437257,0.437257,0.445356,19273,663
0.496000,59.909159,51.884250,-591.279745,21.982544,404.296875,445.187198,37.926615,-393.302948,0.512739,21.108721,21.108721,21.621461,0.160200,0.430468,0.430468,0.437880,20009,632
0.498000,59.983307,22.245500,-592.011558,22.833984,425.720215,443.240500,37.149323,-420.995000,0.513023,20.488905,20.488905,21.001929,0.160200,0.422724,0.422724,0.435744,20784,625
0.500000,59.998141,-7.415500,-592.157957,23.745850,455.932617,444.509712,36.252291,-451.925212,0.513080,19.778990,19.778990,20.292070,-0.160200,0.093451,0.093451,0.427200,21614,631
0.502000,59.953645,-37.069500,-591.718797,24.570923,412.536621,441.312403,35.382722,-478.381903,0.512910,19.109273,19.109273,19.622183,-0.160200,0.085077,0.085077,0.097188,22365,497
0.504000,59.849863,-66.686750,-590.694512,25.244385,336.730957,430.854258,34.605478,-497.541008,0.512511,18.534165,18.534165,19.046676,-0.160200,0.077883,0.077883,0.085440,22978,339
0.506000,59.686898,-96.237750,-589.086116,25.672852,214.233398,409.192172,34.014046,-505.429922,0.511880,18.131574,18.131574,18.643454,-0.160200,0.072843,0.072843,0.083304,23368,277
0.508000,59.464912,-125.693750,-586.895198,26.001343,164.245605,384.697516,33.463569,-510.391266,0.511012,17.769329,17.769329,18.280340,-0.160200,0.068304,0.068304,0.073692,23667,137
0.510000,59.184123,-155.025500,-584.123926,26.187012,92.834473,355.511211,32.997111,-510.536711,0.509897,17.483624,17.483624,17.993522,-0.160200,0.064719,0.064719,0.067284,23836,81
0.512000,58.844810,-184.203750,-580.775039,26.282593,47.790527,324.739143,32.562217,-508.942893,0.508528,17.226308,17.226308,17.734836,-0.160200,0.061485,0.061485,0.067284,23923,43
0.514000,58.447308,-213.200000,-576.851850,26.345215,31.311035,295.396332,32.102093,-508.596332,0.506893,16.947049,16.947049,17.453941,-0.160200,0.057974,0.057974,0.061944,23980,28
0.516000,57.992010,-241.985500,-572.358237,26.374878,14.831543,267.339853,31.617132,-509.325353,0.504978,16.646986,16.646986,17.151963,-0.160200,0.054200,0.054200,0.057672,24007,10
0.518000,57.479366,-270.531750,-567.298644,26.386963,6.042480,241.210116,31.092403,-511.741866,0.502768,16.313794,16.313794,16.816562,-0.160200,0.050007,0.050007,0.053400,24018,5
0.520000,56.909883,-298.810250,-561.678075,26.391357,2.197266,217.308831,30.518526,-516.119081,0.500248,15.940313,15.940313,16.440561,-0.160200,0.045307,0.045307,0.050196,24022,2
0.522000,56.284125,-326.793250,-555.502087,26.391357,0.000000,195.577948,29.892768,-522.371198,0.497400,15.525323,15.525323,16.022723,-0.160200,0.040084,0.040084,0.041652,24022,0
0.524000,55.602710,-354.453500,-548.776788,26.391357,0.000000,176.020153,29.211353,-530.473653,0.494205,15.066646,15.066646,15.560851,-0.160200,0.034311,0.034311,0.048060,24022,0
0.526000,54.866311,-381.763000,-541.508828,26.391357,0.000000,158.418138,28.474954,-540.181138,0.490644,14.565977,14.565977,15.056621,-0.160200,0.028008,0.028008,0.036312,24022,0
0.528000,54.075658,-408.694750,-533.705393,26.391357,0.000000,142.576324,27.684301,-551.271074,0.486695,14.024928,14.024928,14.511623,-0.160200,0.021195,0.021195,0.025632,24022,0
0.530000,53.231532,-435.222750,-525.374201,26.391357,0.000000,128.318692,26.840175,-563.541442,0.482338,13.445034,13.445034,13.927372,-0.160200,0.013892,0.013892,0.018156,24022,0
0.532000,52.334767,-461.320250,-516.523489,26.390259,-0.549316,115.431891,25.944508,-576.752141,0.477552,12.828731,12.828731,13.306283,-0.160200,0.006129,0.006129,0.012816,24021,-1
0.534000,51.386251,-486.961250,-507.162010,26.389160,-0.549316,103.833770,24.997091,-590.795020,0.472315,12.176458,12.176458,12.648773,-0.160200,-0.002090,-0.002090,0.011748,24020,-1
0.536000,50.386922,-512.121000,-497.299021,26.386963,-1.098633,93.340530,23.999959,-605.461530,0.466605,11.490552,11.490552,11.957156,-0.160200,-0.010736,-0.010736,0.001068,24018,-1
0.538000,49.337767,-536.774500,-486.944275,26.384766,-1.098633,83.896613,22.953001,-620.671113,0.460401,10.771364,10.771364,11.231766,-0.160200,-0.019803,-0.019803,-0.004272,24016,-1
0.540000,48.239824,-560.897000,-476.108012,26.382568,-1.098633,75.397089,21.857256,-636.294089,0.453684,10.020210,10.020210,10.473893,-0.160200,-0.029276,-0.029276,-0.018156,24014,-3
0.542000,47.094179,-584.465000,-464.800946,26.378174,-2.197266,67.637653,20.716005,-652.102653,0.446432,9.240286,9.240286,9.686718,-0.160200,-0.039116,-0.039116,-0.033108,24010,-5
0.544000,45.901964,-607.455000,-453.034259,26.371582,-3.295898,60.544298,19.530382,-667.999298,0.438628,8.432795,8.432795,8.871423,-0.160200,-0.049307,-0.049307,-0.035244,24004,-10
0.546000,44.664359,-629.844250,-440.819586,26.358398,-6.591797,53.830689,18.305961,-683.674939,0.430254,7.602761,7.602761,8.033016,-0.160200,-0.059787,-0.059787,-0.045924,23992,-11
0.548000,43.382587,-651.610500,-428.169007,26.343018,-7.690430,47.678577,17.039569,-699.289077,0.421295,6.747412,6.747412,7.168707,-0.160200,-0.070591,-0.070591,-0.061944,23978,-13
0.550000,42.057917,-672.732500,-415.095030,26.322144,-10.437012,41.867018,15.735773,-714.599518,0.411737,5.870803,5.870803,6.282540,-0.160200,-0.081668,-0.081668,-0.070488,23959,-24
0.552000,40.691657,-693.189500,-401.610584,26.296875,-12.634277,36.416888,14.394782,-729.606388,0.401568,4.973062,4.973062,5.374630,-0.160200,-0.093017,-0.093017,-0.082236,23936,-24
0.554000,39.285159,-712.961000,-387.729003,26.262817,-17.028809,31.072319,13.022342,-744.033319,0.390778,4.059146,4.059146,4.449925,-0.160200,-0.104576,-0.104576,-0.091848,23905,-27
0.556000,37.839813,-732.027250,-373.464013,26.219971,-21.423340,25.822753,11.619842,-757.850003,0.379361,3.130064,3.130064,3.509426,-0.160200,-0.116332,-0.116332,-0.100392,23866,-39
0.558000,36.357050,-750.369750,-358.829722,26.173828,-23.071289,20.933349,10.183222,-771.303099,0.367312,2.182043,2.182043,2.549355,-0.160200,-0.128333,-0.128333,-0.113208,23824,-43
0.560000,34.838334,-767.970500,-343.840600,26.118896,-27.465820,16.093432,8.719438,-784.063932,0.354630,1.221052,1.221052,1.575683,-0.160200,-0.140504,-0.140504,-0.128160,23774,-57
0.562000,33.285168,-784.811250,-328.511469,26.047485,-35.705566,10.913532,7.237683,-795.724782,0.341317,0.254844,0.254844,0.596160,-0.160200,-0.152748,-0.152748,-0.139908,23709,-65
0.564000,31.699089,-800.876250,-312.857488,25.974976,-36.254883,6.196691,5.724113,-807.072941,0.327376,-0.729162,-0.729162,-0.401786,-0.160200,-0.165222,-0.165222,-0.154860,23643,-64
0.566000,30.081663,-816.149500,-296.894136,25.893677,-40.649414,1.512080,4.187986,-817.661580,0.312816,-1.722971,-1.722971,-1.410154,-0.160200,-0.177827,-0.177827,-0.166608,23569,-82
0.568000,28.434491,-830.615500,-280.637198,25.799194,-47.241211,-3.363249,2.635297,-827.252251,0.297649,-2.721672,-2.721672,-2.424023,-0.160200,-0.190500,-0.190500,-0.175152,23483,-102
0.570000,26.759201,-844.260000,-264.102750,25.678345,-60.424805,-9.069405,1.080856,-835.190595,0.281888,-3.712790,-3.712790,-3.430903,-0.160200,-0.203086,-0.203086,-0.186900,23373,-89
0.572000,25.057451,-857.069750,-247.307143,25.552002,-63.171387,-14.479603,-0.494551,-842.590147,0.265551,-4.713896,-4.713896,-4.448345,-0.160200,-0.215804,-0.215804,-0.200784,23258,-100
0.574000,23.330922,-869.032250,-230.266985,25.387207,-82.397461,-21.271389,-2.056285,-847.760861,0.248660,-5.694979,-5.694979,-5.446319,-0.160200,-0.228279,-0.228279,-0.217872,23108,-127
0.576000,21.581322,-880.135250,-212.999126,25.205933,-90.637207,-28.207970,-3.624611,-851.927280,0.231239,-6.674829,-6.674829,-6.443590,-0.160200,-0.240745,-0.240745,-0.224280,22943,-157
0.578000,19.810381,-890.367750,-195.520641,24.996094,-104.919434,-35.879117,-5.185713,-854.488633,0.213317,-7.641864,-7.641864,-7.428547,-0.160200,-0.253057,-0.253057,-0.239232,22752,-136
0.580000,18.019851,-899.719750,-177.848815,24.784058,-106.018066,-42.893012,-6.764207,-856.826738,0.194923,-8.618353,-8.618353,-8.423430,-0.160200,-0.265493,-0.265493,-0.254184,22559,-195
0.582000,16.211502,-908.182250,-160.001122,24.541260,-121.398926,-50.743603,-8.329758,-857.438647,0.176093,-9.577898,-9.577898,-9.401805,-0.160200,-0.277723,-0.277723,-0.264864,22338,-227
0.584000,14.387122,-915.746750,-141.995211,24.301758,-119.750977,-57.644340,-9.914636,-858.102410,0.156862,-10.549520,-10.549520,-10.392658,-0.160200,-0.290108,-0.290108,-0.277680,22120,-229
0.586000,12.548515,-922.405750,-123.848887,24.007324,-147.216797,-66.601586,-11.458809,-855.804164,0.137269,-11.480768,-11.480768,-11.343499,-0.160200,-0.301994,-0.301994,-0.290496,21852,-256
0.588000,10.697499,-928.152250,-105.580095,23.719482,-143.920898,-74.333517,-13.021983,-853.818733,0.117358,-12.425261,-12.425261,-12.307904,-0.160200,-0.314049,-0.314049,-0.295836,21590,-268
0.590000,8.835906,-932.981250,-87.206899,23.407471,-156.005859,-82.500752,-14.571565,-850.480498,0.097170,-13.354368,-13.354368,-13.257198,-0.160200,-0.325915,-0.325915,-0.315060,21306,-273
0.592000,6.965574,-936.887750,-68.747467,23.046021,-180.725098,-92.323186,-16.080447,-844.564564,0.076753,-14.245116,-14.245116,-14.168363,-0.160200,-0.337305,-0.337305,-0.324672,20977,-287
0.594000,5.088355,-939.867500,-50.220055,22.648315,-198.852539,-102.976121,-17.559960,-836.891379,0.056152,-15.108722,-15.108722,-15.052570,-0.160200,-0.348357,-0.348357,-0.341760,20615,-285
0.596000,3.206104,-941.918000,-31.642982,22.265991,-191.162109,-111.794720,-19.059887,-830.123280,0.035418,-15.989538,-15.989538,-15.954120,-0.160200,-0.359627,-0.359627,-0.347100,20267,-297
0.598000,1.320683,-943.037000,-13.034619,21.833130,-216.430664,-122.258315,-20.512447,-820.778685,0.014598,-16.827928,-16.827928,-16.813330,-0.160200,-0.370367,-0.370367,-0.356712,19873,-313
0.600000,-0.566044,-943.223750,5.586634,21.405762,-213.684082,-131.400891,-21.971806,-811.822859,-0.006257,-17.672507,-17.672507,-17.678764,-0.160200,-0.381185,-0.381185,-0.373800,19484,-396
0.602000,-2.452212,-942.477500,24.202362,20.945435,-230.163574,-141.277160,-23.397647,-801.200340,-0.027097,-18.487884,-18.487884,-18.514981,-0.160200,-0.391637,-0.391637,-0.379140,19065,-415
0.604000,-4.335954,-940.799250,42.794157,20.427979,-258.728027,-153.022246,-24.763933,-787.777004,-0.047872,-19.252216,-19.252216,-19.300088,-0.160200,-0.401451,-0.401451,-0.393024,18594,-397
0.606000,-6.215409,-938.191000,61.343636,19.869873,-279.052734,-165.625295,-26.085282,-772.565705,-0.068532,-19.979737,-19.979737,-20.048268,-0.160200,-0.410803,-0.410803,-0.400500,18086,-413
0.608000,-8.088718,-934.654750,79.832454,19.352417,-258.728027,-174.935568,-27.441135,-759.719182,-0.089028,-20.740716,-20.740716,-20.829744,-0.160200,-0.420572,-0.420572,-0.410112,17615,-463
0.610000,-9.954028,-930.194250,98.242329,18.781128,-285.644531,-186.006465,-28.735156,-744.187785,-0.109313,-21.449866,-21.449866,-21.559179,-0.160200,-0.429690,-0.429690,-0.419724,17095,-446
0.612000,-11.809495,-924.814250,116.555057,18.127441,-326.843262,-200.090144,-29.936936,-724.724106,-0.129341,-22.082080,-22.082080,-22.211421,-0.160200,-0.437843,-0.437843,-0.431472,16500,-466
0.614000,-13.653285,-918.519500,134.752529,17.460571,-333.435059,-213.424636,-31.113856,-705.094864,-0.149066,-22.698241,-22.698241,-22.847307,-0.160200,-0.445791,-0.445791,-0.436812,15893,-506
0.616000,-15.483573,-911.316250,152.816750,16.734375,-363.098145,-228.391987,-32.217948,-682.924263,-0.168446,-23.256608,-23.256608,-23.425054,-0.160200,-0.453013,-0.453013,-0.446424,15232,-525
0.618000,-17.298550,-903.212000,170.729857,16.091675,-321.350098,-237.687798,-33.390225,-665.524202,-0.187442,-23.881604,-23.881604,-24.069046,-0.160200,-0.461063,-0.461063,-0.452832,14647,-545
0.620000,-19.096421,-894.214750,188.474137,15.376465,-357.604980,-249.679516,-34.472886,-644.535234,-0.206014,-24.433066,-24.433066,-24.639080,-0.160200,-0.468189,-0.468189,-0.463512,13996,-572
0.622000,-20.875409,-884.333250,206.032044,14.562378,-407.043457,-265.415910,-35.437787,-618.917340,-0.224129,-24.888356,-24.888356,-25.112485,-0.160200,-0.474106,-0.474106,-0.477396,13255,-581
0.624000,-22.633754,-873.577000,223.386214,13.755981,-403.198242,-279.194143,-36.389735,-594.382857,-0.241754,-25.341406,-25.341406,-25.583160,-0.160200,-0.479989,-0.479989,-0.474192,12521,-606
0.626000,-24.369717,-861.957250,240.519488,12.929810,-413.085938,-292.583323,-37.299527,-569.373927,-0.258860,-25.766219,-25.766219,-26.025079,-0.160200,-0.485513,-0.485513,-0.481668,11769,-622
0.628000,-26.081583,-849.485000,257.414922,12.022339,-453.735352,-308.698526,-38.103922,-540.786474,-0.275421,-26.107913,-26.107913,-26.383333,-0.160200,-0.489992,-0.489992,-0.487008,10943,-658
0.630000,-27.767657,-836.172500,274.055810,11.146729,-437.805176,-321.609191,-38.914386,-514.563309,-0.291415,-26.465693,-26.465693,-26.757107,-0.160200,-0.494664,-0.494664,-0.495552,10146,-688
0.632000,-29.426273,-822.033500,290.425697,10.248047,-449.340820,-334.382354,-39.674320,-487.651146,-0.306822,-26.788998,-26.788998,-27.095820,-0.160200,-0.498898,-0.498898,-0.492348,9328,-667
0.634000,-31.055791,-807.081500,306.508394,9.285645,-481.201172,-349.064235,-40.341436,-458.017265,-0.321626,-27.041353,-27.041353,-27.362979,-0.160200,-0.502237,-0.500000,-0.497688,8452,-676
0.636000,-32.654599,-791.331500,322.287999,8.282593,-501.525879,-364.310400,-40.937192,-427.021100,-0.335815,-27.242985,-27.242985,-27.578800,-0.160200,-0.504935,-0.500000,-0.499824,7539,-702
0.638000,-34.221117,-774.798750,337.748907,7.280640,-500.976562,-377.977016,-41.501757,-396.821734,-0.349381,-27.429734,-27.429734,-27.779115,-0.160200,-0.507439,-0.500000,-0.497688,6627,-721
0.640000,-35.753794,-757.500000,352.875831,6.414917,-432.861328,-383.465447,-42.168711,-374.034553,-0.362316,-27.717840,-27.717840,-28.080156,-0.160200,-0.511202,-0.500000,-0.501960,5839,-750
0.642000,-37.251117,-739.452250,367.653811,5.289917,-562.500000,-401.368903,-42.541034,-338.083347,-0.374618,-27.757039,-27.757039,-28.131657,-0.160200,-0.511846,-0.500000,-0.503028,4815,-739
0.644000,-38.711603,-720.673000,382.068234,4.242920,-523.498535,-413.581866,-42.954523,-307.091134,-0.386287,-27.847350,-27.847350,-28.233637,-0.160200,-0.513120,-0.500000,-0.499824,3862,-744
0.646000,-40.133809,-701.181500,396.104847,3.119019,-561.950684,-428.418748,-43.252828,-272.762752,-0.397327,-27.849831,-27.849831,-28.247158,-0.160200,-0.513289,-0.500000,-0.499824,2839,-746
0.648000,-41.516329,-680.996500,409.749770,2.055542,-531.738281,-438.750701,-43.571871,-242.245799,-0.407743,-27.884937,-27.884937,-28.292681,-0.160200,-0.513859,-0.500000,-0.499824,1871,-759
0.650000,-42.857795,-660.137750,422.989509,1.072266,-491.638184,-444.039449,-43.930061,-216.098301,-0.417545,-27.966835,-27.966835,-28.384380,-0.160200,-0.515005,-0.500000,-0.500892,976,-759
0.652000,-44.156880,-638.626500,435.810972,0.038452,-516.906738,-451.326178,-44.195332,-187.300322,-0.426742,-27.978094,-27.978094,-28.404836,-0.160200,-0.515260,-0.500000,-0.500892,35,-785
0.654000,-45.412301,-616.484000,448.201482,-0.997559,-518.005371,-457.994097,-44.414742,-158.489903,-0.435348,-27.961273,-27.961273,-28.396621,-0.160200,-0.515158,-0.500000,-0.503028,-908,-771
0.656000,-46.622816,-593.731750,460.148784,-2.035767,-519.104004,-464.105088,-44.587049,-129.626662,-0.443378,-27.915402,-27.915402,-28.358780,-0.160200,-0.514685,-0.500000,-0.504096,-1853,-787
0.658000,-47.787228,-570.392000,471.641066,-3.080566,-522.399902,-469.934569,-44.706662,-100.457431,-0.450848,-27.835739,-27.835739,-28.286588,-0.160200,-0.513782,-0.500000,-0.501960,-2804,-781
0.660000,-48.904384,-546.488500,482.666963,-4.201172,-560.302734,-478.971386,-44.703212,-67.517114,-0.457777,-27.661157,-27.661157,-28.118934,-0.160200,-0.511687,-0.500000,-0.503028,-3824,-757
0.662000,-49.973182,-522.044750,493.215571,-5.348145,-573.486328,-488.422880,-44.625037,-33.621870,-0.464184,-27.435928,-27.435928,-27.900112,-0.160200,-0.508951,-0.500000,-0.501960,-4868,-794
0.664000,-50.992563,-497.084500,503.276461,-6.474243,-563.049316,-495.885524,-44.518320,-1.198976,-0.470089,-27.200972,-27.200972,-27.671061,-0.160200,-0.506088,-0.500000,-0.495552,-5893,-801
0.666000,-51.961520,-471.632750,512.839683,-7.535522,-530.639648,-499.360936,-44.425998,27.728186,-0.475512,-26.993113,-26.993113,-27.468626,-0.160200,-0.503558,-0.500000,-0.495552,-6859,-786
0.668000,-52.879094,-445.714750,521.895780,-8.483643,-474.060059,-496.830849,-44.395451,51.116099,-0.480477,-26.851995,-26.851995,-27.332471,-0.160200,-0.501856,-0.500000,-0.504096,-7722,-784
0.670000,-53.744379,-419.356000,530.435797,-9.431763,-474.060059,-494.553770,-44.312616,75.197770,-0.485002,-26.675302,-26.675302,-27.160305,-0.160200,-0.499704,-0.499704,-0.501960,-8585,-777
0.672000,-54.556518,-392.582500,538.451290,-10.376587,-472.412109,-492.339604,-44.179931,99.757104,-0.489112,-26.465657,-26.465657,-26.954769,-0.160200,-0.497135,-0.497135,-0.501960,-9445,-792
0.674000,-55.314709,-365.420750,545.934333,-11.323608,-473.510742,-490.456717,-43.991101,125.035967,-0.492826,-26.217947,-26.217947,-26.710773,-0.160200,-0.494085,-0.494085,-0.503028,-10307,-805
0.676000,-56.018201,-337.897750,552.877525,-12.273926,-475.158691,-488.926915,-43.744275,151.029165,-0.496165,-25.931070,-25.931070,-26.427235,-0.160200,-0.490540,-0.490540,-0.493416,-11172,-790
0.678000,-56.666300,-310.040500,559.274000,-13.223145,-474.609375,-487.495161,-43.443155,177.454661,-0.499149,-25.608763,-25.608763,-26.107912,-0.160200,-0.486549,-0.486549,-0.483804,-12036,-800
0.680000,-57.258363,-281.876750,565.117435,-14.167969,-472.412109,-485.986856,-43.090394,204.110106,-0.501798,-25.253706,-25.253706,-25.755504,-0.160200,-0.482144,-0.482144,-0.485940,-12896,-806
0.682000,-57.793807,-253.434250,570.402050,-15.178711,-505.371094,-487.925279,-42.615096,234.491029,-0.504130,-24.804289,-24.804289,-25.308419,-0.160200,-0.476555,-0.476555,-0.483804,-13816,-798
0.684000,-58.272100,-224.741000,575.122619,-16.163086,-492.187500,-488.351502,-42.109014,263.610502,-0.506161,-24.342672,-24.342672,-24.848833,-0.160200,-0.470810,-0.470810,-0.468852,-14712,-758
0.686000,-58.692771,-195.825750,579.274475,-17.327637,-582.275391,-497.743890,-41.365134,301.918140,-0.507907,-23.687683,-23.687683,-24.195590,-0.160200,-0.462645,-0.462645,-0.466716,-15772,-744
0.688000,-59.055403,-166.716750,582.853512,-18.475708,-574.035645,-505.373066,-40.579695,338.656316,-0.509381,-23.015525,-23.015525,-23.524906,-0.160200,-0.454261,-0.454261,-0.458172,-16817,-750
0.690000,-59.359638,-137.443000,585.856191,-19.489746,-507.019043,-505.537664,-39.869892,368.094664,-0.510596,-22.427792,-22.427792,-22.938388,-0.160200,-0.446930,-0.446930,-0.453900,-17740,-766
0.692000,-59.605175,-108.033250,588.279543,-20.377441,-443.847656,-499.368663,-39.227734,391.335413,-0.511562,-21.913831,-21.913831,-22.425393,-0.160200,-0.440517,-0.440517,-0.443220,-18548,-733
0.694000,-59.791771,-78.516750,590.121171,-21.361816,-492.187500,-498.650547,-38.429955,420.133797,-0.512287,-21.275708,-21.275708,-21.787995,-0.160200,-0.432550,-0.432550,-0.432540,-19444,-738
0.696000,-59.919242,-48.922500,591.379254,-22.281372,-459.777832,-494.763275,-37.637870,445.840775,-0.512778,-20.657250,-20.657250,-21.170027,-0.160200,-0.424825,-0.424825,-0.430404,-20281,-702
0.698000,-59.987461,-19.279750,592.052549,-23.161377,-440.002441,-489.287192,-36.826084,470.007442,-0.513039,-20.034821,-20.034821,-20.547861,-0.160200,-0.417048,-0.417048,-0.425064,-21082,-707
0.700000,-59.996361,10.382000,592.140388,-24.163330,-500.976562,-490.456129,-35.833031,500.838129,-0.513073,-19.266771,-19.266771,-19.779844,0.160200,-0.087048,-0.087048,-0.415452,-21994,-671
0.702000,-59.945933,40.033500,591.642687,-24.994995,-415.832520,-482.993768,-34.950938,523.027268,-0.512880,-18.611749,-18.611749,-19.124629,0.160200,-0.078858,-0.078858,-0.087576,-22751,-570
0.704000,-59.836227,69.645250,590.559936,-25.744263,-374.633789,-472.157770,-34.091964,541.803020,-0.512459,-17.988722,-17.988722,-18.501180,0.160200,-0.071065,-0.071065,-0.076896,-23433,-377
0.706000,-59.667352,99.188000,588.893206,-26.269409,-262.573242,-451.199317,-33.397943,550.387317,-0.511804,-17.519821,-17.519821,-18.031625,0.160200,-0.065195,-0.065195,-0.072624,-23911,-233
0.708000,-59.439475,128.633000,586.644146,-26.625366,-177.978516,-423.877237,-32.814109,552.510237,-0.510911,-17.152062,-17.152062,-17.662973,0.160200,-0.060587,-0.060587,-0.064080,-24235,-164
0.710000,-59.152820,157.950750,583.814980,-26.827515,-101.074219,-391.596935,-32.325305,549.547685,-0.509772,-16.868980,-16.868980,-17.378753,0.160200,-0.057034,-0.057034,-0.060876,-24419,-103
0.712000,-58.807672,187.112000,580.408504,-26.956055,-64.270020,-358.864244,-31.851617,545.976244,-0.508377,-16.598321,-16.598321,-17.106698,0.160200,-0.053634,-0.053634,-0.053400,-24536,-62
0.714000,-58.404372,216.088500,576.428088,-27.027466,-35.705566,-326.548376,-31.376906,542.636876,-0.506714,-16.325821,-16.325821,-16.832535,0.160200,-0.050207,-0.050207,-0.053400,-24601,-39
0.716000,-57.943318,244.851250,571.877668,-27.069214,-20.874023,-295.980941,-30.874104,540.832191,-0.504770,-16.028126,-16.028126,-16.532896,0.160200,-0.046461,-0.046461,-0.050196,-24639,-23
0.718000,-57.424967,273.372000,566.761744,-27.090088,-10.437012,-267.426548,-30.334879,540.798548,-0.502530,-15.698909,-15.698909,-16.201439,0.160200,-0.042318,-0.042318,-0.048060,-24658,-11
0.720000,-56.849830,301.622500,561.085374,-27.099976,-4.943848,-241.178278,-29.749854,542.800778,-0.499978,-15.331054,-15.331054,-15.831032,0.160200,-0.037688,-0.037688,-0.042720,-24667,-4
0.722000,-56.218477,329.574500,554.854171,-27.104370,-2.197266,-217.280177,-29.114107,546.854677,-0.497096,-14.921471,-14.921471,-15.418568,0.160200,-0.032532,-0.032532,-0.036312,-24671,-2
0.724000,-55.531532,357.200500,548.074297,-27.104370,0.000000,-195.552159,-28.427162,552.752659,-0.493866,-14.470959,-14.470959,-14.964825,0.160200,-0.026860,-0.026860,-0.032040,-24671,0
0.726000,-54.789675,384.473250,540.752457,-27.104370,0.000000,-175.996943,-27.685305,560.470193,-0.490266,-13.977375,-13.977375,-14.467642,0.160200,-0.020646,-0.020646,-0.027768,-24671,0
0.728000,-53.993639,411.366250,532.895891,-27.104370,0.000000,-158.397249,-26.889269,569.763499,-0.486278,-13.442445,-13.442445,-13.928723,0.160200,-0.013909,-0.013909,-0.017088,-24671,0
0.730000,-53.144210,437.852250,524.512368,-27.104370,0.000000,-142.557524,-26.039840,580.409774,-0.481879,-12.867815,-12.867815,-13.349694,0.160200,-0.006671,-0.006671,-0.016020,-24671,0
0.732000,-52.242230,463.905250,515.610177,-27.103271,0.549316,-128.246840,-25.138959,592.152090,-0.477049,-12.256015,-12.256015,-12.733064,0.160200,0.001037,0.001037,-0.006408,-24670,1
0.734000,-51.288589,489.499500,506.198122,-27.101074,1.098633,-115.312293,-24.187515,604.811793,-0.471765,-11.608525,-11.608525,-12.080290,0.160200,0.009196,0.009196,0.001068,-24668,1
0.736000,-50.284232,514.609750,496.285511,-27.099976,0.549316,-103.726132,-23.184256,618.335882,-0.466007,-10.924857,-10.924857,-11.390864,0.160200,0.017814,0.017814,0.010680,-24667,1
0.738000,-49.230150,539.211000,485.882144,-27.097778,1.098633,-93.243655,-22.132372,632.454655,-0.459753,-10.208372,-10.208372,-10.668125,0.160200,0.026848,0.026848,0.018156,-24665,1
0.740000,-48.127388,563.279000,474.998310,-27.095581,1.098633,-83.809426,-21.031807,647.088426,-0.452983,-9.459453,-9.459453,-9.912436,0.160200,0.036295,0.036295,0.027768,-24663,4
0.742000,-46.977034,586.790500,463.644772,-27.088989,3.295898,-75.098894,-19.888045,661.889394,-0.445677,-8.683270,-8.683270,-9.128947,0.160200,0.046088,0.046088,0.037380,-24657,7
0.744000,-45.780226,609.721250,451.832755,-27.080200,4.394531,-67.149551,-18.700026,676.870801,-0.437817,-7.879108,-7.879108,-8.316925,0.160200,0.056238,0.056238,0.048060,-24649,9
0.746000,-44.538149,632.049000,439.573941,-27.067017,6.591797,-59.775417,-17.471132,691.824417,-0.429385,-7.050123,-7.050123,-7.479508,0.160200,0.066706,0.066706,0.054468,-24637,10
0.748000,-43.252030,653.752250,426.880452,-27.052734,7.141113,-53.083764,-16.199296,706.836014,-0.420367,-6.194602,-6.194602,-6.614969,0.160200,0.077513,0.077513,0.063012,-24624,16
0.750000,-41.923140,674.808750,413.764839,-27.031860,10.437012,-46.731686,-14.891280,721.540436,-0.410748,-5.318588,-5.318588,-5.729336,0.160200,0.088583,0.088583,0.076896,-24605,17
0.752000,-40.552795,695.197750,400.240073,-27.005493,13.183594,-40.740158,-13.547302,735.937908,-0.400517,-4.422214,-4.422214,-4.822731,0.160200,0.099916,0.099916,0.083304,-24581,28
0.754000,-39.142349,714.899500,386.319527,-26.967041,19.226074,-34.743535,-12.175308,749.643035,-0.389665,-3.512351,-3.512351,-3.902016,0.160200,0.111425,0.111425,0.104664,-24546,29
0.756000,-37.693197,733.894500,372.016967,-26.924194,21.423340,-29.126847,-10.769003,763.021347,-0.378185,-2.583239,-2.583239,-2.961424,0.160200,0.123182,0.123182,0.111072,-24507,49
0.758000,-36.206771,752.163500,357.346536,-26.870361,26.916504,-23.522512,-9.336410,775.686012,-0.366073,-1.641806,-1.641806,-2.007878,0.160200,0.135102,0.135102,0.117480,-24458,52
0.760000,-34.684543,769.688750,342.322740,-26.811035,29.663086,-18.203952,-7.873508,787.892702,-0.353327,-0.684256,-0.684256,-1.037583,0.160200,0.147230,0.147230,0.132432,-24404,60
0.762000,-33.128016,786.453000,326.960436,-26.740723,35.156250,-12.867932,-6.387293,799.320932,-0.339951,0.283459,0.283459,-0.056492,0.160200,0.159494,0.159494,0.145248,-24340,71
0.764000,-31.538731,802.439500,311.274816,-26.660522,40.100098,-7.571129,-4.878209,810.010629,-0.325948,1.261278,1.261278,0.935330,0.160200,0.171892,0.171892,0.162336,-24267,68
0.766000,-29.918258,817.632750,295.281390,-26.570435,45.043945,-2.309622,-3.347823,819.942372,-0.311327,2.248139,2.248139,1.936812,0.160200,0.184410,0.184410,0.173016,-24185,88
0.768000,-28.268200,832.017250,278.995973,-26.466064,52.185059,3.139846,-1.802136,828.877404,-0.296099,3.239130,3.239130,2.943031,0.160200,0.196988,0.196988,0.190104,-24090,109
0.770000,-26.590189,845.578750,262.434670,-26.346313,59.875488,8.813410,-0.243876,836.765340,-0.280279,4.232318,4.232318,3.952039,0.160200,0.209600,0.209600,0.196512,-23981,120
0.772000,-24.885885,858.304250,245.613856,-26.211182,67.565918,14.688661,1.325297,843.615589,-0.263886,5.226739,5.226739,4.962852,0.160200,0.222236,0.222236,0.211464,-23858,132
0.774000,-23.156972,870.181250,228.550165,-26.055176,78.002930,21.020088,2.898204,849.161162,-0.246941,6.216609,6.216609,5.969668,0.160200,0.234821,0.234821,0.217872,-23716,153
0.776000,-21.405160,881.197750,211.260472,-25.883789,85.693359,27.487415,4.478629,853.710335,-0.229469,7.205856,7.205856,6.976386,0.160200,0.247405,0.247405,0.238164,-23560,152
0.778000,-19.632181,891.342750,193.761872,-25.656372,113.708496,36.109523,6.024191,855.233227,-0.211498,8.157960,8.157960,7.946461,0.160200,0.259531,0.259531,0.252048,-23353,178
0.780000,-17.839789,900.606250,176.071670,-25.419067,118.652344,44.363805,7.579278,856.242445,-0.193059,9.113193,9.113193,8.920133,0.160200,0.271702,0.271702,0.262728,-23137,171
0.782000,-16.029756,908.979500,158.207358,-25.176270,121.398926,52.067317,9.146514,856.912183,-0.174187,10.074069,10.074069,9.899882,0.160200,0.283949,0.283949,0.271272,-22916,238
0.784000,-14.203871,916.453500,140.186602,-24.901611,137.329102,60.593496,10.697740,855.860004,-0.154918,11.016150,11.016150,10.861232,0.160200,0.295965,0.295965,0.283020,-22666,234
0.786000,-12.363942,923.021250,122.027222,-24.610474,145.568848,69.091031,12.246532,853.930219,-0.135292,11.952149,11.952149,11.816857,0.160200,0.307911,0.307911,0.296904,-22401,261
0.788000,-10.511786,928.676750,103.747174,-24.310547,149.963379,77.178266,13.798761,851.498484,-0.115351,12.887619,12.887619,12.772268,0.160200,0.319853,0.319853,0.308652,-22128,250
0.790000,-8.649235,933.413500,85.364535,-23.945801,182.373047,87.697744,15.296566,845.715756,-0.095138,13.772298,13.772298,13.677160,0.160200,0.331164,0.331164,0.325740,-21796,248
0.792000,-6.778132,937.227250,66.897484,-23.568970,188.415527,97.769522,16.790838,839.457728,-0.074700,14.652329,14.652329,14.577629,0.160200,0.342420,0.342420,0.332148,-21453,344
0.794000,-4.900326,940.114500,48.364280,-23.176758,196.105957,107.603166,18.276432,832.511334,-0.054084,15.523456,15.523456,15.469372,0.160200,0.353567,0.353567,0.343896,-21096,321
0.796000,-3.017674,942.072000,29.783250,-22.725220,225.769043,119.419753,19.707546,822.652247,-0.033339,16.346052,16.346052,16.312713,0.160200,0.364109,0.364109,0.349236,-20685,338
0.798000,-1.132038,943.097750,11.172770,-22.290161,217.529297,129.230708,21.158123,813.867042,-0.012513,17.186160,17.186160,17.173647,0.160200,0.374871,0.374871,0.362052,-20289,409
0.800000,0.754717,943.191000,-7.448759,-21.819946,235.107422,139.818379,22.574663,803.372621,0.008343,17.996526,17.996526,18.004869,0.160200,0.385261,0.385261,0.374868,-19861,426
0.802000,2.640726,942.351500,-26.062922,-21.309082,255.432129,151.379754,23.949808,790.971746,0.029178,18.771624,18.771624,18.800802,0.160200,0.395210,0.395210,0.384480,-19396,402
0.804000,4.524123,940.580250,-44.651312,-20.715820,296.630859,165.904865,25.239943,774.675385,0.049944,19.474395,19.474395,19.524339,0.160200,0.404254,0.404254,0.394092,-18856,435
0.806000,6.403047,937.879250,-63.195549,-20.047852,333.984375,182.712816,26.450899,755.166434,0.070590,20.111977,20.111977,20.182566,0.160200,0.412482,0.412482,0.406908,-18248,479
0.808000,8.275640,934.250250,-81.677295,-19.416138,315.856934,196.027228,27.691778,738.223022,0.091067,20.781271,20.781271,20.872338,0.160200,0.421104,0.421104,0.411180,-17673,503
0.810000,10.140048,929.697500,-100.078273,-18.786621,314.758301,207.900335,28.926669,721.797165,0.111328,21.449618,21.449618,21.560946,0.160200,0.429712,0.429712,0.419724,-17100,521
0.812000,11.994430,924.225750,-118.380289,-18.146118,320.251465,219.135448,30.140548,705.090302,0.131327,22.103657,22.103657,22.234985,0.160200,0.438137,0.438137,0.429336,-16517,524
0.814000,13.836951,917.839750,-136.565243,-17.512207,316.955566,228.917460,31.349158,688.922290,0.151020,22.757300,22.757300,22.908320,0.160200,0.446554,0.446554,0.426132,-15940,519
0.816000,15.665789,910.546250,-154.615154,-16.854126,329.040527,238.929766,32.519915,671.616484,0.170364,23.381861,23.381861,23.552225,0.160200,0.454603,0.454603,0.447492,-15341,556
0.818000,17.479136,902.352500,-172.512173,-16.176270,338.928223,248.929612,33.655406,653.422888,0.189318,23.980232,23.980232,24.169550,0.160200,0.462319,0.462319,0.450696,-14724,587
0.820000,19.275199,893.266250,-190.238603,-15.474243,351.013184,259.137969,34.749442,634.128281,0.207847,24.547514,24.547514,24.755361,0.160200,0.469642,0.469642,0.464580,-14085,607
0.822000,21.052201,883.296750,-207.776914,-14.752441,360.900879,269.314260,35.804642,613.982490,0.225914,25.086616,25.086616,25.312530,0.160200,0.476607,0.476607,0.469920,-13428,604
0.824000,22.808386,872.453750,-225.109763,-14.007568,372.436523,279.626487,36.815954,592.827263,0.243488,25.593623,25.593623,25.837111,0.160200,0.483164,0.483164,0.476328,-12750,643
0.826000,24.542016,860.748000,-242.220011,-13.238525,384.521484,290.115986,37.780541,570.632014,0.260541,26.066642,26.066642,26.327182,0.160200,0.489290,0.489290,0.480600,-12050,680
0.828000,26.251378,848.191500,-259.090739,-12.404663,416.931152,302.797503,38.656041,545.393997,0.277046,26.469308,26.469308,26.746354,0.160200,0.494529,0.494529,0.485940,-11291,670
0.830000,27.934782,834.795750,-275.705263,-11.460938,471.862793,319.704032,39.395719,515.091718,0.292982,26.762490,26.762490,27.055471,0.160200,0.498393,0.498393,0.491280,-10432,720
0.832000,29.590561,820.574500,-292.047155,-10.574341,443.298340,332.063463,40.164902,488.511037,0.308329,27.093180,27.093180,27.401509,0.160200,0.502719,0.500000,0.498756,-9625,732
0.834000,31.217080,805.542250,-308.100254,-9.602051,486.145020,347.471618,40.819131,458.070632,0.323073,27.333440,27.333440,27.656513,0.160200,0.505906,0.500000,0.498756,-8740,746
0.836000,32.812730,789.713000,-323.848686,-8.715454,443.298340,357.054291,41.528184,432.658709,0.337200,27.633520,27.633520,27.970720,0.160200,0.509834,0.500000,0.500892,-7933,738
0.838000,34.375932,773.103000,-339.276878,-7.630005,542.724609,375.621322,42.005937,397.481678,0.350703,27.741176,27.741176,28.091878,0.160200,0.511348,0.500000,0.497688,-6945,773
0.840000,35.905142,755.728750,-354.369575,-6.595093,517.456055,389.804796,42.500235,365.923954,0.363574,27.877889,27.877889,28.241464,0.160200,0.513218,0.500000,0.493416,-6003,768
0.842000,37.398847,737.607000,-369.111851,-5.550293,522.399902,403.064306,42.949140,334.542694,0.375813,27.987798,27.987798,28.363611,0.160200,0.514745,0.500000,0.501960,-5052,789
0.844000,38.855570,718.755750,-383.489129,-4.494507,527.893066,415.547182,43.350077,303.208568,0.387419,28.068651,28.068651,28.456071,0.160200,0.515901,0.500000,0.495552,-4091,810
0.846000,40.273870,699.193750,-397.487191,-3.496948,498.779297,423.870394,43.770818,275.323356,0.398396,28.179661,28.179661,28.578058,0.160200,0.517426,0.500000,0.496620,-3183,799
0.848000,41.652345,678.940500,-411.092196,-2.464233,516.357422,433.119097,44.116578,245.821403,0.408751,28.236402,28.236402,28.645153,0.160200,0.518264,0.500000,0.495552,-2243,803
0.850000,42.989632,658.015750,-424.290690,-1.378784,542.724609,444.079648,44.368416,213.936102,0.418491,28.223290,28.223290,28.641781,0.160200,0.518222,0.500000,0.496620,-1255,808
0.852000,44.284408,636.440500,-437.069622,-0.239502,569.641113,456.635794,44.523910,179.804706,0.427629,28.139564,28.139564,28.567193,0.160200,0.517290,0.500000,0.496620,-218,820
0.854000,45.535394,614.235750,-449.416355,0.812988,526.245117,463.596727,44.722406,150.639023,0.436177,28.108107,28.108107,28.544284,0.160200,0.517004,0.500000,0.496620,740,845
0.856000,46.741351,591.423500,-461.318679,1.922607,554.809570,472.718011,44.818744,118.705489,0.444150,27.999753,27.999753,28.443903,0.160200,0.515749,0.500000,0.505164,1750,833
0.858000,47.901088,568.026750,-472.764826,2.910278,493.835449,474.829755,44.990810,93.196995,0.451565,27.971300,27.971300,28.422865,0.160200,0.515486,0.500000,0.496620,2649,823
0.860000,49.013458,544.068250,-483.743477,3.899048,494.384766,476.785256,45.114410,67.282994,0.458441,27.911118,27.911118,28.369559,0.160200,0.514819,0.500000,0.501960,3549,821
0.862000,50.077361,519.571500,-494.243776,4.895508,498.229980,478.929728,45.181853,40.641772,0.464797,27.812823,27.812823,28.277620,0.160200,0.513670,0.500000,0.498756,4456,835
0.864000,51.091744,494.561000,-504.255338,5.897461,500.976562,481.134412,45.194283,13.426588,0.470652,27.677918,27.677918,28.148570,0.160200,0.512057,0.500000,0.495552,5368,836
0.866000,52.055605,469.061500,-513.768265,7.026855,564.697266,489.490697,45.028750,-20.429197,0.476029,27.399531,27.399531,27.875560,0.160200,0.508644,0.500000,0.506232,6396,830
0.868000,52.967990,443.098250,-522.773149,8.028809,500.976562,490.639284,44.939181,-47.541034,0.480948,27.202859,27.202859,27.683808,0.160200,0.506248,0.500000,0.503028,7308,824
0.870000,53.827998,416.697000,-531.261085,9.239502,605.346680,502.110023,44.588496,-85.413023,0.485432,26.790341,26.790341,27.275772,0.160200,0.501147,0.500000,0.504096,8410,828
0.872000,54.634778,389.883250,-539.223681,10.305176,532.836914,505.182712,44.329602,-115.299462,0.489501,26.475706,26.475706,26.965207,0.160200,0.497265,0.497265,0.497688,9380,851
0.874000,55.387531,362.684250,-546.653063,11.322510,508.666992,505.531140,44.065021,-142.846890,0.493176,26.169845,26.169845,26.663021,0.160200,0.493488,0.493488,0.500892,10306,855
0.876000,56.085515,335.126750,-553.541883,12.337646,507.568359,505.734862,43.747869,-170.608112,0.496479,25.830750,25.830750,26.327229,0.160200,0.489290,0.489290,0.494484,11230,841
0.878000,56.728038,307.237500,-559.883330,13.480225,571.289062,512.290282,43.247813,-205.052782,0.499429,25.344932,25.344932,25.844361,0.160200,0.483255,0.483255,0.485940,12270,841
0.880000,57.314465,279.044500,-565.671134,14.496460,508.117676,511.873022,42.818005,-232.828522,0.502046,24.936944,24.936944,25.438989,0.160200,0.478187,0.478187,0.481668,13195,831
0.882000,57.844216,250.575750,-570.899570,15.505005,504.272461,511.112966,42.339211,-260.537216,0.504346,24.499383,24.499383,25.003729,0.160200,0.472747,0.472747,0.473124,14113,862
0.884000,58.316768,221.859250,-575.563469,16.502563,498.779297,509.879599,41.814205,-288.020349,0.506348,24.034773,24.034773,24.541121,0.160200,0.466964,0.466964,0.484872,15021,803
0.886000,58.731653,192.923000,-579.658219,17.490234,493.835449,508.275184,41.241419,-315.352184,0.508066,23.541769,23.541769,24.049835,0.160200,0.460823,0.460823,0.467784,15920,813
0.888000,59.088460,163.796250,-583.179770,18.591064,550.415039,512.489169,40.497396,-348.692919,0.509514,22.912699,22.912699,23.422213,0.160200,0.452978,0.452978,0.454968,16922,815
0.890000,59.386838,134.507750,-586.124640,19.558960,483.947754,509.635028,39.827878,-375.127278,0.510704,22.365304,22.365304,22.876008,0.160200,0.446150,0.446150,0.456036,17803,822
0.892000,59.626491,105.085750,-588.489918,20.513672,477.355957,506.407121,39.112819,-401.321371,0.511645,21.791348,21.791348,22.302993,0.160200,0.438987,0.438987,0.444288,18672,804
0.894000,59.807181,75.560000,-590.273264,21.450806,468.566895,502.623098,38.356375,-427.063098,0.512346,21.194479,21.194479,21.706826,0.160200,0.431535,0.431535,0.442152,19525,784
0.896000,59.928731,45.960000,-591.472915,22.484619,516.906738,504.051462,37.444112,-458.091462,0.512814,20.474745,20.474745,20.987559,0.160200,0.422544,0.422544,0.433608,20466,756
0.898000,59.991021,16.314000,-592.087684,23.499756,507.568359,504.403152,36.491265,-488.089152,0.513053,19.735617,19.735617,20.248669,0.160200,0.413308,0.413308,0.423996,21390,736
0.900000,59.993987,-13.348000,-592.116964,24.383057,441.650391,498.127876,35.610930,-511.475876,0.513064,19.075398,19.075398,19.588462,-0.160200,0.084656,0.084656,0.407976,22194,736
0.902000,59.937629,-42.996750,-591.560726,25.363037,489.990234,497.314112,34.574592,-540.310862,0.512848,18.291355,18.291355,18.804204,-0.160200,0.074853,0.074853,0.088644,23086,634
0.904000,59.822000,-72.603250,-590.419519,26.143066,390.014648,486.584165,33.678934,-559.187415,0.512404,17.645391,17.645391,18.157795,-0.160200,0.066772,0.066772,0.076896,23796,438
0.906000,59.647216,-102.137500,-588.694473,26.711060,283.996582,466.325407,32.936156,-568.462907,0.511726,17.143088,17.143088,17.654814,-0.160200,0.060485,0.060485,0.066216,24313,341
0.908000,59.413450,-131.570750,-586.387293,27.120850,204.895020,440.182368,32.292600,-571.753118,0.510809,16.732735,16.732735,17.243543,-0.160200,0.055344,0.055344,0.059808,24686,199
0.910000,59.120933,-160.874250,-583.500260,27.403198,141.174316,410.281563,31.717735,-571.155813,0.509644,16.384697,16.384697,16.894341,-0.160200,0.050979,0.050979,0.057672,24943,123
0.912000,58.769953,-190.018750,-580.036229,27.565796,81.298828,377.383290,31.204157,-567.402040,0.508223,16.090625,16.090625,16.598848,-0.160200,0.047286,0.047286,0.054468,25091,73
0.914000,58.360858,-218.975000,-575.998627,27.653687,43.945312,344.039492,30.707171,-563.014492,0.506533,15.810007,15.810007,16.316539,-0.160200,0.043757,0.043757,0.049128,25171,40
0.916000,57.894053,-247.714750,-571.391445,27.692139,19.226074,311.558150,30.201914,-559.272900,0.504560,15.520954,15.520954,16.025513,-0.160200,0.040119,0.040119,0.044856,25206,17
0.918000,57.369999,-276.209500,-566.219239,27.707520,7.690430,281.171378,29.662479,-557.380878,0.502290,15.201338,15.201338,15.703628,-0.160200,0.036095,0.036095,0.039516,25220,6
0.920000,56.789215,-304.431250,-560.487123,27.713013,2.746582,253.328898,29.076202,-557.760148,0.499705,14.841216,14.841216,15.340921,-0.160200,0.031562,0.031562,0.038448,25225,2
0.922000,56.152274,-332.352250,-554.200767,27.713013,0.000000,227.996009,28.439261,-560.348259,0.496789,14.438580,14.438580,14.935369,-0.160200,0.026492,0.026492,0.029904,25225,0
0.924000,55.459806,-359.944250,-547.366387,27.713013,0.000000,205.196408,27.746793,-565.140658,0.493523,13.990482,13.990482,14.484005,-0.160200,0.020850,0.020850,0.030972,25225,0
0.926000,54.712497,-387.180250,-539.990739,27.713013,0.000000,184.676767,26.999484,-571.857017,0.489885,13.498810,13.498810,13.988695,-0.160200,0.014659,0.014659,0.021360,25225,0
0.928000,53.911085,-414.033500,-532.081119,27.713013,0.000000,166.209090,26.198072,-580.242590,0.485857,12.965349,12.965349,13.451206,-0.160200,0.007940,0.007940,0.017088,25225,0
0.930000,53.056363,-440.477500,-523.645347,27.711914,-0.549316,149.533250,25.344449,-590.010750,0.481416,12.392754,12.392754,12.874170,-0.160200,0.000727,0.000727,0.006408,25224,-1
0.932000,52.149175,-466.485750,-514.691766,27.709717,-1.098633,134.470061,24.439458,-600.955811,0.476541,11.782618,11.782618,12.259160,-0.160200,-0.006961,-0.006961,0.001068,25222,-1
0.934000,51.190420,-492.032750,-505.229228,27.708618,-0.549316,120.968124,23.481802,-613.000874,0.471211,11.134551,11.134551,11.605763,-0.160200,-0.015128,-0.015128,-0.005340,25221,-1
0.936000,50.181044,-517.093250,-495.267092,27.706421,-1.098633,108.761448,22.474623,-625.854698,0.465404,10.451998,10.451998,10.917403,-0.160200,-0.023732,-0.023732,-0.013884,25219,-2
0.938000,49.122047,-541.642250,-484.815208,27.702026,-2.197266,97.665577,21.420021,-639.307827,0.459100,9.737338,9.737338,10.196438,-0.160200,-0.032745,-0.032745,-0.024564,25215,-5
0.940000,48.014475,-565.655750,-473.883912,27.694336,-3.845215,87.514497,20.320139,-653.170247,0.452277,8.992875,8.992875,9.445152,-0.160200,-0.042136,-0.042136,-0.030972,25208,-6
0.942000,46.859424,-589.109750,-462.484012,27.682251,-6.042480,78.158800,19.177173,-667.268550,0.444916,8.220858,8.220858,8.665774,-0.160200,-0.051878,-0.051878,-0.042720,25197,-10
0.944000,45.658036,-611.981500,-450.626783,27.667969,-7.141113,69.628808,17.990067,-681.610308,0.436999,7.420603,7.420603,7.857603,-0.160200,-0.061980,-0.061980,-0.056604,25184,-14
0.946000,44.411498,-634.248000,-438.323949,27.647095,-10.437012,61.622226,16.764403,-695.870226,0.428510,6.597223,6.597223,7.025733,-0.160200,-0.072378,-0.072378,-0.059808,25165,-14
0.948000,43.121044,-655.887250,-425.587675,27.625122,-10.986328,54.361371,15.495922,-710.248621,0.419432,5.747067,5.747067,6.166499,-0.160200,-0.083119,-0.083119,-0.074760,25145,-22
0.950000,41.787949,-676.878000,-412.430557,27.598755,-13.183594,47.606874,14.189194,-724.484874,0.409752,4.874292,4.874292,5.284044,-0.160200,-0.094149,-0.094149,-0.077964,25121,-27
0.952000,40.413532,-697.199250,-398.865605,27.567993,-15.380859,41.308101,12.845539,-738.507351,0.399460,3.980078,3.980078,4.379538,-0.160200,-0.105456,-0.105456,-0.090780,25093,-32
0.954000,38.999152,-716.831250,-384.906231,27.528442,-19.775391,35.199752,11.470710,-752.031002,0.388545,3.069433,3.069433,3.457978,-0.160200,-0.116975,-0.116975,-0.104664,25057,-33
0.956000,37.546207,-735.754250,-370.566241,27.474609,-26.916504,28.988126,10.071598,-764.742376,0.377002,2.148207,2.148207,2.525209,-0.160200,-0.128635,-0.128635,-0.120684,25008,-43
0.958000,36.056135,-753.949750,-355.859815,27.413086,-30.761719,23.013142,8.643049,-776.962892,0.364827,1.211570,1.211570,1.576397,-0.160200,-0.140495,-0.140495,-0.135636,24952,-49
0.960000,34.530408,-771.399750,-340.801494,27.339478,-36.804199,17.031408,7.190930,-788.431158,0.352018,0.264474,0.264474,0.616492,-0.160200,-0.152494,-0.152494,-0.139908,24885,-55
0.962000,32.970536,-788.087000,-325.406170,27.246094,-46.691895,10.659077,5.724442,-798.746077,0.338579,-0.685362,-0.685362,-0.346783,-0.160200,-0.164535,-0.164535,-0.154860,24800,-68
0.964000,31.378060,-803.994750,-309.689066,27.152710,-46.691895,4.923980,4.225350,-808.918730,0.324513,-1.654369,-1.654369,-1.329856,-0.160200,-0.176823,-0.176823,-0.164472,24715,-76
0.966000,29.754557,-819.107500,-293.665724,27.051636,-50.537109,-0.622129,2.702921,-818.485371,0.309831,-2.634459,-2.634459,-2.324628,-0.160200,-0.189258,-0.189258,-0.179424,24623,-82
0.968000,28.101630,-833.410500,-277.351990,26.935181,-58.227539,-6.382670,1.166449,-827.027830,0.294543,-3.617764,-3.617764,-3.323221,-0.160200,-0.201740,-0.201740,-0.187968,24517,-93
0.970000,26.420915,-846.889250,-260.763994,26.791260,-71.960449,-12.940448,-0.370345,-833.948802,0.278666,-4.592776,-4.592776,-4.314111,-0.160200,-0.214126,-0.214126,-0.200784,24386,-133
0.972000,24.714073,-859.530750,-243.918140,26.617676,-86.791992,-20.325602,-1.903603,-839.205148,0.262216,-5.556913,-5.556913,-5.294696,-0.160200,-0.226384,-0.226384,-0.215736,24228,-124
0.974000,22.982792,-871.322000,-226.831086,26.433105,-92.285156,-27.521558,-3.450313,-843.800442,0.245217,-6.525805,-6.525805,-6.280588,-0.160200,-0.238707,-0.238707,-0.227484,24060,-135
0.976000,21.228785,-882.251500,-209.519729,26.212280,-110.412598,-35.810662,-4.983495,-846.440838,0.227694,-7.476198,-7.476198,-7.248504,-0.160200,-0.250806,-0.250806,-0.238164,23859,-158
0.978000,19.453786,-892.308750,-192.001187,25.944214,-134.033203,-45.632916,-6.490428,-846.675834,0.209675,-8.397961,-8.397961,-8.188286,-0.160200,-0.262554,-0.262554,-0.252048,23615,-206
0.980000,17.659550,-901.483750,-174.292784,25.686035,-129.089355,-53.978560,-8.026485,-847.505190,0.191191,-9.340628,-9.340628,-9.149436,-0.160200,-0.274568,-0.274568,-0.265932,23380,-202
0.982000,15.847851,-909.767250,-156.412030,25.349854,-168.090820,-65.389786,-9.502003,-844.377464,0.172277,-10.225593,-10.225593,-10.053316,-0.160200,-0.285866,-0.285866,-0.276612,23074,-280
0.984000,14.020481,-917.151250,-138.376607,25.034546,-157.653809,-74.616188,-11.014065,-842.535062,0.152971,-11.139613,-11.139613,-10.986642,-0.160200,-0.297533,-0.297533,-0.288360,22787,-286
0.986000,12.179246,-923.628250,-120.204350,24.720337,-157.104492,-82.865018,-12.541091,-840.763232,0.133311,-12.063142,-12.063142,-11.929831,-0.160200,-0.309323,-0.309323,-0.295836,22501,-301
0.988000,10.325968,-929.191750,-101.913228,24.366577,-176.879883,-92.266505,-14.040609,-836.925245,0.113341,-12.959050,-12.959050,-12.845710,-0.160200,-0.320771,-0.320771,-0.308652,22179,-332
0.990000,8.462479,-933.836500,-83.521328,23.977661,-194.458008,-102.485655,-15.515182,-831.350845,0.093104,-13.830628,-13.830628,-13.737525,-0.160200,-0.331919,-0.331919,-0.320400,21825,-362
0.992000,6.590622,-937.557750,-65.046838,23.566772,-205.444336,-112.781523,-16.976150,-824.776227,0.072646,-14.688658,-14.688658,-14.616013,-0.160200,-0.342900,-0.342900,-0.331080,21451,-338
0.994000,4.712248,-940.352000,-46.508026,23.150391,-208.190918,-122.322463,-18.438143,-818.029537,0.052015,-15.546413,-15.546413,-15.494398,-0.160200,-0.353880,-0.353880,-0.339624,21072,-354
0.996000,2.829214,-942.216500,-27.923224,22.616455,-266.967773,-136.786994,-19.787241,-805.429506,0.031259,-16.304557,-16.304557,-16.273298,-0.160200,-0.363616,-0.363616,-0.351372,20586,-353
0.998000,0.943382,-943.149000,-9.310810,22.149536,-233.459473,-146.454242,-21.206154,-796.694758,0.010428,-17.125586,-17.125586,-17.115158,-0.160200,-0.374139,-0.374139,-0.358848,20161,-395
1.000000,-0.943382,-943.149000,9.310810,21.632080,-258.728027,-157.681620,-22.575462,-785.467380,-0.010428,-17.903263,-17.903263,-17.913691,-0.160200,-0.384121,-0.384121,-0.374868,19690,-453
1.002000,-2.829214,-942.216500,27.923224,21.049805,-291.137695,-171.027228,-23.879019,-771.189272,-0.031259,-18.624800,-18.624800,-18.656059,-0.160200,-0.393401,-0.393401,-0.388752,19160,-442
1.004000,-4.712248,-940.352000,46.508026,20.365356,-342.224121,-188.146917,-25.077604,-752.205083,-0.052015,-19.257573,-19.257573,-19.309588,-0.160200,-0.401570,-0.401570,-0.389820,18537,-483
1.006000,-6.590622,-937.557750,65.046838,19.676514,-344.421387,-203.774364,-26.267136,-733.783386,-0.072646,-19.887761,-19.887761,-19.960407,-0.160200,-0.409705,-0.409705,-0.398364,17910,-494
1.008000,-8.462479,-933.836500,83.521328,19.075562,-300.476074,-213.444535,-27.538041,-720.391965,-0.093104,-20.593995,-20.593995,-20.687099,-0.160200,-0.418789,-0.418789,-0.412248,17363,-534
1.010000,-10.325968,-929.191750,101.913228,18.336182,-369.689941,-229.069076,-28.662150,-700.122674,-0.113341,-21.174545,-21.174545,-21.287885,-0.160200,-0.426299,-0.426299,-0.415452,16690,-546
1.012000,-12.179246,-923.628250,120.204350,17.633057,-351.562500,-241.318418,-29.812303,-682.309832,-0.133311,-21.783865,-21.783865,-21.917177,-0.160200,-0.434165,-0.434165,-0.427200,16050,-545
1.014000,-14.020481,-917.151250,138.376607,16.853027,-390.014648,-256.188041,-30.873508,-660.963209,-0.152971,-22.320348,-22.320348,-22.473319,-0.160200,-0.441116,-0.441116,-0.434676,15340,-576
1.016000,-15.847851,-909.767250,156.412030,16.116943,-368.041992,-267.373436,-31.964794,-642.393814,-0.172277,-22.889748,-22.889748,-23.062025,-0.160200,-0.448475,-0.448475,-0.442152,14670,-586
1.018000,-17.659550,-901.483750,174.292784,15.210571,-453.186035,-285.954696,-32.870121,-615.529054,-0.191191,-23.302117,-23.302117,-23.493308,-0.160200,-0.453866,-0.453866,-0.443220,13845,-613
1.020000,-19.453786,-892.308750,192.001187,14.305298,-452.636719,-302.622898,-33.759084,-589.685852,-0.209675,-23.709839,-23.709839,-23.919514,-0.160200,-0.459194,-0.459194,-0.457104,13021,-630
1.022000,-21.228785,-882.251500,209.519729,13.450562,-427.368164,-315.097425,-34.679347,-567.154075,-0.227694,-24.154019,-24.154019,-24.381713,-0.160200,-0.464971,-0.464971,-0.459240,12243,-657
1.024000,-22.982792,-871.322000,226.831086,12.636475,-407.043457,-324.292028,-35.619267,-547.029972,-0.245217,-24.622814,-24.622814,-24.868031,-0.160200,-0.471050,-0.471050,-0.465648,11502,-654
1.026000,-24.714073,-859.530750,243.918140,11.781738,-427.368164,-334.599642,-36.495811,-524.931108,-0.262216,-25.042555,-25.042555,-25.304772,-0.160200,-0.476510,-0.476510,-0.475260,10724,-707
1.028000,-26.420915,-846.889250,260.763994,10.948975,-416.381836,-342.777861,-37.369890,-504.111389,-0.278666,-25.467488,-25.467488,-25.746153,-0.160200,-0.482027,-0.482027,-0.476328,9966,-704
1.030000,-28.101630,-833.410500,277.351990,10.115112,-416.931152,-350.193190,-38.216742,-483.217310,-0.294543,-25.875399,-25.875399,-26.169943,-0.160200,-0.487324,-0.487324,-0.483804,9207,-711
1.032000,-29.754557,-819.107500,293.665724,9.175781,-469.665527,-362.140424,-38.930338,-456.967076,-0.309831,-26.173864,-26.173864,-26.483695,-0.160200,-0.491246,-0.491246,-0.489144,8352,-733
1.034000,-31.378060,-803.994750,309.689066,8.263916,-455.932617,-371.519643,-39.641976,-432.475107,-0.324513,-26.480339,-26.480339,-26.804853,-0.160200,-0.495261,-0.495261,-0.494484,7522,-772
1.036000,-32.970536,-788.087000,325.406170,7.377319,-443.298340,-378.697513,-40.347855,-409.389487,-0.338579,-26.790661,-26.790661,-27.129239,-0.160200,-0.499315,-0.499315,-0.497688,6715,-787
1.038000,-34.530408,-771.399750,340.801494,6.448975,-464.172363,-387.244998,-40.979383,-384.154752,-0.352018,-27.044310,-27.044310,-27.396328,-0.160200,-0.502654,-0.500000,-0.501960,5870,-792
1.040000,-36.056135,-753.949750,355.859815,5.497559,-475.708008,-396.091299,-41.553694,-357.858451,-0.364827,-27.257449,-27.257449,-27.622276,-0.160200,-0.505478,-0.500000,-0.497688,5004,-782
1.042000,-37.546207,-735.754250,370.566241,4.530762,-483.398438,-404.822013,-42.076969,-330.932237,-0.377002,-27.436115,-27.436115,-27.813117,-0.160200,-0.507864,-0.500000,-0.497688,4124,-827
1.044000,-38.999152,-716.831250,384.906231,3.505737,-512.512207,-415.591032,-42.504889,-301.240218,-0.388545,-27.542049,-27.542049,-27.930595,-0.160200,-0.509332,-0.500000,-0.503028,3191,-812
1.046000,-40.413532,-697.199250,398.865605,2.494995,-505.371094,-424.569038,-42.908527,-272.630212,-0.399460,-27.638816,-27.638816,-28.038276,-0.160200,-0.510678,-0.500000,-0.493416,2271,-831
1.048000,-41.787949,-676.878000,412.430557,1.496338,-499.328613,-432.044996,-43.284287,-244.833004,-0.409752,-27.722809,-27.722809,-28.132561,-0.160200,-0.511857,-0.500000,-0.499824,1362,-834
1.050000,-43.121044,-655.887250,425.587675,0.487793,-504.272461,-439.267742,-43.608837,-216.619508,-0.419432,-27.773340,-27.773340,-28.192772,-0.160200,-0.512610,-0.500000,-0.500892,444,-845
1.052000,-44.411498,-634.248000,438.323949,-0.527344,-507.568359,-446.097804,-43.884154,-188.150196,-0.428510,-27.792456,-27.792456,-28.220966,-0.160200,-0.512962,-0.500000,-0.500892,-480,-861
1.054000,-45.658036,-611.981500,450.626783,-1.550171,-511.413574,-452.629381,-44.107865,-159.352119,-0.436999,-27.778327,-27.778327,-28.215327,-0.160200,-0.512892,-0.500000,-0.504096,-1411,-847
1.056000,-46.859424,-589.109750,462.484012,-2.582886,-516.357422,-459.002185,-44.276538,-130.107565,-0.444916,-27.728240,-27.728240,-28.173156,-0.160200,-0.512364,-0.500000,-0.495552,-2351,-877
1.058000,-48.014475,-565.655750,473.883912,-3.625488,-521.301270,-465.232094,-44.388987,-100.423656,-0.452277,-27.641506,-27.641506,-28.093783,-0.160200,-0.511372,-0.500000,-0.495552,-3300,-859
1.060000,-49.122047,-541.642250,484.815208,-4.671387,-522.949219,-471.003806,-44.450660,-70.638444,-0.459100,-27.523225,-27.523225,-27.982325,-0.160200,-0.509979,-0.500000,-0.507300,-4252,-856
1.062000,-50.181044,-517.093250,495.267092,-5.851318,-589.965820,-482.900008,-44.329726,-34.193242,-0.465404,-27.258524,-27.258524,-27.723928,-0.160200,-0.506749,-0.500000,-0.495552,-5326,-883
1.064000,-51.190420,-492.032750,505.229228,-6.902710,-525.695801,-487.179587,-44.287710,-4.853163,-0.471211,-27.079234,-27.079234,-27.550445,-0.160200,-0.504581,-0.500000,-0.501960,-6283,-886
1.066000,-52.149175,-466.485750,514.691766,-7.960693,-528.991699,-491.360798,-44.188482,24.875048,-0.476541,-26.862962,-26.862962,-27.339503,-0.160200,-0.501944,-0.500000,-0.501960,-7246,-887
1.068000,-53.056363,-440.477500,523.645347,-9.153809,-596.557617,-501.880480,-43.902554,61.402980,-0.481416,-26.497039,-26.497039,-26.978455,-0.160200,-0.497431,-0.497431,-0.506232,-8332,-885
1.070000,-53.911085,-414.033500,532.081119,-10.297485,-571.838379,-508.876270,-43.613600,94.842770,-0.485857,-26.145436,-26.145436,-26.631293,-0.160200,-0.493091,-0.493091,-0.492348,-9373,-869
1.072000,-54.712497,-387.180250,539.990739,-11.416992,-559.753418,-513.963985,-43.295505,126.783735,-0.489885,-25.783881,-25.783881,-26.273766,-0.160200,-0.488622,-0.488622,-0.495552,-10392,-902
1.074000,-55.459806,-359.944250,547.366387,-12.487061,-535.034180,-516.071004,-42.972745,156.126754,-0.493523,-25.433079,-25.433079,-25.926601,-0.160200,-0.484283,-0.484283,-0.490212,-11366,-909
