khanfazel/E-wera--maxon_motor/PD_control/pd_feedforward_log.csv
t_s,q_ref_deg,qd_ref_deg_s,qdd_ref_deg_s2,q_link_deg,qd_link_deg_s,pos_error_deg,vel_error_deg_s,tau_joint_ff_Nm,tau_pd_joint_Nm,tau_joint_total_Nm,tau_dead_motor_Nm,tau_motor_cmd_Nm,tau_motor_actual_Nm,motor_pos_counts,motor_vel_native
0.000000,0.000000,943.265500,0.000000,0.215332,0.000000,-0.215332,943.265500,0.000000,115.110082,115.110082,0.160200,0.500000,-0.003204,196,0
0.002000,1.886531,942.799250,0.000000,0.223022,3.845215,1.663509,938.954035,0.027289,115.731056,115.758345,0.160200,0.500000,0.498756,203,102
0.004000,3.771197,941.400750,-37.220226,0.406494,91.735840,3.364703,849.664910,0.041649,105.861532,105.903181,0.160200,0.500000,0.497688,370,209
0.006000,5.652134,939.071000,-55.784328,0.740479,166.992188,4.911655,772.078812,0.062349,97.327581,97.389930,0.160200,0.500000,0.497688,674,311
0.008000,7.527481,935.812750,-74.293267,1.179932,219.726562,6.347549,716.086187,0.082899,91.363929,91.446829,0.160200,0.500000,0.500892,1074,422
0.010000,9.395385,931.629250,-92.728741,1.757812,288.940430,7.637572,642.688820,0.103253,83.184779,83.288032,0.160200,0.500000,0.496620,1600,483
0.012000,11.253998,926.524500,-111.072519,2.471924,357.055664,8.782074,569.468836,0.123362,74.938407,75.061769,0.160200,0.500000,0.497688,2250,496
0.014000,13.101483,920.503500,-129.306462,3.155273,341.674805,9.946210,578.828695,0.143183,76.793059,76.936242,0.160200,0.500000,0.499824,2872,551
0.016000,14.936012,913.572250,-147.412541,3.982544,413.635254,10.953468,499.936996,0.162671,67.769919,67.932590,0.160200,0.500000,0.500892,3625,565
0.018000,16.755772,905.737500,-165.372849,4.784546,401.000977,11.971226,504.736523,0.181786,68.978005,69.159791,0.160200,0.500000,0.498756,4355,600
0.020000,18.558962,897.007250,-183.169628,5.690918,453.186035,12.868044,443.821215,0.200489,62.083631,62.284120,0.160200,0.500000,0.495552,5180,620
0.022000,20.343801,887.390000,-200.785278,6.512695,410.888672,13.831106,476.501328,0.218745,66.664561,66.883306,0.160200,0.500000,0.503028,5928,633
0.024000,22.108522,876.895000,-218.202380,7.442139,464.721680,14.666383,412.173320,0.236520,59.315654,59.552174,0.160200,0.500000,0.497688,6774,643
0.026000,23.851381,865.533250,-235.403712,8.288086,422.973633,15.563295,442.559617,0.253784,63.575933,63.829717,0.160200,0.500000,0.495552,7544,650
0.028000,25.570655,853.315500,-252.372264,9.205444,458.679199,16.365211,394.636301,0.270511,58.210858,58.481369,0.160200,0.500000,0.498756,8379,674
0.030000,27.264643,840.253750,-269.091255,10.118408,456.481934,17.146235,383.771816,0.286677,57.360611,57.647288,0.160200,0.500000,0.499824,9210,673
0.032000,28.931670,826.361000,-285.544154,10.958862,420.227051,17.972808,406.133949,0.302262,60.597586,60.899848,0.160200,0.500000,0.500892,9975,650
0.034000,30.570087,811.651500,-301.714692,11.782837,411.987305,18.787250,399.664195,0.317249,60.304671,60.621920,0.160200,0.500000,0.505164,10725,687
0.036000,32.178276,796.139500,-317.586877,12.726562,471.862793,19.451713,324.276707,0.331624,51.500249,51.831873,0.160200,0.500000,0.497688,11584,681
0.038000,33.754645,779.839750,-333.145014,13.618652,446.044922,20.135993,333.794828,0.345377,53.081109,53.426486,0.160200,0.500000,0.501960,12396,665
0.040000,35.297635,762.769000,-348.373719,14.640381,510.864258,20.657254,251.904742,0.358502,43.394769,43.753270,0.160200,0.500000,0.495552,13326,680
0.042000,36.805721,744.944000,-363.257932,15.585205,472.412109,21.220516,272.531891,0.370994,46.258927,46.629921,0.160200,0.500000,0.500892,14186,670
0.044000,38.277411,726.382500,-377.782936,16.486084,450.439453,21.791327,275.943047,0.382852,47.024367,47.407220,0.160200,0.500000,0.498756,15006,675
0.046000,39.711251,707.102750,-391.934367,17.427612,470.764160,22.283639,236.338590,0.394081,42.486506,42.880587,0.160200,0.500000,0.498756,15863,688
0.048000,41.105822,687.123500,-405.698231,18.416382,494.384766,22.689440,192.738734,0.404683,37.407669,37.812352,0.160200,0.500000,0.499824,16763,690
0.050000,42.459745,666.465000,-419.060918,19.346924,465.270996,23.112821,201.194004,0.414668,38.699304,39.113972,0.160200,0.500000,0.500892,17610,673
0.052000,43.771682,645.147500,-432.009215,20.257690,455.383301,23.513992,189.764199,0.424045,37.547951,37.971996,0.160200,0.500000,0.499824,18439,685
0.054000,45.040335,623.191750,-444.530316,21.310181,526.245117,23.730154,96.946633,0.432827,26.340192,26.773019,0.160200,0.494863,0.498756,19397,685
0.056000,46.264449,600.619750,-456.611842,22.282471,486.145020,23.981978,114.474730,0.441028,28.635484,29.076512,0.160200,0.500000,0.490212,20282,705
0.058000,47.442814,577.454250,-468.241844,23.211914,464.721680,24.230900,112.732570,0.448665,28.574696,29.023361,0.160200,0.500000,0.501960,21128,693
0.060000,48.574266,553.717500,-479.408822,24.247925,518.005371,24.326341,35.712129,0.455754,19.223176,19.678930,0.160200,0.406187,0.497688,22071,698
0.062000,49.657684,529.433000,-490.101734,25.074097,413.085938,24.583587,116.347062,0.462316,29.231734,29.694050,0.160200,0.500000,0.409044,22823,669
0.064000,50.691998,504.625250,-500.310006,25.865112,395.507812,24.826886,109.117437,0.468369,28.497091,28.965460,0.160200,0.500000,0.501960,23543,655
0.066000,51.676185,479.318500,-510.023544,26.726440,430.664062,24.949745,48.654437,0.473935,21.185193,21.659127,0.160200,0.430939,0.501960,24327,641
0.068000,52.609272,453.537750,-519.232741,27.520752,397.155762,25.088520,56.381988,0.479034,22.214064,22.693098,0.160200,0.443864,0.432540,25050,633
0.070000,53.490336,427.308250,-527.928493,28.375488,427.368164,25.114848,-0.059914,0.483689,15.334468,15.818157,0.160200,0.357927,0.447492,25828,638
0.072000,54.318505,400.656500,-536.102199,29.166504,395.507812,25.152001,5.148688,0.487921,15.993514,16.481435,0.160200,0.366218,0.355644,26548,589
0.074000,55.092962,373.608500,-543.745778,29.855347,344.421387,25.237615,29.187113,0.491752,18.982660,19.474412,0.160200,0.403630,0.364188,27175,573
0.076000,55.812939,346.191000,-550.851670,30.593628,369.140625,25.219311,-22.949625,0.495201,12.601775,13.096976,0.160200,0.323912,0.402636,27847,525
0.078000,56.477726,318.431250,-557.412850,31.283569,344.970703,25.194157,-26.539453,0.498290,12.147829,12.646119,0.160200,0.318276,0.326808,28475,487
0.080000,57.086664,290.356250,-563.422828,31.936157,326.293945,25.150507,-35.937695,0.501038,10.972953,11.473990,0.160200,0.303625,0.321468,29069,453
0.082000,57.639151,261.994500,-568.875663,32.574463,319.152832,25.064688,-57.158332,0.503463,8.327939,8.831402,0.160200,0.270593,0.303312,29650,386
0.084000,58.134642,233.373750,-573.765962,33.143555,284.545898,24.991087,-51.172148,0.505582,9.014329,9.519912,0.160200,0.279199,0.268068,30168,366
0.086000,58.572646,204.522000,-578.088888,33.625854,241.149902,24.946792,-36.627902,0.507412,10.764185,11.271597,0.160200,0.301095,0.278748,30607,301
0.088000,58.952730,175.468250,-581.840169,34.055420,214.782715,24.897310,-39.314465,0.508967,10.405733,10.914700,0.160200,0.296634,0.300108,30998,344
0.090000,59.274519,146.240750,-585.016093,34.479492,212.036133,24.795027,-65.795383,0.510258,7.107998,7.618256,0.160200,0.255428,0.295836,31384,273
0.092000,59.537693,116.868500,-587.613520,34.900269,210.388184,24.637424,-93.519684,0.511298,3.624561,4.135859,0.160200,0.211898,0.257388,31767,314
0.094000,59.741993,87.381000,-589.629883,35.271606,185.668945,24.470387,-98.287945,0.512094,2.939971,3.452065,0.160200,0.203351,0.216804,32105,244
0.096000,59.887217,57.807000,-591.063187,35.584717,156.555176,24.302500,-98.748176,0.512655,2.781187,3.293842,0.160200,0.201373,0.203988,32390,243
0.098000,59.973221,28.176000,-591.912014,35.865967,140.625000,24.107254,-112.449000,0.512985,0.988047,1.501031,0.160200,0.178963,0.201852,32646,200
0.100000,59.999921,-1.483000,-592.175526,36.113159,123.596191,23.886762,-125.079191,0.513087,-0.689714,-0.176627,-0.160200,-0.162408,0.178356,32871,174
0.102000,59.967289,-31.140750,-591.853461,36.344971,115.905762,23.622318,-147.046512,0.512962,-3.535067,-3.022105,-0.160200,-0.197976,-0.168744,33082,53
0.104000,59.875358,-60.767500,-590.946139,36.385620,20.324707,23.489738,-81.092207,0.512609,4.441782,4.954392,-0.160200,-0.098270,-0.198648,33119,-60
0.106000,59.724219,-90.334250,-589.454456,36.290039,-47.790527,23.434180,-42.543723,0.512025,9.117430,9.629455,-0.160200,-0.039832,-0.098256,33032,-81
0.108000,59.514021,-119.811500,-587.379888,36.185669,-52.185059,23.328352,-67.626441,0.511205,5.988351,6.499556,-0.160200,-0.078956,-0.039516,32937,-47
0.110000,59.244973,-149.170500,-584.724485,36.124146,-30.761719,23.120827,-118.408781,0.510140,-0.342652,0.167489,-0.160200,-0.158106,-0.077964,32881,-27
0.112000,58.917339,-178.382000,-581.490875,36.083496,-20.324707,22.833843,-158.057293,0.508823,-5.361940,-4.853117,-0.160200,-0.220864,-0.163404,32844,-48
0.114000,58.531445,-207.416750,-577.682254,36.008789,-37.353516,22.522656,-170.063234,0.507242,-7.018836,-6.511594,-0.160200,-0.241595,-0.222144,32776,-68
0.116000,58.087672,-236.246500,-573.302388,35.883545,-62.622070,22.204127,-173.624430,0.505384,-7.648496,-7.143113,-0.160200,-0.249489,-0.242436,32662,-120
0.118000,57.586459,-264.842750,-568.355609,35.711060,-86.242676,21.875399,-178.600074,0.503234,-8.457194,-7.953960,-0.160200,-0.259624,-0.252048,32505,-134
0.120000,57.028301,-293.177250,-562.846808,35.485840,-112.609863,21.542461,-180.567387,0.500778,-8.900927,-8.400149,-0.160200,-0.265202,-0.259524,32300,-149
0.122000,56.413750,-321.221750,-556.781433,35.251831,-117.004395,21.161919,-204.217355,0.497997,-12.022776,-11.524779,-0.160200,-0.304260,-0.261660,32087,-159
0.124000,55.743414,-348.948750,-550.165481,35.001343,-125.244141,20.742071,-223.704609,0.494873,-14.660064,-14.165191,-0.160200,-0.337265,-0.303312,31859,-249
0.126000,55.017955,-376.330500,-543.005495,34.700317,-150.512695,20.317638,-225.817805,0.491386,-15.177511,-14.686125,-0.160200,-0.343777,-0.332148,31585,-237
0.128000,54.238092,-403.339750,-535.308555,34.377319,-161.499023,19.860773,-241.840727,0.487517,-17.414163,-16.926646,-0.160200,-0.371783,-0.344964,31291,-313
0.130000,53.404596,-429.950500,-527.082272,33.989502,-193.908691,19.415094,-236.041809,0.483243,-16.977941,-16.494698,-0.160200,-0.366384,-0.373800,30938,-336
0.132000,52.518290,-456.136500,-518.334780,33.561035,-214.233398,18.957255,-241.903102,0.478545,-17.973711,-17.495166,-0.160200,-0.378890,-0.370596,30548,-367
0.134000,51.580050,-481.871000,-509.074730,33.127075,-216.979980,18.452975,-264.891020,0.473399,-21.090262,-20.616863,-0.160200,-0.417911,-0.380208,30153,-400
0.136000,50.590806,-507.128750,-499.311279,32.619507,-253.784180,17.971299,-253.344570,0.467786,-19.973836,-19.506051,-0.160200,-0.404026,-0.419724,29691,-393
0.138000,49.551535,-531.885500,-489.054081,32.110840,-254.333496,17.440695,-277.552004,0.461683,-23.255460,-22.793777,-0.160200,-0.445122,-0.401568,29228,-446
0.140000,48.463264,-556.116250,-478.313278,31.534058,-288.391113,16.929206,-267.725137,0.455069,-22.367332,-21.912263,-0.160200,-0.434103,-0.443220,28703,-465
0.142000,47.327070,-579.796750,-467.099493,30.914429,-309.814453,16.412641,-269.982297,0.447926,-22.958648,-22.510722,-0.160200,-0.441584,-0.431472,28139,-495
0.144000,46.144077,-602.904250,-455.423814,30.334351,-290.039062,15.809726,-312.865187,0.440234,-28.566081,-28.125847,-0.160200,-0.500000,-0.437880,27611,-503
0.146000,44.915453,-625.415500,-443.297786,29.652100,-341.125488,15.263353,-284.290012,0.431975,-25.408725,-24.976750,-0.160200,-0.472409,-0.495552,26990,-506
0.148000,43.642415,-647.308250,-430.733401,28.986328,-332.885742,14.656087,-314.422508,0.423135,-29.461062,-29.037927,-0.160200,-0.500000,-0.466716,26384,-549
0.150000,42.326220,-668.560750,-417.743082,28.235962,-375.183105,14.090258,-293.377645,0.413697,-27.235592,-26.821895,-0.160200,-0.495474,-0.507300,25701,-599
0.152000,40.968172,-689.152250,-404.339676,27.500977,-367.492676,13.467195,-321.659574,0.403651,-31.071489,-30.667838,-0.160200,-0.500000,-0.496620,25032,-612
0.154000,39.569611,-709.062500,-390.536436,26.624268,-438.354492,12.945343,-270.708008,0.392986,-25.165362,-24.772376,-0.160200,-0.469855,-0.495552,24234,-632
0.156000,38.131922,-728.271250,-376.347012,25.757446,-433.410645,12.374476,-294.860605,0.381695,-28.464882,-28.083187,-0.160200,-0.500000,-0.453900,23445,-651
0.158000,36.656526,-746.760000,-361.785435,24.877441,-440.002441,11.779085,-306.757559,0.369773,-30.282073,-29.912300,-0.160200,-0.500000,-0.499824,22644,-656
0.160000,35.144882,-764.510500,-346.866104,24.021606,-427.917480,11.123276,-336.593020,0.357218,-34.327773,-33.970555,-0.160200,-0.500000,-0.503028,21865,-688
0.162000,33.598484,-781.504750,-331.603773,23.125122,-448.242188,10.473362,-333.262562,0.344030,-34.317890,-33.973860,-0.160200,-0.500000,-0.498756,21049,-715
0.164000,32.018863,-797.726250,-316.013534,22.129761,-497.680664,9.889102,-300.045586,0.330214,-30.616575,-30.286361,-0.160200,-0.500000,-0.497688,20143,-681
0.166000,30.407579,-813.159000,-300.110802,21.250854,-439.453125,9.156725,-373.705875,0.315777,-40.063261,-39.747484,-0.160200,-0.500000,-0.498756,19343,-697
0.168000,28.766227,-827.787250,-283.911305,20.338989,-455.932617,8.427238,-371.854633,0.300730,-40.282707,-39.981977,-0.160200,-0.500000,-0.496620,18513,-711
0.170000,27.096430,-841.597500,-267.431059,19.480957,-429.016113,7.615473,-412.581387,0.285086,-45.754298,-45.469211,-0.160200,-0.500000,-0.501960,17732,-735
0.172000,25.399837,-854.575500,-250.686364,18.506470,-487.243652,6.893367,-367.331848,0.268863,-40.667133,-40.398270,-0.160200,-0.500000,-0.498756,16845,-734
0.174000,23.678128,-866.708000,-233.693775,17.419922,-543.273926,6.258206,-323.434074,0.252081,-35.692006,-35.439925,-0.160200,-0.500000,-0.492348,15856,-742
0.176000,21.933005,-877.983750,-216.470097,16.437744,-491.088867,5.495261,-386.894883,0.234765,-43.911263,-43.676499,-0.160200,-0.500000,-0.503028,14962,-748
0.178000,20.166193,-888.391250,-199.032362,15.450073,-493.835449,4.716120,-394.555801,0.216940,-45.323171,-45.106231,-0.160200,-0.500000,-0.506232,14063,-741
0.180000,18.379440,-897.920250,-181.397812,14.456909,-496.582031,3.922531,-401.338219,0.198638,-46.636576,-46.437937,-0.160200,-0.500000,-0.500892,13159,-734
0.182000,16.574512,-906.561500,-163.583885,13.392334,-532.287598,3.182178,-374.273902,0.179892,-43.782301,-43.602409,-0.160200,-0.500000,-0.492348,12190,-738
0.184000,14.753194,-914.306250,-145.608198,12.283813,-554.260254,2.469381,-360.045996,0.160738,-42.479458,-42.318720,-0.160200,-0.500000,-0.498756,11181,-748
0.186000,12.917287,-921.146750,-127.488525,11.284058,-499.877930,1.633229,-421.268820,0.141215,-50.470013,-50.328798,-0.160200,-0.500000,-0.494484,10271,-758
0.188000,11.068607,-927.076250,-109.242785,10.276611,-503.723145,0.791996,-423.353105,0.121364,-51.238536,-51.117173,-0.160200,-0.500000,-0.501960,9354,-742
0.190000,9.208982,-932.089000,-90.889019,9.221924,-527.343750,-0.012942,-404.745250,0.101228,-49.456866,-49.355639,-0.160200,-0.500000,-0.506232,8394,-741
0.192000,7.340251,-936.180250,-72.445377,8.213379,-504.272461,-0.873128,-431.907789,0.080852,-53.300854,-53.220002,-0.160200,-0.500000,-0.501960,7476,-764
0.194000,5.464261,-939.345750,-53.930097,7.202637,-505.371094,-1.738376,-433.974656,0.060285,-54.081920,-54.021635,-0.160200,-0.500000,-0.504096,6556,-726
0.196000,3.582868,-941.582500,-35.361488,6.234741,-483.947754,-2.651873,-457.634746,0.039573,-57.530569,-57.490996,-0.160200,-0.500000,-0.498756,5675,-735
0.198000,1.697931,-942.888000,-16.757912,5.216309,-509.216309,-3.518378,-433.671691,0.018766,-55.132247,-55.113481,-0.160200,-0.500000,-0.496620,4748,-751
0.200000,-0.188684,-943.261000,1.862236,4.152832,-531.738281,-4.341516,-411.522719,-0.002086,-52.929066,-52.931152,-0.160200,-0.500000,-0.501960,3780,-772
0.202000,-2.075113,-942.701250,20.480542,3.068481,-542.175293,-5.143594,-400.525957,-0.022933,-52.075520,-52.098453,-0.160200,-0.500000,-0.499824,2793,-723
0.204000,-3.959489,-941.209500,39.078596,1.935791,-566.345215,-5.895280,-374.864285,-0.043725,-49.399534,-49.443258,-0.160200,-0.500000,-0.505164,1762,-778
0.206000,-5.839951,-938.787000,57.638006,0.910767,-512.512207,-6.750718,-426.274793,-0.064411,-56.203069,-56.267481,-0.160200,-0.500000,-0.496620,829,-769
0.208000,-7.714637,-935.436000,76.140422,-0.091187,-500.976562,-7.623450,-434.459437,-0.084944,-57.736134,-57.821079,-0.160200,-0.500000,-0.509436,-83,-779
0.210000,-9.581695,-931.160250,94.567545,-1.183228,-546.020508,-8.398467,-385.139742,-0.105275,-52.184028,-52.289303,-0.160200,-0.500000,-0.501960,-1077,-768
0.212000,-11.439278,-925.963500,112.901154,-2.208252,-512.512207,-9.231026,-413.451293,-0.125358,-56.151517,-56.276875,-0.160200,-0.500000,-0.499824,-2010,-759
0.214000,-13.285549,-919.851000,131.123121,-3.259644,-525.695801,-10.025905,-394.155199,-0.145147,-54.279619,-54.424766,-0.160200,-0.500000,-0.504096,-2967,-761
0.216000,-15.118682,-912.829250,149.215425,-4.336304,-538.330078,-10.782378,-374.499172,-0.164600,-52.340285,-52.504885,-0.160200,-0.500000,-0.494484,-3947,-787
0.218000,-16.936866,-904.904750,167.160178,-5.479980,-571.838379,-11.456886,-333.066371,-0.183675,-47.690347,-47.874022,-0.160200,-0.500000,-0.498756,-4988,-748
0.220000,-18.738301,-896.085250,184.939632,-6.623657,-571.838379,-12.114644,-324.246871,-0.202335,-47.014643,-47.216978,-0.160200,-0.500000,-0.504096,-6029,-770
0.222000,-20.521207,-886.379750,202.536209,-7.772827,-574.584961,-12.748380,-311.794789,-0.220544,-45.880462,-46.101006,-0.160200,-0.500000,-0.509436,-7075,-783
0.224000,-22.283820,-875.797750,219.932506,-8.923096,-575.134277,-13.360724,-300.663473,-0.238269,-44.894575,-45.132844,-0.160200,-0.500000,-0.500892,-8122,-763
0.226000,-24.024398,-864.349750,237.111321,-10.071167,-574.035645,-13.953231,-290.314105,-0.255481,-43.992103,-44.247584,-0.160200,-0.500000,-0.499824,-9167,-760
0.228000,-25.741219,-852.047000,254.055668,-11.219238,-574.035645,-14.521981,-278.011355,-0.272153,-42.836468,-43.108621,-0.160200,-0.500000,-0.501960,-10212,-763
0.230000,-27.432586,-838.901750,270.748790,-12.326660,-553.710938,-15.105926,-285.190812,-0.288262,-44.070316,-44.358578,-0.160200,-0.500000,-0.498756,-11220,-757
0.232000,-29.096826,-824.926750,287.174181,-13.411011,-542.175293,-15.685815,-282.751457,-0.303788,-44.126527,-44.430314,-0.160200,-0.500000,-0.499824,-12207,-765
0.234000,-30.732293,-810.136250,303.315597,-14.449219,-519.104004,-16.283074,-291.032246,-0.318714,-45.503060,-45.821774,-0.160200,-0.500000,-0.496620,-13152,-774
0.236000,-32.337371,-794.544500,319.157079,-15.486328,-518.554688,-16.851043,-275.989813,-0.333027,-44.012233,-44.345260,-0.160200,-0.500000,-0.494484,-14096,-756
0.238000,-33.910471,-778.167000,334.682960,-16.643188,-578.430176,-17.267283,-199.736824,-0.346718,-34.950439,-35.297157,-0.160200,-0.500000,-0.491280,-15149,-757
0.240000,-35.450039,-761.020250,349.877888,-17.685791,-521.301270,-17.764248,-239.718980,-0.359779,-40.138760,-40.498539,-0.160200,-0.500000,-0.501960,-16098,-789
0.242000,-36.954552,-743.120750,364.726837,-18.611938,-463.073730,-18.342614,-280.047020,-0.372208,-45.419063,-45.791271,-0.160200,-0.500000,-0.498756,-16941,-764
0.244000,-38.422522,-724.486500,379.215124,-19.652344,-520.202637,-18.770178,-204.283863,-0.384004,-36.424032,-36.808035,-0.160200,-0.500000,-0.503028,-17888,-766
0.246000,-39.852498,-705.136000,393.328421,-20.649902,-498.779297,-19.202596,-206.356703,-0.395169,-36.941425,-37.336595,-0.160200,-0.500000,-0.501960,-18796,-767
0.248000,-41.243066,-685.088000,407.052774,-21.741943,-546.020508,-19.501123,-139.067492,-0.405709,-28.902857,-29.308567,-0.160200,-0.500000,-0.504096,-19790,-772
0.250000,-42.592850,-664.362500,420.374610,-22.787842,-522.949219,-19.805008,-141.413281,-0.415633,-29.375083,-29.790716,-0.160200,-0.500000,-0.496620,-20742,-793
0.252000,-43.900516,-642.980250,433.280756,-23.950195,-581.176758,-19.950321,-61.803492,-0.424950,-19.737678,-20.162628,-0.160200,-0.412233,-0.496620,-21800,-786
0.254000,-45.164771,-620.962000,445.758450,-24.994995,-522.399902,-20.169776,-98.562098,-0.433673,-24.362647,-24.796320,-0.160200,-0.470154,-0.415452,-22751,-738
0.256000,-46.384364,-598.329500,457.795354,-25.896973,-450.988770,-20.487391,-147.340730,-0.441817,-30.516101,-30.957918,-0.160200,-0.500000,-0.464580,-23572,-738
0.258000,-47.558089,-575.105750,469.379563,-26.953857,-528.442383,-20.604232,-46.663367,-0.449398,-18.287415,-18.736813,-0.160200,-0.394410,-0.493416,-24534,-740
0.260000,-48.684787,-551.313500,480.499624,-27.947021,-496.582031,-20.737766,-54.731469,-0.456434,-19.354690,-19.811124,-0.160200,-0.407839,-0.399432,-25438,-702
0.262000,-49.763343,-526.975500,491.144540,-28.835815,-444.396973,-20.927528,-82.578527,-0.462943,-22.872769,-23.335713,-0.160200,-0.451896,-0.406908,-26247,-698
0.264000,-50.792689,-502.116500,501.303785,-29.846558,-505.371094,-20.946131,3.254594,-0.468947,-12.397640,-12.866587,-0.160200,-0.321032,-0.453900,-27167,-647
0.266000,-51.771809,-476.761250,510.967313,-30.837524,-495.483398,-20.934285,18.722148,-0.474465,-10.500685,-10.975150,-0.160200,-0.297389,-0.324672,-28069,-609
0.268000,-52.699734,-450.934500,520.125568,-31.664795,-413.635254,-21.034939,-37.299246,-0.479519,-17.406476,-17.885995,-0.160200,-0.383775,-0.295836,-28822,-560
0.270000,-53.575547,-424.661750,528.769493,-32.407471,-371.337891,-21.168076,-53.323859,-0.484131,-19.445580,-19.929712,-0.160200,-0.409321,-0.382344,-29498,-522
0.272000,-54.398381,-397.969000,536.890542,-33.033691,-313.110352,-21.364690,-84.858648,-0.488322,-23.418386,-23.906708,-0.160200,-0.459034,-0.411180,-30068,-495
0.274000,-55.167423,-370.883000,544.480683,-33.659912,-313.110352,-21.507511,-57.772648,-0.492113,-20.196451,-20.688565,-0.160200,-0.418807,-0.456036,-30638,-537
0.276000,-55.881913,-343.430000,551.532412,-34.312500,-326.293945,-21.569413,-17.136055,-0.495526,-15.269569,-15.765095,-0.160200,-0.357264,-0.420792,-31232,-565
0.278000,-56.541143,-315.637250,558.038754,-35.057373,-372.436523,-21.483770,56.799273,-0.498580,-6.184348,-6.682928,-0.160200,-0.243737,-0.355644,-31910,-551
0.280000,-57.144462,-287.532750,563.993277,-35.775879,-359.252930,-21.368583,71.720180,-0.501295,-4.291052,-4.792346,-0.160200,-0.220104,-0.242436,-32564,-466
0.282000,-57.691274,-259.143750,569.390091,-36.450439,-337.280273,-21.240835,78.136523,-0.503688,-3.429110,-3.932799,-0.160200,-0.209360,-0.221076,-33178,-391
0.284000,-58.181037,-230.498500,574.223861,-36.948120,-248.840332,-21.232917,18.341832,-0.505778,-10.729573,-11.235351,-0.160200,-0.300642,-0.210396,-33631,-314
0.286000,-58.613268,-201.625250,578.489806,-37.363403,-207.641602,-21.249865,6.016352,-0.507580,-12.245768,-12.753347,-0.160200,-0.319617,-0.301176,-34009,-307
0.288000,-58.987538,-172.552500,582.183708,-37.786377,-211.486816,-21.201161,38.934316,-0.509107,-8.194328,-8.703436,-0.160200,-0.268993,-0.320400,-34394,-298
0.290000,-59.303478,-143.309500,585.301915,-38.257690,-235.656738,-21.045788,92.347238,-0.510373,-1.573796,-2.084170,-0.160200,-0.186252,-0.269136,-34823,-270
0.292000,-59.560776,-113.924750,587.841342,-38.683960,-213.134766,-20.876816,99.210016,-0.511388,-0.632131,-1.143519,-0.160200,-0.174494,-0.187968,-35211,-258
0.294000,-59.759177,-84.427000,589.799479,-39.050903,-183.471680,-20.708274,99.044680,-0.512161,-0.549374,-1.061535,-0.160200,-0.173469,-0.175152,-35545,-244
0.296000,-59.898484,-54.846000,591.174389,-39.379395,-164.245605,-20.519089,109.399605,-0.512698,0.831285,0.318587,-0.160200,-0.156218,-0.171948,-35844,-172
0.298000,-59.978561,-25.210750,591.964713,-39.609009,-114.807129,-20.369552,89.596379,-0.513005,-1.496789,-2.009794,-0.160200,-0.185322,-0.159132,-36053,-167
0.300000,-59.999327,4.449500,592.169669,-39.792480,-91.735840,-20.206847,96.185340,-0.513085,-0.592404,-1.105489,0.160200,0.146381,-0.186900,-36220,-159
0.302000,-59.960763,34.105250,591.789055,-39.960571,-84.045410,-20.000192,118.150660,-0.512937,2.217404,1.704467,0.160200,0.181506,0.143112,-36373,-74
0.304000,-59.862906,63.727250,590.823247,-40.011108,-25.268555,-19.851798,88.995805,-0.512561,-1.253884,-1.766446,0.160200,0.138119,0.180492,-36419,34
0.306000,-59.705854,93.286250,589.273200,-39.934204,38.452148,-19.771650,54.834102,-0.511954,-5.378564,-5.890518,0.160200,0.086569,0.142044,-36349,77
0.308000,-59.489761,122.753250,587.140446,-39.830933,51.635742,-19.658828,71.117508,-0.511109,-3.320252,-3.831362,0.160200,0.112308,0.086508,-36255,87
0.310000,-59.214841,152.098750,584.427095,-39.721069,54.931641,-19.493772,97.167109,-0.510020,-0.036866,-0.546886,0.160200,0.153364,0.112140,-36155,70
0.312000,-58.881366,181.293750,581.135831,-39.636475,42.297363,-19.244891,138.996387,-0.508677,5.225577,4.716900,0.160200,0.219161,0.154860,-36078,60
0.314000,-58.489666,210.309500,577.269906,-39.539795,48.339844,-18.949871,161.969656,-0.507069,8.212509,7.705440,0.160200,0.256518,0.228552,-35990,101
0.316000,-58.040128,239.117250,572.833145,-39.395874,71.960449,-18.644254,167.156801,-0.505182,9.032929,8.527747,0.160200,0.266797,0.252048,-35859,125
0.318000,-57.533197,267.688500,567.829934,-39.208008,93.933105,-18.325189,173.755395,-0.503003,10.034005,9.531002,0.160200,0.279338,0.267000,-35688,156
0.320000,-56.969374,295.995250,562.265222,-38.977295,115.356445,-17.992079,180.638805,-0.500515,11.078458,10.577943,0.160200,0.292424,0.273408,-35478,162
0.322000,-56.349216,324.009250,556.144510,-38.716919,130.187988,-17.632297,193.821262,-0.497700,12.908777,12.411077,0.160200,0.315338,0.292632,-35241,209
0.324000,-55.673337,351.702750,549.473852,-38.414795,151.062012,-17.258542,200.640738,-0.494541,13.970247,13.475706,0.160200,0.328646,0.320400,-34966,286
0.326000,-54.942405,379.048500,542.259843,-38.086304,164.245605,-16.856101,214.802895,-0.491017,15.946318,15.455301,0.160200,0.353391,0.330012,-34667,286
0.328000,-54.157143,406.019250,534.509617,-37.713867,186.218262,-16.443276,219.800988,-0.487108,16.809131,16.322023,0.160200,0.364225,0.354576,-34328,268
0.330000,-53.318328,432.588750,526.230838,-37.320557,196.655273,-15.997771,235.933477,-0.482793,19.052229,18.569437,0.160200,0.392318,0.365256,-33970,324
0.332000,-52.426788,458.730500,517.431693,-36.912964,203.796387,-15.513824,254.934113,-0.478051,21.669222,21.191171,0.160200,0.425090,0.389820,-33599,342
0.334000,-51.483406,484.418500,508.120883,-36.457031,227.966309,-15.026375,256.452191,-0.472859,22.152456,21.679596,0.160200,0.431195,0.425064,-33184,385
0.336000,-50.489114,509.627750,498.307614,-35.921997,267.517090,-14.567117,242.110660,-0.467198,20.680852,20.213654,0.160200,0.412871,0.429336,-32697,442
0.338000,-49.444895,534.332750,488.001591,-35.307861,307.067871,-14.137034,227.264879,-0.461045,19.129820,18.668776,0.160200,0.393560,0.415452,-32138,478
0.340000,-48.351783,558.509250,477.213005,-34.569580,369.140625,-13.782203,189.368625,-0.454379,14.716673,14.262294,0.160200,0.338479,0.393024,-31466,521
0.342000,-47.210858,582.133750,465.952524,-33.890625,339.477539,-13.320233,242.656211,-0.447182,21.509182,21.062000,0.160200,0.423475,0.338556,-30848,489
0.344000,-46.023248,605.182500,454.231283,-33.225952,332.336426,-12.797296,272.846074,-0.439434,25.517013,25.077579,0.160200,0.473670,0.426132,-30243,485
0.346000,-44.790128,627.633000,442.060872,-32.514038,355.957031,-12.276090,271.675969,-0.431118,25.692444,25.261327,0.160200,0.475967,0.474192,-29595,522
0.348000,-43.512716,649.462750,429.453327,-31.779053,367.492676,-11.733663,281.970074,-0.422218,27.281456,26.859238,0.160200,0.495940,0.479532,-28926,593
0.350000,-42.192277,670.650000,416.421115,-31.025391,376.831055,-11.166886,293.818945,-0.412720,29.075293,28.662573,0.160200,0.500000,0.491280,-28240,613
0.352000,-40.830116,691.174250,402.977123,-30.186035,419.677734,-10.644081,271.496516,-0.402613,26.667458,26.264845,0.160200,0.488511,0.496620,-27476,653
0.354000,-39.427580,711.015250,389.134644,-29.362061,411.987305,-10.065519,299.027945,-0.391885,30.384479,29.992594,0.160200,0.500000,0.488076,-26726,674
0.356000,-37.986055,730.153000,374.907367,-28.384277,488.891602,-9.601778,241.261398,-0.380531,23.610248,23.229717,0.160200,0.450571,0.498756,-25836,707
0.358000,-36.506968,748.568500,360.309360,-27.438354,472.961426,-9.068614,275.607074,-0.368546,28.132055,27.763510,0.160200,0.500000,0.450696,-24975,687
0.360000,-34.991781,766.244000,345.355060,-26.377075,530.639648,-8.614706,235.604352,-0.355927,23.522077,23.166150,0.160200,0.449777,0.498756,-24009,708
0.362000,-33.441992,783.162000,330.059253,-25.405884,485.595703,-8.036108,297.566297,-0.342677,31.445602,31.102926,0.160200,0.500000,0.453900,-23125,706
0.364000,-31.859133,799.305250,314.437066,-24.498413,453.735352,-7.360720,345.569898,-0.328798,37.722920,37.394121,0.160200,0.500000,0.500892,-22299,742
0.366000,-30.244771,814.658000,298.503945,-23.449219,524.597168,-6.795552,290.060832,-0.314300,31.286449,30.972149,0.160200,0.500000,0.500892,-21344,732
0.368000,-28.600501,829.205500,282.275647,-22.509888,469.665527,-6.090613,359.539973,-0.299192,40.205550,39.906358,0.160200,0.500000,0.501960,-20489,781
0.370000,-26.927949,842.933000,265.768219,-21.414551,547.668457,-5.513398,295.264543,-0.283490,32.705426,32.421936,0.160200,0.500000,0.507300,-19492,778
0.372000,-25.228769,855.827000,248.997985,-20.444458,485.046387,-4.784311,370.780613,-0.267210,42.376828,42.109618,0.160200,0.500000,0.498756,-18609,778
0.374000,-23.504641,867.874500,231.981527,-19.394165,525.146484,-4.110476,342.728016,-0.250373,39.361179,39.110806,0.160200,0.500000,0.499824,-17653,788
0.376000,-21.757271,879.063750,214.735673,-18.309814,542.175293,-3.447457,336.888457,-0.233005,39.052758,38.819754,0.160200,0.500000,0.498756,-16666,800
0.378000,-19.988386,889.384000,197.277477,-17.188110,560.852051,-2.800276,328.531949,-0.215131,38.427158,38.212028,0.160200,0.500000,0.495552,-15645,809
0.380000,-18.199735,898.824500,179.624202,-16.107056,540.527344,-2.092679,358.297156,-0.196783,42.495910,42.299127,0.160200,0.500000,0.494484,-14661,815
0.382000,-16.393088,907.376250,161.793304,-15.140259,483.398438,-1.252829,423.977813,-0.177994,51.033352,50.855357,0.160200,0.500000,0.501960,-13781,815
0.384000,-14.570230,915.031000,143.802416,-14.050415,544.921875,-0.519815,370.109125,-0.158802,44.899823,44.741021,0.160200,0.500000,0.501960,-12789,820
0.386000,-12.732964,921.780750,125.669328,-12.949585,550.415039,0.216621,371.365711,-0.139244,45.503207,45.363963,0.160200,0.500000,0.521184,-11787,822
0.388000,-10.883107,927.618750,107.411971,-11.917969,515.808105,1.034862,411.810645,-0.119362,50.944323,50.824961,0.160200,0.500000,0.499824,-10848,818
0.390000,-9.022489,932.539750,89.048399,-10.785278,566.345215,1.762789,366.194535,-0.099200,45.815929,45.716729,0.160200,0.500000,0.500892,-9817,821
0.392000,-7.152948,936.538750,70.596771,-9.751465,516.906738,2.598517,419.632012,-0.078804,52.855065,52.776262,0.160200,0.500000,0.503028,-8876,830
0.394000,-5.276334,939.611250,52.075334,-8.638550,556.457520,3.362216,383.153730,-0.058219,48.864920,48.806700,0.160200,0.500000,0.497688,-7863,833
0.396000,-3.394503,941.754750,33.502401,-7.644287,497.131348,4.249784,444.623402,-0.037496,56.917041,56.879546,0.160200,0.500000,0.504096,-6958,823
0.398000,-1.509315,942.967250,14.896339,-6.524780,559.753418,5.015465,383.213832,-0.016682,49.882175,49.865493,0.160200,0.500000,0.500892,-5939,810
0.400000,0.377366,943.247000,-3.724453,-5.531616,496.582031,5.908982,446.664969,0.004172,58.180012,58.184184,0.160200,0.500000,0.504096,-5035,843
0.402000,2.263673,942.594000,-22.341562,-4.385742,572.937012,6.649415,369.656988,0.025015,49.224017,49.249033,0.160200,0.500000,0.501960,-3992,839
0.404000,4.147742,941.009250,-40.936579,-3.286011,549.865723,7.433753,391.143527,0.045799,52.328218,52.374017,0.160200,0.500000,0.501960,-2991,834
0.406000,6.027710,938.493750,-59.491115,-2.207153,539.428711,8.234863,399.065039,0.066472,53.785384,53.851856,0.160200,0.500000,0.500892,-2009,847
0.408000,7.901717,935.050000,-77.986823,-1.156860,525.146484,9.058577,409.903516,0.086987,55.612732,55.699719,0.160200,0.500000,0.495552,-1053,859
0.410000,9.767910,930.681750,-96.405414,-0.079102,538.879395,9.847012,391.802355,0.107296,53.882885,53.990181,0.160200,0.500000,0.498756,-72,844
0.412000,11.624444,925.393250,-114.728673,1.104126,591.613770,10.520318,333.779480,0.127351,47.205353,47.332704,0.160200,0.500000,0.498756,1005,843
0.414000,13.469483,919.189750,-132.938482,2.317017,606.445312,11.152466,312.744437,0.147108,45.021595,45.168703,0.160200,0.500000,0.500892,2109,817
0.416000,15.301203,912.077500,-151.016834,3.375000,528.991699,11.926203,383.085801,0.166525,54.088063,54.254587,0.160200,0.500000,0.495552,3072,861
0.418000,17.117793,904.063000,-168.945853,4.587891,606.445312,12.529902,297.617688,0.185560,44.014942,44.200502,0.160200,0.500000,0.499824,4176,837
0.420000,18.917455,895.154250,-186.707808,5.779907,596.008301,13.137548,299.145949,0.204177,44.572844,44.777021,0.160200,0.500000,0.495552,5261,851
0.422000,20.698410,885.360750,-204.285136,6.949951,585.021973,13.748459,300.338777,0.222339,45.091759,45.314098,0.160200,0.500000,0.500892,6326,851
0.424000,22.458898,874.691750,-221.660456,8.139771,594.909668,14.319127,279.782082,0.240014,42.928887,43.168901,0.160200,0.500000,0.495552,7409,874
0.426000,24.197177,863.157750,-238.816585,9.361450,610.839844,14.835727,252.317906,0.257173,39.889077,40.146251,0.160200,0.500000,0.497688,8521,837
0.428000,25.911529,850.770250,-255.736559,10.509521,574.035645,15.402008,276.734605,0.273790,43.218061,43.491851,0.160200,0.500000,0.508368,9566,847
0.430000,27.600258,837.541250,-272.403647,11.581787,536.132812,16.018471,301.408437,0.289841,46.609114,46.898956,0.160200,0.500000,0.506232,10542,847
0.432000,29.261694,823.484250,-288.801367,12.806763,612.487793,16.454931,210.996457,0.305308,35.829826,36.135133,0.160200,0.500000,0.501960,11657,846
0.434000,30.894195,808.613000,-304.913503,14.010864,602.050781,16.883331,206.562219,0.320173,35.549776,35.869949,0.160200,0.500000,0.503028,12753,853
0.436000,32.496146,792.941750,-320.724125,15.040283,514.709473,17.455863,278.232277,0.334424,44.655665,44.990090,0.160200,0.500000,0.498756,13690,875
0.438000,34.065962,776.486750,-336.217596,16.120239,539.978027,17.945723,236.508723,0.348052,39.857410,40.205462,0.160200,0.500000,0.497688,14673,861
0.440000,35.602093,759.264000,-351.378597,17.170532,525.146484,18.431561,234.117516,0.361051,39.862050,40.223101,0.160200,0.500000,0.481668,15629,872
0.442000,37.103018,741.290000,-366.192135,18.275757,552.612305,18.827261,188.677695,0.373416,34.552248,34.925664,0.160200,0.500000,0.493416,16635,850
0.444000,38.567253,722.583250,-380.643561,19.487549,605.895996,19.079704,116.687254,0.385148,25.911165,26.296314,0.160200,0.488904,0.494484,17738,859
0.446000,39.993351,703.162250,-394.718586,20.827881,670.166016,19.165470,32.996234,0.396251,15.738770,16.135021,0.160200,0.361888,0.487008,18958,876
0.448000,41.379902,683.045750,-408.403291,21.979248,575.683594,19.400654,107.362156,0.406729,24.967947,25.374676,0.160200,0.477383,0.364188,20006,836
0.450000,42.725534,662.253500,-421.684145,22.999878,510.314941,19.725656,151.938559,0.416592,30.612514,31.029106,0.160200,0.500000,0.477396,20935,790
0.452000,44.028916,640.806500,-434.548013,24.071045,535.583496,19.957871,105.223004,0.425849,25.046985,25.472834,0.160200,0.478610,0.499824,21910,824
0.454000,45.288760,618.726000,-446.982176,25.174072,551.513672,20.114688,67.212328,0.434513,20.498898,20.933412,0.160200,0.421868,0.475260,22914,810
0.456000,46.503820,596.033500,-458.974338,26.370483,598.205566,20.133337,-2.172066,0.442600,12.033387,12.475988,0.160200,0.316150,0.427200,24003,800
0.458000,47.672894,572.751750,-470.512641,27.535034,582.275391,20.137860,-9.523641,0.450126,11.137986,11.588112,0.160200,0.305051,0.302244,25063,733
0.460000,48.794827,548.903750,-481.585675,28.601807,533.386230,20.193020,15.517520,0.457108,14.231037,14.688145,0.160200,0.343802,0.305448,26034,655
0.462000,49.868509,524.512750,-492.182489,29.499390,448.791504,20.369119,75.721246,0.463566,21.693882,22.157449,0.160200,0.437168,0.346032,26851,594
0.464000,50.892878,499.603000,-502.292607,30.295898,398.254395,20.596980,101.348605,0.469520,24.964047,25.433567,0.160200,0.478120,0.437880,27576,585
0.466000,51.866921,474.199250,-511.906029,31.186890,445.495605,20.680031,28.703645,0.474991,16.139524,16.614515,0.160200,0.367881,0.475260,28387,633
0.468000,52.789675,448.326750,-521.013250,32.125122,469.116211,20.664553,-20.789461,0.480000,10.083345,10.563345,0.160200,0.292242,0.366324,29241,628
0.470000,53.660228,422.011000,-529.605264,33.013916,444.396973,20.646312,-22.385973,0.484569,9.877152,10.361721,0.160200,0.289722,0.292632,30050,585
0.472000,54.477719,395.277750,-537.673575,33.855469,420.776367,20.622250,-25.498617,0.488719,9.482172,9.970891,0.160200,0.284836,0.290496,30816,515
0.474000,55.241339,368.153750,-545.210204,34.579468,361.999512,20.661871,6.154238,0.492471,13.373501,13.865972,0.160200,0.333525,0.285156,31475,453
0.476000,55.950334,340.665500,-552.207699,35.226562,323.547363,20.723771,17.118137,0.495847,14.750807,15.246654,0.160200,0.350783,0.338556,32064,431
0.478000,56.604001,312.840500,-558.659140,35.889038,331.237793,20.714963,-18.397293,0.498866,10.406397,10.905264,0.160200,0.296516,0.353508,32667,449
0.480000,57.201696,284.706250,-564.558147,36.483398,297.180176,20.718298,-12.473926,0.501548,11.132110,11.633658,0.160200,0.305621,0.300108,33208,444
0.482000,57.742826,256.290250,-569.898888,37.121704,319.152832,20.621122,-62.862582,0.503911,4.916613,5.420524,0.160200,0.227957,0.305448,33789,386
0.484000,58.226857,227.620750,-574.676082,37.730347,304.321289,20.496510,-76.700539,0.505971,3.149867,3.655838,0.160200,0.205898,0.230688,34343,338
0.486000,58.653309,198.726500,-578.885003,38.270874,270.263672,20.382435,-71.537172,0.507745,3.711007,4.218751,0.160200,0.212934,0.202920,34835,347
0.488000,59.021763,169.635750,-582.521491,38.733398,231.262207,20.288365,-61.626457,0.509245,4.864365,5.373610,0.160200,0.227370,0.213600,35256,243
0.490000,59.331852,140.376750,-585.581948,39.138794,202.697754,20.193058,-62.321004,0.510486,4.721290,5.231776,0.160200,0.225597,0.223212,35625,285
0.492000,59.583270,110.979500,-588.063350,39.513428,187.316895,20.069842,-76.337395,0.511476,2.933597,3.445073,0.160200,0.203263,0.223212,35966,208
0.494000,59.775770,81.472250,-589.963242,39.851807,169.189453,19.923963,-87.717203,0.512225,1.454179,1.966404,0.160200,0.184780,0.200784,36274,192
0.496000,59.909159,51.884250,-591.279745,40.171509,159.851074,19.737650,-107.966824,0.512739,-1.133592,-0.620852,0.160200,0.152439,0.183696,36565,210
0.498000,59.983307,22.245500,-592.011558,40.456055,142.272949,19.527252,-120.027449,0.513023,-2.735600,-2.222576,0.160200,0.132418,0.151656,36824,184
0.500000,59.998141,-7.415500,-592.157957,40.696655,120.300293,19.301486,-127.715793,0.513080,-3.812821,-3.299741,-0.160200,-0.201447,0.131364,37043,141
0.502000,59.953645,-37.069500,-591.718797,40.884521,93.933105,19.069124,-131.002605,0.512910,-4.356323,-3.843413,-0.160200,-0.208243,-0.195444,37214,36
0.504000,59.849863,-66.686750,-590.694512,40.880127,-2.197266,18.969736,-64.489484,0.512511,3.709075,4.221587,-0.160200,-0.107430,-0.206124,37210,-90
0.506000,59.686898,-96.237750,-589.086116,40.743896,-68.115234,18.943002,-28.122516,0.511880,8.135808,8.647688,-0.160200,-0.052104,-0.104664,37086,-96
0.508000,59.464912,-125.693750,-586.895198,40.595581,-74.157715,18.869331,-51.536035,0.511012,5.230304,5.741315,-0.160200,-0.088434,-0.050196,36951,-73
0.510000,59.184123,-155.025500,-584.123926,40.497803,-48.889160,18.686320,-106.136340,0.509897,-1.552177,-1.042279,-0.160200,-0.173228,-0.087576,36862,-55
0.512000,58.844810,-184.203750,-580.775039,40.431885,-32.958984,18.412925,-151.244766,0.508528,-7.230218,-6.721690,-0.160200,-0.244221,-0.170880,36802,-71
0.514000,58.447308,-213.200000,-576.851850,40.327515,-52.185059,18.119793,-161.014941,0.506893,-8.602934,-8.096041,-0.160200,-0.261401,-0.243504,36707,-94
0.516000,57.992010,-241.985500,-572.358237,40.194580,-66.467285,17.797430,-175.518215,0.504978,-10.571764,-10.066786,-0.160200,-0.286035,-0.261660,36586,-145
0.518000,57.479366,-270.531750,-567.298644,39.990234,-102.172852,17.489132,-168.358898,0.502768,-9.885417,-9.382649,-0.160200,-0.277483,-0.285156,36400,-189
0.520000,56.909883,-298.810250,-561.678075,39.730957,-129.638672,17.178926,-169.171578,0.500248,-10.174199,-9.673950,-0.160200,-0.281124,-0.276612,36164,-222
0.522000,56.284125,-326.793250,-555.502087,39.460693,-135.131836,16.823432,-191.661414,0.497400,-13.139009,-12.641609,-0.160200,-0.318220,-0.280884,35918,-268
0.524000,55.602710,-354.453500,-548.776788,39.125610,-167.541504,16.477100,-186.911996,0.494205,-12.770321,-12.276116,-0.160200,-0.313651,-0.318264,35613,-238
0.526000,54.866311,-381.763000,-541.508828,38.791626,-166.992188,16.074685,-214.770813,0.490644,-16.419738,-15.929095,-0.160200,-0.359314,-0.311856,35309,-317
0.528000,54.075658,-408.694750,-533.705393,38.416992,-187.316895,15.658666,-221.377855,0.486695,-17.481073,-16.994378,-0.160200,-0.372630,-0.359916,34968,-340
0.530000,53.231532,-435.222750,-525.374201,37.936890,-240.051270,15.294642,-195.171480,0.482338,-14.501729,-14.019391,-0.160200,-0.335442,-0.368460,34531,-400
0.532000,52.334767,-461.320250,-516.523489,37.363403,-286.743164,14.971364,-174.577086,0.477552,-12.183129,-11.705577,-0.160200,-0.306520,-0.335352,34009,-422
0.534000,51.386251,-486.961250,-507.162010,36.817383,-273.010254,14.568868,-213.950996,0.472315,-17.239430,-16.767115,-0.160200,-0.369789,-0.309720,33512,-388
0.536000,50.386922,-512.121000,-497.299021,36.247192,-285.095215,14.139730,-227.025785,0.466605,-19.098963,-18.632358,-0.160200,-0.393104,-0.371664,32993,-406
0.538000,49.337767,-536.774500,-486.944275,35.614380,-316.406250,13.723387,-220.368250,0.460401,-18.539921,-18.079519,-0.160200,-0.386194,-0.396228,32417,-468
0.540000,48.239824,-560.897000,-476.108012,35.003540,-305.419922,13.236284,-255.477078,0.453684,-23.126827,-22.673144,-0.160200,-0.443614,-0.386616,31861,-464
0.542000,47.094179,-584.465000,-464.800946,34.313599,-344.970703,12.780580,-239.494297,0.446432,-21.452536,-21.006104,-0.160200,-0.422776,-0.446424,31233,-491
0.544000,45.901964,-607.455000,-453.034259,33.533569,-390.014648,12.368395,-217.440352,0.438628,-19.009928,-18.571300,-0.160200,-0.392341,-0.417588,30523,-551
0.546000,44.664359,-629.844250,-440.819586,32.739258,-397.155762,11.925101,-232.688488,0.430254,-21.143632,-20.713378,-0.160200,-0.419117,-0.389820,29800,-569
0.548000,43.382587,-651.610500,-428.169007,31.890015,-424.621582,11.492572,-226.988918,0.421295,-20.711515,-20.290220,-0.160200,-0.413828,-0.417588,29027,-588
0.550000,42.057917,-672.732500,-415.095030,31.000122,-444.946289,11.057795,-227.786211,0.411737,-21.074513,-20.662776,-0.160200,-0.418485,-0.412248,28217,-584
0.552000,40.691657,-693.189500,-401.610584,30.146484,-426.818848,10.545173,-266.370652,0.401568,-26.101635,-25.700067,-0.160200,-0.481451,-0.416520,27440,-599
0.554000,39.285159,-712.961000,-387.729003,29.235718,-455.383301,10.049441,-257.577699,0.390778,-25.330198,-24.939420,-0.160200,-0.471943,-0.482736,26611,-618
0.556000,37.839813,-732.027250,-373.464013,28.369995,-432.861328,9.469818,-299.165922,0.379361,-30.765230,-30.385869,-0.160200,-0.500000,-0.476328,25823,-694
0.558000,36.357050,-750.369750,-358.829722,27.460327,-454.833984,8.896723,-295.535766,0.367312,-30.671806,-30.304494,-0.160200,-0.500000,-0.499824,24995,-715
0.560000,34.838334,-767.970500,-343.840600,26.505615,-477.355957,8.332719,-290.614543,0.354630,-30.415096,-30.060466,-0.160200,-0.500000,-0.498756,24126,-741
0.562000,33.285168,-784.811250,-328.511469,25.442139,-531.738281,7.843029,-253.072969,0.341317,-26.127662,-25.786345,-0.160200,-0.482529,-0.504096,23158,-764
0.564000,31.699089,-800.876250,-312.857488,24.476440,-482.849121,7.222649,-318.027129,0.327376,-34.442279,-34.114902,-0.160200,-0.500000,-0.477396,22279,-771
0.566000,30.081663,-816.149500,-296.894136,23.302002,-587.219238,6.779661,-228.930262,0.312816,-23.827649,-23.514832,-0.160200,-0.454135,-0.500892,21210,-825
0.568000,28.434491,-830.615500,-280.637198,22.145142,-578.430176,6.289349,-252.185324,0.297649,-26.968305,-26.670656,-0.160200,-0.493583,-0.458172,20157,-800
0.570000,26.759201,-844.260000,-264.102750,21.061890,-541.625977,5.697311,-302.634023,0.281888,-33.493432,-33.211544,-0.160200,-0.500000,-0.496620,19171,-816
0.572000,25.057451,-857.069750,-247.307143,19.918213,-571.838379,5.139238,-285.231371,0.265551,-31.708204,-31.442653,-0.160200,-0.500000,-0.498756,18130,-816
0.574000,23.330922,-869.032250,-230.266985,18.723999,-597.106934,4.606923,-271.925316,0.248660,-30.407736,-30.159076,-0.160200,-0.500000,-0.497688,17043,-831
0.576000,21.581322,-880.135250,-212.999126,17.510010,-606.994629,4.071312,-273.140621,0.231239,-30.883399,-30.652160,-0.160200,-0.500000,-0.492348,15938,-848
0.578000,19.810381,-890.367750,-195.520641,16.281738,-614.135742,3.528643,-276.232008,0.213317,-31.592581,-31.379264,-0.160200,-0.500000,-0.499824,14820,-866
0.580000,18.019851,-899.719750,-177.848815,14.985352,-648.193359,3.034499,-251.526391,0.194923,-28.876075,-28.681152,-0.160200,-0.500000,-0.501960,13640,-879
0.582000,16.211502,-908.182250,-160.001122,13.803223,-591.064453,2.408279,-317.117797,0.176093,-37.272114,-37.096021,-0.160200,-0.500000,-0.498756,12564,-875
0.584000,14.387122,-915.746750,-141.995211,12.613403,-594.909668,1.773719,-320.837082,0.156862,-38.114141,-37.957279,-0.160200,-0.500000,-0.499824,11481,-898
0.586000,12.548515,-922.405750,-123.848887,11.363159,-625.122070,1.185356,-297.283680,0.137269,-35.595960,-35.458691,-0.160200,-0.500000,-0.499824,10343,-888
0.588000,10.697499,-928.152250,-105.580095,10.100830,-631.164551,0.596669,-296.987699,0.117358,-35.919408,-35.802050,-0.160200,-0.500000,-0.503028,9194,-889
0.590000,8.835906,-932.981250,-87.206899,8.940674,-580.078125,-0.104768,-352.903125,0.097170,-43.179249,-43.082079,-0.160200,-0.500000,-0.495552,8138,-899
0.592000,6.965574,-936.887750,-68.747467,7.778320,-581.176758,-0.812746,-355.710992,0.076753,-43.954774,-43.878022,-0.160200,-0.500000,-0.504096,7080,-909
0.594000,5.088355,-939.867500,-50.220055,6.558838,-609.741211,-1.470483,-330.126289,0.056152,-41.230802,-41.174649,-0.160200,-0.500000,-0.497688,5970,-911
0.596000,3.206104,-941.918000,-31.642982,5.467896,-545.471191,-2.261792,-396.446809,0.035418,-49.816765,-49.781347,-0.160200,-0.500000,-0.498756,4977,-930
0.598000,1.320683,-943.037000,-13.034619,4.317627,-575.134277,-2.996944,-367.902723,0.014598,-46.778526,-46.763928,-0.160200,-0.500000,-0.498756,3930,-912
0.600000,-0.566044,-943.223750,5.586634,3.221191,-548.217773,-3.787235,-395.005977,-0.006257,-50.572574,-50.578832,-0.160200,-0.500000,-0.494484,2932,-907
0.602000,-2.452212,-942.477500,24.202362,2.040161,-590.515137,-4.492373,-351.962363,-0.027097,-45.744549,-45.771646,-0.160200,-0.500000,-0.500892,1857,-918
0.604000,-4.335954,-940.799250,42.794157,0.796509,-621.826172,-5.132463,-318.973078,-0.047872,-42.105156,-42.153028,-0.160200,-0.500000,-0.499824,725,-940
0.606000,-6.215409,-938.191000,61.343636,-0.502075,-649.291992,-5.713334,-288.899008,-0.068532,-38.785749,-38.854281,-0.160200,-0.500000,-0.496620,-457,-895
0.608000,-8.088718,-934.654750,79.832454,-1.828125,-663.024902,-6.260593,-271.629848,-0.089028,-37.010225,-37.099253,-0.160200,-0.500000,-0.496620,-1664,-941
0.610000,-9.954028,-930.194250,98.242329,-3.132202,-652.038574,-6.821826,-278.155676,-0.109313,-38.150343,-38.259656,-0.160200,-0.500000,-0.501960,-2851,-928
0.612000,-11.809495,-924.814250,116.555057,-4.244019,-555.908203,-7.565476,-368.906047,-0.129341,-49.691863,-49.821203,-0.160200,-0.500000,-0.498756,-3863,-924
0.614000,-13.653285,-918.519500,134.752529,-5.493164,-624.572754,-8.160121,-293.946746,-0.149066,-40.897104,-41.046170,-0.160200,-0.500000,-0.498756,-5000,-929
0.616000,-15.483573,-911.316250,152.816750,-6.744507,-625.671387,-8.739066,-285.644863,-0.168446,-40.236495,-40.404941,-0.160200,-0.500000,-0.503028,-6139,-946
0.618000,-17.298550,-903.212000,170.729857,-7.972778,-614.135742,-9.325772,-289.076258,-0.187442,-41.014117,-41.201559,-0.160200,-0.500000,-0.483804,-7257,-916
0.620000,-19.096421,-894.214750,188.474137,-9.258179,-642.700195,-9.838242,-251.514555,-0.206014,-36.738140,-36.944154,-0.160200,-0.500000,-0.495552,-8427,-944
0.622000,-20.875409,-884.333250,206.032044,-10.404053,-572.937012,-10.471356,-311.396238,-0.224129,-44.440815,-44.664944,-0.160200,-0.500000,-0.491280,-9470,-921
0.624000,-22.633754,-873.577000,223.386214,-11.636719,-616.333008,-10.997035,-257.243992,-0.241754,-38.145989,-38.387743,-0.160200,-0.500000,-0.499824,-10592,-937
0.626000,-24.369717,-861.957250,240.519488,-12.844116,-603.698730,-11.525601,-258.258520,-0.258860,-38.592819,-38.851679,-0.160200,-0.500000,-0.503028,-11691,-933
0.628000,-26.081583,-849.485000,257.414922,-14.106445,-631.164551,-11.975138,-218.320449,-0.275421,-33.988070,-34.263491,-0.160200,-0.500000,-0.503028,-12840,-947
0.630000,-27.767657,-836.172500,274.055810,-15.367676,-630.615234,-12.399981,-205.557266,-0.291415,-32.688275,-32.979690,-0.160200,-0.500000,-0.498756,-13988,-918
0.632000,-29.426273,-822.033500,290.425697,-16.776123,-704.223633,-12.650150,-117.809867,-0.306822,-22.120727,-22.427549,-0.160200,-0.440544,-0.495552,-15270,-942
0.634000,-31.055791,-807.081500,306.508394,-18.101074,-662.475586,-12.954717,-144.605914,-0.321626,-25.580531,-25.902157,-0.160200,-0.483977,-0.443220,-16476,-922
0.636000,-32.654599,-791.331500,322.287999,-19.286499,-592.712402,-13.368100,-198.619098,-0.335815,-32.432008,-32.767824,-0.160200,-0.500000,-0.484872,-17555,-912
0.638000,-34.221117,-774.798750,337.748907,-20.510376,-611.938477,-13.710741,-162.860273,-0.349381,-28.272551,-28.621932,-0.160200,-0.500000,-0.503028,-18669,-922
0.640000,-35.753794,-757.500000,352.875831,-21.606812,-548.217773,-14.146982,-209.282227,-0.362316,-34.210547,-34.572863,-0.160200,-0.500000,-0.499824,-19667,-905
0.642000,-37.251117,-739.452250,367.653811,-22.788940,-591.064453,-14.462177,-148.387797,-0.374618,-26.963430,-27.338048,-0.160200,-0.500000,-0.503028,-20743,-910
0.644000,-38.711603,-720.673000,382.068234,-23.947998,-579.528809,-14.763605,-141.144191,-0.386287,-26.262589,-26.648876,-0.160200,-0.493311,-0.497688,-21798,-933
0.646000,-40.133809,-701.181500,396.104847,-25.198242,-625.122070,-14.935567,-76.059430,-0.397327,-18.416031,-18.813358,-0.160200,-0.395367,-0.492348,-22936,-936
0.648000,-41.516329,-680.996500,409.749770,-26.450684,-626.220703,-15.065645,-54.775797,-0.407743,-15.895205,-16.302948,-0.160200,-0.363987,-0.398364,-24076,-917
0.650000,-42.857795,-660.137750,422.989509,-27.659180,-604.248047,-15.198615,-55.889703,-0.417545,-16.112521,-16.530066,-0.160200,-0.366826,-0.359916,-25176,-860
0.652000,-44.156880,-638.626500,435.810972,-28.861084,-600.952148,-15.295796,-37.674352,-0.426742,-13.946460,-14.373202,-0.160200,-0.339865,-0.369528,-26270,-804
0.654000,-45.412301,-616.484000,448.201482,-29.967407,-553.161621,-15.444894,-63.322379,-0.435348,-17.171037,-17.606385,-0.160200,-0.380280,-0.343896,-27277,-751
0.656000,-46.622816,-593.731750,460.148784,-30.852905,-442.749023,-15.769911,-150.982727,-0.443378,-28.079310,-28.522688,-0.160200,-0.500000,-0.374868,-28083,-692
0.658000,-47.787228,-570.392000,471.641066,-31.808716,-477.905273,-15.978512,-92.486727,-0.450848,-21.060103,-21.510951,-0.160200,-0.429087,-0.498756,-28953,-722
0.660000,-48.904384,-546.488500,482.666963,-32.675537,-433.410645,-16.228847,-113.077855,-0.457777,-23.728705,-24.186482,-0.160200,-0.462531,-0.428268,-29742,-742
0.662000,-49.973182,-522.044750,493.215571,-33.661011,-492.736816,-16.312171,-29.307934,-0.464184,-13.545178,-14.009362,-0.160200,-0.335317,-0.463512,-30639,-754
0.664000,-50.992563,-497.084500,503.276461,-34.773926,-556.457520,-16.218637,59.373020,-0.470089,-2.653619,-3.123708,-0.160200,-0.199246,-0.339624,-31652,-712
0.666000,-51.961520,-471.632750,512.839683,-35.789062,-507.568359,-16.172458,35.935609,-0.475512,-5.488829,-5.964342,-0.160200,-0.234754,-0.193308,-32576,-656
0.668000,-52.879094,-445.714750,521.895780,-36.650391,-430.664062,-16.228703,-15.050688,-0.480477,-11.752339,-12.232816,-0.160200,-0.313110,-0.238164,-33360,-537
0.670000,-53.744379,-419.356000,530.435797,-37.400757,-375.183105,-16.343622,-44.172895,-0.485002,-15.380488,-15.865490,-0.160200,-0.358519,-0.311856,-34043,-502
0.672000,-54.556518,-392.582500,538.451290,-38.084106,-341.674805,-16.472412,-50.907695,-0.489112,-16.281972,-16.771084,-0.160200,-0.369839,-0.355644,-34665,-489
0.674000,-55.314709,-365.420750,545.934333,-38.786133,-351.013184,-16.528576,-14.407566,-0.492826,-11.856949,-12.349774,-0.160200,-0.314572,-0.371664,-35304,-502
0.676000,-56.018201,-337.897750,552.877525,-39.512329,-363.098145,-16.505872,25.200395,-0.496165,-7.004054,-7.500219,-0.160200,-0.253953,-0.319332,-35965,-494
0.678000,-56.666300,-310.040500,559.274000,-40.180298,-333.984375,-16.486002,23.943875,-0.499149,-7.145429,-7.644579,-0.160200,-0.255757,-0.253116,-36573,-466
0.680000,-57.258363,-281.876750,565.117435,-40.786743,-303.222656,-16.471620,21.345906,-0.501798,-7.454046,-7.955844,-0.160200,-0.259648,-0.253116,-37125,-403
0.682000,-57.793807,-253.434250,570.402050,-41.401978,-307.617188,-16.391829,54.182938,-0.504130,-3.393504,-3.897634,-0.160200,-0.208920,-0.259524,-37685,-346
0.684000,-58.272100,-224.741000,575.122619,-41.941406,-269.714355,-16.330694,44.973355,-0.506161,-4.481321,-4.987482,-0.160200,-0.222544,-0.206124,-38176,-351
0.686000,-58.692771,-195.825750,579.274475,-42.394043,-226.318359,-16.298728,30.492609,-0.507907,-6.230951,-6.738858,-0.160200,-0.244436,-0.221076,-38588,-331
0.688000,-59.055403,-166.716750,582.853512,-42.825806,-215.881348,-16.229597,49.164598,-0.509381,-3.907508,-4.416889,-0.160200,-0.215411,-0.243504,-38981,-250
0.690000,-59.359638,-137.443000,585.856191,-43.259766,-216.979980,-16.099872,79.536980,-0.510596,-0.117577,-0.628173,-0.160200,-0.168052,-0.217872,-39376,-235
0.692000,-59.605175,-108.033250,588.279543,-43.620117,-180.175781,-15.985058,72.142531,-0.511562,-0.950843,-1.462405,-0.160200,-0.178480,-0.167676,-39704,-213
0.694000,-59.791771,-78.516750,590.121171,-43.900269,-140.075684,-15.891502,61.558934,-0.512287,-2.186724,-2.699011,-0.160200,-0.193938,-0.181560,-39959,-232
0.696000,-59.919242,-48.922500,591.379254,-44.146362,-123.046875,-15.772880,74.124375,-0.512778,-0.579103,-1.091881,-0.160200,-0.173849,-0.193308,-40183,-177
0.698000,-59.987461,-19.279750,592.052549,-44.375977,-114.807129,-15.611484,95.527379,-0.513039,2.134358,1.621319,-0.160200,-0.139934,-0.171948,-40392,-169
0.700000,-59.996361,10.382000,592.140388,-44.615479,-119.750977,-15.380882,130.132977,-0.513073,6.503096,5.990023,0.160200,0.235075,-0.139908,-40610,-165
0.702000,-59.945933,40.033500,591.642687,-44.800049,-92.285156,-15.145884,132.318656,-0.512880,6.913679,6.400799,0.160200,0.240210,0.231756,-40778,-64
0.704000,-59.836227,69.645250,590.559936,-44.819824,-9.887695,-15.016403,79.532945,-0.512459,0.543784,0.031325,0.160200,0.160592,0.243504,-40796,68
0.706000,-59.667352,99.188000,588.893206,-44.678101,70.861816,-14.989251,28.326184,-0.511804,-5.695716,-6.207521,0.160200,0.082606,0.162336,-40667,110
0.708000,-59.439475,128.633000,586.644146,-44.514404,81.848145,-14.925071,46.784855,-0.510911,-3.401358,-3.912270,0.160200,0.111297,0.087576,-40518,130
0.710000,-59.152820,157.950750,583.814980,-44.373779,70.312500,-14.779041,87.638250,-0.509772,1.679030,1.169258,0.160200,0.174816,0.111072,-40390,84
0.712000,-58.807672,187.112000,580.408504,-44.255127,59.326172,-14.552545,127.785828,-0.508377,6.722340,6.213963,0.160200,0.237875,0.169812,-40282,96
0.714000,-58.404372,216.088500,576.428088,-44.130981,62.072754,-14.273391,154.015746,-0.506714,10.097455,9.590741,0.160200,0.280084,0.238164,-40169,133
0.716000,-57.943318,244.851250,571.877668,-43.933228,98.876953,-14.010090,145.974297,-0.504770,9.275847,8.771077,0.160200,0.269838,0.276612,-39989,183
0.718000,-57.424967,273.372000,566.761744,-43.662964,135.131836,-13.762003,138.240164,-0.502530,8.482493,7.979962,0.160200,0.259950,0.268068,-39743,226
0.720000,-56.849830,301.622500,561.085374,-43.372925,145.019531,-13.476905,156.602969,-0.499978,10.900089,10.400111,0.160200,0.290201,0.260592,-39479,226
0.722000,-56.218477,329.574500,554.854171,-43.055420,158.752441,-13.163057,170.822059,-0.497096,12.828998,12.331901,0.160200,0.314349,0.290496,-39190,225
0.724000,-55.531532,357.200500,548.074297,-42.656616,199.401855,-12.874916,157.798645,-0.493866,11.413903,10.920037,0.160200,0.296700,0.316128,-38827,276
0.726000,-54.789675,384.473250,540.752457,-42.208374,224.121094,-12.581301,160.352156,-0.490266,11.905232,11.414966,0.160200,0.302887,0.299040,-38419,286
0.728000,-53.993639,411.366250,532.895891,-41.722778,242.797852,-12.270861,168.568398,-0.486278,13.098673,12.612395,0.160200,0.317855,0.305448,-37977,299
0.730000,-53.144210,437.852250,524.512368,-41.244873,238.952637,-11.899337,198.899613,-0.481879,17.031281,16.549401,0.160200,0.367068,0.318264,-37542,338
0.732000,-52.242230,463.905250,515.610177,-40.703247,270.812988,-11.538983,193.092262,-0.477049,16.541907,16.064858,0.160200,0.361011,0.367392,-37049,350
0.734000,-51.288589,489.499500,506.198122,-40.092407,305.419922,-11.196182,184.079578,-0.471765,15.650205,15.178439,0.160200,0.349930,0.358848,-36493,425
0.736000,-50.284232,514.609750,496.285511,-39.481567,305.419922,-10.802665,209.189828,-0.466007,18.958387,18.492379,0.160200,0.391355,0.349236,-35937,474
0.738000,-49.230150,539.211000,485.882144,-38.911377,285.095215,-10.318773,254.115785,-0.459753,24.742720,24.282967,0.160200,0.463737,0.391956,-35418,482
0.740000,-48.127388,563.279000,474.998310,-38.265381,322.998047,-9.862007,240.280953,-0.452983,23.331499,22.878516,0.160200,0.446181,0.461376,-34830,519
0.742000,-46.977034,586.790500,463.644772,-37.496338,384.521484,-9.480696,202.269016,-0.445677,18.920394,18.474718,0.160200,0.391134,0.444288,-34130,584
0.744000,-45.780226,609.721250,451.832755,-36.710815,392.761230,-9.069411,216.960020,-0.437817,20.966479,20.528663,0.160200,0.416808,0.390888,-33415,591
0.746000,-44.538149,632.049000,439.573941,-35.808838,450.988770,-8.729311,181.060230,-0.429385,16.788247,16.358862,0.160200,0.364686,0.422928,-32594,614
0.748000,-43.252030,653.752250,426.880452,-34.973877,417.480469,-8.278153,236.271781,-0.420367,23.809208,23.388841,0.160200,0.452561,0.369528,-31834,605
0.750000,-41.923140,674.808750,413.764839,-34.146606,413.635254,-7.776534,261.173496,-0.410748,27.157948,26.747200,0.160200,0.494540,0.456036,-31081,624
0.752000,-40.552795,695.197750,400.240073,-33.233643,456.481934,-7.319152,238.715816,-0.400517,24.693623,24.293106,0.160200,0.463864,0.488076,-30250,653
0.754000,-39.142349,714.899500,386.319527,-32.211914,510.864258,-6.930435,204.035242,-0.389665,20.694046,20.304381,0.160200,0.414005,0.464580,-29320,704
0.756000,-37.693197,733.894500,372.016967,-31.206665,502.624512,-6.486532,231.269988,-0.378185,24.292562,23.914378,0.160200,0.459130,0.418656,-28405,711
0.758000,-36.206771,752.163500,357.346536,-30.168457,519.104004,-6.038314,233.059496,-0.366073,24.784993,24.418920,0.160200,0.465437,0.465648,-27460,721
0.760000,-34.684543,769.688750,342.322740,-29.134644,516.906738,-5.549899,252.782012,-0.353327,27.492908,27.139581,0.160200,0.499445,0.466716,-26519,749
0.762000,-33.128016,786.453000,326.960436,-28.050293,542.175293,-5.077723,244.277707,-0.339951,26.742347,26.402397,0.160200,0.490230,0.499824,-25532,772
0.764000,-31.538731,802.439500,311.274816,-26.870361,589.965820,-4.668370,212.473680,-0.325948,23.106812,22.780864,0.160200,0.444961,0.484872,-24458,802
0.766000,-29.918258,817.632750,295.281390,-25.721191,574.584961,-4.197067,243.047789,-0.311327,27.130047,26.818720,0.160200,0.495434,0.444288,-23412,807
0.768000,-28.268200,832.017250,278.995973,-24.611572,554.809570,-3.656628,277.207680,-0.296099,31.633600,31.337501,0.160200,0.500000,0.501960,-22402,825
0.770000,-26.590189,845.578750,262.434670,-23.534912,538.330078,-3.055277,307.248672,-0.280279,35.671144,35.390865,0.160200,0.500000,0.497688,-21422,869
0.772000,-24.885885,858.304250,245.613856,-22.327515,603.698730,-2.558370,254.605520,-0.263886,29.543113,29.279226,0.160200,0.500000,0.500892,-20323,879
0.774000,-23.156972,870.181250,228.550165,-21.273926,526.794434,-1.883046,343.386816,-0.246941,40.802326,40.555385,0.160200,0.500000,0.501960,-19364,874
0.776000,-21.405160,881.197750,211.260472,-20.203857,535.034180,-1.201303,346.163570,-0.229469,41.558024,41.328555,0.160200,0.500000,0.495552,-18390,888
0.778000,-19.632181,891.342750,193.761872,-18.985474,609.191895,-0.646707,282.150855,-0.211498,34.076179,33.864681,0.160200,0.500000,0.494484,-17281,921
0.780000,-17.839789,900.606250,176.071670,-17.747314,619.079590,-0.092475,281.526660,-0.193059,34.338481,34.145421,0.160200,0.500000,0.497688,-16154,932
0.782000,-16.029756,908.979500,158.207358,-16.631104,558.105469,0.601348,350.874031,-0.174187,43.234692,43.060505,0.160200,0.500000,0.496620,-15138,950
0.784000,-14.203871,916.453500,140.186602,-15.364380,633.361816,1.160509,283.091684,-0.154918,35.295088,35.140170,0.160200,0.500000,0.503028,-13985,938
0.786000,-12.363942,923.021250,122.027222,-14.002075,681.152344,1.638133,241.868906,-0.135292,30.550540,30.415248,0.160200,0.500000,0.497688,-12745,948
0.788000,-10.511786,928.676750,103.747174,-12.655151,673.461914,2.143365,255.214836,-0.115351,32.489682,32.374331,0.160200,0.500000,0.496620,-11519,978
0.790000,-8.649235,933.413500,85.364535,-11.500488,577.331543,2.851253,356.081957,-0.095138,45.245349,45.150211,0.160200,0.500000,0.496620,-10468,962
0.792000,-6.778132,937.227250,66.897484,-10.343628,578.430176,3.565496,358.797074,-0.074700,46.013370,45.938669,0.160200,0.500000,0.497688,-9415,958
0.794000,-4.900326,940.114500,48.364280,-9.181274,581.176758,4.280948,358.937742,-0.054084,46.467600,46.413516,0.160200,0.500000,0.500892,-8357,966
0.796000,-3.017674,942.072000,29.783250,-7.862915,659.179688,4.845241,282.892312,-0.033339,37.521605,37.488267,0.160200,0.500000,0.498756,-7157,997
0.798000,-1.132038,943.097750,11.172770,-6.539062,661.926270,5.407025,281.171480,-0.012513,37.654540,37.642027,0.160200,0.500000,0.491280,-5952,983
0.800000,0.754717,943.191000,-7.448759,-5.272339,633.361816,6.027056,309.829184,0.008343,41.534495,41.542837,0.160200,0.500000,0.501960,-4799,984
0.802000,2.640726,942.351500,-26.062922,-3.938599,666.870117,6.579325,275.481383,0.029178,37.675481,37.704659,0.160200,0.500000,0.500892,-3585,991
0.804000,4.524123,940.580250,-44.651312,-2.601562,668.518066,7.125686,272.062184,0.049944,37.591500,37.641444,0.160200,0.500000,0.500892,-2368,982
0.806000,6.403047,937.879250,-63.195549,-1.263428,669.067383,7.666475,268.811867,0.070590,37.524748,37.595338,0.160200,0.500000,0.499824,-1150,983
0.808000,8.275640,934.250250,-81.677295,-0.009888,626.770020,8.285528,307.480230,0.091067,42.627138,42.718205,0.160200,0.500000,0.500892,-9,1008
0.810000,10.140048,929.697500,-100.078273,1.278809,644.348145,8.861239,285.349355,0.111328,40.275024,40.386352,0.160200,0.500000,0.498756,1164,997
0.812000,11.994430,924.225750,-118.380289,2.691650,706.420898,9.302780,217.804852,0.131327,32.292627,32.423955,0.160200,0.500000,0.495552,2450,1002
0.814000,13.836951,917.839750,-136.565243,4.195679,752.014160,9.641272,165.825590,0.151020,26.148936,26.299956,0.160200,0.488949,0.501960,3819,1003
0.816000,15.665789,910.546250,-154.615154,5.495361,649.841309,10.170428,260.704941,0.170364,38.063878,38.234242,0.160200,0.500000,0.487008,5002,1001
0.818000,17.479136,902.352500,-172.512173,6.703857,604.248047,10.775279,298.104453,0.189318,43.002573,43.191891,0.160200,0.500000,0.499824,6102,989
0.820000,19.275199,893.266250,-190.238603,8.061768,678.955078,11.213431,214.311172,0.207847,33.032944,33.240791,0.160200,0.500000,0.503028,7338,1002
0.822000,21.052201,883.296750,-207.776914,9.425171,681.701660,11.627030,201.595090,0.225914,31.732035,31.957949,0.160200,0.500000,0.500892,8579,1013
0.824000,22.808386,872.453750,-225.109763,10.703979,639.404297,12.104407,233.049453,0.243488,35.866523,36.110011,0.160200,0.500000,0.500892,9743,1022
0.826000,24.542016,860.748000,-242.220011,12.075073,685.546875,12.466943,175.201125,0.260541,29.020477,29.281018,0.160200,0.500000,0.504096,10991,1012
0.828000,26.251378,848.191500,-259.090739,13.385742,655.334473,12.865636,192.857027,0.277046,31.421100,31.698147,0.160200,0.500000,0.501960,12184,1022
0.830000,27.934782,834.795750,-275.705263,14.610718,612.487793,13.324064,222.307957,0.292982,35.299248,35.592230,0.160200,0.500000,0.499824,13299,1035
0.832000,29.590561,820.574500,-292.047155,15.837891,613.586426,13.752670,206.988074,0.308329,33.689392,33.997721,0.160200,0.500000,0.500892,14416,1030
0.834000,31.217080,805.542250,-308.100254,17.123291,642.700195,14.093789,162.842055,0.323073,28.504316,28.827389,0.160200,0.500000,0.498756,15586,1022
0.836000,32.812730,789.713000,-323.848686,18.658081,767.395020,14.154649,22.317980,0.337200,11.373239,11.710439,0.160200,0.306580,0.495552,16983,1030
0.838000,34.375932,773.103000,-339.276878,20.195068,768.493652,14.180864,4.609348,0.350703,9.225735,9.576437,0.160200,0.279905,0.301176,18382,982
0.840000,35.905142,755.728750,-354.369575,21.453003,628.967285,14.452139,126.761465,0.363574,24.315144,24.678718,0.160200,0.468684,0.277680,19527,869
0.842000,37.398847,737.607000,-369.111851,22.515381,531.188965,14.883466,206.418035,0.375813,34.310513,34.686326,0.160200,0.500000,0.469920,20494,842
0.844000,38.855570,718.755750,-383.489129,23.659058,571.838379,15.196512,146.917371,0.387419,27.232364,27.619783,0.160200,0.500000,0.497688,21535,857
0.846000,40.273870,699.193750,-397.487191,24.830200,585.571289,15.443670,113.622461,0.398396,23.315603,23.714000,0.160200,0.456625,0.505164,22601,864
0.848000,41.652345,678.940500,-411.092196,26.055176,612.487793,15.597169,66.452707,0.408751,17.646498,18.055249,0.160200,0.385891,0.454968,23716,892
0.850000,42.989632,658.015750,-424.290690,27.234009,589.416504,15.755623,68.599246,0.418491,18.005541,18.424033,0.160200,0.390500,0.389820,24789,871
0.852000,44.284408,636.440500,-437.069622,28.305176,535.583496,15.979232,100.857004,0.427629,22.083165,22.510794,0.160200,0.441585,0.401568,25764,855
0.854000,45.535394,614.235750,-449.416355,29.290649,492.736816,16.244745,121.498934,0.436177,24.767245,25.203421,0.160200,0.475243,0.435744,26661,854
0.856000,46.741351,591.423500,-461.318679,30.286011,497.680664,16.455340,93.742836,0.444150,21.504843,21.948993,0.160200,0.434562,0.472056,27567,827
0.858000,47.901088,568.026750,-472.764826,31.294556,504.272461,16.606532,63.754289,0.451565,17.933409,18.384974,0.160200,0.390012,0.434676,28485,835
0.860000,49.013458,544.068250,-483.743477,32.330566,518.005371,16.682892,26.062879,0.458441,13.375180,13.833621,0.160200,0.333120,0.396228,29428,835
0.862000,50.077361,519.571500,-494.243776,33.296265,482.849121,16.781096,36.722379,0.464797,14.737473,15.202270,0.160200,0.350228,0.336420,30307,793
0.864000,51.091744,494.561000,-504.255338,34.304810,504.272461,16.786934,-9.711461,0.470652,9.068076,9.538728,0.160200,0.279434,0.344964,31225,771
0.866000,52.055605,469.061500,-513.768265,35.237549,466.369629,16.818056,2.691871,0.476029,10.602440,11.078469,0.160200,0.298681,0.280884,32074,685
0.868000,52.967990,443.098250,-522.773149,36.143921,453.186035,16.824069,-10.087785,0.480948,9.044784,9.525732,0.160200,0.279272,0.299040,32899,646
0.870000,53.827998,416.697000,-531.261085,36.945923,401.000977,16.882075,15.696023,0.485432,12.230304,12.715736,0.160200,0.319147,0.281952,33629,590
0.872000,54.634778,389.883250,-539.223681,37.742432,398.254395,16.892346,-8.371145,0.489501,9.296219,9.785719,0.160200,0.282521,0.323604,34354,555
0.874000,55.387531,362.684250,-546.653063,38.397217,327.392578,16.990314,35.291672,0.493176,14.690483,15.183659,0.160200,0.349996,0.279816,34950,543
0.876000,56.085515,335.126750,-553.541883,39.049805,326.293945,17.035710,8.832805,0.496479,11.485654,11.982133,0.160200,0.309977,0.351372,35544,517
0.878000,56.728038,307.237500,-559.883330,39.676025,313.110352,17.052013,-5.872852,0.499429,9.698978,10.198407,0.160200,0.287680,0.311856,36114,515
0.880000,57.314465,279.044500,-565.671134,40.290161,307.067871,17.024304,-28.023371,0.502046,6.975855,7.477900,0.160200,0.253674,0.289428,36673,501
0.882000,57.844216,250.575750,-570.899570,40.921875,315.856934,16.922341,-65.281184,0.504346,2.361669,2.866015,0.160200,0.196025,0.250980,37248,501
0.884000,58.316768,221.859250,-575.563469,41.566772,322.448730,16.749996,-100.589480,0.506348,-2.057333,-1.550985,0.160200,0.140813,0.198648,37835,409
0.886000,58.731653,192.923000,-579.658219,42.090820,262.023926,16.640833,-69.100926,0.508066,1.723036,2.231102,0.160200,0.188089,0.133500,38312,340
0.888000,59.088460,163.796250,-583.179770,42.513794,211.486816,16.574666,-47.690566,0.509514,4.298385,4.807899,0.160200,0.220299,0.186900,38697,260
0.890000,59.386838,134.507750,-586.124640,42.864258,175.231934,16.522580,-40.724184,0.510704,5.117672,5.628376,0.160200,0.230555,0.216804,39016,324
0.892000,59.626491,105.085750,-588.489918,43.192749,164.245605,16.433742,-59.159855,0.511645,2.811062,3.322707,0.160200,0.201734,0.229620,39315,227
0.894000,59.807181,75.560000,-590.273264,43.534424,170.837402,16.272757,-95.277402,0.512346,-1.699869,-1.187522,0.160200,0.145356,0.203988,39626,248
0.896000,59.928731,45.960000,-591.472915,43.873901,169.738770,16.054830,-123.778770,0.512814,-5.315092,-4.802278,0.160200,0.100172,0.143112,39935,189
0.898000,59.991021,16.314000,-592.087684,44.167236,146.667480,15.823785,-130.353480,0.513053,-6.259482,-5.746429,0.160200,0.088370,0.100392,40202,159
0.900000,59.993987,-13.348000,-592.116964,44.380371,106.567383,15.613616,-119.915383,0.513064,-5.112613,-4.599548,-0.160200,-0.217694,0.088644,40396,158
0.902000,59.937629,-42.996750,-591.560726,44.529785,74.707031,15.407844,-117.703781,0.512848,-4.968113,-4.455265,-0.160200,-0.215891,-0.215736,40532,29
0.904000,59.822000,-72.603250,-590.419519,44.529785,0.000000,15.292215,-72.603250,0.512404,0.471322,0.983726,-0.160200,-0.147903,-0.214668,40532,-79
0.906000,59.647216,-102.137500,-588.694473,44.422119,-53.833008,15.225097,-48.304492,0.511726,3.398975,3.910701,-0.160200,-0.111316,-0.147384,40434,-128
0.908000,59.413450,-131.570750,-586.387293,44.272705,-74.707031,15.140745,-56.863719,0.510809,2.301741,2.812550,-0.160200,-0.125043,-0.106800,40298,-116
0.910000,59.120933,-160.874250,-583.500260,44.122192,-75.256348,14.998741,-85.617902,0.509644,-1.297991,-0.788346,-0.160200,-0.170054,-0.123888,40161,-94
0.912000,58.769953,-190.018750,-580.036229,43.996948,-62.622070,14.773005,-127.396680,0.508223,-6.540126,-6.031903,-0.160200,-0.235599,-0.171948,40047,-110
0.914000,58.360858,-218.975000,-575.998627,43.862915,-67.016602,14.497943,-151.958398,0.506533,-9.708931,-9.202399,-0.160200,-0.275230,-0.234960,39925,-130
0.916000,57.894053,-247.714750,-571.391445,43.668457,-97.229004,14.225596,-150.485746,0.504560,-9.695380,-9.190820,-0.160200,-0.275085,-0.272340,39748,-192
0.918000,57.369999,-276.209500,-566.219239,43.425659,-121.398926,13.944340,-154.810574,0.502290,-10.395567,-9.893278,-0.160200,-0.283866,-0.276612,39527,-255
0.920000,56.789215,-304.431250,-560.487123,43.155396,-135.131836,13.633819,-169.299414,0.499705,-12.355399,-11.855694,-0.160200,-0.308396,-0.284088,39281,-263
0.922000,56.152274,-332.352250,-554.200767,42.849976,-152.709961,13.302298,-179.642289,0.496789,-13.821534,-13.324745,-0.160200,-0.326759,-0.306516,39003,-251
0.924000,55.459806,-359.944250,-547.366387,42.508301,-170.837402,12.951505,-189.106848,0.493523,-15.192136,-14.698613,-0.160200,-0.343933,-0.324672,38692,-296
0.926000,54.712497,-387.180250,-539.990739,42.124878,-191.711426,12.587619,-195.468824,0.489885,-16.191683,-15.701798,-0.160200,-0.356472,-0.341760,38343,-374
0.928000,53.911085,-414.033500,-532.081119,41.699707,-212.585449,12.211378,-201.448051,0.485857,-17.152016,-16.666159,-0.160200,-0.368527,-0.354576,37956,-384
0.930000,53.056363,-440.477500,-523.645347,41.226196,-236.755371,11.830167,-203.722129,0.481416,-17.662716,-17.181300,-0.160200,-0.374966,-0.368460,37525,-402
0.932000,52.149175,-466.485750,-514.691766,40.669189,-278.503418,11.479986,-187.982332,0.476541,-15.953650,-15.477109,-0.160200,-0.353664,-0.378072,37018,-454
0.934000,51.190420,-492.032750,-505.229228,40.013306,-327.941895,11.177114,-164.090855,0.471211,-13.219769,-12.748558,-0.160200,-0.319557,-0.350304,36421,-506
0.936000,50.181044,-517.093250,-495.267092,39.359619,-326.843262,10.821425,-190.249988,0.465404,-16.632989,-16.167584,-0.160200,-0.362295,-0.318264,35826,-493
0.938000,49.122047,-541.642250,-484.815208,38.741089,-309.265137,10.380958,-232.377113,0.459100,-22.048854,-21.589754,-0.160200,-0.430072,-0.364188,35263,-506
0.940000,48.014475,-565.655750,-473.883912,38.091797,-324.645996,9.922678,-241.009754,0.452277,-23.383477,-22.931200,-0.160200,-0.446840,-0.432540,34672,-527
0.942000,46.859424,-589.109750,-462.484012,37.391968,-349.914551,9.467456,-239.195199,0.444916,-23.439867,-22.994950,-0.160200,-0.447637,-0.447492,34035,-568
0.944000,45.658036,-611.981500,-450.626783,36.591064,-400.451660,9.066972,-211.529840,0.436999,-20.304547,-19.867548,-0.160200,-0.408544,-0.445356,33306,-646
0.946000,44.411498,-634.248000,-438.323949,35.792358,-399.353027,8.619140,-234.894973,0.428510,-23.432702,-23.004192,-0.160200,-0.447752,-0.412248,32579,-641
0.948000,43.121044,-655.887250,-425.587675,35.005737,-393.310547,8.115307,-262.576703,0.419432,-27.122437,-26.703005,-0.160200,-0.493988,-0.449628,31863,-671
0.950000,41.787949,-676.878000,-412.430557,34.189453,-408.142090,7.598496,-268.735910,0.409752,-28.190628,-27.780876,-0.160200,-0.500000,-0.492348,31120,-714
0.952000,40.413532,-697.199250,-398.865605,33.142456,-523.498535,7.271076,-173.700715,0.399460,-16.779898,-16.380438,-0.160200,-0.364955,-0.503028,30167,-769
0.954000,38.999152,-716.831250,-384.906231,32.095459,-523.498535,6.903693,-193.332715,0.388545,-19.402821,-19.014276,-0.160200,-0.397878,-0.360984,29214,-770
0.956000,37.546207,-735.754250,-370.566241,31.058350,-518.554688,6.487857,-217.199563,0.377002,-22.572726,-22.195724,-0.160200,-0.437647,-0.401568,28270,-752
0.958000,36.056135,-753.949750,-355.859815,30.154175,-452.087402,5.901960,-301.862348,0.364827,-33.274141,-32.909314,-0.160200,-0.500000,-0.442152,27447,-780
0.960000,34.530408,-771.399750,-340.801494,29.240112,-457.031250,5.290296,-314.368500,0.352018,-35.175700,-34.823682,-0.160200,-0.500000,-0.504096,26615,-781
0.962000,32.970536,-788.087000,-325.406170,28.163452,-538.330078,4.807084,-249.756922,0.338579,-27.577084,-27.238505,-0.160200,-0.500000,-0.499824,25635,-826
0.964000,31.378060,-803.994750,-309.689066,27.031860,-565.795898,4.346200,-238.198852,0.324513,-26.446537,-26.122024,-0.160200,-0.486725,-0.503028,24605,-851
0.966000,29.754557,-819.107500,-293.665724,25.989258,-521.301270,3.765299,-297.806230,0.309831,-34.083804,-33.773973,-0.160200,-0.500000,-0.489144,23656,-895
0.968000,28.101630,-833.410500,-277.351990,24.921387,-533.935547,3.180243,-299.474953,0.294543,-34.645068,-34.350524,-0.160200,-0.500000,-0.507300,22684,-901
0.970000,26.420915,-846.889250,-260.763994,23.823853,-548.767090,2.597062,-298.122160,0.278666,-34.836038,-34.557372,-0.160200,-0.500000,-0.497688,21685,-941
0.972000,24.714073,-859.530750,-243.918140,22.699951,-561.950684,2.014122,-297.580066,0.262216,-35.125907,-34.863690,-0.160200,-0.500000,-0.504096,20662,-940
0.974000,22.982792,-871.322000,-226.831086,21.557373,-571.289062,1.425419,-300.032938,0.245217,-35.785199,-35.539982,-0.160200,-0.500000,-0.503028,19622,-957
0.976000,21.228785,-882.251500,-209.519729,20.397217,-580.078125,0.831568,-302.173375,0.227694,-36.409466,-36.181772,-0.160200,-0.500000,-0.499824,18566,-981
0.978000,19.453786,-892.308750,-192.001187,19.157959,-619.628906,0.295827,-272.679844,0.209675,-33.133417,-32.923742,-0.160200,-0.500000,-0.498756,17438,-994
0.980000,17.659550,-901.483750,-174.292784,17.719849,-719.055176,-0.060299,-182.428574,0.191191,-22.324689,-22.133498,-0.160200,-0.436869,-0.503028,16129,-1020
0.982000,15.847851,-909.767250,-156.412030,16.448730,-635.559082,-0.600879,-274.208168,0.172277,-33.867904,-33.695627,-0.160200,-0.500000,-0.429336,14972,-1004
0.984000,14.020481,-917.151250,-138.376607,15.214966,-616.882324,-1.194485,-300.268926,0.152971,-37.414439,-37.261468,-0.160200,-0.500000,-0.500892,13849,-998
0.986000,12.179246,-923.628250,-120.204350,13.943848,-635.559082,-1.764602,-288.069168,0.133311,-36.272222,-36.138911,-0.160200,-0.500000,-0.504096,12692,-1009
0.988000,10.325968,-929.191750,-101.913228,12.721069,-611.389160,-2.395101,-317.802590,0.113341,-40.289995,-40.176654,-0.160200,-0.500000,-0.504096,11579,-1025
0.990000,8.462479,-933.836500,-83.521328,11.397217,-661.926270,-2.934738,-271.910230,0.093104,-35.012831,-34.919727,-0.160200,-0.500000,-0.495552,10374,-1042
0.992000,6.590622,-937.557750,-65.046838,9.995361,-700.927734,-3.404739,-236.630016,0.072646,-30.989647,-30.917001,-0.160200,-0.500000,-0.496620,9098,-1045
0.994000,4.712248,-940.352000,-46.508026,8.678101,-658.630371,-3.965853,-281.721629,0.052015,-36.841391,-36.789377,-0.160200,-0.500000,-0.501960,7899,-1054
0.996000,2.829214,-942.216500,-27.923224,7.258667,-709.716797,-4.429453,-232.499703,0.031259,-31.110996,-31.079737,-0.160200,-0.500000,-0.501960,6607,-1052
0.998000,0.943382,-943.149000,-9.310810,5.887573,-685.546875,-4.944191,-257.602125,0.010428,-34.492271,-34.481843,-0.160200,-0.500000,-0.503028,5359,-1066
1.000000,-0.943382,-943.149000,9.310810,4.539551,-674.011230,-5.482933,-269.137770,-0.010428,-36.230715,-36.241143,-0.160200,-0.500000,-0.511572,4132,-1071
1.002000,-2.829214,-942.216500,27.923224,3.154175,-692.687988,-5.983389,-249.528512,-0.031259,-34.140703,-34.171962,-0.160200,-0.500000,-0.499824,2871,-1085
1.004000,-4.712248,-940.352000,46.508026,1.695190,-729.492188,-6.407438,-210.859812,-0.052015,-29.675467,-29.727482,-0.160200,-0.500000,-0.494484,1543,-1083
1.006000,-6.590622,-937.557750,65.046838,0.227417,-733.886719,-6.818039,-203.671031,-0.072646,-29.048014,-29.120659,-0.160200,-0.500000,-0.500892,207,-1080
1.008000,-8.462479,-933.836500,83.521328,-1.144775,-686.096191,-7.317704,-247.740309,-0.093104,-34.737319,-34.830423,-0.160200,-0.500000,-0.509436,-1042,-1093
1.010000,-10.325968,-929.191750,101.913228,-2.555420,-705.322266,-7.770548,-223.869484,-0.113341,-32.097575,-32.210916,-0.160200,-0.500000,-0.506232,-2326,-1098
1.012000,-12.179246,-923.628250,120.204350,-4.040771,-742.675781,-8.138475,-180.952469,-0.133311,-27.079026,-27.212337,-0.160200,-0.500000,-0.500892,-3678,-1103
1.014000,-14.020481,-917.151250,138.376607,-5.594238,-776.733398,-8.426243,-140.417852,-0.152971,-22.302576,-22.455546,-0.160200,-0.440894,-0.497688,-5092,-1099
1.016000,-15.847851,-909.767250,156.412030,-6.949951,-677.856445,-8.897900,-231.910805,-0.172277,-33.768667,-33.940945,-0.160200,-0.500000,-0.446424,-6326,-1097
1.018000,-17.659550,-901.483750,174.292784,-8.418823,-734.436035,-9.240727,-167.047715,-0.191191,-26.053567,-26.244758,-0.160200,-0.488259,-0.503028,-7663,-1067
1.020000,-19.453786,-892.308750,192.001187,-9.845947,-713.562012,-9.607839,-178.746738,-0.209675,-27.707128,-27.916803,-0.160200,-0.500000,-0.487008,-8962,-1083
1.022000,-21.228785,-882.251500,209.519729,-11.303833,-728.942871,-9.924952,-153.308629,-0.227694,-24.792991,-25.020685,-0.160200,-0.472959,-0.498756,-10289,-1085
1.024000,-22.982792,-871.322000,226.831086,-12.611206,-653.686523,-10.371586,-217.635477,-0.245217,-32.924831,-33.170048,-0.160200,-0.500000,-0.472056,-11479,-1088
1.026000,-24.714073,-859.530750,243.918140,-14.010864,-699.829102,-10.703209,-159.701648,-0.262216,-26.049455,-26.311672,-0.160200,-0.489096,-0.496620,-12753,-1079
1.028000,-26.420915,-846.889250,260.763994,-15.477539,-733.337402,-10.943376,-113.551848,-0.278666,-20.557903,-20.836569,-0.160200,-0.420657,-0.487008,-14088,-1097
1.030000,-28.101630,-833.410500,277.351990,-17.115601,-819.030762,-10.986029,-14.379738,-0.294543,-8.467800,-8.762343,-0.160200,-0.269729,-0.421860,-15579,-1082
1.032000,-29.754557,-819.107500,293.665724,-18.709717,-797.058105,-11.044840,-22.049395,-0.309831,-9.440751,-9.750582,-0.160200,-0.282082,-0.280884,-17030,-991
1.034000,-31.378060,-803.994750,309.689066,-20.022583,-656.433105,-11.355477,-147.561645,-0.324513,-24.964722,-25.289235,-0.160200,-0.476315,-0.280884,-18225,-907
1.036000,-32.970536,-788.087000,325.406170,-21.223389,-600.402832,-11.747147,-187.684168,-0.338579,-30.105871,-30.444449,-0.160200,-0.500000,-0.480600,-19318,-880
1.038000,-34.530408,-771.399750,340.801494,-22.494507,-635.559082,-12.035901,-135.840668,-0.352018,-23.948382,-24.300400,-0.160200,-0.463955,-0.494484,-20475,-895
1.040000,-36.056135,-753.949750,355.859815,-23.835938,-670.715332,-12.220197,-83.234418,-0.364827,-17.633896,-17.998723,-0.160200,-0.385184,-0.461376,-21696,-934
1.042000,-37.546207,-735.754250,370.566241,-25.258667,-711.364746,-12.287540,-24.389504,-0.377002,-10.485771,-10.862773,-0.160200,-0.295985,-0.385548,-22991,-915
1.044000,-38.999152,-716.831250,384.906231,-26.625366,-683.349609,-12.373786,-33.481641,-0.388545,-11.649270,-12.037815,-0.160200,-0.310673,-0.292632,-24235,-871
1.046000,-40.413532,-697.199250,398.865605,-27.815186,-594.909668,-12.598346,-102.289582,-0.399460,-20.192922,-20.592382,-0.160200,-0.417605,-0.308652,-25318,-789
1.048000,-41.787949,-676.878000,412.430557,-28.937988,-561.401367,-12.849961,-115.476633,-0.409752,-21.957726,-22.367479,-0.160200,-0.439793,-0.417588,-26340,-766
1.050000,-43.121044,-655.887250,425.587675,-29.910278,-486.145020,-13.210766,-169.742230,-0.419432,-28.807923,-29.227355,-0.160200,-0.500000,-0.438948,-27225,-759
1.052000,-44.411498,-634.248000,438.323949,-30.851807,-470.764160,-13.559691,-163.483840,-0.428510,-28.256463,-28.684973,-0.160200,-0.500000,-0.492348,-28082,-784
1.054000,-45.658036,-611.981500,450.626783,-31.907593,-527.893066,-13.750443,-84.088434,-0.436999,-18.673008,-19.110007,-0.160200,-0.399075,-0.503028,-29043,-864
1.056000,-46.859424,-589.109750,462.484012,-33.063354,-577.880859,-13.796070,-11.228891,-0.444916,-9.799407,-10.244323,-0.160200,-0.288254,-0.402636,-30095,-876
1.058000,-48.014475,-565.655750,473.883912,-34.144409,-540.527344,-13.870066,-25.128406,-0.452277,-11.542755,-11.995032,-0.160200,-0.310138,-0.293700,-31079,-816
1.060000,-49.122047,-541.642250,484.815208,-35.189209,-522.399902,-13.932838,-19.242348,-0.459100,-10.861983,-11.321082,-0.160200,-0.301714,-0.309720,-32030,-784
1.062000,-50.181044,-517.093250,495.267092,-36.252686,-531.738281,-13.928358,14.645031,-0.465404,-6.719122,-7.184526,-0.160200,-0.250007,-0.304380,-32998,-696
1.064000,-51.190420,-492.032750,505.229228,-37.204102,-475.708008,-13.986318,-16.324742,-0.471211,-10.538199,-11.009411,-0.160200,-0.297818,-0.247776,-33864,-663
1.066000,-52.149175,-466.485750,514.691766,-38.070923,-433.410645,-14.078252,-33.075105,-0.476541,-12.640801,-13.117343,-0.160200,-0.324167,-0.299040,-34653,-623
1.068000,-53.056363,-440.477500,523.645347,-38.941040,-435.058594,-14.115323,-5.418906,-0.481416,-9.284604,-9.766020,-0.160200,-0.282275,-0.321468,-35445,-586
1.070000,-53.911085,-414.033500,532.081119,-39.726562,-392.761230,-14.184522,-21.272270,-0.485857,-11.263730,-11.749587,-0.160200,-0.307070,-0.287292,-36160,-574
1.072000,-54.712497,-387.180250,539.990739,-40.428589,-351.013184,-14.283908,-36.167066,-0.489885,-13.144184,-13.634069,-0.160200,-0.330626,-0.305448,-36799,-558
1.074000,-55.459806,-359.944250,547.366387,-41.076782,-324.096680,-14.383024,-35.847570,-0.493523,-13.165696,-13.659219,-0.160200,-0.330940,-0.335352,-37389,-536
1.076000,-56.152274,-332.352250,554.200767,-41.846924,-385.070801,-14.305350,52.718551,-0.496789,-2.297855,-2.794645,-0.160200,-0.195133,-0.328944,-38090,-545
1.078000,-56.789215,-304.431250,560.487123,-42.517090,-335.083008,-14.272125,30.651758,-0.499705,-4.973526,-5.473232,-0.160200,-0.228615,-0.194376,-38700,-486
1.080000,-57.369999,-276.209500,566.219239,-43.218018,-350.463867,-14.151981,74.254367,-0.502290,0.426929,-0.075361,-0.160200,-0.161142,-0.228552,-39338,-426
1.082000,-57.894053,-247.714750,571.391445,-43.881592,-331.787109,-14.012461,84.072359,-0.504560,1.711651,1.207091,-0.160200,-0.145111,-0.160200,-39942,-362
1.084000,-58.360858,-218.975000,575.998627,-44.374878,-246.643066,-13.985980,27.668066,-0.506533,-5.163257,-5.669790,-0.160200,-0.231072,-0.149520,-40391,-311
1.086000,-58.769953,-190.018750,580.036229,-44.774780,-199.951172,-13.995173,9.932422,-0.508223,-7.335690,-7.843913,-0.160200,-0.258249,-0.225348,-40755,-262
1.088000,-59.120933,-160.874250,583.500260,-45.203247,-214.233398,-13.917686,53.359148,-0.509644,-1.982781,-2.492425,-0.160200,-0.191355,-0.252048,-41145,-296
1.090000,-59.413450,-131.570750,586.387293,-45.562500,-179.626465,-13.850950,48.055715,-0.510809,-2.589951,-3.100759,-0.160200,-0.198959,-0.191172,-41472,-264
1.092000,-59.647216,-102.137500,588.694473,-45.903076,-170.288086,-13.744140,68.150586,-0.511726,-0.069652,-0.581378,-0.160200,-0.167467,-0.197580,-41782,-228
1.094000,-59.822000,-72.603250,590.419519,-46.217285,-157.104492,-13.604715,84.501242,-0.512404,2.013127,1.500723,-0.160200,-0.141441,-0.171948,-42068,-267
1.096000,-59.937629,-42.996750,591.560726,-46.502930,-142.822266,-13.434699,99.825516,-0.512848,3.989197,3.476348,-0.160200,-0.116746,-0.140976,-42328,-251
1.098000,-59.993987,-13.348000,592.116964,-46.756714,-126.892090,-13.237273,113.544090,-0.513064,5.785837,5.272773,-0.160200,-0.094290,-0.116412,-42559,-178
1.100000,-59.991021,16.314000,592.087684,-46.970947,-107.116699,-13.020074,123.430699,-0.513053,7.126394,6.613341,0.160200,0.242867,-0.093984,-42754,-128
1.102000,-59.928731,45.960000,591.472915,-47.146729,-87.890625,-12.782002,133.850625,-0.512814,8.544858,8.032043,0.160200,0.260601,0.241368,-42914,-37
1.104000,-59.807181,75.560000,590.273264,-47.154419,-3.845215,-12.652762,79.405215,-0.512346,1.972045,1.459698,0.160200,0.178446,0.262728,-42921,105
1.106000,-59.626491,105.085750,588.489918,-47.020386,67.016602,-12.606105,38.069148,-0.511645,-3.049608,-3.561253,0.160200,0.115684,0.179424,-42799,152
1.108000,-59.386838,134.507750,586.124640,-46.818237,101.074219,-12.568601,33.433531,-0.510704,-3.593045,-4.103748,0.160200,0.108903,0.113208,-42615,153
1.110000,-59.088460,163.796250,583.179770,-46.630371,93.933105,-12.458089,69.863145,-0.509514,0.925180,0.415666,0.160200,0.165396,0.106800,-42444,125
1.112000,-58.731653,192.923000,579.658219,-46.491943,69.213867,-12.239710,123.709133,-0.508066,7.637109,7.129042,0.160200,0.249313,0.165540,-42318,101
1.114000,-58.316768,221.859250,575.563469,-46.324951,83.496094,-11.991817,138.363156,-0.506348,9.578864,9.072516,0.160200,0.273606,0.245640,-42166,127
1.116000,-57.844216,250.575750,570.899570,-46.116211,104.370117,-11.728005,146.205633,-0.504346,10.698157,10.193811,0.160200,0.287623,0.271272,-41976,167
1.118000,-57.314465,279.044500,565.671134,-45.815186,150.512695,-11.499279,128.531805,-0.502046,8.678612,8.176567,0.160200,0.262407,0.286224,-41702,245
1.120000,-56.728038,307.237500,559.883330,-45.487793,163.696289,-11.240245,143.541211,-0.499429,10.670592,10.171163,0.160200,0.287340,0.263796,-41404,232
1.122000,-56.085515,335.126750,553.541883,-45.158203,164.794922,-10.927312,170.331828,-0.496479,14.134844,13.638365,0.160200,0.330680,0.292632,-41104,279
1.124000,-55.387531,362.684250,546.653063,-44.740723,208.740234,-10.646808,153.944016,-0.493176,12.304044,11.810868,0.160200,0.307836,0.333216,-40724,351
1.126000,-54.634778,389.883250,539.223681,-44.252930,243.896484,-10.381848,145.986766,-0.489501,11.493738,11.004237,0.160200,0.297753,0.306516,-40280,361
1.128000,-53.827998,416.697000,531.261085,-43.712402,270.263672,-10.115596,146.433328,-0.485432,11.710940,11.225508,0.160200,0.300519,0.297972,-39788,380
1.130000,-52.967990,443.098250,522.773149,-43.187256,262.573242,-9.780734,180.525008,-0.480948,16.080580,15.599631,0.160200,0.355195,0.301176,-39310,412
1.132000,-52.055605,469.061500,513.768265,-42.680786,253.234863,-9.374819,215.826637,-0.476029,20.641447,20.165418,0.160200,0.412268,0.355644,-38849,437
1.134000,-51.091744,494.561000,504.255338,-42.163330,258.728027,-8.928414,235.832973,-0.470652,23.358375,22.887723,0.160200,0.446297,0.415452,-38378,456
1.136000,-50.077361,519.571500,494.243776,-41.588745,287.292480,-8.488616,232.279020,-0.464797,23.192835,22.728039,0.160200,0.444300,0.448560,-37855,511
1.138000,-49.013458,544.068250,483.743477,-40.925171,331.787109,-8.088287,212.281141,-0.458441,20.994180,20.535739,0.160200,0.416897,0.442152,-37251,599
1.140000,-47.901088,568.026750,472.764826,-40.172607,376.281738,-7.728481,191.745012,-0.451565,18.705012,18.253447,0.160200,0.388368,0.417588,-36566,625
1.142000,-46.741351,591.423500,461.318679,-39.313477,429.565430,-7.427874,161.858070,-0.444150,15.237263,14.793114,0.160200,0.345114,0.388752,-35784,653
1.144000,-45.535394,614.235750,449.416355,-38.489502,411.987305,-7.045892,202.248445,-0.436177,20.405218,19.969042,0.160200,0.409813,0.341760,-35034,666
1.146000,-44.284408,636.440500,437.069622,-37.644653,422.424316,-6.639755,214.016184,-0.427629,22.091014,21.663385,0.160200,0.430992,0.413316,-34265,674
1.148000,-42.989632,658.015750,424.290690,-36.743774,450.439453,-6.245858,207.576297,-0.418491,21.544852,21.126360,0.160200,0.424280,0.429336,-33445,688
1.150000,-41.652345,678.940500,411.092196,-35.804443,469.665527,-5.847902,209.274973,-0.408751,21.995481,21.586730,0.160200,0.430034,0.420792,-32590,723
1.152000,-40.273870,699.193750,397.487191,-34.891479,456.481934,-5.382391,242.711816,-0.398396,26.364927,25.966531,0.160200,0.484782,0.430404,-31759,746
1.154000,-38.855570,718.755750,383.489129,-33.882935,504.272461,-4.972635,214.483289,-0.387419,23.166467,22.779048,0.160200,0.444938,0.481668,-30841,783
1.156000,-37.398847,737.607000,369.111851,-32.826050,528.442383,-4.572797,209.164617,-0.375813,22.760916,22.385103,0.160200,0.440014,0.440016,-29879,821
1.158000,-35.905142,755.728750,354.369575,-31.658203,583.923340,-4.246939,171.805410,-0.363574,18.395683,18.032109,0.160200,0.385601,0.437880,-28816,827
1.160000,-34.375932,773.103000,339.276878,-30.532104,563.049316,-3.843828,210.053684,-0.350703,23.314838,22.964136,0.160200,0.447252,0.389820,-27791,837
1.162000,-32.812730,789.713000,323.848686,-29.288452,621.826172,-3.524278,167.886828,-0.337200,18.358387,18.021186,0.160200,0.385465,0.451764,-26659,828
1.164000,-31.217080,805.542250,308.100254,-28.162354,563.049316,-3.054726,242.492934,-0.323073,27.760075,27.437002,0.160200,0.500000,0.381276,-25634,815
1.166000,-29.590561,820.574500,292.047155,-27.093384,534.484863,-2.497177,286.089637,-0.308329,33.427004,33.118675,0.160200,0.500000,0.495552,-24661,835
1.168000,-27.934782,834.795750,275.705263,-25.933228,580.078125,-2.001554,254.717625,-0.292982,29.896948,29.603967,0.160200,0.500000,0.497688,-23605,883
1.170000,-26.251378,848.191500,259.090739,-24.664307,634.460449,-1.587071,213.731051,-0.277046,25.142687,24.865641,0.160200,0.471021,0.504096,-22450,937
1.172000,-24.542016,860.748000,242.220011,-23.464600,599.853516,-1.077416,260.894484,-0.260541,31.216118,30.955577,0.160200,0.500000,0.472056,-21358,965
1.174000,-22.808386,872.453750,225.109763,-22.123169,670.715332,-0.685217,201.738418,-0.243488,24.228422,23.984934,0.160200,0.460012,0.499824,-20137,962
1.176000,-21.052201,883.296750,207.776914,-20.716919,703.125000,-0.335282,180.171750,-0.225914,21.807320,21.581406,0.160200,0.429968,0.449628,-18857,995
1.178000,-19.275199,893.266250,190.238603,-19.239258,738.830566,-0.035941,154.435684,-0.207847,18.845923,18.638076,0.160200,0.393176,0.433608,-17512,984
1.180000,-17.479136,902.352500,172.512173,-17.864868,687.194824,0.385732,215.157676,-0.189318,26.522099,26.332781,0.160200,0.489360,0.396228,-16261,957
1.182000,-15.665789,910.546250,154.615154,-16.716797,574.035645,1.051008,336.510605,-0.170364,41.754550,41.584187,0.160200,0.500000,0.488076,-15216,946
1.184000,-13.836951,917.839750,136.565243,-15.328125,694.335938,1.491174,223.503813,-0.151020,28.217048,28.066028,0.160200,0.500000,0.498756,-13952,975
1.186000,-11.994430,924.225750,118.380289,-13.847168,740.478516,1.852738,183.747234,-0.131327,23.580733,23.449405,0.160200,0.453318,0.497688,-12604,1001
1.188000,-10.140048,929.697500,100.078273,-12.568359,639.404297,2.428311,290.293203,-0.111328,36.949376,36.838048,0.160200,0.500000,0.443220,-11440,1014
1.190000,-8.275640,934.250250,81.677295,-11.193970,687.194824,2.918330,247.055426,-0.091067,31.966220,31.875153,0.160200,0.500000,0.494484,-10189,1035
1.192000,-6.403047,937.879250,63.195549,-9.963501,615.234375,3.560454,322.644875,-0.070590,41.593465,41.522876,0.160200,0.500000,0.505164,-9069,1041
1.194000,-4.524123,940.580250,44.651312,-8.553955,704.772949,4.029832,235.807301,-0.049944,31.270981,31.221037,0.160200,0.500000,0.498756,-7786,1065
1.196000,-2.640726,942.351500,26.062922,-7.182861,685.546875,4.542135,256.804625,-0.029178,34.149236,34.120058,0.160200,0.500000,0.504096,-6538,1068
1.198000,-0.754717,943.191000,7.448759,-5.637085,772.888184,4.882368,170.302816,-0.008343,23.788883,23.780540,0.160200,0.457457,0.495552,-5131,1082
1.200000,1.132038,943.097750,-11.172770,-4.171509,732.788086,5.303547,210.309664,0.012513,28.933925,28.946438,0.160200,0.500000,0.460308,-3797,1086
1.202000,3.017674,942.072000,-29.783250,-2.710327,730.590820,5.728001,211.481180,0.033339,29.336337,29.369676,0.160200,0.500000,0.499824,-2467,1085
1.204000,4.900326,940.114500,-48.364280,-1.215088,747.619629,6.115414,192.494871,0.054084,27.253379,27.307463,0.160200,0.500000,0.499824,-1106,1097
1.206000,6.778132,937.227250,-66.897484,0.362549,788.818359,6.415583,148.408891,0.074700,22.050623,22.125323,0.160200,0.436767,0.499824,330,1105
1.208000,8.649235,933.413500,-85.364535,1.856689,747.070312,6.792546,186.343188,0.095138,26.915445,27.010583,0.160200,0.497832,0.441084,1690,1102
1.210000,10.511786,928.676750,-103.747174,3.329956,736.633301,7.181830,192.043449,0.115351,27.849664,27.965014,0.160200,0.500000,0.504096,3031,1086
1.212000,12.363942,923.021250,-122.027222,4.798828,734.436035,7.565114,188.585215,0.135292,27.661296,27.796587,0.160200,0.500000,0.495552,4368,1090
1.214000,14.203871,916.453500,-140.186602,6.387451,794.311523,7.816420,122.141977,0.154918,19.697237,19.852155,0.160200,0.408352,0.505164,5814,1106
1.216000,16.029756,908.979500,-158.207358,7.883789,748.168945,8.145967,160.810555,0.174187,24.622804,24.796991,0.160200,0.470162,0.413316,7176,1090
1.218000,17.839789,900.606250,-176.071670,9.251587,683.898926,8.588202,216.707324,0.193059,31.722028,31.915088,0.160200,0.500000,0.469920,8421,1083
1.220000,19.632181,891.342750,-193.761872,10.641357,694.885254,8.990824,196.457496,0.211498,29.493993,29.705491,0.160200,0.500000,0.504096,9686,1087
1.222000,21.405160,881.197750,-211.260472,12.104736,731.689453,9.300424,149.508297,0.229469,23.947190,24.176659,0.160200,0.462408,0.499824,11018,1091
1.224000,23.156972,870.181250,-228.550165,13.649414,772.338867,9.507558,97.842383,0.246941,17.761539,18.008480,0.160200,0.385306,0.463512,12424,1096
1.226000,24.885885,858.304250,-245.613856,14.963379,656.982422,9.922506,201.321828,0.263886,30.657415,30.921302,0.160200,0.500000,0.386616,13620,1078
1.228000,26.590189,845.578750,-262.434670,16.333374,684.997559,10.256815,160.581191,0.280279,25.884225,26.164505,0.160200,0.487256,0.494484,14867,1043
1.230000,28.268200,832.017250,-278.995973,17.601196,633.911133,10.667004,198.106117,0.296099,30.719330,31.015429,0.160200,0.500000,0.493416,16021,1067
1.232000,29.918258,817.632750,-295.281390,18.885498,642.150879,11.032760,175.481871,0.311327,28.178685,28.490011,0.160200,0.500000,0.500892,17190,1082
1.234000,31.538731,802.439500,-311.274816,20.184082,649.291992,11.354649,153.147508,0.325948,25.646658,25.972606,0.160200,0.484858,0.497688,18372,1086
1.236000,33.128016,786.453000,-326.960436,21.558472,687.194824,11.569544,99.258176,0.339951,19.194106,19.534057,0.160200,0.404376,0.485940,19623,1091
1.238000,34.684543,769.688750,-342.322740,23.038330,739.929199,11.646213,29.759551,0.353327,10.750082,11.103409,0.160200,0.298993,0.404772,20970,1077
1.240000,36.206771,752.163500,-357.346536,24.421509,691.589355,11.785262,60.574145,0.366073,14.599735,14.965808,0.160200,0.347273,0.297972,22229,1014
1.242000,37.693197,733.894500,-372.016967,25.626709,602.600098,12.066488,131.294402,0.378185,23.411635,23.789820,0.160200,0.457573,0.352440,23326,970
1.244000,39.142349,714.899500,-386.319527,26.849487,611.389160,12.292862,103.510340,0.389665,20.155456,20.545120,0.160200,0.417014,0.452832,24439,955
1.246000,40.552795,695.197750,-400.240073,28.092041,621.276855,12.460754,73.920895,0.400517,16.642982,17.043499,0.160200,0.373244,0.415452,25570,941
1.248000,41.923140,674.808750,-413.764839,29.300537,604.248047,12.622603,70.560703,0.410748,16.331325,16.742073,0.160200,0.369476,0.368460,26670,925
1.250000,43.252030,653.752250,-426.880452,30.525513,612.487793,12.726517,41.264457,0.420367,12.815591,13.235958,0.160200,0.325649,0.369528,27785,883
1.252000,44.538149,632.049000,-439.573941,31.581299,527.893066,12.956850,104.155934,0.429385,20.639937,21.069322,0.160200,0.423567,0.323604,28746,849
1.254000,45.780226,609.721250,-451.832755,32.594238,506.469727,13.185988,103.251523,0.437817,20.669415,21.107231,0.160200,0.424040,0.429336,29668,852
1.256000,46.977034,586.790500,-463.644772,33.598389,502.075195,13.378645,84.715305,0.445677,18.522476,18.968153,0.160200,0.397302,0.426132,30582,842
1.258000,48.127388,563.279000,-474.998310,34.654175,527.893066,13.473213,35.385934,0.452983,12.553525,13.006508,0.160200,0.322781,0.395160,31543,830
1.260000,49.230150,539.211000,-485.882144,35.729736,537.780762,13.500414,1.430238,0.459753,8.421670,8.881423,0.160200,0.271218,0.321468,32522,826
1.262000,50.284232,514.609750,-496.285511,36.811890,541.076660,13.472342,-26.466910,0.466007,4.996243,5.462250,0.160200,0.228478,0.273408,33507,760
1.264000,51.288589,489.499500,-506.198122,37.711670,449.890137,13.576919,39.609363,0.471765,13.132865,13.604630,0.160200,0.330258,0.229620,34326,707
1.266000,52.242230,463.905250,-515.610177,38.527954,408.142090,13.714276,55.763160,0.477049,15.190330,15.667379,0.160200,0.356042,0.323604,35069,639
1.268000,53.144210,437.852250,-524.512368,39.305786,388.916016,13.838424,48.936234,0.481879,14.432101,14.913980,0.160200,0.346625,0.355644,35777,627
1.270000,53.993639,411.366250,-532.895891,40.174805,434.509277,13.818834,-23.143027,0.486278,5.613991,6.100269,0.160200,0.236453,0.342828,36568,652
1.272000,54.789675,384.473250,-540.752457,40.996582,410.888672,13.793093,-26.415422,0.490266,5.198468,5.688735,0.160200,0.231309,0.234960,37316,589
1.274000,55.531532,357.200500,-548.074297,41.745850,374.633789,13.785682,-17.433289,0.493866,6.291316,6.785182,0.160200,0.245015,0.238164,37998,550
1.276000,56.218477,329.574500,-554.854171,42.445679,349.914551,13.772798,-20.340051,0.497096,5.928318,6.425414,0.160200,0.240518,0.243504,38635,499
1.278000,56.849830,301.622500,-561.085374,43.145508,349.914551,13.704322,-48.292051,0.499978,2.471507,2.971485,0.160200,0.197344,0.241368,39272,446
1.280000,57.424967,273.372000,-566.761744,43.764038,309.265137,13.660929,-35.893137,0.502530,3.959813,4.462343,0.160200,0.215979,0.194376,39835,444
1.282000,57.943318,244.851250,-571.877668,44.336426,286.193848,13.606892,-41.342598,0.504770,3.261026,3.765797,0.160200,0.207272,0.213600,40356,383
1.284000,58.404372,216.088500,-576.428088,44.843994,253.784180,13.560378,-37.695680,0.506714,3.678167,4.184881,0.160200,0.212511,0.209328,40818,377
1.286000,58.807672,187.112000,-580.408504,45.330688,243.347168,13.476984,-56.235168,0.508377,1.362199,1.870576,0.160200,0.183582,0.213600,41261,331
1.288000,59.152820,157.950750,-583.814980,45.769043,219.177246,13.383777,-61.226496,0.509772,0.695457,1.205229,0.160200,0.175265,0.180492,41660,284
1.290000,59.439475,128.633000,-586.644146,46.212891,221.923828,13.226584,-93.290828,0.510911,-3.317964,-2.807053,0.160200,0.125112,0.170880,42064,293
