khanfazel/E-wera--maxon_motor/PD_control/pd_feedforward_log.csv
t_s,q_ref_deg,qd_ref_deg_s,qdd_ref_deg_s2,q_model_deg,qdd_model_deg_s2,q_link_deg,qd_link_deg_s,pos_error_deg,vel_error_deg_s,tau_inertia_joint_Nm,tau_gravity_joint_Nm,tau_joint_ff_Nm,tau_pd_joint_Nm,tau_joint_total_Nm,tau_dead_motor_Nm,tau_motor_cmd_Nm,tau_motor_actual_Nm,motor_pos_counts,motor_vel_native
0.000000,0.000000,943.265500,0.000000,0.000000,0.000000,0.000000,0.000000,0.000000,943.265500,0.000000,0.000000,0.000000,6.585235,6.585235,0.160200,0.242515,-0.003204,0,0
0.002000,1.886531,942.799250,0.000000,1.886531,0.000000,-0.003296,3.375000,1.889827,939.424250,0.000000,0.027289,0.027289,7.053174,7.080463,0.160200,0.248706,0.243504,3,45
0.004000,3.771197,941.400750,-37.220226,3.771197,-37.220226,-0.110962,9.450000,3.882159,931.950750,-1.210244,0.054522,-1.155722,7.522590,6.366868,0.160200,0.239786,0.249912,101,126
0.006000,5.652134,939.071000,-55.784328,5.652134,-55.784328,-0.319702,13.350000,5.971836,925.721000,-1.813869,0.081641,-1.732228,8.026175,6.293947,0.160200,0.238874,0.241368,291,178
0.008000,7.527481,935.812750,-74.293267,7.527481,-74.293267,-0.546021,13.500000,8.073502,922.312750,-2.415701,0.108593,-2.307108,8.552595,6.245487,0.160200,0.238269,0.239232,497,180
0.010000,9.395385,931.629250,-92.728741,9.395385,-92.728741,-0.780029,13.650000,10.175414,917.979250,-3.015145,0.135322,-2.879822,9.072621,6.192799,0.160200,0.237610,0.240300,710,182
0.012000,11.253998,926.524500,-111.072519,11.253998,-111.072519,-0.984375,11.250000,12.238373,915.274500,-3.611606,0.161776,-3.449831,9.593820,6.143989,0.160200,0.237000,0.232824,896,150
0.014000,13.101483,920.503500,-129.306462,13.101483,-129.306462,-1.203003,11.550000,14.304486,908.953500,-4.204497,0.187902,-4.016595,10.090598,6.074004,0.160200,0.236125,0.239232,1095,154
0.016000,14.936012,913.572250,-147.412541,14.936012,-147.412541,-1.423828,12.000000,16.359840,901.572250,-4.793230,0.213652,-4.579577,10.577158,5.997581,0.160200,0.235170,0.236028,1296,160
0.018000,16.755772,905.737500,-165.372849,16.755772,-165.372849,-1.632568,12.450000,18.388340,893.287500,-5.377223,0.238979,-5.138244,11.050379,5.912136,0.160200,0.234102,0.232824,1486,166
0.020000,18.558962,897.007250,-183.169628,18.558962,-183.169628,-1.856689,13.050000,20.415651,883.957250,-5.955898,0.263837,-5.692061,11.515991,5.823930,0.160200,0.232999,0.228552,1690,174
0.022000,20.343801,887.390000,-200.785278,20.343801,-200.785278,-2.100586,13.800000,22.444387,873.590000,-6.528684,0.288185,-6.240499,11.974735,5.734236,0.160200,0.231878,0.234960,1912,184
0.024000,22.108522,876.895000,-218.202380,22.108522,-218.202380,-2.306030,12.525000,24.414552,864.370000,-7.095015,0.311983,-6.783031,12.426156,5.643125,0.160200,0.230739,0.234960,2099,167
0.026000,23.851381,865.533250,-235.403712,23.851381,-235.403712,-2.536743,12.750000,26.388124,852.783250,-7.654329,0.335197,-7.319132,12.861945,5.542813,0.160200,0.229485,0.232824,2309,170
0.028000,25.570655,853.315500,-252.372264,25.570655,-252.372264,-2.738892,13.575000,28.309547,839.740500,-8.206074,0.357792,-7.848282,13.273917,5.425635,0.160200,0.228020,0.233892,2493,181
0.030000,27.264643,840.253750,-269.091255,27.264643,-269.091255,-2.982788,13.575000,30.247431,826.678750,-8.749705,0.379741,-8.369964,13.690065,5.320101,0.160200,0.226701,0.228552,2715,181
0.032000,28.931670,826.361000,-285.544154,28.931670,-285.544154,-3.190430,13.725000,32.122100,812.636000,-9.284683,0.401016,-8.883667,14.082816,5.199148,0.160200,0.225189,0.223212,2904,183
0.034000,30.570087,811.651500,-301.714692,30.570087,-301.714692,-3.400269,11.550000,33.970356,800.101500,-9.810480,0.421595,-9.388885,14.479180,5.090295,0.160200,0.223829,0.225348,3095,154
0.036000,32.178276,796.139500,-317.586877,32.178276,-317.586877,-3.643066,12.450000,35.821342,783.689500,-10.326576,0.441459,-9.885117,14.849190,4.964073,0.160200,0.222251,0.224280,3316,166
0.038000,33.754645,779.839750,-333.145014,33.754645,-333.145014,-3.852905,11.475000,37.607550,768.364750,-10.832461,0.460593,-10.371868,15.209832,4.837964,0.160200,0.220675,0.223212,3507,153
0.040000,35.297635,762.769000,-348.373719,35.297635,-348.373719,-4.072632,13.050000,39.370267,749.719000,-11.327633,0.478984,-10.848649,15.541138,4.692489,0.160200,0.218856,0.220008,3707,174
0.042000,36.805721,744.944000,-363.257932,36.805721,-363.257932,-4.291260,11.175000,41.096981,733.769000,-11.811605,0.496624,-11.314981,15.881838,4.566857,0.160200,0.217286,0.218940,3906,149
0.044000,38.277411,726.382500,-377.782936,38.277411,-377.782936,-4.486816,12.450000,42.764227,713.932500,-12.283896,0.513506,-11.770390,16.179838,4.409448,0.160200,0.215318,0.216804,4084,166
0.046000,39.711251,707.102750,-391.934367,39.711251,-391.934367,-4.686768,12.375000,44.398019,694.727750,-12.744041,0.529629,-12.214412,16.473489,4.259077,0.160200,0.213438,0.216804,4266,165
0.048000,41.105822,687.123500,-405.698231,41.105822,-405.698231,-4.868042,12.000000,45.973864,675.123500,-13.191583,0.544991,-12.646592,16.749181,4.102589,0.160200,0.211482,0.213600,4431,160
0.050000,42.459745,666.465000,-419.060918,42.459745,-419.060918,-5.040527,10.875000,47.500272,655.590000,-13.626081,0.559598,-13.066483,17.012424,3.945940,0.160200,0.209524,0.209328,4588,145
0.052000,43.771682,645.147500,-432.009215,43.771682,-432.009215,-5.210815,9.600000,48.982497,635.547500,-14.047105,0.573453,-13.473652,17.260546,3.786895,0.160200,0.207536,0.212532,4743,128
0.054000,45.040335,623.191750,-444.530316,45.040335,-444.530316,-5.401978,10.275000,50.442313,612.916750,-14.454238,0.586565,-13.867672,17.484733,3.617060,0.160200,0.205413,0.203988,4917,137
0.056000,46.264449,600.619750,-456.611842,46.264449,-456.611842,-5.604126,10.275000,51.868575,590.344750,-14.847077,0.598945,-14.248133,17.700545,3.452412,0.160200,0.203355,0.202920,5101,137
0.058000,47.442814,577.454250,-468.241844,47.442814,-468.241844,-5.781006,9.375000,53.223820,568.079250,-15.225236,0.610603,-14.614633,17.899905,3.285272,0.160200,0.201266,0.202920,5262,125
0.060000,48.574266,553.717500,-479.408822,48.574266,-479.408822,-5.965576,9.675000,54.539842,544.042500,-15.588338,0.621555,-14.966784,18.076630,3.109847,0.160200,0.199073,0.197580,5430,129
0.062000,49.657684,529.433000,-490.101734,49.657684,-490.101734,-6.139160,9.675000,55.796844,519.758000,-15.936027,0.631814,-15.304213,18.236175,2.931962,0.160200,0.196850,0.200784,5588,129
0.064000,50.691998,504.625250,-500.310006,50.691998,-500.310006,-6.303955,8.550000,56.995953,496.075250,-16.267956,0.641398,-15.626559,18.384764,2.758206,0.160200,0.194678,0.198648,5738,114
0.066000,51.676185,479.318500,-510.023544,51.676185,-510.023544,-6.465454,9.675000,58.141639,469.643500,-16.583799,0.650323,-15.933476,18.500176,2.566699,0.160200,0.192284,0.191172,5885,129
0.068000,52.609272,453.537750,-519.232741,52.609272,-519.232741,-6.628052,9.375000,59.237324,444.162750,-16.883243,0.658607,-16.224636,18.609136,2.384500,0.160200,0.190006,0.190104,6033,125
0.070000,53.490336,427.308250,-527.928493,53.490336,-527.928493,-6.785156,9.225000,60.275492,418.083250,-17.165992,0.666270,-16.499722,18.698859,2.199137,0.160200,0.187689,0.189036,6176,123
0.072000,54.318505,400.656500,-536.102199,54.318505,-536.102199,-6.929077,8.475000,61.247582,392.181500,-17.431766,0.673329,-16.758437,18.772523,2.014085,0.160200,0.185376,0.187968,6307,113
0.074000,55.092962,373.608500,-543.745778,55.092962,-543.745778,-7.062012,8.475000,62.154974,365.133500,-17.680303,0.679803,-17.000500,18.821247,1.820746,0.160200,0.182959,0.186900,6428,113
0.076000,55.812939,346.191000,-550.851670,55.812939,-550.851670,-7.191650,7.350000,63.004589,338.841000,-17.911356,0.685710,-17.225647,18.860119,1.634473,0.160200,0.180631,0.181560,6546,98
0.078000,56.477726,318.431250,-557.412850,56.477726,-557.412850,-7.317993,7.950000,63.795719,310.481250,-18.124698,0.691068,-17.433630,18.869248,1.435618,0.160200,0.178145,0.183696,6661,106
0.080000,57.086664,290.356250,-563.422828,57.086664,-563.422828,-7.449829,6.750000,64.536493,283.606250,-18.320117,0.695894,-17.624223,18.875560,1.251336,0.160200,0.175842,0.175152,6781,90
0.082000,57.639151,261.994500,-568.875663,57.639151,-568.875663,-7.577271,6.750000,65.216422,255.244500,-18.497420,0.700205,-17.797215,18.855562,1.058347,0.160200,0.173429,0.175152,6897,90
0.084000,58.134642,233.373750,-573.765962,58.134642,-573.765962,-7.695923,7.950000,65.830565,225.423750,-18.656432,0.704016,-17.952416,18.808156,0.855740,0.160200,0.170897,0.171948,7005,106
0.086000,58.572646,204.522000,-578.088888,58.572646,-578.088888,-7.816772,6.900000,66.389418,197.622000,-18.796995,0.707340,-18.089655,18.760371,0.670716,0.160200,0.168584,0.169812,7115,92
0.088000,58.952730,175.468250,-581.840169,58.952730,-581.840169,-7.955200,6.675000,66.907930,168.793250,-18.918971,0.710192,-18.208779,18.694854,0.486076,0.160200,0.166276,0.168744,7241,89
0.090000,59.274519,146.240750,-585.016093,59.274519,-585.016093,-8.068359,6.825000,67.342878,139.415750,-19.022238,0.712582,-18.309656,18.603630,0.293974,0.160200,0.163875,0.166608,7344,91
0.092000,59.537693,116.868500,-587.613520,59.537693,-587.613520,-8.182617,7.650000,67.720310,109.218500,-19.106696,0.714520,-18.392176,18.491625,0.099449,0.160200,0.161443,0.165540,7448,102
0.094000,59.741993,87.381000,-589.629883,59.741993,-589.629883,-8.302368,6.300000,68.044361,81.081000,-19.172259,0.716014,-18.456245,18.380024,-0.076221,0.160200,0.159247,0.160200,7557,84
0.096000,59.887217,57.807000,-591.063187,59.887217,-591.063187,-8.408936,6.000000,68.296153,51.807000,-19.218864,0.717070,-18.501794,18.241572,-0.260222,0.160200,0.156947,0.160200,7654,80
0.098000,59.973221,28.176000,-591.912014,59.973221,-591.912014,-8.513306,6.075000,68.486527,22.101000,-19.246464,0.717694,-18.528771,18.084025,-0.444746,0.160200,0.154641,0.160200,7749,81
0.100000,59.999921,-1.483000,-592.175526,59.999921,-592.175526,-8.619873,5.400000,68.619794,-6.883000,-19.255033,0.717887,-18.537146,17.916568,-0.620578,-0.160200,-0.167957,0.155928,7846,72
0.102000,59.967289,-31.140750,-591.853461,59.967289,-591.853461,-8.713257,1.200000,68.680546,-32.340750,-19.244560,0.717651,-18.526910,17.754744,-0.772166,-0.160200,-0.169852,-0.164472,7931,16
0.104000,59.875358,-60.767500,-590.946139,59.875358,-590.946139,-8.691284,-5.775000,68.566642,-54.992500,-19.215058,0.716984,-18.498074,17.566785,-0.931289,-0.160200,-0.171841,-0.168744,7911,-77
0.106000,59.724219,-90.334250,-589.454456,59.724219,-589.454456,-8.578125,-7.125000,68.302344,-83.209250,-19.166555,0.715884,-18.450671,17.300602,-1.150069,-0.160200,-0.174576,-0.175152,7808,-95
0.108000,59.514021,-119.811500,-587.379888,59.514021,-587.379888,-8.412231,-9.750000,67.926252,-110.061500,-19.099099,0.714346,-18.384753,17.014677,-1.370076,-0.160200,-0.177326,-0.170880,7657,-130
0.110000,59.244973,-149.170500,-584.724485,59.244973,-584.724485,-8.254028,-9.300000,67.499001,-139.870500,-19.012756,0.712363,-18.300393,16.694717,-1.605676,-0.160200,-0.180271,-0.184764,7513,-124
0.112000,58.917339,-178.382000,-581.490875,58.917339,-581.490875,-8.111206,-8.250000,67.028545,-170.132000,-18.907613,0.709928,-18.197685,16.360287,-1.837399,-0.160200,-0.183167,-0.180492,7383,-110
0.114000,58.531445,-207.416750,-577.682254,58.531445,-577.682254,-7.976074,-8.025000,66.507519,-199.391750,-18.783773,0.707029,-18.076744,16.019611,-2.057133,-0.160200,-0.185914,-0.181560,7260,-107
0.116000,58.087672,-236.246500,-573.302388,58.087672,-573.302388,-7.842041,-9.300000,65.929713,-226.946500,-18.641358,0.703657,-17.937702,15.675973,-2.261729,-0.160200,-0.188472,-0.185832,7138,-124
0.118000,57.586459,-264.842750,-568.355609,57.586459,-568.355609,-7.708008,-7.950000,65.294467,-256.892750,-18.480510,0.699796,-17.780714,15.300602,-2.480112,-0.160200,-0.191201,-0.187968,7016,-106
0.120000,57.028301,-293.177250,-562.846808,57.028301,-562.846808,-7.570679,-8.550000,64.598980,-284.627250,-18.301387,0.695435,-17.605953,14.924900,-2.681052,-0.160200,-0.193713,-0.187968,6891,-114
0.122000,56.413750,-321.221750,-556.781433,56.413750,-556.781433,-7.424561,-9.075000,63.838311,-312.146750,-18.104167,0.690556,-17.413611,14.533635,-2.879976,-0.160200,-0.196200,-0.192240,6758,-121
0.124000,55.743414,-348.948750,-550.165481,55.743414,-550.165481,-7.261963,-9.000000,63.005377,-339.948750,-17.889044,0.685144,-17.203901,14.121479,-3.082421,-0.160200,-0.198730,-0.197580,6610,-120
0.126000,55.017955,-376.330500,-543.005495,55.017955,-543.005495,-7.101562,-9.375000,62.119518,-366.955500,-17.656232,0.679181,-16.977051,13.701019,-3.276032,-0.160200,-0.201150,-0.199716,6464,-125
0.128000,54.238092,-403.339750,-535.308555,54.238092,-535.308555,-6.937866,-10.275000,61.175958,-393.064750,-17.405960,0.672650,-16.733311,13.271719,-3.461592,-0.160200,-0.203470,-0.201852,6315,-137
0.130000,53.404596,-429.950500,-527.082272,53.404596,-527.082272,-6.750000,-9.300000,60.154596,-420.650500,-17.138477,0.665531,-16.472945,12.811742,-3.661203,-0.160200,-0.205965,-0.202920,6144,-124
0.132000,52.518290,-456.136500,-518.334780,52.518290,-518.334780,-6.589600,-9.825000,59.107890,-446.311500,-16.854045,0.657807,-16.196238,12.358567,-3.837671,-0.160200,-0.208171,-0.209328,5998,-131
0.134000,51.580050,-481.871000,-509.074730,51.580050,-509.074730,-6.418213,-11.325000,57.998263,-470.546000,-16.552948,0.649459,-15.903488,11.898879,-4.004609,-0.160200,-0.210258,-0.209328,5842,-151
0.136000,50.590806,-507.128750,-499.311279,50.590806,-499.311279,-6.213867,-9.900000,56.804673,-497.228750,-16.235482,0.640469,-15.595013,11.400117,-4.194895,-0.160200,-0.212636,-0.207192,5656,-132
0.138000,49.551535,-531.885500,-489.054081,49.551535,-489.054081,-6.010620,-11.250000,55.562155,-520.635500,-15.901961,0.630819,-15.271143,10.911417,-4.359726,-0.160200,-0.214697,-0.210396,5471,-150
0.140000,48.463264,-556.116250,-478.313278,48.463264,-478.313278,-5.827148,-11.475000,54.290412,-544.641250,-15.552716,0.620491,-14.932225,10.410884,-4.521342,-0.160200,-0.216717,-0.212532,5304,-153
0.142000,47.327070,-579.796750,-467.099493,47.327070,-467.099493,-5.635986,-10.200000,52.963056,-569.596750,-15.188091,0.609469,-14.578622,9.889160,-4.689462,-0.160200,-0.218818,-0.215736,5130,-136
0.144000,46.144077,-602.904250,-455.423814,46.144077,-455.423814,-5.426147,-12.300000,51.570224,-590.604250,-14.808448,0.597739,-14.210709,9.377858,-4.832851,-0.160200,-0.220611,-0.217872,4939,-164
0.146000,44.915453,-625.415500,-443.297786,44.915453,-443.297786,-5.239380,-11.850000,50.154833,-613.565500,-14.414161,0.585287,-13.828874,8.847009,-4.981865,-0.160200,-0.222473,-0.222144,4769,-158
0.148000,43.642415,-647.308250,-430.733401,43.642415,-430.733401,-5.015259,-10.350000,48.657674,-636.958250,-14.005621,0.572101,-13.433520,8.291742,-5.141778,-0.160200,-0.224472,-0.222144,4565,-138
0.150000,42.326220,-668.560750,-417.743082,42.326220,-417.743082,-4.804321,-12.150000,47.130541,-656.410750,-13.583231,0.558171,-13.025060,7.756135,-5.268924,-0.160200,-0.226062,-0.223212,4373,-162
0.152000,40.968172,-689.152250,-404.339676,40.968172,-404.339676,-4.586792,-13.500000,45.554964,-675.652250,-13.147409,0.543489,-12.603919,7.209319,-5.394600,-0.160200,-0.227633,-0.228552,4175,-180
0.154000,39.569611,-709.062500,-390.536436,39.569611,-390.536436,-4.379150,-12.825000,43.948761,-696.237500,-12.698586,0.528051,-12.170535,6.645104,-5.525431,-0.160200,-0.229268,-0.230688,3986,-171
0.156000,38.131922,-728.271250,-376.347012,38.131922,-376.347012,-4.175903,-13.200000,42.307825,-715.071250,-12.237206,0.511852,-11.725354,6.084024,-5.641330,-0.160200,-0.230717,-0.229620,3801,-176
0.158000,36.656526,-746.760000,-361.785435,36.656526,-361.785435,-3.973755,-13.875000,40.630281,-732.885000,-11.763726,0.494894,-11.268832,5.520480,-5.748351,-0.160200,-0.232054,-0.233892,3617,-185
0.160000,35.144882,-764.510500,-346.866104,35.144882,-346.866104,-3.771606,-11.325000,38.916488,-753.185500,-11.278612,0.477179,-10.801433,4.930086,-5.871347,-0.160200,-0.233592,-0.231756,3433,-151
0.162000,33.598484,-781.504750,-331.603773,33.598484,-331.603773,-3.568359,-13.050000,37.166843,-768.454750,-10.782346,0.458713,-10.323633,4.365431,-5.958203,-0.160200,-0.234678,-0.232824,3248,-174
0.164000,32.018863,-797.726250,-316.013534,32.018863,-316.013534,-3.316772,-12.225000,35.335635,-785.501250,-10.275418,0.439505,-9.835912,3.767014,-6.068898,-0.160200,-0.236061,-0.240300,3019,-163
0.166000,30.407579,-813.159000,-300.110802,30.407579,-300.110802,-3.090454,-13.125000,33.498033,-800.034000,-9.758328,0.419569,-9.338760,3.184474,-6.154286,-0.160200,-0.237129,-0.233892,2813,-175
0.168000,28.766227,-827.787250,-283.911305,28.766227,-283.911305,-2.889404,-11.475000,31.655631,-816.312250,-9.231590,0.398919,-8.832671,2.588490,-6.244180,-0.160200,-0.238252,-0.241368,2630,-153
0.170000,27.096430,-841.597500,-267.431059,27.096430,-267.431059,-2.665283,-12.825000,29.761713,-828.772500,-8.695722,0.377576,-8.318146,2.005675,-6.312472,-0.160200,-0.239106,-0.237096,2426,-171
0.172000,25.399837,-854.575500,-250.686364,25.399837,-250.686364,-2.452148,-12.900000,27.851985,-841.675500,-8.151256,0.355562,-7.795694,1.415629,-6.380065,-0.160200,-0.239951,-0.238164,2232,-172
0.174000,23.678128,-866.708000,-233.693775,23.678128,-233.693775,-2.211548,-13.500000,25.889676,-853.208000,-7.598729,0.332903,-7.265826,0.821386,-6.444440,-0.160200,-0.240756,-0.238164,2013,-180
0.176000,21.933005,-877.983750,-216.470097,21.933005,-216.470097,-1.967651,-13.575000,23.900656,-864.408750,-7.038688,0.309629,-6.729059,0.222466,-6.506593,-0.160200,-0.241532,-0.241368,1791,-181
0.178000,20.166193,-888.391250,-199.032362,20.166193,-199.032362,-1.750122,-12.900000,21.916315,-875.491250,-6.471687,0.285774,-6.185913,-0.374404,-6.560317,-0.160200,-0.242204,-0.239232,1593,-172
0.180000,18.379440,-897.920250,-181.397812,18.379440,-181.397812,-1.530396,-14.475000,19.909836,-883.445250,-5.898286,0.261373,-5.636913,-0.955229,-6.592141,-0.160200,-0.242602,-0.244572,1393,-193
0.182000,16.574512,-906.561500,-163.583885,16.574512,-163.583885,-1.311768,-12.675000,17.886280,-893.886500,-5.319053,0.236467,-5.082587,-1.557888,-6.640475,-0.160200,-0.243206,-0.243504,1194,-169
0.184000,14.753194,-914.306250,-145.608198,14.753194,-145.608198,-1.065674,-12.450000,15.818868,-901.856250,-4.734560,0.211096,-4.523464,-2.154774,-6.678239,-0.160200,-0.243678,-0.240300,970,-166
0.186000,12.917287,-921.146750,-127.488525,12.917287,-127.488525,-0.821777,-12.675000,13.739064,-908.471750,-4.145385,0.185306,-3.960079,-2.745451,-6.705530,-0.160200,-0.244019,-0.243504,748,-169
0.188000,11.068607,-927.076250,-109.242785,11.068607,-109.242785,-0.570190,-13.425000,11.638797,-913.651250,-3.552111,0.159144,-3.392967,-3.331459,-6.724426,-0.160200,-0.244255,-0.244572,519,-179
0.190000,9.208982,-932.089000,-90.889019,9.208982,-90.889019,-0.337280,-15.000000,9.546262,-917.089000,-2.955325,0.132661,-2.822664,-3.903283,-6.725947,-0.160200,-0.244274,-0.245640,307,-200
0.192000,7.340251,-936.180250,-72.445377,7.340251,-72.445377,-0.101074,-12.600000,7.441325,-923.580250,-2.355616,0.105907,-2.249709,-4.499672,-6.749381,-0.160200,-0.244567,-0.241368,92,-168
0.194000,5.464261,-939.345750,-53.930097,5.464261,-53.930097,0.163696,-13.875000,5.300565,-925.470750,-1.753578,0.078936,-1.674642,-5.073320,-6.747962,-0.160200,-0.244550,-0.242436,-149,-185
0.196000,3.582868,-941.582500,-35.361488,3.582868,-35.361488,0.421875,-13.725000,3.160993,-927.857500,-1.149805,0.051803,-1.098003,-5.650121,-6.748124,-0.160200,-0.244552,-0.244572,-384,-183
0.198000,1.697931,-942.888000,-16.757912,1.697931,-16.757912,0.671265,-13.500000,1.026666,-929.388000,-0.544896,0.024562,-0.520334,-6.219572,-6.739906,-0.160200,-0.244449,-0.247776,-611,-180
0.200000,-0.188684,-943.261000,1.862236,-0.188684,1.862236,0.917358,-13.275000,-1.106042,-929.986000,0.060552,-0.002730,0.057822,-6.782088,-6.724266,-0.160200,-0.244253,-0.250980,-835,-177
0.202000,-2.075113,-942.701250,20.480542,-2.075113,20.480542,1.167847,-13.050000,-3.242960,-929.651250,0.665940,-0.030016,0.635924,-7.339195,-6.703271,-0.160200,-0.243991,-0.242436,-1063,-174
0.204000,-3.959489,-941.209500,39.078596,-3.959489,39.078596,1.411743,-15.525000,-5.371232,-925.684500,1.270670,-0.057240,1.213430,-7.868682,-6.655252,-0.160200,-0.243391,-0.243504,-1285,-207
0.206000,-5.839951,-938.787000,57.638006,-5.839951,57.638006,1.669922,-13.725000,-7.509873,-925.062000,1.874143,-0.084345,1.789798,-8.424231,-6.634433,-0.160200,-0.243130,-0.247776,-1520,-183
0.208000,-7.714637,-935.436000,76.140422,-7.714637,76.140422,1.928101,-13.575000,-9.642738,-921.861000,2.475763,-0.111277,2.364486,-8.960267,-6.595781,-0.160200,-0.242647,-0.243504,-1755,-181
0.210000,-9.581695,-931.160250,94.567545,-9.581695,94.567545,2.182983,-15.600000,-11.764678,-915.560250,3.074935,-0.137981,2.936954,-9.471802,-6.534848,-0.160200,-0.241886,-0.238164,-1987,-208
0.212000,-11.439278,-925.963500,112.901154,-11.439278,112.901154,2.421387,-14.925000,-13.860665,-911.038500,3.671066,-0.164404,3.506662,-9.988962,-6.482300,-0.160200,-0.241229,-0.242436,-2204,-199
0.214000,-13.285549,-919.851000,131.123121,-13.285549,131.123121,2.655396,-13.425000,-15.940945,-906.426000,4.263567,-0.190495,4.073072,-10.501377,-6.428305,-0.160200,-0.240554,-0.238164,-2417,-179
0.216000,-15.118682,-912.829250,149.215425,-15.118682,149.215425,2.892700,-13.425000,-18.011382,-899.404250,4.851852,-0.216205,4.635647,-10.994395,-6.358748,-0.160200,-0.239684,-0.239232,-2633,-179
0.218000,-16.936866,-904.904750,167.160178,-16.936866,167.160178,3.135498,-14.025000,-20.072364,-890.879750,5.435339,-0.241486,5.193852,-11.474447,-6.280594,-0.160200,-0.238707,-0.240300,-2854,-187
0.220000,-18.738301,-896.085250,184.939632,-18.738301,184.939632,3.375000,-13.500000,-22.113301,-882.585250,6.013451,-0.266295,5.747156,-11.950856,-6.203700,-0.160200,-0.237746,-0.240300,-3072,-180
0.222000,-20.521207,-886.379750,202.536209,-20.521207,202.536209,3.599121,-15.225000,-24.120328,-871.154750,6.585617,-0.290590,6.295027,-12.396495,-6.101467,-0.160200,-0.236468,-0.237096,-3276,-203
0.224000,-22.283820,-875.797750,219.932506,-22.283820,219.932506,3.819946,-12.675000,-26.103766,-863.122750,7.151271,-0.314332,6.836939,-12.859684,-6.022744,-0.160200,-0.235484,-0.236028,-3477,-169
0.226000,-24.024398,-864.349750,237.111321,-24.024398,237.111321,4.040771,-14.925000,-28.065169,-849.424750,7.709853,-0.337485,7.372368,-13.277548,-5.905179,-0.160200,-0.234015,-0.232824,-3678,-199
0.228000,-25.741219,-852.047000,254.055668,-25.741219,254.055668,4.275879,-12.300000,-30.017098,-839.747000,8.260811,-0.360017,7.900794,-13.720998,-5.820204,-0.160200,-0.232953,-0.236028,-3892,-164
0.230000,-27.432586,-838.901750,270.748790,-27.432586,270.748790,4.494507,-15.000000,-31.927093,-823.901750,8.803601,-0.381899,8.421702,-14.110413,-5.688711,-0.160200,-0.231309,-0.231756,-4091,-200
0.232000,-29.096826,-824.926750,287.174181,-29.096826,287.174181,4.739502,-13.350000,-33.836328,-811.576750,9.337684,-0.403105,8.934579,-14.524205,-5.589625,-0.160200,-0.230070,-0.227484,-4314,-178
0.234000,-30.732293,-810.136250,303.315597,-30.732293,303.315597,5.008667,-12.750000,-35.740960,-797.386250,9.862535,-0.423614,9.438921,-14.923768,-5.484847,-0.160200,-0.228761,-0.229620,-4559,-170
0.236000,-32.337371,-794.544500,319.157079,-32.337371,319.157079,5.229492,-11.550000,-37.566863,-782.994500,10.377632,-0.443406,9.934227,-15.301315,-5.367088,-0.160200,-0.227289,-0.227484,-4760,-154
0.238000,-33.910471,-778.167000,334.682960,-33.910471,334.682960,5.455811,-11.475000,-39.366282,-766.692000,10.882468,-0.462466,10.420002,-15.658588,-5.238586,-0.160200,-0.225682,-0.230688,-4966,-153
0.240000,-35.450039,-761.020250,349.877888,-35.450039,349.877888,5.660156,-13.350000,-41.110195,-747.670250,11.376543,-0.480782,10.895761,-15.982347,-5.086586,-0.160200,-0.223782,-0.225348,-5152,-178
0.242000,-36.954552,-743.120750,364.726837,-36.954552,364.726837,5.866699,-10.800000,-42.821251,-732.320750,11.859367,-0.498346,11.361021,-16.323141,-4.962120,-0.160200,-0.222226,-0.220008,-5340,-144
0.244000,-38.422522,-724.486500,379.215124,-38.422522,379.215124,6.054565,-11.475000,-44.477087,-713.011500,12.330465,-0.515153,11.815312,-16.621834,-4.806521,-0.160200,-0.220282,-0.222144,-5511,-153
0.246000,-39.852498,-705.136000,393.328421,-39.852498,393.328421,6.245728,-10.725000,-46.098226,-694.411000,12.789369,-0.531199,12.258170,-16.916391,-4.658220,-0.160200,-0.218428,-0.220008,-5685,-143
0.248000,-41.243066,-685.088000,407.052774,-41.243066,407.052774,6.458862,-11.625000,-47.701928,-673.463000,13.235627,-0.546486,12.689141,-17.189994,-4.500853,-0.160200,-0.216461,-0.220008,-5879,-155
0.250000,-42.592850,-664.362500,420.374610,-42.592850,420.374610,6.645630,-12.450000,-49.238480,-651.912500,13.668797,-0.561017,13.107780,-17.441812,-4.334032,-0.160200,-0.214375,-0.213600,-6049,-166
0.252000,-43.900516,-642.980250,433.280756,-43.900516,433.280756,6.830200,-11.100000,-50.730716,-631.880250,14.088450,-0.574797,13.513652,-17.692627,-4.178974,-0.160200,-0.212437,-0.215736,-6217,-148
0.254000,-45.164771,-620.962000,445.758450,-45.164771,445.758450,7.012573,-10.275000,-52.177344,-610.687000,14.494171,-0.587836,13.906335,-17.923396,-4.017061,-0.160200,-0.210413,-0.212532,-6383,-137
0.256000,-46.384364,-598.329500,457.795354,-46.384364,457.795354,7.203735,-10.200000,-53.588099,-588.129500,14.885560,-0.600143,14.285418,-18.135250,-3.849832,-0.160200,-0.208323,-0.211464,-6557,-136
0.258000,-47.558089,-575.105750,469.379563,-47.558089,469.379563,7.376221,-10.800000,-54.934310,-564.305750,15.262230,-0.611730,14.650500,-18.321366,-3.670866,-0.160200,-0.206086,-0.209328,-6714,-144
0.260000,-48.684787,-551.313500,480.499624,-48.684787,480.499624,7.546509,-10.800000,-56.231296,-540.513500,15.623807,-0.622611,15.001195,-18.494815,-3.493620,-0.160200,-0.203870,-0.208260,-6869,-144
0.262000,-49.763343,-526.975500,491.144540,-49.763343,491.144540,7.712402,-10.275000,-57.475745,-516.700500,15.969934,-0.632802,15.337132,-18.654365,-3.317233,-0.160200,-0.201665,-0.207192,-7020,-137
0.264000,-50.792689,-502.116500,501.303785,-50.792689,501.303785,7.887085,-8.700000,-58.679774,-493.416500,16.300270,-0.642320,15.657950,-18.807026,-3.149076,-0.160200,-0.199563,-0.202920,-7179,-116
0.266000,-51.771809,-476.761250,510.967313,-51.771809,510.967313,8.055176,-8.400000,-59.826985,-468.361250,16.614486,-0.651180,15.963307,-18.932446,-2.969140,-0.160200,-0.197314,-0.201852,-7332,-112
0.268000,-52.699734,-450.934500,520.125568,-52.699734,520.125568,8.213379,-8.025000,-60.913113,-442.909500,16.912274,-0.659401,16.252873,-19.039107,-2.786235,-0.160200,-0.195028,-0.196512,-7476,-107
0.270000,-53.575547,-424.661750,528.769493,-53.575547,528.769493,8.375977,-9.150000,-61.951524,-415.511750,17.193338,-0.667003,16.526335,-19.119690,-2.593355,-0.160200,-0.192617,-0.197580,-7624,-122
0.272000,-54.398381,-397.969000,536.890542,-54.398381,536.890542,8.526489,-8.850000,-62.924870,-389.119000,17.457400,-0.674002,16.783398,-19.190256,-2.406858,-0.160200,-0.190286,-0.191172,-7761,-118
0.274000,-55.167423,-370.883000,544.480683,-55.167423,544.480683,8.670410,-8.025000,-63.837833,-362.858000,17.704199,-0.680418,17.023780,-19.245932,-2.222152,-0.160200,-0.187977,-0.191172,-7892,-107
0.276000,-55.881913,-343.430000,551.532412,-55.881913,551.532412,8.813232,-7.875000,-64.695145,-335.555000,17.933491,-0.686270,17.247221,-19.279765,-2.032544,-0.160200,-0.185607,-0.185832,-8022,-105
0.278000,-56.541143,-315.637250,558.038754,-56.541143,558.038754,8.953857,-7.800000,-65.495000,-307.837250,18.145050,-0.691574,17.453476,-19.295660,-1.842184,-0.160200,-0.183227,-0.186900,-8150,-104
0.280000,-57.144462,-287.532750,563.993277,-57.144462,563.993277,9.103271,-9.525000,-66.247733,-278.007750,18.338666,-0.696348,17.642318,-19.284476,-1.642159,-0.160200,-0.180727,-0.184764,-8286,-127
0.282000,-57.691274,-259.143750,569.390091,-57.691274,569.390091,9.241699,-8.775000,-66.932973,-250.368750,18.514147,-0.700608,17.813539,-19.270915,-1.457376,-0.160200,-0.178417,-0.182628,-8412,-117
0.284000,-58.181037,-230.498500,574.223861,-58.181037,574.223861,9.394409,-9.300000,-67.575446,-221.198500,18.671321,-0.704370,17.966951,-19.235467,-1.268516,-0.160200,-0.176056,-0.175152,-8551,-124
0.286000,-58.613268,-201.625250,578.489806,-58.613268,578.489806,9.535034,-7.575000,-68.148302,-194.050250,18.810031,-0.707647,18.102384,-19.195910,-1.093526,-0.160200,-0.173869,-0.175152,-8679,-101
0.288000,-58.987538,-172.552500,582.183708,-58.987538,582.183708,9.667969,-8.625000,-68.655507,-163.927500,18.930141,-0.710452,18.219689,-19.118399,-0.898710,-0.160200,-0.171434,-0.174084,-8800,-115
0.290000,-59.303478,-143.309500,585.301915,-59.303478,585.301915,9.804199,-7.800000,-69.107677,-135.509500,19.031532,-0.712796,18.318736,-19.038382,-0.719646,-0.160200,-0.169196,-0.168744,-8924,-104
0.292000,-59.560776,-113.924750,587.841342,-59.560776,587.841342,9.929443,-7.875000,-69.490219,-106.049750,19.114103,-0.714689,18.399414,-18.932864,-0.533450,-0.160200,-0.166868,-0.166608,-9038,-105
0.294000,-59.759177,-84.427000,589.799479,-59.759177,589.799479,10.065674,-7.200000,-69.824851,-77.227000,19.177774,-0.716139,18.461635,-18.819249,-0.357615,-0.160200,-0.164670,-0.166608,-9162,-96
0.296000,-59.898484,-54.846000,591.174389,-59.898484,591.174389,10.189819,-6.075000,-70.088303,-48.771000,19.222480,-0.717152,18.505328,-18.689561,-0.184233,-0.160200,-0.162503,-0.162336,-9275,-81
0.298000,-59.978561,-25.210750,591.964713,-59.978561,591.964713,10.298584,-6.000000,-70.277145,-19.210750,19.248178,-0.717732,18.530446,-18.532630,-0.002184,-0.160200,-0.160227,-0.165540,-9374,-80
0.300000,-59.999327,4.449500,592.169669,-59.999327,592.169669,10.402954,-5.700000,-70.402281,10.149500,19.254842,-0.717883,18.536960,-18.360417,0.176542,0.160200,0.162407,-0.158064,-9469,-76
0.302000,-59.960763,34.105250,591.789055,-59.960763,591.789055,10.499634,-1.425000,-70.460397,35.530250,19.242466,-0.717603,18.524863,-18.198441,0.326422,0.160200,0.164280,0.163404,-9557,-19
0.304000,-59.862906,63.727250,590.823247,-59.862906,590.823247,10.496338,5.100000,-70.359244,58.627250,19.211062,-0.716894,18.494169,-18.010712,0.483457,0.160200,0.166243,0.167676,-9554,68
0.306000,-59.705854,93.286250,589.273200,-59.705854,589.273200,10.380981,7.575000,-70.086835,85.711250,19.160661,-0.715750,18.444911,-17.750313,0.694598,0.160200,0.168882,0.166608,-9449,101
0.308000,-59.489761,122.753250,587.140446,-59.489761,587.140446,10.223877,8.400000,-69.713638,114.353250,19.091313,-0.714168,18.377145,-17.452651,0.924494,0.160200,0.171756,0.168744,-9306,112
0.310000,-59.214841,152.098750,584.427095,-59.214841,584.427095,10.083252,8.250000,-69.298093,143.848750,19.003087,-0.712140,18.290946,-17.137945,1.153002,0.160200,0.174613,0.171948,-9178,110
0.312000,-58.881366,181.293750,581.135831,-58.881366,581.135831,9.942627,8.325000,-68.823993,172.968750,18.896069,-0.709659,18.186410,-16.810530,1.375880,0.160200,0.177399,0.174084,-9050,111
0.314000,-58.489666,210.309500,577.269906,-58.489666,577.269906,9.806396,7.575000,-68.296062,202.734500,18.770365,-0.706714,18.063652,-16.464514,1.599138,0.160200,0.180189,0.179424,-8926,101
0.316000,-58.040128,239.117250,572.833145,-58.040128,572.833145,9.673462,9.000000,-67.713590,230.117250,18.626101,-0.703293,17.922808,-16.120855,1.801953,0.160200,0.182724,0.176220,-8805,120
0.318000,-57.533197,267.688500,567.829934,-57.533197,567.829934,9.530640,8.625000,-67.063837,259.063500,18.463417,-0.699383,17.764034,-15.748667,2.015367,0.160200,0.185392,0.179424,-8675,115
0.320000,-56.969374,295.995250,562.265222,-56.969374,562.265222,9.387817,7.875000,-66.357191,288.120250,18.282477,-0.694970,17.587506,-15.360813,2.226693,0.160200,0.188034,0.186900,-8545,105
0.322000,-56.349216,324.009250,556.144510,-56.349216,556.144510,9.239502,8.325000,-65.588718,315.684250,18.083457,-0.690039,17.393418,-14.967194,2.426224,0.160200,0.190528,0.187968,-8410,111
0.324000,-55.673337,351.702750,549.473852,-55.673337,549.473852,9.094482,8.925000,-64.767819,342.777750,17.866556,-0.684573,17.181983,-14.563135,2.618848,0.160200,0.192936,0.191172,-8278,119
0.326000,-54.942405,379.048500,542.259843,-54.942405,542.259843,8.957153,9.600000,-63.899558,369.448500,17.631987,-0.678554,16.953433,-14.149628,2.803805,0.160200,0.195248,0.194376,-8153,128
0.328000,-54.157143,406.019250,534.509617,-54.157143,534.509617,8.816528,9.525000,-62.973671,396.494250,17.379982,-0.671964,16.708018,-13.718417,2.989601,0.160200,0.197570,0.196512,-8025,127
0.330000,-53.318328,432.588750,526.230838,-53.318328,526.230838,8.674805,9.600000,-61.993133,422.988750,17.110791,-0.664786,16.446005,-13.276746,3.169260,0.160200,0.199816,0.193308,-7896,128
0.332000,-52.426788,458.730500,517.431693,-52.426788,517.431693,8.520996,8.475000,-60.947784,450.255500,16.824681,-0.657001,16.167680,-12.812716,3.354964,0.160200,0.202137,0.201852,-7756,113
0.334000,-51.483406,484.418500,508.120883,-51.483406,508.120883,8.345215,8.475000,-59.828621,475.943500,16.521933,-0.648590,15.873343,-12.340384,3.532959,0.160200,0.204362,0.200784,-7596,113
0.336000,-50.489114,509.627750,498.307614,-50.489114,498.307614,8.162842,8.775000,-58.651956,500.852750,16.202847,-0.639534,15.563313,-11.858434,3.704878,0.160200,0.206511,0.202920,-7430,117
0.338000,-49.444895,534.332750,488.001591,-49.444895,488.001591,7.982666,10.425000,-57.427561,523.907750,15.867739,-0.629817,15.237922,-11.376934,3.860988,0.160200,0.208462,0.207192,-7266,139
0.340000,-48.351783,558.509250,477.213005,-48.351783,477.213005,7.811279,9.300000,-56.163062,549.209250,15.516940,-0.619420,14.897520,-10.869251,4.028268,0.160200,0.210553,0.207192,-7110,124
0.342000,-47.210858,582.133750,465.952524,-47.210858,465.952524,7.648682,11.175000,-54.859540,570.958750,15.150797,-0.608328,14.542468,-10.376150,4.166318,0.160200,0.212279,0.210396,-6962,149
0.344000,-46.023248,605.182500,454.231283,-46.023248,454.231283,7.479492,10.725000,-53.502740,594.457500,14.769672,-0.596527,14.173145,-9.856888,4.316257,0.160200,0.214153,0.214668,-6808,143
0.346000,-44.790128,627.633000,442.060872,-44.790128,442.060872,7.296021,11.175000,-52.086149,616.458000,14.373942,-0.584002,13.789940,-9.332433,4.457507,0.160200,0.215919,0.213600,-6641,149
0.348000,-43.512716,649.462750,429.453327,-43.512716,429.453327,7.112549,10.950000,-50.625265,638.512750,13.963998,-0.570742,13.393256,-8.796003,4.597253,0.160200,0.217666,0.221076,-6474,146
0.350000,-42.192277,670.650000,416.421115,-42.192277,416.421115,6.924683,11.475000,-49.116960,659.175000,13.540246,-0.556737,12.983509,-8.256880,4.726629,0.160200,0.219283,0.215736,-6303,153
0.352000,-40.830116,691.174250,402.977123,-40.830116,402.977123,6.754395,11.550000,-47.584511,679.624250,13.103104,-0.541980,12.561125,-7.712923,4.848201,0.160200,0.220803,0.220008,-6148,154
0.354000,-39.427580,711.015250,389.134644,-39.427580,389.134644,6.551147,11.850000,-45.978727,699.165250,12.653006,-0.526465,12.126541,-7.156108,4.970432,0.160200,0.222330,0.221076,-5963,158
0.356000,-37.986055,730.153000,374.907367,-37.986055,374.907367,6.358887,11.925000,-44.344942,718.228000,12.190395,-0.510191,11.680205,-6.595301,5.084903,0.160200,0.223761,0.222144,-5788,159
0.358000,-36.506968,748.568500,360.309360,-36.506968,360.309360,6.168823,11.550000,-42.675791,737.018500,11.715730,-0.493156,11.222573,-6.027136,5.195437,0.160200,0.225143,0.226416,-5615,154
0.360000,-34.991781,766.244000,345.355060,-34.991781,345.355060,5.983154,12.675000,-40.974935,753.569000,11.229480,-0.475366,10.754114,-5.466309,5.287805,0.160200,0.226298,0.225348,-5446,169
0.362000,-33.441992,783.162000,330.059253,-33.441992,330.059253,5.768921,12.900000,-39.210913,770.262000,10.732125,-0.456825,10.275300,-4.887950,5.387350,0.160200,0.227542,0.226416,-5251,172
0.364000,-31.859133,799.305250,314.437066,-31.859133,314.437066,5.573364,11.700000,-37.432497,787.605250,10.224158,-0.437544,9.786613,-4.301283,5.485331,0.160200,0.228767,0.228552,-5073,156
0.366000,-30.244771,814.658000,298.503945,-30.244771,298.503945,5.372314,12.750000,-35.617085,801.908000,9.706080,-0.417536,9.288545,-3.726157,5.562388,0.160200,0.229730,0.228552,-4890,170
0.368000,-28.600501,829.205500,282.275647,-28.600501,282.275647,5.145996,11.475000,-33.746497,817.730500,9.178405,-0.396816,8.781589,-3.125976,5.655613,0.160200,0.230895,0.226416,-4684,153
0.370000,-26.927949,842.933000,265.768219,-26.927949,265.768219,4.942749,12.750000,-31.870698,830.183000,8.641654,-0.375404,8.266249,-2.547959,5.718291,0.160200,0.231679,0.229620,-4499,170
0.372000,-25.228769,855.827000,248.997985,-25.228769,248.997985,4.740601,12.675000,-29.969370,843.152000,8.096357,-0.353324,7.743033,-1.959651,5.783381,0.160200,0.232492,0.233892,-4315,169
0.374000,-23.504641,867.874500,231.981527,-23.504641,231.981527,4.538452,12.600000,-28.043093,855.274500,7.543054,-0.330603,7.212451,-1.370722,5.841729,0.160200,0.233222,0.234960,-4131,168
0.376000,-21.757271,879.063750,214.735673,-21.757271,214.735673,4.327515,11.175000,-26.084786,867.888750,6.982292,-0.307269,6.675022,-0.769974,5.905048,0.160200,0.234013,0.229620,-3939,149
0.378000,-19.988386,889.384000,197.277477,-19.988386,197.277477,4.111084,11.550000,-24.099470,877.834000,6.414626,-0.283358,6.131268,-0.180789,5.950479,0.160200,0.234581,0.231756,-3742,154
0.380000,-18.199735,898.824500,179.624202,-18.199735,179.624202,3.895752,12.450000,-22.095487,886.374500,5.840616,-0.258905,5.581711,0.403476,5.985188,0.160200,0.235015,0.232824,-3546,166
0.382000,-16.393088,907.376250,161.793304,-16.393088,161.793304,3.687012,12.075000,-20.080100,895.301250,5.260831,-0.233950,5.026881,0.993424,6.020305,0.160200,0.235454,0.234960,-3356,161
0.384000,-14.570230,915.031000,143.802416,-14.570230,143.802416,3.484863,13.275000,-18.055093,901.756000,4.675844,-0.208535,4.467309,1.568632,6.035941,0.160200,0.235649,0.237096,-3172,177
0.386000,-12.732964,921.780750,125.669328,-12.732964,125.669328,3.265137,12.900000,-15.998101,908.880750,4.086233,-0.182706,3.903527,2.156892,6.060419,0.160200,0.235955,0.236028,-2972,172
0.388000,-10.883107,927.618750,107.411971,-10.883107,107.411971,3.046509,13.725000,-13.929616,913.893750,3.492581,-0.156510,3.336071,2.733417,6.069488,0.160200,0.236069,0.238164,-2773,183
0.390000,-9.022489,932.539750,89.048399,-9.022489,89.048399,2.821289,12.075000,-11.843778,920.464750,2.895476,-0.129997,2.765479,3.325362,6.090841,0.160200,0.236336,0.240300,-2568,161
0.392000,-7.152948,936.538750,70.596771,-7.152948,70.596771,2.597168,12.375000,-9.750116,924.163750,2.295507,-0.103219,2.192288,3.899306,6.091594,0.160200,0.236345,0.237096,-2364,165
0.394000,-5.276334,939.611250,52.075334,-5.276334,52.075334,2.379639,13.650000,-7.655973,925.961250,1.693269,-0.076229,1.617039,4.460100,6.077140,0.160200,0.236164,0.233892,-2166,182
0.396000,-3.394503,941.754750,33.502401,-3.394503,33.502401,2.150024,13.200000,-5.544527,928.554750,1.089356,-0.049082,1.040273,5.030981,6.071255,0.160200,0.236091,0.236028,-1957,176
0.398000,-1.509315,942.967250,14.896339,-1.509315,14.896339,1.934692,11.550000,-3.444007,931.417250,0.484366,-0.021834,0.462532,5.600880,6.063412,0.160200,0.235993,0.238164,-1761,154
0.400000,0.377366,943.247000,-3.724453,0.377366,-3.724453,1.714966,12.150000,-1.337600,931.097000,-0.121103,0.005460,-0.115644,6.150101,6.034457,0.160200,0.235631,0.234960,-1561,162
0.402000,2.263673,942.594000,-22.341562,2.263673,-22.341562,1.499634,13.650000,0.764039,928.944000,-0.726453,0.032742,-0.693711,6.685278,5.991567,0.160200,0.235095,0.237096,-1365,182
0.404000,4.147742,941.009250,-40.936579,4.147742,-40.936579,1.262329,12.750000,2.885413,928.259250,-1.331084,0.059956,-1.271127,7.235871,5.964744,0.160200,0.234759,0.231756,-1149,170
0.406000,6.027710,938.493750,-59.491115,6.027710,-59.491115,1.007446,11.850000,5.020264,926.643750,-1.934398,0.087047,-1.847351,7.783496,5.936144,0.160200,0.234402,0.236028,-917,158
0.408000,7.901717,935.050000,-77.986823,7.901717,-77.986823,0.755859,13.650000,7.145858,921.400000,-2.535800,0.113959,-2.421842,8.303367,5.881525,0.160200,0.233719,0.234960,-688,182
0.410000,9.767910,930.681750,-96.405414,9.767910,-96.405414,0.506470,12.450000,9.261440,918.231750,-3.134695,0.140637,-2.994058,8.835106,5.841049,0.160200,0.233213,0.233892,-461,166
0.412000,11.624444,925.393250,-114.728673,11.624444,-114.728673,0.265869,13.950000,11.358575,911.443250,-3.730489,0.167029,-3.563460,9.336742,5.773282,0.160200,0.232366,0.232824,-242,186
0.414000,13.469483,919.189750,-132.938482,13.469483,-132.938482,0.008789,11.400000,13.460694,907.789750,-4.322595,0.193084,-4.129511,9.861569,5.732059,0.160200,0.231851,0.237096,-8,152
0.416000,15.301203,912.077500,-151.016834,15.301203,-151.016834,-0.246094,11.400000,15.547297,900.677500,-4.910426,0.218753,-4.691673,10.358188,5.666515,0.160200,0.231031,0.225348,224,152
0.418000,17.117793,904.063000,-168.945853,17.117793,-168.945853,-0.451538,14.175000,17.569331,889.888000,-5.493401,0.243989,-5.249412,10.812230,5.562818,0.160200,0.229735,0.234960,411,189
0.420000,18.917455,895.154250,-186.707808,18.917455,-186.707808,-0.707520,11.775000,19.624975,883.379250,-6.070945,0.268749,-5.802196,11.304957,5.502761,0.160200,0.228985,0.230688,644,157
0.422000,20.698410,885.360750,-204.285136,20.698410,-204.285136,-0.963501,13.500000,21.661911,871.860750,-6.642485,0.292990,-6.349495,11.757811,5.408316,0.160200,0.227804,0.228552,877,180
0.424000,22.458898,874.691750,-221.660456,22.458898,-221.660456,-1.220581,13.875000,23.679479,860.816750,-7.207456,0.316674,-6.890782,12.208908,5.318125,0.160200,0.226677,0.228552,1111,185
0.426000,24.197177,863.157750,-238.816585,24.197177,-238.816585,-1.427124,11.400000,25.624301,851.757750,-7.765301,0.339766,-7.425534,12.654817,5.229283,0.160200,0.225566,0.227484,1299,152
0.428000,25.911529,850.770250,-255.736559,25.911529,-255.736559,-1.671021,13.350000,27.582550,837.420250,-8.315467,0.362235,-7.953232,13.067391,5.114159,0.160200,0.224127,0.226416,1521,178
0.430000,27.600258,837.541250,-272.403647,27.600258,-272.403647,-1.905029,11.475000,29.505287,826.066250,-8.857409,0.384050,-8.473359,13.491497,5.018137,0.160200,0.222927,0.225348,1734,153
0.432000,29.261694,823.484250,-288.801367,29.261694,-288.801367,-2.148926,11.250000,31.410620,812.234250,-9.390594,0.405188,-8.985406,13.893746,4.908340,0.160200,0.221554,0.223212,1956,150
0.434000,30.894195,808.613000,-304.913503,30.894195,-304.913503,-2.389526,11.925000,33.283721,796.688000,-9.914492,0.425625,-9.488866,14.275589,4.786723,0.160200,0.220034,0.221076,2175,159
0.436000,32.496146,792.941750,-320.724125,32.496146,-320.724125,-2.605957,10.650000,35.102103,782.291750,-10.428586,0.445345,-9.983241,14.651136,4.667894,0.160200,0.218549,0.220008,2372,142
0.438000,34.065962,776.486750,-336.217596,34.065962,-336.217596,-2.820190,11.400000,36.886152,765.086750,-10.932368,0.464331,-10.468037,14.998085,4.530048,0.160200,0.216826,0.218940,2567,152
0.440000,35.602093,759.264000,-351.378597,35.602093,-351.378597,-3.047607,12.525000,38.649700,746.739000,-11.425339,0.482573,-10.942767,15.331690,4.388923,0.160200,0.215062,0.217872,2774,167
0.442000,37.103018,741.290000,-366.192135,37.103018,-366.192135,-3.270630,12.450000,40.373648,728.840000,-11.907013,0.500061,-11.406952,15.658059,4.251108,0.160200,0.213339,0.216804,2977,166
0.444000,38.567253,722.583250,-380.643561,38.567253,-380.643561,-3.523315,12.375000,42.090568,710.208250,-12.376912,0.516792,-11.860120,15.977474,4.117354,0.160200,0.211667,0.215736,3207,165
0.446000,39.993351,703.162250,-394.718586,39.993351,-394.718586,-3.746338,10.800000,43.739689,692.362250,-12.834572,0.532762,-12.301810,16.284624,3.982814,0.160200,0.209985,0.215736,3410,144
0.448000,41.379902,683.045750,-408.403291,41.379902,-408.403291,-3.947388,11.550000,45.327290,671.495750,-13.279540,0.547973,-12.731567,16.554581,3.823014,0.160200,0.207988,0.207192,3593,154
0.450000,42.725534,662.253500,-421.684145,42.725534,-421.684145,-4.140747,9.900000,46.866281,652.353500,-13.711377,0.562429,-13.148949,16.823850,3.674902,0.160200,0.206136,0.215736,3769,132
0.452000,44.028916,640.806500,-434.548013,44.028916,-434.548013,-4.363770,11.175000,48.392686,629.631500,-14.129655,0.576134,-13.553521,17.064833,3.511312,0.160200,0.204091,0.208260,3972,149
0.454000,45.288760,618.726000,-446.982176,45.288760,-446.982176,-4.549438,11.400000,49.838198,607.326000,-14.533962,0.589099,-13.944862,17.287545,3.342683,0.160200,0.201984,0.208260,4141,152
0.456000,46.503820,596.033500,-458.974338,46.503820,-458.974338,-4.740601,10.050000,51.244421,585.983500,-14.923896,0.601333,-14.322562,17.506695,3.184132,0.160200,0.200002,0.199716,4315,134
0.458000,47.672894,572.751750,-470.512641,47.672894,-470.512641,-4.914185,9.150000,52.587079,563.601750,-15.299072,0.612849,-14.686223,17.701947,3.015725,0.160200,0.197897,0.197580,4473,122
0.460000,48.794827,548.903750,-481.585675,48.794827,-481.585675,-5.084473,9.000000,53.879300,539.903750,-15.659120,0.623661,-15.035459,17.874807,2.839348,0.160200,0.195692,0.198648,4628,120
0.462000,49.868509,524.512750,-492.182489,49.868509,-492.182489,-5.259155,10.425000,55.127664,514.087750,-16.003684,0.633784,-15.369900,18.021398,2.651499,0.160200,0.193344,0.197580,4787,139
0.464000,50.892878,499.603000,-502.292607,50.892878,-502.292607,-5.411865,8.775000,56.304743,490.828000,-16.332422,0.643235,-15.689187,18.167173,2.477986,0.160200,0.191175,0.190104,4926,117
0.466000,51.866921,474.199250,-511.906029,51.866921,-511.906029,-5.562378,9.675000,57.429299,464.524250,-16.645010,0.652030,-15.992979,18.277946,2.284967,0.160200,0.188762,0.193308,5063,129
0.468000,52.789675,448.326750,-521.013250,52.789675,-521.013250,-5.731567,9.750000,58.521242,438.576750,-16.941138,0.660189,-16.280949,18.382669,2.101720,0.160200,0.186472,0.191172,5217,130
0.470000,53.660228,422.011000,-529.605264,53.660228,-529.605264,-5.905151,8.175000,59.565379,413.836000,-17.220513,0.667729,-16.552784,18.483300,1.930516,0.160200,0.184331,0.186900,5375,109
0.472000,54.477719,395.277750,-537.673575,54.477719,-537.673575,-6.076538,8.625000,60.554257,386.652750,-17.482861,0.674670,-16.808191,18.552413,1.744222,0.160200,0.182003,0.186900,5531,115
0.474000,55.241339,368.153750,-545.210204,55.241339,-545.210204,-6.214966,9.000000,61.456305,359.153750,-17.727920,0.681029,-17.046891,18.596589,1.549698,0.160200,0.179571,0.181560,5657,120
0.476000,55.950334,340.665500,-552.207699,55.950334,-552.207699,-6.358887,7.725000,62.309221,332.940500,-17.955449,0.686824,-17.268624,18.636879,1.368255,0.160200,0.177303,0.179424,5788,103
0.478000,56.604001,312.840500,-558.659140,56.604001,-558.659140,-6.510498,7.800000,63.114499,305.040500,-18.165222,0.692075,-17.473147,18.652922,1.179774,0.160200,0.174947,0.177288,5926,104
0.480000,57.201696,284.706250,-564.558147,57.201696,-564.558147,-6.633545,7.650000,63.835241,277.056250,-18.357033,0.696797,-17.660236,18.646245,0.986009,0.160200,0.172525,0.181560,6038,102
0.482000,57.742826,256.290250,-569.898888,57.742826,-569.898888,-6.753296,7.050000,64.496122,249.240250,-18.530691,0.701006,-17.829685,18.625070,0.795386,0.160200,0.170142,0.173016,6147,94
0.484000,58.226857,227.620750,-574.676082,58.226857,-574.676082,-6.878540,6.525000,65.105397,221.095750,-18.686025,0.704719,-17.981306,18.588093,0.606787,0.160200,0.167785,0.167676,6261,87
0.486000,58.653309,198.726500,-578.885003,58.653309,-578.885003,-7.003784,8.250000,65.657093,190.476500,-18.822881,0.707948,-18.114933,18.518764,0.403831,0.160200,0.165248,0.167676,6375,110
0.488000,59.021763,169.635750,-582.521491,59.021763,-582.521491,-7.126831,6.450000,66.148594,163.185750,-18.941124,0.710707,-18.230418,18.456913,0.226495,0.160200,0.163031,0.167676,6487,86
0.490000,59.331852,140.376750,-585.581948,59.331852,-585.581948,-7.243286,6.000000,66.575138,134.376750,-19.040637,0.713005,-18.327632,18.367457,0.039825,0.160200,0.160698,0.163404,6593,80
0.492000,59.583270,110.979500,-588.063350,59.583270,-588.063350,-7.354248,5.925000,66.937518,105.054500,-19.121322,0.714854,-18.406468,18.257620,-0.148848,0.160200,0.158339,0.159132,6694,79
0.494000,59.775770,81.472250,-589.963242,59.775770,-589.963242,-7.457520,5.850000,67.233290,75.622250,-19.183099,0.716260,-18.466839,18.129577,-0.337262,0.160200,0.155984,0.162336,6788,78
0.496000,59.909159,51.884250,-591.279745,59.909159,-591.279745,-7.567383,5.775000,67.476542,46.109250,-19.225906,0.717229,-18.508676,17.987221,-0.521456,0.160200,0.153682,0.155928,6888,77
0.498000,59.983307,22.245500,-592.011558,59.983307,-592.011558,-7.671753,5.475000,67.655060,16.770500,-19.249701,0.717767,-18.531934,17.829133,-0.702801,0.160200,0.151415,0.151656,6983,73
0.500000,59.998141,-7.415500,-592.157957,59.998141,-592.157957,-7.781616,6.525000,67.779757,-13.940500,-19.254461,0.717874,-18.536587,17.647376,-0.889211,-0.160200,-0.171315,0.151656,7083,87
0.502000,59.953645,-37.069500,-591.718797,59.953645,-591.718797,-7.879395,1.425000,67.833040,-38.494500,-19.240182,0.717552,-18.522630,17.489906,-1.032724,-0.160200,-0.173109,-0.169812,7172,19
0.504000,59.849863,-66.686750,-590.694512,59.849863,-590.694512,-7.869507,-4.275000,67.719370,-62.411750,-19.206876,0.716799,-18.490077,17.293173,-1.196904,-0.160200,-0.175161,-0.173016,7163,-57
0.506000,59.686898,-96.237750,-589.086116,59.686898,-589.086116,-7.767334,-7.800000,67.454232,-88.437750,-19.154578,0.715612,-18.438966,17.042065,-1.396902,-0.160200,-0.177661,-0.173016,7070,-104
0.508000,59.464912,-125.693750,-586.895198,59.464912,-586.895198,-7.613525,-8.475000,67.078437,-117.218750,-19.083339,0.713985,-18.369353,16.742753,-1.626601,-0.160200,-0.180533,-0.177288,6930,-113
0.510000,59.184123,-155.025500,-584.123926,59.184123,-584.123926,-7.455322,-8.850000,66.639445,-146.175500,-18.993229,0.711913,-18.281316,16.425668,-1.855647,-0.160200,-0.183396,-0.181560,6786,-118
0.512000,58.844810,-184.203750,-580.775039,58.844810,-580.775039,-7.324585,-7.650000,66.169395,-176.553750,-18.884337,0.709386,-18.174952,16.090529,-2.084422,-0.160200,-0.186255,-0.184764,6667,-102
0.514000,58.447308,-213.200000,-576.851850,58.447308,-576.851850,-7.188354,-8.700000,65.635662,-204.500000,-18.756772,0.706393,-18.050379,15.755697,-2.294682,-0.160200,-0.188884,-0.190104,6543,-116
0.516000,57.992010,-241.985500,-572.358237,57.992010,-572.358237,-7.051025,-9.225000,65.043035,-232.760500,-18.610659,0.702924,-17.907735,15.403252,-2.504483,-0.160200,-0.191506,-0.192240,6418,-123
0.518000,57.479366,-270.531750,-567.298644,57.479366,-567.298644,-6.910400,-9.675000,64.389766,-260.856750,-18.446142,0.698965,-17.747177,15.036078,-2.711100,-0.160200,-0.194089,-0.191172,6290,-129
0.520000,56.909883,-298.810250,-561.678075,56.909883,-561.678075,-6.756592,-9.750000,63.666475,-289.060250,-18.263385,0.694501,-17.568884,14.649823,-2.919061,-0.160200,-0.196688,-0.195444,6150,-130
0.522000,56.284125,-326.793250,-555.502087,56.284125,-555.502087,-6.572021,-10.425000,62.856146,-316.368250,-18.062568,0.689517,-17.373051,14.247034,-3.126018,-0.160200,-0.199275,-0.193308,5982,-139
0.524000,55.602710,-354.453500,-548.776788,55.602710,-548.776788,-6.396240,-9.375000,61.998950,-345.078500,-17.843890,0.683996,-17.159894,13.822185,-3.337709,-0.160200,-0.201921,-0.199716,5822,-125
0.526000,54.866311,-381.763000,-541.508828,54.866311,-541.508828,-6.239136,-9.600000,61.105447,-372.163000,-17.607567,0.677921,-16.929646,13.399181,-3.530465,-0.160200,-0.204331,-0.206124,5679,-128
0.528000,54.075658,-408.694750,-533.705393,54.075658,-533.705393,-6.074341,-9.225000,60.149999,-399.469750,-17.353832,0.671273,-16.682559,12.958408,-3.724151,-0.160200,-0.206752,-0.206124,5529,-123
0.530000,53.231532,-435.222750,-525.374201,53.231532,-525.374201,-5.898560,-9.225000,59.130092,-425.997750,-17.082937,0.664035,-16.418902,12.506196,-3.912705,-0.160200,-0.209109,-0.205056,5369,-123
0.532000,52.334767,-461.320250,-516.523489,52.334767,-516.523489,-5.713989,-9.600000,58.048756,-451.720250,-16.795150,0.656188,-16.138961,12.043527,-4.095435,-0.160200,-0.211393,-0.210396,5201,-128
0.534000,51.386251,-486.961250,-507.162010,51.386251,-507.162010,-5.532715,-10.725000,56.918966,-476.236250,-16.490754,0.647713,-15.843041,11.576594,-4.266447,-0.160200,-0.213531,-0.210396,5036,-143
0.536000,50.386922,-512.121000,-497.299021,50.386922,-497.299021,-5.341553,-9.525000,55.728475,-502.596000,-16.170052,0.638592,-15.531459,11.080899,-4.450561,-0.160200,-0.215832,-0.213600,4862,-127
0.538000,49.337767,-536.774500,-486.944275,49.337767,-486.944275,-5.169067,-11.250000,54.506834,-525.524500,-15.833359,0.628808,-15.204552,10.601003,-4.603549,-0.160200,-0.217744,-0.210396,4705,-150
0.540000,48.239824,-560.897000,-476.108012,48.239824,-476.108012,-4.960327,-11.550000,53.200151,-549.347000,-15.481010,0.618342,-14.862668,10.092601,-4.770066,-0.160200,-0.219826,-0.211464,4515,-154
0.542000,47.094179,-584.465000,-464.800946,47.094179,-464.800946,-4.759277,-11.175000,51.853456,-573.290000,-15.113352,0.607180,-14.506172,9.572884,-4.933288,-0.160200,-0.221866,-0.217872,4332,-149
0.544000,45.901964,-607.455000,-453.034259,45.901964,-453.034259,-4.560425,-10.875000,50.462389,-596.580000,-14.730750,0.595307,-14.135443,9.046108,-5.089334,-0.160200,-0.223817,-0.224280,4151,-145
0.546000,44.664359,-629.844250,-440.819586,44.664359,-440.819586,-4.334106,-13.275000,48.998465,-616.569250,-14.333580,0.582709,-13.750872,8.523303,-5.227569,-0.160200,-0.225545,-0.222144,3945,-177
0.548000,43.382587,-651.610500,-428.169007,43.382587,-428.169007,-4.106689,-11.025000,47.489276,-640.585500,-13.922237,0.569375,-13.352863,7.960533,-5.392330,-0.160200,-0.227604,-0.223212,3738,-147
0.550000,42.057917,-672.732500,-415.095030,42.057917,-415.095030,-3.890259,-11.250000,45.948176,-661.482500,-13.497127,0.555295,-12.941832,7.411185,-5.530647,-0.160200,-0.229333,-0.228552,3541,-150
0.552000,40.691657,-693.189500,-401.610584,40.691657,-401.610584,-3.692505,-13.350000,44.384162,-679.839500,-13.058670,0.540462,-12.518208,6.873571,-5.644637,-0.160200,-0.230758,-0.231756,3361,-178
0.554000,39.285159,-712.961000,-387.729003,39.285159,-387.729003,-3.493652,-12.675000,42.778811,-700.286000,-12.607300,0.524872,-12.082428,6.310548,-5.771880,-0.160200,-0.232349,-0.228552,3180,-169
0.556000,37.839813,-732.027250,-373.464013,37.839813,-373.464013,-3.277222,-11.250000,41.117035,-720.777250,-12.143463,0.508521,-11.634942,5.732440,-5.902502,-0.160200,-0.233981,-0.233892,2983,-150
0.558000,36.357050,-750.369750,-358.829722,36.357050,-358.829722,-3.076172,-13.725000,39.433222,-736.644750,-11.667618,0.491411,-11.176207,5.180843,-5.995364,-0.160200,-0.235142,-0.231756,2800,-183
0.560000,34.838334,-767.970500,-343.840600,34.838334,-343.840600,-2.876221,-12.750000,37.714555,-755.220500,-11.180236,0.473545,-10.706690,4.601214,-6.105477,-0.160200,-0.236518,-0.236028,2618,-170
0.562000,33.285168,-784.811250,-328.511469,33.285168,-328.511469,-2.647705,-12.000000,35.932873,-772.811250,-10.681797,0.454930,-10.226867,4.011964,-6.214903,-0.160200,-0.237886,-0.233892,2410,-160
0.564000,31.699089,-800.876250,-312.857488,31.699089,-312.857488,-2.429077,-13.350000,34.128166,-787.526250,-10.172797,0.435576,-9.737221,3.436763,-6.300458,-0.160200,-0.238956,-0.237096,2211,-178
0.566000,30.081663,-816.149500,-296.894136,30.081663,-296.894136,-2.200562,-14.475000,32.282225,-801.674500,-9.653736,0.415495,-9.238241,2.854723,-6.383518,-0.160200,-0.239994,-0.240300,2003,-193
0.568000,28.434491,-830.615500,-280.637198,28.434491,-280.637198,-1.985229,-13.875000,30.419720,-816.740500,-9.125130,0.394705,-8.730424,2.261940,-6.468485,-0.160200,-0.241056,-0.240300,1807,-185
0.570000,26.759201,-844.260000,-264.102750,26.759201,-264.102750,-1.752319,-13.950000,28.511520,-830.310000,-8.587500,0.373226,-8.214274,1.667641,-6.546633,-0.160200,-0.242033,-0.241368,1595,-186
0.572000,25.057451,-857.069750,-247.307143,25.057451,-247.307143,-1.496338,-14.700000,26.553789,-842.369750,-8.041378,0.351080,-7.690297,1.070915,-6.619382,-0.160200,-0.242942,-0.240300,1362,-196
0.574000,23.330922,-869.032250,-230.266985,23.330922,-230.266985,-1.246948,-14.625000,24.577870,-854.407250,-7.487304,0.328296,-7.159008,0.469584,-6.689424,-0.160200,-0.243818,-0.243504,1135,-195
0.576000,21.581322,-880.135250,-212.999126,21.581322,-212.999126,-0.990967,-12.225000,22.572289,-867.910250,-6.925827,0.304904,-6.620923,-0.149745,-6.770668,-0.160200,-0.244833,-0.245640,902,-163
0.578000,19.810381,-890.367750,-195.520641,19.810381,-195.520641,-0.763550,-13.125000,20.573931,-877.242750,-6.357501,0.280936,-6.076564,-0.738067,-6.814632,-0.160200,-0.245383,-0.246708,695,-175
0.580000,18.019851,-899.719750,-177.848815,18.019851,-177.848815,-0.546021,-14.625000,18.565872,-885.094750,-5.782888,0.256431,-5.526457,-1.318593,-6.845050,-0.160200,-0.245763,-0.245640,497,-195
0.582000,16.211502,-908.182250,-160.001122,16.211502,-160.001122,-0.327393,-12.900000,16.538895,-895.282250,-5.202557,0.231428,-4.971129,-1.920377,-6.891505,-0.160200,-0.246344,-0.243504,298,-172
0.584000,14.387122,-915.746750,-141.995211,14.387122,-141.995211,-0.103271,-12.750000,14.490393,-902.996750,-4.617081,0.205970,-4.411111,-2.510530,-6.921642,-0.160200,-0.246721,-0.244572,94,-170
0.586000,12.548515,-922.405750,-123.848887,12.548515,-123.848887,0.125244,-13.200000,12.423271,-909.205750,-4.027040,0.180102,-3.846938,-3.095049,-6.941987,-0.160200,-0.246975,-0.252048,-114,-176
0.588000,10.697499,-928.152250,-105.580095,10.697499,-105.580095,0.365845,-16.500000,10.331654,-911.652250,-3.433016,0.153872,-3.279144,-3.659713,-6.938857,-0.160200,-0.246936,-0.247776,-333,-220
0.590000,8.835906,-932.981250,-87.206899,8.835906,-87.206899,0.616333,-13.275000,8.219573,-919.706250,-2.835598,0.127330,-2.708268,-4.268882,-6.977149,-0.160200,-0.247414,-0.244572,-561,-177
0.592000,6.965574,-936.887750,-68.747467,6.965574,-68.747467,0.854736,-15.975000,6.110838,-920.912750,-2.235376,0.100529,-2.134847,-4.829370,-6.964217,-0.160200,-0.247253,-0.246708,-778,-213
0.594000,5.088355,-939.867500,-50.220055,5.088355,-50.220055,1.095337,-15.300000,3.993018,-924.567500,-1.632943,0.073521,-1.559422,-5.409329,-6.968751,-0.160200,-0.247309,-0.247776,-997,-204
0.596000,3.206104,-941.918000,-31.642982,3.206104,-31.642982,1.333740,-14.475000,1.872364,-927.443000,-1.028895,0.046361,-0.982534,-5.984590,-6.967124,-0.160200,-0.247289,-0.252048,-1214,-193
0.598000,1.320683,-943.037000,-13.034619,1.320683,-13.034619,1.568848,-14.175000,-0.248165,-928.862000,-0.423830,0.019106,-0.404725,-6.549649,-6.954374,-0.160200,-0.247130,-0.248844,-1428,-189
0.600000,-0.566044,-943.223750,5.586634,-0.566044,5.586634,1.802856,-15.900000,-2.368900,-927.323750,0.181654,-0.008189,0.173464,-7.094118,-6.920653,-0.160200,-0.246708,-0.245640,-1641,-212
0.602000,-2.452212,-942.477500,24.202362,-2.452212,24.202362,2.039062,-13.800000,-4.491274,-928.677500,0.786958,-0.035467,0.751491,-7.659205,-6.907714,-0.160200,-0.246546,-0.246708,-1856,-184
0.604000,-4.335954,-940.799250,42.794157,-4.335954,42.794157,2.276367,-14.175000,-6.612321,-926.624250,1.391484,-0.062672,1.328812,-8.200159,-6.871347,-0.160200,-0.246092,-0.244572,-2072,-189
0.606000,-6.215409,-938.191000,61.343636,-6.215409,61.343636,2.545532,-14.400000,-8.760941,-923.791000,1.994634,-0.089747,1.904887,-8.742887,-6.838000,-0.160200,-0.245675,-0.246708,-2317,-192
0.608000,-8.088718,-934.654750,79.832454,-8.088718,79.832454,2.814697,-14.325000,-10.903415,-920.329750,2.595812,-0.116638,2.479175,-9.279621,-6.800447,-0.160200,-0.245206,-0.245640,-2562,-191
0.610000,-9.954028,-930.194250,98.242329,-9.954028,98.242329,3.119019,-16.050000,-13.073047,-914.144250,3.194423,-0.143290,3.051133,-9.804446,-6.753313,-0.160200,-0.244616,-0.246708,-2839,-214
0.612000,-11.809495,-924.814250,116.555057,-11.809495,116.555057,3.380493,-14.700000,-15.189988,-910.114250,3.789875,-0.169650,3.620225,-10.330526,-6.710301,-0.160200,-0.244079,-0.245640,-3077,-196
0.614000,-13.653285,-918.519500,134.752529,-13.653285,134.752529,3.613403,-13.725000,-17.266688,-904.794500,4.381580,-0.195669,4.185911,-10.837066,-6.651155,-0.160200,-0.243339,-0.243504,-3289,-183
0.616000,-15.483573,-911.316250,152.816750,-15.483573,152.816750,3.874878,-15.075000,-19.358451,-896.241250,4.968952,-0.221297,4.747655,-11.324975,-6.577320,-0.160200,-0.242417,-0.240300,-3527,-201
0.618000,-17.298550,-903.212000,170.729857,-17.298550,170.729857,4.106689,-15.900000,-21.405239,-887.312000,5.551410,-0.246487,5.304922,-11.798485,-6.493563,-0.160200,-0.241370,-0.241368,-3738,-212
0.620000,-19.096421,-894.214750,188.474137,-19.096421,188.474137,4.339600,-14.475000,-23.436021,-879.739750,6.128378,-0.271197,5.857182,-12.277278,-6.420096,-0.160200,-0.240451,-0.240300,-3950,-193
0.622000,-20.875409,-884.333250,206.032044,-20.875409,206.032044,4.571411,-13.050000,-25.446820,-871.283250,6.699287,-0.295384,6.403903,-12.744667,-6.340763,-0.160200,-0.239460,-0.241368,-4161,-174
0.624000,-22.633754,-873.577000,223.386214,-22.633754,223.386214,4.803223,-13.200000,-27.436977,-860.377000,7.263571,-0.319010,6.944560,-13.189548,-6.244988,-0.160200,-0.238262,-0.237096,-4372,-176
0.626000,-24.369717,-861.957250,240.519488,-24.369717,240.519488,5.031738,-12.600000,-29.401455,-849.357250,7.820672,-0.342042,7.478630,-13.626915,-6.148285,-0.160200,-0.237054,-0.234960,-4580,-168
0.628000,-26.081583,-849.485000,257.414922,-26.081583,257.414922,5.274536,-15.300000,-31.356119,-834.185000,8.370040,-0.364446,8.005594,-14.032723,-6.027129,-0.160200,-0.235539,-0.240300,-4801,-204
0.630000,-27.767657,-836.172500,274.055810,-27.767657,274.055810,5.507446,-12.225000,-33.275103,-823.947500,8.911131,-0.386195,8.524936,-14.463640,-5.938704,-0.160200,-0.234434,-0.238164,-5013,-163
0.632000,-29.426273,-822.033500,290.425697,-29.426273,290.425697,5.723877,-13.350000,-35.150150,-808.683500,9.443410,-0.407263,9.036147,-14.847964,-5.811817,-0.160200,-0.232848,-0.237096,-5210,-178
0.634000,-31.055791,-807.081500,306.508394,-31.055791,306.508394,5.934814,-12.975000,-36.990605,-794.106500,9.966351,-0.427630,9.538721,-15.228027,-5.689306,-0.160200,-0.231316,-0.230688,-5402,-173
0.636000,-32.654599,-791.331500,322.287999,-32.654599,322.287999,6.141357,-11.700000,-38.795956,-779.631500,10.479437,-0.447277,10.032160,-15.599612,-5.567452,-0.160200,-0.229793,-0.231756,-5590,-156
0.638000,-34.221117,-774.798750,337.748907,-34.221117,337.748907,6.347900,-13.500000,-40.569017,-761.298750,10.982160,-0.466189,10.515971,-15.935812,-5.419841,-0.160200,-0.227948,-0.231756,-5778,-180
0.640000,-35.753794,-757.500000,352.875831,-35.753794,352.875831,6.569824,-13.500000,-42.323618,-744.000000,11.474023,-0.484355,10.989668,-16.274397,-5.284730,-0.160200,-0.226259,-0.229620,-5980,-180
0.642000,-37.251117,-739.452250,367.653811,-37.251117,367.653811,6.775269,-11.925000,-44.026386,-727.527250,11.954540,-0.501768,11.452772,-16.605179,-5.152407,-0.160200,-0.224605,-0.228552,-6167,-159
0.644000,-38.711603,-720.673000,382.068234,-38.711603,382.068234,6.979614,-13.500000,-45.691217,-707.173000,12.423236,-0.518423,11.904813,-16.898932,-4.994118,-0.160200,-0.222626,-0.222144,-6353,-180
0.646000,-40.133809,-701.181500,396.104847,-40.133809,396.104847,7.259766,-11.400000,-47.393575,-689.781500,12.879647,-0.534317,12.345330,-17.223192,-4.877862,-0.160200,-0.221173,-0.223212,-6608,-152
0.648000,-41.516329,-680.996500,409.749770,-41.516329,409.749770,7.472900,-10.950000,-48.989229,-670.046500,13.323322,-0.549452,12.773869,-17.503157,-4.729288,-0.160200,-0.219316,-0.218940,-6802,-146
0.650000,-42.857795,-660.137750,422.989509,-42.857795,422.989509,7.671753,-11.625000,-50.529548,-648.512750,13.753822,-0.563833,13.189989,-17.756078,-4.566088,-0.160200,-0.217276,-0.201852,-6983,-155
0.652000,-44.156880,-638.626500,435.810972,-44.156880,435.810972,7.869507,-12.150000,-52.026387,-626.476500,14.170722,-0.577464,13.593257,-17.994107,-4.400850,-0.160200,-0.215211,-0.213600,-7163,-162
0.654000,-45.412301,-616.484000,448.201482,-45.412301,448.201482,8.070557,-10.500000,-53.482858,-605.984000,14.573608,-0.590355,13.983253,-18.232346,-4.249093,-0.160200,-0.213314,-0.218940,-7346,-140
0.656000,-46.622816,-593.731750,460.148784,-46.622816,460.148784,8.250732,-11.700000,-54.873548,-582.031750,14.962084,-0.602517,14.359567,-18.429210,-4.069643,-0.160200,-0.211071,-0.216804,-7510,-156
0.658000,-47.787228,-570.392000,471.641066,-47.787228,471.641066,8.436401,-11.700000,-56.223629,-558.692000,15.335764,-0.613962,14.721802,-18.619718,-3.897916,-0.160200,-0.208924,-0.206124,-7679,-156
0.660000,-48.904384,-546.488500,482.666963,-48.904384,482.666963,8.624268,-9.525000,-57.528652,-536.963500,15.694279,-0.624704,15.069575,-18.809678,-3.740103,-0.160200,-0.206951,-0.210396,-7850,-127
0.662000,-49.973182,-522.044750,493.215571,-49.973182,493.215571,8.800049,-11.775000,-58.773231,-510.269750,16.037275,-0.634759,15.402516,-18.949151,-3.546635,-0.160200,-0.204533,-0.207192,-8010,-157
0.664000,-50.992563,-497.084500,503.276461,-50.992563,503.276461,8.992310,-11.400000,-59.984873,-485.684500,16.364413,-0.644144,15.720269,-19.094720,-3.374451,-0.160200,-0.202381,-0.203988,-8185,-152
0.666000,-51.961520,-471.632750,512.839683,-51.961520,512.839683,9.183472,-11.625000,-61.144992,-460.007750,16.675368,-0.652875,16.022493,-19.219181,-3.196688,-0.160200,-0.200159,-0.203988,-8359,-155
0.668000,-52.879094,-445.714750,521.895780,-52.879094,521.895780,9.353760,-10.125000,-62.232854,-435.589750,16.969834,-0.660971,16.308863,-19.333513,-3.024650,-0.160200,-0.198008,-0.201852,-8514,-135
0.670000,-53.744379,-419.356000,530.435797,-53.744379,530.435797,9.521851,-10.875000,-63.266230,-408.481000,17.247519,-0.668450,16.579069,-19.414796,-2.835727,-0.160200,-0.195647,-0.198648,-8667,-145
0.672000,-54.556518,-392.582500,538.451290,-54.556518,538.451290,9.686646,-8.850000,-64.243164,-383.732500,17.508149,-0.675331,16.832817,-19.497779,-2.664962,-0.160200,-0.193512,-0.196512,-8817,-118
0.674000,-55.314709,-365.420750,545.934333,-55.314709,545.934333,9.876709,-9.150000,-65.191418,-356.270750,17.751465,-0.681633,17.069832,-19.554312,-2.484480,-0.160200,-0.191256,-0.194376,-8990,-122
0.676000,-56.018201,-337.897750,552.877525,-56.018201,552.877525,10.036011,-9.375000,-66.054212,-328.522750,17.977229,-0.687374,17.289855,-19.586474,-2.296619,-0.160200,-0.188908,-0.190104,-9135,-125
0.678000,-56.666300,-310.040500,559.274000,-56.666300,559.274000,10.200806,-8.025000,-66.867106,-302.015500,18.185215,-0.692571,17.492644,-19.614233,-2.121589,-0.160200,-0.186720,-0.189036,-9285,-107
0.680000,-57.258363,-281.876750,565.117435,-57.258363,565.117435,10.379883,-7.725000,-67.638246,-274.151750,18.375218,-0.697241,17.677978,-19.621592,-1.943614,-0.160200,-0.184495,-0.183696,-9448,-103
0.682000,-57.793807,-253.434250,570.402050,-57.793807,570.402050,10.547974,-8.850000,-68.341781,-244.584250,18.547052,-0.701400,17.845652,-19.599357,-1.753705,-0.160200,-0.182121,-0.185832,-9601,-118
0.684000,-58.272100,-224.741000,575.122619,-58.272100,575.122619,10.685303,-9.075000,-68.957403,-215.666000,18.700545,-0.705063,17.995481,-19.558639,-1.563157,-0.160200,-0.179739,-0.182628,-9726,-121
0.686000,-58.692771,-195.825750,579.274475,-58.692771,579.274475,10.830322,-8.025000,-69.523093,-187.800750,18.835545,-0.708245,18.127300,-19.512200,-1.384900,-0.160200,-0.177511,-0.176220,-9858,-107
0.688000,-59.055403,-166.716750,582.853512,-59.055403,582.853512,10.972046,-8.250000,-70.027449,-158.466750,18.951920,-0.710957,18.240963,-19.439450,-1.198487,-0.160200,-0.175181,-0.176220,-9987,-110
0.690000,-59.359638,-137.443000,585.856191,-59.359638,585.856191,11.121460,-8.250000,-70.481098,-129.193000,19.049555,-0.713210,18.336344,-19.353846,-1.017501,-0.160200,-0.172919,-0.171948,-10123,-110
0.692000,-59.605175,-108.033250,588.279543,-59.605175,588.279543,11.262085,-7.575000,-70.867260,-100.458250,19.128352,-0.715014,18.413338,-19.254336,-0.840999,-0.160200,-0.170712,-0.170880,-10251,-101
0.694000,-59.791771,-78.516750,590.121171,-59.791771,590.121171,11.395020,-7.950000,-71.186791,-70.566750,19.188234,-0.716376,18.471857,-19.129307,-0.657450,-0.160200,-0.168418,-0.168744,-10372,-106
0.696000,-59.919242,-48.922500,591.379254,-59.919242,591.379254,11.532349,-7.950000,-71.451591,-40.972500,19.229141,-0.717303,18.511839,-18.992025,-0.480186,-0.160200,-0.166202,-0.168744,-10497,-106
0.698000,-59.987461,-19.279750,592.052549,-59.987461,592.052549,11.653198,-7.800000,-71.640659,-11.479750,19.251034,-0.717797,18.533237,-18.835625,-0.302387,-0.160200,-0.163980,-0.166608,-10607,-104
0.700000,-59.996361,10.382000,592.140388,-59.996361,592.140388,11.769653,-6.525000,-71.766014,16.907000,19.253890,-0.717861,18.536029,-18.670265,-0.134237,0.160200,0.158522,-0.164472,-10713,-87
0.702000,-59.945933,40.033500,591.642687,-59.945933,591.642687,11.886108,-1.800000,-71.832041,41.833500,19.237707,-0.717496,18.520211,-18.513532,0.006679,0.160200,0.160283,0.161268,-10819,-24
0.704000,-59.836227,69.645250,590.559936,-59.836227,590.559936,11.885010,3.900000,-71.721237,65.745250,19.202500,-0.716700,18.485801,-18.317587,0.168213,0.160200,0.162303,0.158064,-10818,52
0.706000,-59.667352,99.188000,588.893206,-59.667352,588.893206,11.790527,6.375000,-71.457879,92.813000,19.148306,-0.715469,18.432837,-18.059672,0.373164,0.160200,0.164865,0.160200,-10732,85
0.708000,-59.439475,128.633000,586.644146,-59.439475,586.644146,11.664185,8.100000,-71.103660,120.533000,19.075176,-0.713798,18.361377,-17.773415,0.587962,0.160200,0.167550,0.163404,-10617,108
0.710000,-59.152820,157.950750,583.814980,-59.152820,583.814980,11.523560,7.200000,-70.676380,150.750750,18.983183,-0.711681,18.271502,-17.450594,0.820908,0.160200,0.170461,0.167676,-10489,96
0.712000,-58.807672,187.112000,580.408504,-58.807672,580.408504,11.384033,7.650000,-70.191705,179.462000,18.872419,-0.709107,18.163312,-17.123264,1.040047,0.160200,0.173201,0.174084,-10362,102
0.714000,-58.404372,216.088500,576.428088,-58.404372,576.428088,11.250000,7.050000,-69.654372,209.038500,18.742993,-0.706068,18.036925,-16.776108,1.260817,0.160200,0.175960,0.171948,-10240,94
0.716000,-57.943318,244.851250,571.877668,-57.943318,571.877668,11.129150,7.800000,-69.072468,237.051250,18.595033,-0.702550,17.892482,-16.428200,1.464282,0.160200,0.178504,0.179424,-10130,104
0.718000,-57.424967,273.372000,566.761744,-57.424967,566.761744,10.976440,8.025000,-68.401407,265.347000,18.428684,-0.698541,17.730143,-16.054975,1.675168,0.160200,0.181140,0.175152,-9991,107
0.720000,-56.849830,301.622500,561.085374,-56.849830,561.085374,10.843506,6.975000,-67.693336,294.647500,18.244113,-0.694026,17.550087,-15.665046,1.885041,0.160200,0.183763,0.181560,-9870,93
0.722000,-56.218477,329.574500,554.854171,-56.218477,554.854171,10.702881,8.700000,-66.921358,320.874500,18.041501,-0.688989,17.352512,-15.279844,2.072668,0.160200,0.186108,0.183696,-9742,116
0.724000,-55.531532,357.200500,548.074297,-55.531532,548.074297,10.555664,9.000000,-66.087196,348.200500,17.821048,-0.683414,17.137634,-14.870689,2.266945,0.160200,0.188537,0.183696,-9608,120
0.726000,-54.789675,384.473250,540.752457,-54.789675,540.752457,10.421631,8.700000,-65.211306,375.773250,17.582973,-0.677282,16.905691,-14.448888,2.456803,0.160200,0.190910,0.187968,-9486,116
0.728000,-53.993639,411.366250,532.895891,-53.993639,532.895891,10.253540,9.150000,-64.247179,402.216250,17.327511,-0.670576,16.656934,-14.011873,2.645061,0.160200,0.193263,0.191172,-9333,122
0.730000,-53.144210,437.852250,524.512368,-53.144210,524.512368,10.098633,9.825000,-63.242843,428.027250,17.054914,-0.663278,16.391636,-13.568744,2.822892,0.160200,0.195486,0.194376,-9192,131
0.732000,-52.242230,463.905250,515.610177,-52.242230,515.610177,9.948120,10.575000,-62.190350,453.330250,16.765453,-0.655369,16.110083,-13.116553,2.993530,0.160200,0.197619,0.192240,-9055,141
0.734000,-51.288589,489.499500,506.198122,-51.288589,506.198122,9.791016,10.725000,-61.079605,478.774500,16.459413,-0.646831,15.812582,-12.648127,3.164455,0.160200,0.199756,0.197580,-8912,143
0.736000,-50.284232,514.609750,496.285511,-50.284232,496.285511,9.629517,9.150000,-59.913749,505.459750,16.137097,-0.637644,15.499452,-12.156608,3.342845,0.160200,0.201986,0.197580,-8765,122
0.738000,-49.230150,539.211000,485.882144,-49.230150,485.882144,9.446045,9.300000,-58.676195,529.911000,15.798823,-0.627792,15.171031,-11.661915,3.509116,0.160200,0.204064,0.200784,-8598,124
0.740000,-48.127388,563.279000,474.998310,-48.127388,474.998310,9.261475,11.250000,-57.388863,552.029000,15.444927,-0.617258,14.827669,-11.170480,3.657190,0.160200,0.205915,0.203988,-8430,150
0.742000,-46.977034,586.790500,463.644772,-46.977034,463.644772,9.074707,10.275000,-56.051741,576.515500,15.075758,-0.606025,14.469733,-10.649474,3.820259,0.160200,0.207953,0.207192,-8260,137
0.744000,-45.780226,609.721250,451.832755,-45.780226,451.832755,8.908813,11.025000,-54.689039,598.696250,14.691682,-0.594080,14.097602,-10.137869,3.959733,0.160200,0.209697,0.211464,-8109,147
0.746000,-44.538149,632.049000,439.573941,-44.538149,439.573941,8.731934,10.425000,-53.270083,621.624000,14.293077,-0.581409,13.711669,-9.606321,4.105348,0.160200,0.211517,0.212532,-7948,139
0.748000,-43.252030,653.752250,426.880452,-43.252030,426.880452,8.515503,9.525000,-51.767533,644.227250,13.880339,-0.568000,13.312339,-9.055154,4.257185,0.160200,0.213415,0.211464,-7751,127
0.750000,-41.923140,674.808750,413.764839,-41.923140,413.764839,8.301270,11.475000,-50.224410,663.333750,13.453875,-0.553846,12.900029,-8.517776,4.382253,0.160200,0.214978,0.211464,-7556,153
0.752000,-40.552795,695.197750,400.240073,-40.552795,400.240073,8.125488,11.550000,-48.678283,683.647750,13.014107,-0.538937,12.475170,-7.971183,4.503987,0.160200,0.216500,0.214668,-7396,154
0.754000,-39.142349,714.899500,386.319527,-39.142349,386.319527,7.948608,12.525000,-47.090957,702.374500,12.561470,-0.523271,12.038199,-7.424885,4.613314,0.160200,0.217866,0.217872,-7235,167
0.756000,-37.693197,733.894500,372.016967,-37.693197,372.016967,7.755249,12.150000,-45.448446,721.744500,12.096411,-0.506844,11.589567,-6.859648,4.729919,0.160200,0.219324,0.217872,-7059,162
0.758000,-36.206771,752.163500,357.346536,-36.206771,357.346536,7.553101,10.875000,-43.759872,741.288500,11.619391,-0.489659,11.129733,-6.281138,4.848595,0.160200,0.220807,0.216804,-6875,145
0.760000,-34.684543,769.688750,342.322740,-34.684543,342.322740,7.352051,12.975000,-42.036594,756.713750,11.130881,-0.471718,10.659164,-5.722296,4.936868,0.160200,0.221911,0.225348,-6692,173
0.762000,-33.128016,786.453000,326.960436,-33.128016,326.960436,7.151001,12.675000,-40.279017,773.778000,10.631364,-0.453028,10.178337,-5.143032,5.035304,0.160200,0.223141,0.221076,-6509,169
0.764000,-31.538731,802.439500,311.274816,-31.538731,311.274816,6.952148,11.700000,-38.490879,790.739500,10.121335,-0.433600,9.687735,-4.556486,5.131249,0.160200,0.224341,0.225348,-6328,156
0.766000,-29.918258,817.632750,295.281390,-29.918258,295.281390,6.737915,10.950000,-36.656173,806.682750,9.601296,-0.413448,9.187849,-3.964856,5.222993,0.160200,0.225487,0.224280,-6133,146
0.768000,-28.268200,832.017250,278.995973,-28.268200,278.995973,6.523682,13.350000,-34.791882,818.667250,9.071764,-0.392588,8.679176,-3.393118,5.286058,0.160200,0.226276,0.222144,-5938,178
0.770000,-26.590189,845.578750,262.434670,-26.590189,262.434670,6.331421,12.825000,-32.921610,832.753750,8.533261,-0.371041,8.162220,-2.805139,5.357081,0.160200,0.227164,0.226416,-5763,171
0.772000,-24.885885,858.304250,245.613856,-24.885885,245.613856,6.138062,12.900000,-31.023947,845.404250,7.986319,-0.348830,7.637489,-2.220015,5.417474,0.160200,0.227918,0.226416,-5587,172
0.774000,-23.156972,870.181250,228.550165,-23.156972,228.550165,5.942505,13.500000,-29.099477,856.681250,7.431481,-0.325984,7.105497,-1.637462,5.468035,0.160200,0.228550,0.225348,-5409,180
0.776000,-21.405160,881.197750,211.260472,-21.405160,211.260472,5.716187,12.825000,-27.121347,868.372750,6.869293,-0.302532,6.566761,-1.037966,5.528794,0.160200,0.229310,0.225348,-5203,171
0.778000,-19.632181,891.342750,193.761872,-19.632181,193.761872,5.511841,13.200000,-25.144022,878.142750,6.300313,-0.278509,6.021804,-0.452097,5.569707,0.160200,0.229821,0.230688,-5017,176
0.780000,-17.839789,900.606250,176.071670,-17.839789,176.071670,5.294312,12.150000,-23.134101,888.456250,5.725103,-0.253953,5.471150,0.146101,5.617252,0.160200,0.230416,0.228552,-4819,162
0.782000,-16.029756,908.979500,158.207358,-16.029756,158.207358,5.084473,13.425000,-21.114229,895.554500,5.144231,-0.228902,4.915329,0.724458,5.639787,0.160200,0.230697,0.230688,-4628,179
0.784000,-14.203871,916.453500,140.186602,-14.203871,140.186602,4.859253,14.175000,-19.063124,902.278500,4.558273,-0.203401,4.354872,1.308378,5.663250,0.160200,0.230991,0.231756,-4423,189
0.786000,-12.363942,923.021250,122.027222,-12.363942,122.027222,4.651611,13.875000,-17.015553,909.146250,3.967807,-0.177494,3.790313,1.892377,5.682689,0.160200,0.231234,0.229620,-4234,185
0.788000,-10.511786,928.676750,103.747174,-10.511786,103.747174,4.445068,13.125000,-14.956854,915.551750,3.373417,-0.151231,3.222187,2.476062,5.698248,0.160200,0.231428,0.230688,-4046,175
0.790000,-8.649235,933.413500,85.364535,-8.649235,85.364535,4.197876,11.775000,-12.847111,921.638500,2.775692,-0.124661,2.651031,3.070885,5.721916,0.160200,0.231724,0.227484,-3821,157
0.792000,-6.778132,937.227250,66.897484,-6.778132,66.897484,3.982544,13.800000,-10.760676,923.427250,2.175222,-0.097836,2.077386,3.629600,5.706986,0.160200,0.231537,0.231756,-3625,184
0.794000,-4.900326,940.114500,48.364280,-4.900326,48.364280,3.769409,13.800000,-8.669735,926.314500,1.572601,-0.070811,1.501790,4.197164,5.698954,0.160200,0.231437,0.231756,-3431,184
0.796000,-3.017674,942.072000,29.783250,-3.017674,29.783250,3.566162,11.700000,-6.583836,930.372000,0.968425,-0.043639,0.924786,4.771578,5.696363,0.160200,0.231405,0.231756,-3246,156
0.798000,-1.132038,943.097750,11.172770,-1.132038,11.172770,3.353027,12.225000,-4.485065,930.872750,0.363291,-0.016377,0.346914,5.324530,5.671444,0.160200,0.231093,0.231756,-3052,163
0.800000,0.754717,943.191000,-7.448759,0.754717,-7.448759,3.133301,13.050000,-2.378584,930.141000,-0.242202,0.010919,-0.231283,5.870897,5.639614,0.160200,0.230695,0.231756,-2852,174
0.802000,2.640726,942.351500,-26.062922,2.640726,-26.062922,2.924561,13.275000,-0.283835,929.076500,-0.847456,0.038192,-0.809263,6.411870,5.602606,0.160200,0.230233,0.230688,-2662,177
0.804000,4.524123,940.580250,-44.651312,4.524123,-44.651312,2.726807,11.700000,1.797316,928.880250,-1.451871,0.065386,-1.386485,6.955344,5.568859,0.160200,0.229811,0.230688,-2482,156
0.806000,6.403047,937.879250,-63.195549,6.403047,-63.195549,2.491699,12.300000,3.911348,925.579250,-2.054851,0.092445,-1.962405,7.485751,5.523345,0.160200,0.229242,0.230688,-2268,164
0.808000,8.275640,934.250250,-81.677295,8.275640,-81.677295,2.284058,13.575000,5.991582,920.675250,-2.655799,0.119315,-2.536484,7.996118,5.459634,0.160200,0.228445,0.228552,-2079,181
0.810000,10.140048,929.697500,-100.078273,10.140048,-100.078273,2.047852,11.400000,8.092196,918.297500,-3.254120,0.145940,-3.108181,8.529458,5.421277,0.160200,0.227966,0.228552,-1864,152
0.812000,11.994430,924.225750,-118.380289,11.994430,-118.380289,1.811646,11.775000,10.182784,912.450750,-3.849224,0.172269,-3.676956,9.035955,5.358999,0.160200,0.227187,0.230688,-1649,157
0.814000,13.836951,917.839750,-136.565243,13.836951,-136.565243,1.609497,13.500000,12.227454,904.339750,-4.440522,0.198250,-4.242271,9.514622,5.272351,0.160200,0.226104,0.226416,-1465,180
0.816000,15.665789,910.546250,-154.615154,15.665789,-154.615154,1.391968,14.100000,14.273821,896.446250,-5.027428,0.223836,-4.803592,9.995253,5.191661,0.160200,0.225096,0.228552,-1267,188
0.818000,17.479136,902.352500,-172.512173,17.479136,-172.512173,1.175537,12.375000,16.303599,889.977500,-5.609363,0.248981,-5.360382,10.481487,5.121105,0.160200,0.224214,0.222144,-1070,165
0.820000,19.275199,893.266250,-190.238603,19.275199,-190.238603,0.952515,14.025000,18.322684,879.241250,-6.185751,0.273640,-5.912112,10.935129,5.023018,0.160200,0.222988,0.223212,-867,187
0.822000,21.052201,883.296750,-207.776914,21.052201,-207.776914,0.720703,11.475000,20.331498,871.821750,-6.756023,0.297772,-6.458250,11.409238,4.950987,0.160200,0.222087,0.221076,-656,153
0.824000,22.808386,872.453750,-225.109763,22.808386,-225.109763,0.506470,11.850000,22.301916,860.603750,-7.319613,0.321341,-6.998272,11.846776,4.848503,0.160200,0.220806,0.223212,-461,158
0.826000,24.542016,860.748000,-242.220011,24.542016,-242.220011,0.305420,13.350000,24.236596,847.398000,-7.875966,0.344311,-7.531655,12.261080,4.729425,0.160200,0.219318,0.222144,-278,178
0.828000,26.251378,848.191500,-259.090739,26.251378,-259.090739,0.081299,12.375000,26.170079,835.816500,-8.424530,0.366651,-8.057879,12.686411,4.628531,0.160200,0.218057,0.218940,-74,165
0.830000,27.934782,834.795750,-275.705263,27.934782,-275.705263,-0.115356,11.625000,28.050138,823.170750,-8.964764,0.388333,-8.576431,13.090325,4.513894,0.160200,0.216624,0.217872,105,155
0.832000,29.590561,820.574500,-292.047155,29.590561,-292.047155,-0.321899,10.950000,29.912460,809.624500,-9.496133,0.409332,-9.086801,13.483309,4.396508,0.160200,0.215156,0.218940,293,146
0.834000,31.217080,805.542250,-308.100254,31.217080,-308.100254,-0.510864,11.250000,31.727944,794.292250,-10.018111,0.429627,-9.588484,13.851562,4.263078,0.160200,0.213488,0.214668,465,150
0.836000,32.812730,789.713000,-323.848686,32.812730,-323.848686,-0.698730,12.525000,33.511460,777.188000,-10.530184,0.449201,-10.080982,14.199076,4.118093,0.160200,0.211676,0.215736,636,167
0.838000,34.375932,773.103000,-339.276878,34.375932,-339.276878,-0.883301,10.275000,35.259233,762.828000,-11.031843,0.468039,-10.563804,14.556390,3.992586,0.160200,0.210107,0.207192,804,137
0.840000,35.905142,755.728750,-354.369575,35.905142,-354.369575,-1.067871,12.525000,36.973013,743.203750,-11.522593,0.486131,-11.036463,14.868053,3.831591,0.160200,0.208095,0.213600,972,167
0.842000,37.398847,737.607000,-369.111851,37.398847,-369.111851,-1.251343,12.225000,38.650190,725.382000,-12.001949,0.503468,-11.498482,15.182718,3.684236,0.160200,0.206253,0.211464,1139,163
0.844000,38.855570,718.755750,-383.489129,38.855570,-383.489129,-1.433716,10.725000,40.289286,708.030750,-12.469437,0.520046,-11.949391,15.490697,3.541306,0.160200,0.204466,0.206124,1305,143
0.846000,40.273870,699.193750,-397.487191,40.273870,-397.487191,-1.623779,11.475000,41.897649,687.718750,-12.924595,0.535865,-12.388730,15.769962,3.381231,0.160200,0.202465,0.205056,1478,153
0.848000,41.652345,678.940500,-411.092196,41.652345,-411.092196,-1.803955,10.125000,43.456300,668.815500,-13.366972,0.550924,-12.816048,16.046046,3.229998,0.160200,0.200575,0.202920,1642,135
0.850000,42.989632,658.015750,-424.290690,42.989632,-424.290690,-1.972046,10.800000,44.961678,647.215750,-13.796131,0.565229,-13.230901,16.289358,3.058457,0.160200,0.198431,0.198648,1795,144
0.852000,44.284408,636.440500,-437.069622,44.284408,-437.069622,-2.143433,10.350000,46.427841,626.090500,-14.211647,0.578786,-13.632861,16.525717,2.892855,0.160200,0.196361,0.199716,1951,138
0.854000,45.535394,614.235750,-449.416355,45.535394,-449.416355,-2.301636,9.975000,47.837030,604.260750,-14.613111,0.591604,-14.021507,16.742241,2.720734,0.160200,0.194209,0.198648,2095,133
0.856000,46.741351,591.423500,-461.318679,46.741351,-461.318679,-2.469727,9.825000,49.211078,581.598500,-15.000124,0.603694,-14.396430,16.943753,2.547323,0.160200,0.192042,0.192240,2248,131
0.858000,47.901088,568.026750,-472.764826,47.901088,-472.764826,-2.621338,10.275000,50.522426,557.751750,-15.372304,0.615068,-14.757236,17.120582,2.363346,0.160200,0.189742,0.193308,2386,137
0.860000,49.013458,544.068250,-483.743477,49.013458,-483.743477,-2.776245,10.050000,51.789703,534.018250,-15.729283,0.625740,-15.103543,17.286663,2.183121,0.160200,0.187489,0.191172,2527,134
0.862000,50.077361,519.571500,-494.243776,50.077361,-494.243776,-2.941040,10.050000,53.018401,509.521500,-16.070708,0.635728,-15.434981,17.437316,2.002336,0.160200,0.185229,0.190104,2677,134
0.864000,51.091744,494.561000,-504.255338,51.091744,-504.255338,-3.089355,9.900000,54.181099,484.661000,-16.396242,0.645046,-15.751196,17.568151,1.816955,0.160200,0.182912,0.185832,2812,132
0.866000,52.055605,469.061500,-513.768265,52.055605,-513.768265,-3.271729,9.300000,55.327334,459.761500,-16.705562,0.653713,-16.051849,17.694403,1.642554,0.160200,0.180732,0.184764,2978,124
0.868000,52.967990,443.098250,-522.773149,52.967990,-522.773149,-3.434326,9.750000,56.402316,433.348250,-16.998362,0.661746,-16.336616,17.791433,1.454817,0.160200,0.178385,0.180492,3126,130
0.870000,53.827998,416.697000,-531.261085,53.827998,-531.261085,-3.594727,9.450000,57.422725,407.247000,-17.274354,0.669165,-16.605189,17.876355,1.271166,0.160200,0.176090,0.181560,3272,126
0.872000,54.634778,389.883250,-539.223681,54.634778,-539.223681,-3.733154,9.075000,58.367932,380.808250,-17.533264,0.675987,-16.857276,17.939232,1.081956,0.160200,0.173724,0.176220,3398,121
0.874000,55.387531,362.684250,-546.653063,55.387531,-546.653063,-3.874878,8.925000,59.262409,353.759250,-17.774835,0.682232,-17.092603,17.984568,0.891965,0.160200,0.171350,0.174084,3527,119
0.876000,56.085515,335.126750,-553.541883,56.085515,-553.541883,-4.031982,8.475000,60.117497,326.651750,-17.998831,0.687918,-17.310913,18.019183,0.708270,0.160200,0.169053,0.169812,3670,113
0.878000,56.728038,307.237500,-559.883330,56.728038,-559.883330,-4.159424,8.475000,60.887462,298.762500,-18.205028,0.693061,-17.511967,18.026056,0.514089,0.160200,0.166626,0.171948,3786,113
0.880000,57.314465,279.044500,-565.671134,57.314465,-565.671134,-4.290161,6.825000,61.604626,272.219500,-18.393222,0.697679,-17.695543,18.028504,0.332961,0.160200,0.164362,0.165540,3905,91
0.882000,57.844216,250.575750,-570.899570,57.844216,-570.899570,-4.408813,7.800000,62.253029,242.775750,-18.563229,0.701788,-17.861441,17.992699,0.131259,0.160200,0.161841,0.166608,4013,104
0.884000,58.316768,221.859250,-575.563469,58.316768,-575.563469,-4.535156,7.125000,62.851924,214.734250,-18.714879,0.705403,-18.009476,17.953723,-0.055753,0.160200,0.159503,0.161268,4128,95
0.886000,58.731653,192.923000,-579.658219,58.731653,-579.658219,-4.659302,6.600000,63.390955,186.323000,-18.848023,0.708537,-18.139486,17.896493,-0.242993,0.160200,0.157163,0.155928,4241,88
0.888000,59.088460,163.796250,-583.179770,59.088460,-583.179770,-4.764771,6.825000,63.853231,156.971250,-18.962529,0.711203,-18.251326,17.812603,-0.438723,0.160200,0.154716,0.156996,4337,91
0.890000,59.386838,134.507750,-586.124640,59.386838,-586.124640,-4.868042,5.625000,64.254880,128.882750,-19.058284,0.713411,-18.344873,17.721660,-0.623213,0.160200,0.152410,0.153792,4431,75
0.892000,59.626491,105.085750,-588.489918,59.626491,-588.489918,-5.002075,5.400000,64.628566,99.685750,-19.135192,0.715170,-18.420022,17.615657,-0.804365,0.160200,0.150145,0.152724,4553,72
0.894000,59.807181,75.560000,-590.273264,59.807181,-590.273264,-5.096558,6.225000,64.903739,69.335000,-19.193179,0.716489,-18.476691,17.475809,-1.000882,0.160200,0.147689,0.149520,4639,83
0.896000,59.928731,45.960000,-591.472915,59.928731,-591.472915,-5.188843,6.300000,65.117574,39.660000,-19.232187,0.717371,-18.514815,17.324620,-1.190195,0.160200,0.145323,0.148452,4723,84
0.898000,59.991021,16.314000,-592.087684,59.991021,-592.087684,-5.282227,4.950000,65.273248,11.364000,-19.252176,0.717822,-18.534354,17.167832,-1.366522,0.160200,0.143118,0.144180,4808,66
0.900000,59.993987,-13.348000,-592.116964,59.993987,-592.116964,-5.374512,4.725000,65.368499,-18.073000,-19.253128,0.717844,-18.535285,16.987260,-1.548025,-0.160200,-0.179550,0.144180,4892,63
0.902000,59.937629,-42.996750,-591.560726,59.937629,-591.560726,-5.454712,0.525000,65.392341,-43.521750,-19.235042,0.717436,-18.517606,16.815836,-1.701770,-0.160200,-0.181472,-0.178356,4965,7
0.904000,59.822000,-72.603250,-590.419519,59.822000,-590.419519,-5.422852,-6.000000,65.244852,-66.603250,-19.197935,0.716596,-18.481338,16.616084,-1.865255,-0.160200,-0.183516,-0.183696,4936,-80
0.906000,59.647216,-102.137500,-588.694473,59.647216,-588.694473,-5.296509,-7.800000,64.943725,-94.337500,-19.141844,0.715322,-18.426522,16.343627,-2.082894,-0.160200,-0.186236,-0.185832,4821,-104
0.908000,59.413450,-131.570750,-586.387293,59.413450,-586.387293,-5.158081,-8.250000,64.571531,-123.320750,-19.066824,0.713607,-18.353217,16.043846,-2.309371,-0.160200,-0.189067,-0.185832,4695,-110
0.910000,59.120933,-160.874250,-583.500260,59.120933,-583.500260,-4.974609,-7.950000,64.095542,-152.924250,-18.972950,0.711444,-18.261506,15.712561,-2.548945,-0.160200,-0.192062,-0.190104,4528,-106
0.912000,58.769953,-190.018750,-580.036229,58.769953,-580.036229,-4.812012,-10.275000,63.581965,-179.743750,-18.860314,0.708825,-18.151490,15.390871,-2.760618,-0.160200,-0.194708,-0.193308,4380,-137
0.914000,58.360858,-218.975000,-575.998627,58.360858,-575.998627,-4.642822,-8.850000,63.003680,-210.125000,-18.729029,0.705738,-18.023291,15.027376,-2.995915,-0.160200,-0.197649,-0.194376,4226,-118
0.916000,57.894053,-247.714750,-571.391445,57.894053,-571.391445,-4.482422,-10.725000,62.376475,-236.989750,-18.579223,0.702172,-17.877051,14.675622,-3.201428,-0.160200,-0.200218,-0.199716,4080,-143
0.918000,57.369999,-276.209500,-566.219239,57.369999,-566.219239,-4.303345,-9.825000,61.673344,-266.384500,-18.411044,0.698113,-17.712932,14.286329,-3.426603,-0.160200,-0.203033,-0.199716,3917,-131
0.920000,56.789215,-304.431250,-560.487123,56.789215,-560.487123,-4.109985,-10.950000,60.899200,-293.481250,-18.224660,0.693546,-17.531114,13.894488,-3.636626,-0.160200,-0.205658,-0.201852,3741,-146
0.922000,56.152274,-332.352250,-554.200767,56.152274,-554.200767,-3.936401,-9.600000,60.088675,-322.752250,-18.020255,0.688456,-17.331799,13.477943,-3.853856,-0.160200,-0.208373,-0.206124,3583,-128
0.924000,55.459806,-359.944250,-547.366387,55.459806,-547.366387,-3.769409,-11.250000,59.229215,-348.694250,-17.798030,0.682826,-17.115204,13.071827,-4.043377,-0.160200,-0.210742,-0.206124,3431,-150
0.926000,54.712497,-387.180250,-539.990739,54.712497,-539.990739,-3.585938,-11.700000,58.298434,-375.480250,-17.558205,0.676638,-16.881567,12.641148,-4.240420,-0.160200,-0.213205,-0.209328,3264,-156
0.928000,53.911085,-414.033500,-532.081119,53.911085,-532.081119,-3.406860,-11.775000,57.317945,-402.258500,-17.301018,0.669874,-16.631144,12.197509,-4.433635,-0.160200,-0.215620,-0.215736,3101,-157
0.930000,53.056363,-440.477500,-523.645347,53.056363,-523.645347,-3.194824,-10.500000,56.251187,-429.977500,-17.026722,0.662515,-16.364207,11.724717,-4.639490,-0.160200,-0.218194,-0.220008,2908,-140
0.932000,52.149175,-466.485750,-514.691766,52.149175,-514.691766,-2.981689,-11.175000,55.130864,-455.310750,-16.735590,0.654544,-16.081046,11.254558,-4.826488,-0.160200,-0.220531,-0.215736,2714,-149
0.934000,51.190420,-492.032750,-505.229228,51.190420,-505.229228,-2.765259,-10.500000,53.955679,-481.532750,-16.427908,0.645941,-15.781967,10.763831,-5.018136,-0.160200,-0.222927,-0.220008,2517,-140
0.936000,50.181044,-517.093250,-495.267092,50.181044,-495.267092,-2.556519,-12.300000,52.737563,-504.793250,-16.103982,0.636689,-15.467293,10.282540,-5.184753,-0.160200,-0.225009,-0.222144,2327,-164
0.938000,49.122047,-541.642250,-484.815208,49.122047,-484.815208,-2.359863,-11.400000,51.481910,-530.242250,-15.764131,0.626770,-15.137361,9.776143,-5.361218,-0.160200,-0.227215,-0.226416,2148,-152
0.940000,48.014475,-565.655750,-473.883912,48.014475,-473.883912,-2.137939,-12.900000,50.152414,-552.755750,-15.408692,0.616166,-14.792526,9.270908,-5.521617,-0.160200,-0.229220,-0.226416,1946,-172
0.942000,46.859424,-589.109750,-462.484012,46.859424,-462.484012,-1.920410,-12.450000,48.779834,-576.659750,-15.038015,0.604863,-14.433152,8.744686,-5.688466,-0.160200,-0.231306,-0.224280,1748,-166
0.944000,45.658036,-611.981500,-450.626783,45.658036,-450.626783,-1.695190,-11.550000,47.353226,-600.431500,-14.652469,0.592846,-14.059623,8.205243,-5.854380,-0.160200,-0.233380,-0.232824,1543,-154
0.946000,44.411498,-634.248000,-438.323949,44.411498,-438.323949,-1.477661,-11.475000,45.889159,-622.773000,-14.252433,0.580101,-13.672332,7.665978,-6.006354,-0.160200,-0.235279,-0.231756,1345,-153
0.948000,43.121044,-655.887250,-425.587675,43.121044,-425.587675,-1.251343,-12.150000,44.372387,-643.737250,-13.838303,0.566619,-13.271685,7.122530,-6.149155,-0.160200,-0.237064,-0.233892,1139,-162
0.950000,41.787949,-676.878000,-412.430557,41.787949,-412.430557,-1.003052,-13.200000,42.791001,-663.678000,-13.410490,0.552389,-12.858101,6.569311,-6.288790,-0.160200,-0.238810,-0.238164,913,-176
0.952000,40.413532,-697.199250,-398.865605,40.413532,-398.865605,-0.771240,-13.650000,41.184772,-683.549250,-12.969415,0.537405,-12.432010,6.010074,-6.421936,-0.160200,-0.240474,-0.239232,702,-182
0.954000,38.999152,-716.831250,-384.906231,38.999152,-384.906231,-0.541626,-14.250000,39.540778,-702.581250,-12.515516,0.521662,-11.993853,5.446809,-6.547044,-0.160200,-0.242038,-0.244572,493,-190
0.956000,37.546207,-735.754250,-370.566241,37.546207,-370.566241,-0.331787,-13.800000,37.877994,-721.954250,-12.049240,0.505160,-11.544080,4.876244,-6.667836,-0.160200,-0.243548,-0.244572,302,-184
0.958000,36.056135,-753.949750,-355.859815,36.056135,-355.859815,-0.085693,-13.350000,36.141828,-740.599750,-11.571050,0.487898,-11.083151,4.291547,-6.791604,-0.160200,-0.245095,-0.244572,78,-178
0.960000,34.530408,-771.399750,-340.801494,34.530408,-340.801494,0.158203,-14.400000,34.372205,-756.999750,-11.081417,0.469882,-10.611535,3.713767,-6.897768,-0.160200,-0.246422,-0.244572,-144,-192
0.962000,32.970536,-788.087000,-325.406170,32.970536,-325.406170,0.401001,-14.925000,32.569535,-773.162000,-10.580826,0.451118,-10.129708,3.128995,-7.000713,-0.160200,-0.247709,-0.249912,-365,-199
0.964000,31.378060,-803.994750,-309.689066,31.378060,-309.689066,0.659180,-13.425000,30.718880,-790.569750,-10.069773,0.431617,-9.638156,2.522966,-7.115190,-0.160200,-0.249140,-0.244572,-600,-179
0.966000,29.754557,-819.107500,-293.665724,29.754557,-293.665724,0.938232,-15.000000,28.816325,-804.107500,-9.548762,0.411393,-9.137368,1.930367,-7.207002,-0.160200,-0.250288,-0.247776,-854,-200
0.968000,28.101630,-833.410500,-277.351990,28.101630,-277.351990,1.211792,-16.050000,26.889838,-817.360500,-9.018309,0.390464,-8.627845,1.333490,-7.294354,-0.160200,-0.251379,-0.249912,-1103,-214
0.970000,26.420915,-846.889250,-260.763994,26.420915,-260.763994,1.498535,-14.625000,24.922380,-832.264250,-8.478937,0.368849,-8.110088,0.714363,-7.395725,-0.160200,-0.252647,-0.247776,-1364,-195
0.972000,24.714073,-859.530750,-243.918140,24.714073,-243.918140,1.784180,-13.050000,22.929893,-846.480750,-7.931182,0.346574,-7.584608,0.093482,-7.491126,-0.160200,-0.253839,-0.247776,-1624,-174
0.974000,22.982792,-871.322000,-226.831086,22.982792,-226.831086,2.028076,-15.375000,20.954716,-855.947000,-7.375583,0.323665,-7.051918,-0.489706,-7.541624,-0.160200,-0.254470,-0.255252,-1846,-205
0.976000,21.228785,-882.251500,-209.519729,21.228785,-209.519729,2.282959,-16.125000,18.945826,-866.126500,-6.812692,0.300155,-6.512536,-1.086698,-7.599234,-0.160200,-0.255190,-0.255252,-2078,-215
0.978000,19.453786,-892.308750,-192.001187,19.453786,-192.001187,2.534546,-15.000000,16.919240,-877.308750,-6.243063,0.276077,-5.966986,-1.695324,-7.662310,-0.160200,-0.255979,-0.259524,-2307,-200
0.980000,17.659550,-901.483750,-174.292784,17.659550,-174.292784,2.778442,-14.025000,14.881108,-887.458750,-5.667261,0.251469,-5.415792,-2.299766,-7.715558,-0.160200,-0.256644,-0.249912,-2529,-187
0.982000,15.847851,-909.767250,-156.412030,15.847851,-156.412030,3.023438,-14.175000,12.824414,-895.592250,-5.085855,0.226371,-4.859483,-2.894990,-7.754473,-0.160200,-0.257131,-0.255252,-2752,-189
0.984000,14.020481,-917.151250,-138.376607,14.020481,-138.376607,3.269531,-15.600000,10.750950,-901.551250,-4.499419,0.200827,-4.298592,-3.479423,-7.778015,-0.160200,-0.257425,-0.258456,-2976,-208
0.986000,12.179246,-923.628250,-120.204350,12.179246,-120.204350,3.545288,-15.750000,8.633958,-907.878250,-3.908535,0.174883,-3.733652,-4.077821,-7.811473,-0.160200,-0.257843,-0.256320,-3227,-210
0.988000,10.325968,-929.191750,-101.913228,10.325968,-101.913228,3.788086,-16.500000,6.537882,-912.691750,-3.313785,0.148587,-3.165198,-4.660177,-7.825375,-0.160200,-0.258017,-0.257388,-3448,-220
0.990000,8.462479,-933.836500,-83.521328,8.462479,-83.521328,4.030884,-15.150000,4.431595,-918.686500,-2.715759,0.121989,-2.593770,-5.253453,-7.847223,-0.160200,-0.258290,-0.257388,-3669,-202
0.992000,6.590622,-937.557750,-65.046838,6.590622,-65.046838,4.325317,-14.400000,2.265305,-923.157750,-2.115047,0.095142,-2.019905,-5.851802,-7.871707,-0.160200,-0.258596,-0.259524,-3937,-192
0.994000,4.712248,-940.352000,-46.508026,4.712248,-46.508026,4.590088,-13.950000,0.122160,-926.402000,-1.512243,0.068099,-1.444144,-6.435525,-7.879669,-0.160200,-0.258696,-0.259524,-4178,-186
0.996000,2.829214,-942.216500,-27.923224,2.829214,-27.923224,4.894409,-16.350000,-2.065195,-925.866500,-0.907945,0.040916,-0.867029,-7.004434,-7.871463,-0.160200,-0.258593,-0.256320,-4455,-218
0.998000,0.943382,-943.149000,-9.310810,0.943382,-9.310810,5.175659,-13.950000,-4.232277,-929.199000,-0.302748,0.013648,-0.289100,-7.595040,-7.884140,-0.160200,-0.258752,-0.260592,-4711,-186
1.000000,-0.943382,-943.149000,9.310810,-0.943382,9.310810,5.458008,-16.575000,-6.401390,-926.574000,0.302748,-0.013648,0.289100,-8.144587,-7.855487,-0.160200,-0.258394,-0.256320,-4968,-221
1.002000,-2.829214,-942.216500,27.923224,-2.829214,27.923224,5.706299,-13.950000,-8.535513,-928.266500,0.907945,-0.040916,0.867029,-8.715115,-7.848086,-0.160200,-0.258301,-0.256320,-5194,-186
1.004000,-4.712248,-940.352000,46.508026,-4.712248,46.508026,5.999634,-16.200000,-10.711882,-924.152000,1.512243,-0.068099,1.444144,-9.256162,-7.812018,-0.160200,-0.257850,-0.260592,-5461,-216
1.006000,-6.590622,-937.557750,65.046838,-6.590622,65.046838,6.316040,-15.300000,-12.906662,-922.257750,2.115047,-0.095142,2.019905,-9.817530,-7.797625,-0.160200,-0.257670,-0.256320,-5749,-204
1.008000,-8.462479,-933.836500,83.521328,-8.462479,83.521328,6.652222,-16.500000,-15.114701,-917.336500,2.715759,-0.121989,2.593770,-10.361236,-7.767466,-0.160200,-0.257293,-0.255252,-6055,-220
1.010000,-10.325968,-929.191750,101.913228,-10.325968,101.913228,6.899414,-16.500000,-17.225382,-912.691750,3.313785,-0.148587,3.165198,-10.881385,-7.716186,-0.160200,-0.256652,-0.252048,-6280,-220
1.012000,-12.179246,-923.628250,120.204350,-12.179246,120.204350,7.147705,-16.050000,-19.326951,-907.578250,3.908535,-0.174883,3.733652,-11.395875,-7.662224,-0.160200,-0.255978,-0.258456,-6506,-214
1.014000,-14.020481,-917.151250,138.376607,-14.020481,138.376607,7.424561,-16.425000,-21.445042,-900.726250,4.499419,-0.200827,4.298592,-11.902554,-7.603962,-0.160200,-0.255250,-0.258456,-6758,-219
1.016000,-15.847851,-909.767250,156.412030,-15.847851,156.412030,7.669556,-16.275000,-23.517407,-893.492250,5.085855,-0.226371,4.859483,-12.394595,-7.535112,-0.160200,-0.254389,-0.255252,-6981,-217
1.018000,-17.659550,-901.483750,174.292784,-17.659550,174.292784,7.940918,-14.775000,-25.600468,-886.708750,5.667261,-0.251469,5.415792,-12.892582,-7.476790,-0.160200,-0.253660,-0.255252,-7228,-197
1.020000,-19.453786,-892.308750,192.001187,-19.453786,192.001187,8.208984,-13.500000,-27.662770,-878.808750,6.243063,-0.276077,5.966986,-13.377339,-7.410353,-0.160200,-0.252829,-0.254184,-7472,-180
1.022000,-21.228785,-882.251500,209.519729,-21.228785,209.519729,8.506714,-14.250000,-29.735499,-868.001500,6.812692,-0.300155,6.512536,-13.844529,-7.331993,-0.160200,-0.251850,-0.256320,-7743,-190
1.024000,-22.982792,-871.322000,226.831086,-22.982792,226.831086,8.797852,-14.250000,-31.780644,-857.072000,7.375583,-0.323665,7.051918,-14.303644,-7.251726,-0.160200,-0.250847,-0.249912,-8008,-190
1.026000,-24.714073,-859.530750,243.918140,-24.714073,243.918140,9.084595,-14.325000,-33.798668,-845.205750,7.931182,-0.346574,7.584608,-14.749120,-7.164512,-0.160200,-0.249756,-0.254184,-8269,-191
1.028000,-26.420915,-846.889250,260.763994,-26.420915,260.763994,9.349365,-16.500000,-35.770280,-830.389250,8.478937,-0.368849,8.110088,-15.161848,-7.051760,-0.160200,-0.248347,-0.250980,-8510,-220
