khanfazel/E-wera--maxon_motor/PD_control/pd_feedforward_log.csv
t_s,q_ref_deg,qd_ref_deg_s,qdd_ref_deg_s2,q_link_deg,qd_link_deg_s,pos_error_deg,vel_error_deg_s,tau_joint_ff_Nm,tau_pd_joint_Nm,tau_joint_total_Nm,tau_dead_motor_Nm,tau_motor_cmd_Nm,tau_motor_actual_Nm,motor_pos_counts,motor_vel_native
0.000000,0.000000,943.265500,0.000000,-0.666870,0.000000,0.666870,943.265500,0.000000,4.232163,4.232163,0.160200,0.213102,-0.002136,-607,0
0.002000,1.886531,942.799250,0.000000,-0.663574,1.647949,2.550105,941.151301,0.027289,4.551625,4.578914,0.160200,0.217436,0.213600,-604,35
0.004000,3.771197,941.400750,-37.220226,-0.591064,36.254883,4.362261,905.145867,0.041649,4.710802,4.752451,0.160200,0.219606,0.215736,-538,76
0.006000,5.652134,939.071000,-55.784328,-0.477905,56.579590,6.130039,882.491410,0.062349,4.920489,4.982838,0.160200,0.222485,0.218940,-435,79
0.008000,7.527481,935.812750,-74.293267,-0.349365,64.270020,7.876846,871.542730,0.082899,5.177592,5.260491,0.160200,0.225956,0.220008,-318,111
0.010000,9.395385,931.629250,-92.728741,-0.203247,73.059082,9.598632,858.570168,0.103253,5.421496,5.524749,0.160200,0.229259,0.226416,-185,127
0.012000,11.253998,926.524500,-111.072519,-0.067017,68.115234,11.321015,858.409266,0.123362,5.721407,5.844769,0.160200,0.233260,0.234960,-61,99
0.014000,13.101483,920.503500,-129.306462,0.099976,83.496094,13.001507,837.007406,0.143183,5.921325,6.064507,0.160200,0.236006,0.231756,91,124
0.016000,14.936012,913.572250,-147.412541,0.270264,85.144043,14.665748,828.428207,0.162671,6.174356,6.337027,0.160200,0.239413,0.242436,246,127
0.018000,16.755772,905.737500,-165.372849,0.447144,88.439941,16.308628,817.297559,0.181786,6.412526,6.594312,0.160200,0.242629,0.237096,407,146
0.020000,18.558962,897.007250,-183.169628,0.624023,88.439941,17.934939,808.567309,0.200489,6.658278,6.858767,0.160200,0.245935,0.241368,568,145
0.022000,20.343801,887.390000,-200.785278,0.800903,88.439941,19.542898,798.950059,0.218745,6.896956,7.115701,0.160200,0.249146,0.245640,729,149
0.024000,22.108522,876.895000,-218.202380,0.988770,93.933105,21.119752,782.961895,0.236520,7.102408,7.338928,0.160200,0.251937,0.250980,900,137
0.026000,23.851381,865.533250,-235.403712,1.185425,98.327637,22.665956,767.205613,0.253784,7.303522,7.557306,0.160200,0.254666,0.253116,1079,134
0.028000,25.570655,853.315500,-252.372264,1.399658,107.116699,24.170997,746.198801,0.270511,7.474541,7.745052,0.160200,0.257013,0.252048,1274,145
0.030000,27.264643,840.253750,-269.091255,1.605103,102.722168,25.659540,737.531582,0.286677,7.696523,7.983200,0.160200,0.259990,0.258456,1461,132
0.032000,28.931670,826.361000,-285.544154,1.801758,98.327637,27.129912,728.033363,0.302262,7.911708,8.213970,0.160200,0.262875,0.259524,1640,186
0.034000,30.570087,811.651500,-301.714692,1.996216,97.229004,28.573871,714.422496,0.317249,8.104338,8.421586,0.160200,0.265470,0.262728,1817,160
0.036000,32.178276,796.139500,-317.586877,2.198364,101.074219,29.979912,695.065281,0.331624,8.265276,8.596900,0.160200,0.267661,0.264864,2001,137
0.038000,33.754645,779.839750,-333.145014,2.433472,117.553711,31.321173,662.286039,0.345377,8.356344,8.701721,0.160200,0.268972,0.270204,2215,154
0.040000,35.297635,762.769000,-348.373719,2.661987,114.257812,32.635648,648.511188,0.358502,8.525659,8.884160,0.160200,0.271252,0.269136,2423,186
0.042000,36.805721,744.944000,-363.257932,2.897095,117.553711,33.908626,627.390289,0.370994,8.655678,9.026672,0.160200,0.273033,0.270204,2637,159
0.044000,38.277411,726.382500,-377.782936,3.137695,120.300293,35.139716,606.082207,0.382852,8.777570,9.160422,0.160200,0.274705,0.275544,2856,196
0.046000,39.711251,707.102750,-391.934367,3.398071,130.187988,36.313180,576.914762,0.394081,8.855111,9.249192,0.160200,0.275815,0.274476,3093,168
0.048000,41.105822,687.123500,-405.698231,3.637573,119.750977,37.468249,567.372523,0.404683,9.015073,9.419756,0.160200,0.277947,0.275544,3311,172
0.050000,42.459745,666.465000,-419.060918,3.915527,138.977051,38.544218,527.487949,0.414668,9.028835,9.443504,0.160200,0.278244,0.278748,3564,190
0.052000,43.771682,645.147500,-432.009215,4.178101,131.286621,39.593581,513.860879,0.424045,9.152525,9.576570,0.160200,0.279907,0.274476,3803,202
0.054000,45.040335,623.191750,-444.530316,4.449463,135.681152,40.590872,487.510598,0.432827,9.211610,9.644437,0.160200,0.280755,0.279816,4050,207
0.056000,46.264449,600.619750,-456.611842,4.710938,130.737305,41.553511,469.882445,0.441028,9.302705,9.743733,0.160200,0.281997,0.283020,4288,206
0.058000,47.442814,577.454250,-468.241844,5.010864,149.963379,42.431950,427.490871,0.448665,9.271053,9.719718,0.160200,0.281696,0.285156,4561,225
0.060000,48.574266,553.717500,-479.408822,5.289917,139.526367,43.284349,414.191133,0.455754,9.361794,9.817548,0.160200,0.282919,0.280884,4815,220
0.062000,49.657684,529.433000,-490.101734,5.548096,129.089355,44.109588,400.343645,0.462316,9.445404,9.907720,0.160200,0.284046,0.280884,5050,205
0.064000,50.691998,504.625250,-500.310006,5.812866,132.385254,44.879132,372.239996,0.468369,9.457090,9.925458,0.160200,0.284268,0.289428,5291,222
0.066000,51.676185,479.318500,-510.023544,6.055664,121.398926,45.620521,357.919574,0.473935,9.524002,9.997936,0.160200,0.285174,0.289428,5512,207
0.068000,52.609272,453.537750,-519.232741,6.328125,136.230469,46.281147,317.307281,0.479034,9.462098,9.941132,0.160200,0.284464,0.284088,5760,204
0.070000,53.490336,427.308250,-527.928493,6.598389,135.131836,46.891947,292.176414,0.483689,9.459049,9.942738,0.160200,0.284484,0.281952,6006,181
0.072000,54.318505,400.656500,-536.102199,6.854370,127.990723,47.464135,272.665777,0.487921,9.473783,9.961705,0.160200,0.284721,0.286224,6239,220
0.074000,55.092962,373.608500,-543.745778,7.124634,135.131836,47.968328,238.476664,0.491752,9.412603,9.904355,0.160200,0.284004,0.284088,6485,168
0.076000,55.812939,346.191000,-550.851670,7.393799,134.582520,48.419140,211.608480,0.495201,9.374050,9.869251,0.160200,0.283566,0.280884,6730,230
0.078000,56.477726,318.431250,-557.412850,7.666260,136.230469,48.811466,182.200781,0.498290,9.314209,9.812499,0.160200,0.282856,0.280884,6978,168
0.080000,57.086664,290.356250,-563.422828,7.956299,145.019531,49.130365,145.336719,0.501038,9.209017,9.710055,0.160200,0.281576,0.284088,7242,179
0.082000,57.639151,261.994500,-568.875663,8.241943,142.822266,49.397208,119.172234,0.503463,9.141426,9.644889,0.160200,0.280761,0.277680,7502,227
0.084000,58.134642,233.373750,-573.765962,8.515503,136.779785,49.619139,96.593965,0.505582,9.081644,9.587227,0.160200,0.280040,0.278748,7751,172
0.086000,58.572646,204.522000,-578.088888,8.786865,135.681152,49.785781,68.840848,0.507412,8.989633,9.497045,0.160200,0.278913,0.276612,7998,213
0.088000,58.952730,175.468250,-581.840169,9.054932,134.033203,49.897798,41.435047,0.508967,8.889603,9.398570,0.160200,0.277682,0.281952,8242,229
0.090000,59.274519,146.240750,-585.016093,9.333984,139.526367,49.940535,6.714383,0.510258,8.745565,9.255823,0.160200,0.275898,0.274476,8496,198
0.092000,59.537693,116.868500,-587.613520,9.588867,127.441406,49.948826,-10.572906,0.511298,8.671582,9.182879,0.160200,0.274986,0.274476,8728,200
0.094000,59.741993,87.381000,-589.629883,9.878906,145.019531,49.863087,-57.638531,0.512094,8.451255,8.963349,0.160200,0.272242,0.277680,8992,179
0.096000,59.887217,57.807000,-591.063187,10.131592,126.342773,49.755625,-68.535773,0.512655,8.384951,8.897606,0.160200,0.271420,0.271272,9222,208
0.098000,59.973221,28.176000,-591.912014,10.380981,124.694824,49.592240,-96.518824,0.512985,8.234336,8.747321,0.160200,0.269542,0.271272,9449,183
0.100000,59.999921,-1.483000,-592.175526,10.611694,115.356445,49.388227,-116.839445,0.513087,8.110063,8.623150,-0.160200,-0.052411,0.271272,9659,192
0.102000,59.967289,-31.140750,-591.853461,10.832520,110.412598,49.134769,-141.553348,0.512962,7.957992,8.470954,-0.160200,-0.054313,-0.052332,9860,105
0.104000,59.875358,-60.767500,-590.946139,10.943481,55.480957,48.931877,-116.248457,0.512609,8.032994,8.545603,-0.160200,-0.053380,-0.056604,9961,25
0.106000,59.724219,-90.334250,-589.454456,10.952271,4.394531,48.771948,-94.728781,0.512025,8.098979,8.611004,-0.160200,-0.052562,-0.053400,9969,-21
0.108000,59.514021,-119.811500,-587.379888,10.922607,-14.831543,48.591414,-104.979957,0.511205,8.022740,8.533945,-0.160200,-0.053526,-0.053400,9942,-23
0.110000,59.244973,-149.170500,-584.724485,10.896240,-13.183594,48.348733,-135.986906,0.510140,7.845091,8.355231,-0.160200,-0.055760,-0.055536,9918,-15
0.112000,58.917339,-178.382000,-581.490875,10.870972,-12.634277,48.046367,-165.747723,0.508823,7.662462,8.171285,-0.160200,-0.058059,-0.053400,9895,-20
0.114000,58.531445,-207.416750,-577.682254,10.852295,-9.338379,47.679150,-198.078371,0.507242,7.457302,7.964543,-0.160200,-0.060643,-0.057672,9878,-15
0.116000,58.087672,-236.246500,-573.302388,10.836914,-7.690430,47.250758,-228.556070,0.505384,7.249549,7.754933,-0.160200,-0.063263,-0.058740,9864,-9
0.118000,57.586459,-264.842750,-568.355609,10.824829,-6.042480,46.761630,-258.800270,0.503234,7.032215,7.535449,-0.160200,-0.066007,-0.066216,9853,-10
0.120000,57.028301,-293.177250,-562.846808,10.808350,-8.239746,46.219951,-284.937504,0.500778,6.823629,7.324407,-0.160200,-0.068645,-0.068352,9838,-13
0.122000,56.413750,-321.221750,-556.781433,10.791870,-8.239746,45.621880,-312.982004,0.497997,6.596879,7.094875,-0.160200,-0.071514,-0.069420,9823,-15
0.124000,55.743414,-348.948750,-550.165481,10.773193,-9.338379,44.970221,-339.610371,0.494873,6.366954,6.861827,-0.160200,-0.074427,-0.073692,9806,-13
0.126000,55.017955,-376.330500,-543.005495,10.755615,-8.789062,44.262340,-367.541437,0.491386,6.121534,6.612920,-0.160200,-0.077539,-0.074760,9790,-14
0.128000,54.238092,-403.339750,-535.308555,10.740234,-7.690430,43.497858,-395.649320,0.487517,5.865463,6.352979,-0.160200,-0.080788,-0.077964,9776,-13
0.130000,53.404596,-429.950500,-527.082272,10.724854,-7.690430,42.679742,-422.260070,0.483243,5.606563,6.089806,-0.160200,-0.084077,-0.081168,9762,-14
0.132000,52.518290,-456.136500,-518.334780,10.707275,-8.789062,41.811015,-447.347437,0.478545,5.345477,5.824022,-0.160200,-0.087400,-0.084372,9746,-17
0.134000,51.580050,-481.871000,-509.074730,10.684204,-11.535645,40.895846,-470.335355,0.473399,5.085446,5.558846,-0.160200,-0.090714,-0.089712,9725,-17
0.136000,50.590806,-507.128750,-499.311279,10.662231,-10.986328,39.928575,-496.142422,0.467786,4.804021,5.271807,-0.160200,-0.094302,-0.091848,9705,-17
0.138000,49.551535,-531.885500,-489.054081,10.636963,-12.634277,38.914572,-519.251223,0.461683,4.526213,4.987896,-0.160200,-0.097851,-0.091848,9682,-26
0.140000,48.463264,-556.116250,-478.313278,10.607300,-14.831543,37.855964,-541.284707,0.455069,4.245312,4.700381,-0.160200,-0.101445,-0.095052,9655,-26
0.142000,47.327070,-579.796750,-467.099493,10.575439,-15.930176,36.751631,-563.866574,0.447926,3.954038,4.401964,-0.160200,-0.105175,-0.100392,9626,-25
0.144000,46.144077,-602.904250,-455.423814,10.543579,-15.930176,35.600498,-586.974074,0.440234,3.652301,4.092535,-0.160200,-0.109043,-0.102528,9597,-23
0.146000,44.915453,-625.415500,-443.297786,10.508423,-17.578125,34.407030,-607.837375,0.431975,3.352969,3.784944,-0.160200,-0.112888,-0.108936,9565,-25
0.148000,43.642415,-647.308250,-430.733401,10.473267,-17.578125,33.169148,-629.730125,0.423135,3.041392,3.464527,-0.160200,-0.116893,-0.113208,9533,-36
0.150000,42.326220,-668.560750,-417.743082,10.429321,-21.972656,31.896899,-646.588094,0.413697,2.745786,3.159483,-0.160200,-0.120706,-0.118548,9493,-33
0.152000,40.968172,-689.152250,-404.339676,10.379883,-24.719238,30.588289,-664.433012,0.403651,2.439528,2.843179,-0.160200,-0.124660,-0.120684,9448,-36
0.154000,39.569611,-709.062500,-390.536436,10.324951,-27.465820,29.244660,-681.596680,0.392986,2.130129,2.523116,-0.160200,-0.128661,-0.123888,9398,-42
0.156000,38.131922,-728.271250,-376.347012,10.270020,-27.465820,27.861902,-700.805430,0.381695,1.804979,2.186674,-0.160200,-0.132867,-0.128160,9348,-38
0.158000,36.656526,-746.760000,-361.785435,10.217285,-26.367188,26.439241,-720.392813,0.369773,1.471211,1.840984,-0.160200,-0.137188,-0.130296,9300,-37
0.160000,35.144882,-764.510500,-346.866104,10.156860,-30.212402,24.988022,-734.298098,0.357218,1.157253,1.514470,-0.160200,-0.141269,-0.136704,9245,-47
0.162000,33.598484,-781.504750,-331.603773,10.087646,-34.606934,23.510838,-746.897816,0.344030,0.844459,1.188489,-0.160200,-0.145344,-0.142044,9182,-63
0.164000,32.018863,-797.726250,-316.013534,10.016235,-35.705566,22.002628,-762.020684,0.330214,0.515240,0.845455,-0.160200,-0.149632,-0.137772,9117,-59
0.166000,30.407579,-813.159000,-300.110802,9.942627,-36.804199,20.464952,-776.354801,0.315777,0.184321,0.500098,-0.160200,-0.153949,-0.147384,9050,-55
0.168000,28.766227,-827.787250,-283.911305,9.863525,-39.550781,18.902702,-788.236469,0.300730,-0.140187,0.160544,-0.160200,-0.158193,-0.148452,8978,-64
0.170000,27.096430,-841.597500,-267.431059,9.772339,-45.593262,17.324091,-796.004238,0.285086,-0.449599,-0.164513,-0.160200,-0.162256,-0.158064,8895,-62
0.172000,25.399837,-854.575500,-250.686364,9.682251,-45.043945,15.717586,-809.531555,0.268863,-0.789011,-0.520148,-0.160200,-0.166702,-0.163404,8813,-62
0.174000,23.678128,-866.708000,-233.693775,9.588867,-46.691895,14.089261,-820.016105,0.252081,-1.118955,-0.866874,-0.160200,-0.171036,-0.164472,8728,-75
0.176000,21.933005,-877.983750,-216.470097,9.492188,-48.339844,12.440818,-829.643906,0.234765,-1.448672,-1.213908,-0.160200,-0.175374,-0.173016,8640,-62
0.178000,20.166193,-888.391250,-199.032362,9.393311,-49.438477,10.772882,-838.952773,0.216940,-1.780399,-1.563459,-0.160200,-0.179743,-0.174084,8550,-92
0.180000,18.379440,-897.920250,-181.397812,9.294434,-49.438477,9.085006,-848.481773,0.198638,-2.116567,-1.917929,-0.160200,-0.184174,-0.185832,8460,-78
0.182000,16.574512,-906.561500,-163.583885,9.196655,-48.889160,7.377857,-857.672340,0.179892,-2.454623,-2.274731,-0.160200,-0.188634,-0.184764,8371,-87
0.184000,14.753194,-914.306250,-145.608198,9.084595,-56.030273,5.668599,-858.275977,0.160738,-2.755578,-2.594840,-0.160200,-0.192636,-0.191172,8269,-76
0.186000,12.917287,-921.146750,-127.488525,8.979126,-52.734375,3.938161,-868.412375,0.141215,-3.101825,-2.960610,-0.160200,-0.197208,-0.191172,8173,-85
0.188000,11.068607,-927.076250,-109.242785,8.853882,-62.622070,2.214725,-864.454180,0.121364,-3.385350,-3.263987,-0.160200,-0.201000,-0.202920,8059,-97
0.190000,9.208982,-932.089000,-90.889019,8.737427,-58.227539,0.471555,-873.861461,0.101228,-3.730638,-3.629410,-0.160200,-0.205568,-0.200784,7953,-86
0.192000,7.340251,-936.180250,-72.445377,8.606689,-65.368652,-1.266438,-870.811598,0.080852,-4.020668,-3.939815,-0.160200,-0.209448,-0.206124,7834,-117
0.194000,5.464261,-939.345750,-53.930097,8.479248,-63.720703,-3.014987,-875.625047,0.060285,-4.346850,-4.286565,-0.160200,-0.213782,-0.206124,7718,-98
0.196000,3.582868,-941.582500,-35.361488,8.345215,-67.016602,-4.762347,-874.565898,0.039573,-4.647200,-4.607627,-0.160200,-0.217795,-0.214668,7596,-128
0.198000,1.697931,-942.888000,-16.757912,8.200195,-72.509766,-6.502264,-870.378234,0.018766,-4.932601,-4.913835,-0.160200,-0.221623,-0.217872,7464,-103
0.200000,-0.188684,-943.261000,1.862236,8.044189,-78.002930,-8.232873,-865.258070,-0.002086,-5.212308,-5.214394,-0.160200,-0.225380,-0.213600,7322,-125
0.202000,-2.075113,-942.701250,20.480542,7.876099,-84.045410,-9.951212,-858.655840,-0.022933,-5.483407,-5.506340,-0.160200,-0.229029,-0.222144,7169,-111
0.204000,-3.959489,-941.209500,39.078596,7.690430,-92.834473,-11.649919,-848.375027,-0.043725,-5.735029,-5.778753,-0.160200,-0.232434,-0.230688,7000,-136
0.206000,-5.839951,-938.787000,57.638006,7.521240,-84.594727,-13.361191,-854.192273,-0.064411,-6.059085,-6.123496,-0.160200,-0.236744,-0.233892,6846,-136
0.208000,-7.714637,-935.436000,76.140422,7.352051,-84.594727,-15.066688,-850.841273,-0.084944,-6.342128,-6.427073,-0.160200,-0.240538,-0.239232,6692,-148
0.210000,-9.581695,-931.160250,94.567545,7.177368,-87.341309,-16.759063,-843.818941,-0.105275,-6.606863,-6.712138,-0.160200,-0.244102,-0.241368,6533,-150
0.212000,-11.439278,-925.963500,112.901154,6.991699,-92.834473,-18.430977,-833.129027,-0.125358,-6.852024,-6.977381,-0.160200,-0.247417,-0.244572,6364,-157
0.214000,-13.285549,-919.851000,131.123121,6.798340,-96.679688,-20.083889,-823.171312,-0.145147,-7.097062,-7.242209,-0.160200,-0.250728,-0.250980,6188,-163
0.216000,-15.118682,-912.829250,149.215425,6.595093,-101.623535,-21.713775,-811.205715,-0.164600,-7.329321,-7.493921,-0.160200,-0.253874,-0.255252,6003,-172
0.218000,-16.936866,-904.904750,167.160178,6.386353,-104.370117,-23.323219,-800.534633,-0.183675,-7.563661,-7.747336,-0.160200,-0.257042,-0.256320,5813,-151
0.220000,-18.738301,-896.085250,184.939632,6.189697,-98.327637,-24.927998,-797.757613,-0.202335,-7.831631,-8.033966,-0.160200,-0.260625,-0.254184,5634,-149
0.222000,-20.521207,-886.379750,202.536209,5.971069,-109.313965,-26.492276,-777.065785,-0.220544,-8.014364,-8.234908,-0.160200,-0.263136,-0.260592,5435,-194
0.224000,-22.283820,-875.797750,219.932506,5.753540,-108.764648,-28.037360,-767.033102,-0.238269,-8.240256,-8.478525,-0.160200,-0.266182,-0.261660,5237,-171
0.226000,-24.024398,-864.349750,237.111321,5.512939,-120.300293,-29.537337,-744.049457,-0.255481,-8.401766,-8.657247,-0.160200,-0.268416,-0.267000,5018,-182
0.228000,-25.741219,-852.047000,254.055668,5.287720,-112.609863,-31.028939,-739.437137,-0.272153,-8.641975,-8.914128,-0.160200,-0.271627,-0.270204,4813,-199
0.230000,-27.432586,-838.901750,270.748790,5.061401,-113.159180,-32.493987,-725.742570,-0.288262,-8.837920,-9.126182,-0.160200,-0.274277,-0.272340,4607,-209
0.232000,-29.096826,-824.926750,287.174181,4.841675,-109.863281,-33.938501,-715.063469,-0.303788,-9.043439,-9.347227,-0.160200,-0.277040,-0.273408,4407,-158
0.234000,-30.732293,-810.136250,303.315597,4.613159,-114.257812,-35.345452,-695.878437,-0.318714,-9.205288,-9.524002,-0.160200,-0.279250,-0.278748,4199,-191
0.236000,-32.337371,-794.544500,319.157079,4.374756,-119.201660,-36.712127,-675.342840,-0.333027,-9.354214,-9.687241,-0.160200,-0.281291,-0.274476,3982,-209
0.238000,-33.910471,-778.167000,334.682960,4.144043,-115.356445,-38.054514,-662.810555,-0.346718,-9.533822,-9.880540,-0.160200,-0.283707,-0.283020,3772,-182
0.240000,-35.450039,-761.020250,349.877888,3.908936,-117.553711,-39.358975,-643.466539,-0.359779,-9.677089,-10.036869,-0.160200,-0.285661,-0.285156,3558,-207
0.242000,-36.954552,-743.120750,364.726837,3.669434,-119.750977,-40.623986,-623.369773,-0.372208,-9.810187,-10.182395,-0.160200,-0.287480,-0.280884,3340,-179
0.244000,-38.422522,-724.486500,379.215124,3.429932,-119.750977,-41.852454,-604.735523,-0.384004,-9.943288,-10.327291,-0.160200,-0.289291,-0.283020,3122,-226
0.246000,-39.852498,-705.136000,393.328421,3.157471,-136.230469,-43.009969,-568.905531,-0.395169,-9.988974,-10.384143,-0.160200,-0.290002,-0.290496,2874,-181
0.248000,-41.243066,-685.088000,407.052774,2.883911,-136.779785,-44.126977,-548.308215,-0.405709,-10.094056,-10.499766,-0.160200,-0.291447,-0.289428,2625,-223
0.250000,-42.592850,-664.362500,420.374610,2.619141,-132.385254,-45.211991,-531.977246,-0.415633,-10.212170,-10.627803,-0.160200,-0.293048,-0.288360,2384,-242
0.252000,-43.900516,-642.980250,433.280756,2.357666,-130.737305,-46.258182,-512.242945,-0.424950,-10.308657,-10.733607,-0.160200,-0.294370,-0.296904,2146,-205
0.254000,-45.164771,-620.962000,445.758450,2.097290,-130.187988,-47.262061,-490.774012,-0.433673,-10.390191,-10.823865,-0.160200,-0.295498,-0.291564,1909,-239
0.256000,-46.384364,-598.329500,457.795354,1.811646,-142.822266,-48.196010,-455.507234,-0.441817,-10.399316,-10.841133,-0.160200,-0.295714,-0.296904,1649,-190
0.258000,-47.558089,-575.105750,469.379563,1.546875,-132.385254,-49.104964,-442.720496,-0.449398,-10.502166,-10.951564,-0.160200,-0.297095,-0.301176,1408,-192
0.260000,-48.684787,-551.313500,480.499624,1.278809,-134.033203,-49.963596,-417.280297,-0.456434,-10.541021,-10.997455,-0.160200,-0.297668,-0.294768,1164,-188
0.262000,-49.763343,-526.975500,491.144540,0.993164,-142.822266,-50.756507,-384.153234,-0.462943,-10.534866,-10.997810,-0.160200,-0.297673,-0.295836,904,-216
0.264000,-50.792689,-502.116500,501.303785,0.714111,-139.526367,-51.506800,-362.590133,-0.468947,-10.571730,-11.040677,-0.160200,-0.298208,-0.296904,650,-243
0.266000,-51.771809,-476.761250,510.967313,0.450439,-131.835938,-52.222248,-344.925312,-0.474465,-10.619522,-11.093988,-0.160200,-0.298875,-0.296904,410,-208
0.268000,-52.699734,-450.934500,520.125568,0.132935,-158.752441,-52.832669,-292.182059,-0.479519,-10.495925,-10.975444,-0.160200,-0.297393,-0.299040,121,-217
0.270000,-53.575547,-424.661750,528.769493,-0.165894,-149.414062,-53.409653,-275.247688,-0.484131,-10.522738,-11.006869,-0.160200,-0.297786,-0.295836,-151,-219
0.272000,-54.398381,-397.969000,536.890542,-0.466919,-150.512695,-53.931462,-247.456305,-0.488322,-10.492548,-10.980870,-0.160200,-0.297461,-0.299040,-425,-260
0.274000,-55.167423,-370.883000,544.480683,-0.751465,-142.272949,-54.415958,-228.610051,-0.492113,-10.494876,-10.986989,-0.160200,-0.297537,-0.299040,-684,-206
0.276000,-55.881913,-343.430000,551.532412,-1.022827,-135.681152,-54.859086,-207.748848,-0.495526,-10.481192,-10.976718,-0.160200,-0.297409,-0.296904,-931,-220
0.278000,-56.541143,-315.637250,558.038754,-1.291992,-134.582520,-55.249151,-181.054730,-0.498580,-10.432796,-10.931376,-0.160200,-0.296842,-0.301176,-1176,-239
0.280000,-57.144462,-287.532750,563.993277,-1.613892,-160.949707,-55.530570,-126.583043,-0.501295,-10.244236,-10.745530,-0.160200,-0.294519,-0.294768,-1469,-247
0.282000,-57.691274,-259.143750,569.390091,-1.913818,-149.963379,-55.777456,-109.180371,-0.503688,-10.211392,-10.715080,-0.160200,-0.294139,-0.295836,-1742,-198
0.284000,-58.181037,-230.498500,574.223861,-2.191772,-138.977051,-55.989265,-91.521449,-0.505778,-10.171308,-10.677086,-0.160200,-0.293664,-0.295836,-1995,-226
0.286000,-58.613268,-201.625250,578.489806,-2.469727,-138.977051,-56.143541,-62.648199,-0.507580,-10.072251,-10.579831,-0.160200,-0.292448,-0.295836,-2248,-196
0.288000,-58.987538,-172.552500,582.183708,-2.774048,-152.160645,-56.213490,-20.391855,-0.509107,-9.900081,-10.409188,-0.160200,-0.290315,-0.293700,-2525,-190
0.290000,-59.303478,-143.309500,585.301915,-3.033325,-129.638672,-56.270153,-13.670828,-0.510373,-9.880645,-10.391018,-0.160200,-0.290088,-0.293700,-2761,-192
0.292000,-59.560776,-113.924750,587.841342,-3.315674,-141.174316,-56.245102,27.249566,-0.511388,-9.697724,-10.209112,-0.160200,-0.287814,-0.293700,-3018,-238
0.294000,-59.759177,-84.427000,589.799479,-3.595825,-140.075684,-56.163352,55.648684,-0.512161,-9.559541,-10.071702,-0.160200,-0.286096,-0.289428,-3273,-241
0.296000,-59.898484,-54.846000,591.174389,-3.847412,-125.793457,-56.051072,70.947457,-0.512698,-9.473191,-9.985889,-0.160200,-0.285024,-0.286224,-3502,-204
0.298000,-59.978561,-25.210750,591.964713,-4.135254,-143.920898,-55.843307,118.710148,-0.513005,-9.228525,-9.741530,-0.160200,-0.281969,-0.286224,-3764,-195
0.300000,-59.999327,4.449500,592.169669,-4.393433,-129.089355,-55.605894,133.538855,-0.513085,-9.122386,-9.635471,0.160200,0.039757,-0.285156,-3999,-202
0.302000,-59.960763,34.105250,591.789055,-4.640625,-123.596191,-55.320138,157.701441,-0.512937,-8.967083,-9.480020,0.160200,0.041700,0.035244,-4224,-154
0.304000,-59.862906,63.727250,590.823247,-4.788940,-74.157715,-55.073966,137.884965,-0.512561,-9.010584,-9.523145,0.160200,0.041161,0.038448,-4359,-40
0.306000,-59.705854,93.286250,589.273200,-4.815308,-13.183594,-54.890546,106.469844,-0.511954,-9.115645,-9.627599,0.160200,0.039855,0.041652,-4383,2
0.308000,-59.489761,122.753250,587.140446,-4.801025,7.141113,-54.688736,115.612137,-0.511109,-9.040532,-9.551641,0.160200,0.040804,0.041652,-4370,17
0.310000,-59.214841,152.098750,584.427095,-4.783447,8.789062,-54.431394,143.309688,-0.510020,-8.874764,-9.384784,0.160200,0.042890,0.041652,-4354,13
0.312000,-58.881366,181.293750,581.135831,-4.770264,6.591797,-54.111102,174.701953,-0.508677,-8.681888,-9.190565,0.160200,0.045318,0.046992,-4342,10
0.314000,-58.489666,210.309500,577.269906,-4.758179,6.042480,-53.731487,204.267020,-0.507069,-8.486631,-8.993699,0.160200,0.047779,0.043788,-4331,8
0.316000,-58.040128,239.117250,572.833145,-4.748291,4.943848,-53.291837,234.173402,-0.505182,-8.279406,-8.784588,0.160200,0.050393,0.048060,-4322,9
0.318000,-57.533197,267.688500,567.829934,-4.738403,4.943848,-52.794794,262.744652,-0.503003,-8.067990,-8.570993,0.160200,0.053063,0.048060,-4313,7
0.320000,-56.969374,295.995250,562.265222,-4.728516,4.943848,-52.240858,291.051402,-0.500515,-7.847799,-8.348313,0.160200,0.055846,0.053400,-4304,7
0.322000,-56.349216,324.009250,556.144510,-4.721924,3.295898,-51.627292,320.713352,-0.497700,-7.611286,-8.108986,0.160200,0.058838,0.053400,-4298,4
0.324000,-55.673337,351.702750,549.473852,-4.715332,3.295898,-50.958005,348.406852,-0.494541,-7.373638,-7.868179,0.160200,0.061848,0.058740,-4292,5
0.326000,-54.942405,379.048500,542.259843,-4.708740,3.295898,-50.233665,375.752602,-0.491017,-7.127898,-7.618915,0.160200,0.064964,0.059808,-4286,4
0.328000,-54.157143,406.019250,534.509617,-4.704346,2.197266,-49.452797,403.821984,-0.487108,-6.869136,-7.356243,0.160200,0.068247,0.066216,-4282,3
0.330000,-53.318328,432.588750,526.230838,-4.698853,2.746582,-48.619475,429.842168,-0.482793,-6.610159,-7.092952,0.160200,0.071538,0.065148,-4277,5
0.332000,-52.426788,458.730500,517.431693,-4.691162,3.845215,-47.735626,454.885285,-0.478051,-6.346627,-6.824678,0.160200,0.074892,0.073692,-4270,7
0.334000,-51.483406,484.418500,508.120883,-4.682373,4.394531,-46.801033,480.023969,-0.472859,-6.073821,-6.546681,0.160200,0.078366,0.069420,-4262,8
0.336000,-50.489114,509.627750,498.307614,-4.669189,6.591797,-45.819925,503.035953,-0.467198,-5.802177,-6.269375,0.160200,0.081833,0.081168,-4250,10
0.338000,-49.444895,534.332750,488.001591,-4.652710,8.239746,-44.792185,526.093004,-0.461045,-5.522197,-5.983242,0.160200,0.085409,0.079032,-4235,14
0.340000,-48.351783,558.509250,477.213005,-4.632935,9.887695,-43.718848,548.621555,-0.454379,-5.236565,-5.690945,0.160200,0.089063,0.087576,-4217,18
0.342000,-47.210858,582.133750,465.952524,-4.608765,12.084961,-42.602093,570.048789,-0.447182,-4.948161,-5.395343,0.160200,0.092758,0.086508,-4195,19
0.344000,-46.023248,605.182500,454.231283,-4.583496,12.634277,-41.439752,592.548223,-0.439434,-4.647122,-5.086556,0.160200,0.096618,0.090780,-4172,18
0.346000,-44.790128,627.633000,442.060872,-4.558228,12.634277,-40.231900,614.998723,-0.431118,-4.338353,-4.769471,0.160200,0.100582,0.099324,-4149,23
0.348000,-43.512716,649.462750,429.453327,-4.530762,13.732910,-38.981954,635.729840,-0.422218,-4.029740,-4.451958,0.160200,0.104551,0.104664,-4124,21
0.350000,-42.192277,670.650000,416.421115,-4.502197,14.282227,-37.690080,656.367773,-0.412720,-3.714215,-4.126935,0.160200,0.108613,0.099324,-4098,22
0.352000,-40.830116,691.174250,402.977123,-4.468140,17.028809,-36.361976,674.145441,-0.402613,-3.404848,-3.807460,0.160200,0.112607,0.112140,-4067,26
0.354000,-39.427580,711.015250,389.134644,-4.435181,16.479492,-34.992399,694.535758,-0.391885,-3.076842,-3.468727,0.160200,0.116841,0.112140,-4037,26
0.356000,-37.986055,730.153000,374.907367,-4.396729,19.226074,-33.589326,710.926926,-0.380531,-2.760440,-3.140971,0.160200,0.120938,0.117480,-4002,29
0.358000,-36.506968,748.568500,360.309360,-4.353882,21.423340,-32.153086,727.145160,-0.368546,-2.439003,-2.807549,0.160200,0.125106,0.116412,-3963,33
0.360000,-34.991781,766.244000,345.355060,-4.306641,23.620605,-30.685140,742.623395,-0.355927,-2.115261,-2.471189,0.160200,0.129310,0.124956,-3920,34
0.362000,-33.441992,783.162000,330.059253,-4.253906,26.367188,-29.188086,756.794813,-0.342677,-1.792142,-2.134818,0.160200,0.133515,0.129228,-3872,43
0.364000,-31.859133,799.305250,314.437066,-4.196777,28.564453,-27.662356,770.740797,-0.328798,-1.465001,-1.793799,0.160200,0.137778,0.133500,-3820,46
0.366000,-30.244771,814.658000,298.503945,-4.135254,30.761719,-26.109517,783.896281,-0.314300,-1.136578,-1.450878,0.160200,0.142064,0.135636,-3764,50
0.368000,-28.600501,829.205500,282.275647,-4.064941,35.156250,-24.535560,794.049250,-0.299192,-0.817570,-1.116762,0.160200,0.146240,0.146316,-3700,48
0.370000,-26.927949,842.933000,265.768219,-3.994629,35.156250,-22.933320,807.776750,-0.283490,-0.478028,-0.761518,0.160200,0.150681,0.145248,-3636,56
0.372000,-25.228769,855.827000,248.997985,-3.917725,38.452148,-21.311044,817.374852,-0.267210,-0.153008,-0.420218,0.160200,0.154947,0.154860,-3566,67
0.374000,-23.504641,867.874500,231.981527,-3.839722,39.001465,-19.664919,828.873035,-0.250373,0.184465,-0.065908,0.160200,0.159376,0.155928,-3495,54
0.376000,-21.757271,879.063750,214.735673,-3.756226,41.748047,-18.001045,837.315703,-0.233005,0.511704,0.278699,0.160200,0.163684,0.165540,-3419,67
0.378000,-19.988386,889.384000,197.277477,-3.667236,44.494629,-16.321150,844.889371,-0.215131,0.837947,0.622816,0.160200,0.167985,0.162336,-3338,69
0.380000,-18.199735,898.824500,179.624202,-3.573853,46.691895,-14.625882,852.132605,-0.196783,1.165432,0.968649,0.160200,0.172308,0.165540,-3253,78
0.382000,-16.393088,907.376250,161.793304,-3.484863,44.494629,-12.908225,862.881621,-0.177994,1.512121,1.334127,0.160200,0.176877,0.175152,-3172,71
0.384000,-14.570230,915.031000,143.802416,-3.373901,55.480957,-11.196329,859.550043,-0.158802,1.796367,1.637565,0.160200,0.180670,0.178356,-3071,73
0.386000,-12.732964,921.780750,125.669328,-3.273926,49.987793,-9.459038,871.792957,-0.139244,2.153001,2.013757,0.160200,0.185372,0.181560,-2980,74
0.388000,-10.883107,927.618750,107.411971,-3.153076,60.424805,-7.730031,867.193945,-0.119362,2.434703,2.315341,0.160200,0.189142,0.185832,-2870,73
0.390000,-9.022489,932.539750,89.048399,-3.042114,55.480957,-5.980375,877.058793,-0.099200,2.783119,2.683918,0.160200,0.193749,0.189036,-2769,105
0.392000,-7.152948,936.538750,70.596771,-2.902588,69.763184,-4.250360,866.775566,-0.078804,3.040194,2.961391,0.160200,0.197217,0.195444,-2642,82
0.394000,-5.276334,939.611250,52.075334,-2.772949,64.819336,-2.503385,874.791914,-0.058219,3.380077,3.321857,0.160200,0.201723,0.197580,-2524,105
0.396000,-3.394503,941.754750,33.502401,-2.647705,62.622070,-0.746798,879.132680,-0.037496,3.705599,3.668103,0.160200,0.206051,0.203988,-2410,105
0.398000,-1.509315,942.967250,14.896339,-2.515869,65.917969,1.006554,877.049281,-0.016682,4.002526,3.985844,0.160200,0.210023,0.207192,-2290,99
0.400000,0.377366,943.247000,-3.724453,-2.371948,71.960449,2.749314,871.286551,0.004172,4.281551,4.285722,0.160200,0.213772,0.215736,-2159,116
0.402000,2.263673,942.594000,-22.341562,-2.222534,74.707031,4.486207,867.886969,0.025015,4.569862,4.594877,0.160200,0.217636,0.212532,-2023,99
0.404000,4.147742,941.009250,-40.936579,-2.067627,77.453613,6.215369,863.555637,0.045799,4.852759,4.898558,0.160200,0.221432,0.217872,-1882,126
0.406000,6.027710,938.493750,-59.491115,-1.895142,86.242676,7.922852,852.251074,0.066472,5.101445,5.167918,0.160200,0.224799,0.223212,-1725,132
0.408000,7.901717,935.050000,-77.986823,-1.728149,83.496094,9.629866,851.553906,0.086987,5.396334,5.483321,0.160200,0.228742,0.223212,-1573,124
0.410000,9.767910,930.681750,-96.405414,-1.534790,96.679688,11.302700,834.002063,0.107296,5.611714,5.719009,0.160200,0.231688,0.224280,-1397,153
0.412000,11.624444,925.393250,-114.728673,-1.353516,90.637207,12.977960,834.756043,0.127351,5.907392,6.034742,0.160200,0.235634,0.231756,-1232,138
0.414000,13.469483,919.189750,-132.938482,-1.179932,86.791992,14.649415,832.397758,0.147108,6.188826,6.335934,0.160200,0.239399,0.237096,-1074,155
0.416000,15.301203,912.077500,-151.016834,-0.968994,105.468750,16.270197,806.608750,0.166525,6.359180,6.525705,0.160200,0.241771,0.238164,-882,138
0.418000,17.117793,904.063000,-168.945853,-0.749268,109.863281,17.867061,794.199719,0.185560,6.583740,6.769301,0.160200,0.244816,0.242436,-682,130
0.420000,18.917455,895.154250,-186.707808,-0.551514,98.876953,19.468969,796.277297,0.204177,6.872391,7.076568,0.160200,0.248657,0.246708,-502,135
0.422000,20.698410,885.360750,-204.285136,-0.336182,107.666016,21.034592,777.694734,0.222339,7.064562,7.286901,0.160200,0.251286,0.248844,-306,172
0.424000,22.458898,874.691750,-221.660456,-0.129639,103.271484,22.588537,771.420266,0.240014,7.308399,7.548414,0.160200,0.254555,0.249912,-118,174
0.426000,24.197177,863.157750,-238.816585,0.098877,114.257812,24.098300,748.899938,0.257173,7.473639,7.730812,0.160200,0.256835,0.247776,90,170
0.428000,25.911529,850.770250,-255.736559,0.328491,114.807129,25.583038,735.963121,0.273790,7.676327,7.950117,0.160200,0.259576,0.258456,299,159
0.430000,27.600258,837.541250,-272.403647,0.553711,112.609863,27.046547,724.931387,0.289841,7.883623,8.173464,0.160200,0.262368,0.259524,504,193
0.432000,29.261694,823.484250,-288.801367,0.799805,123.046875,28.461889,700.437375,0.305308,8.023771,8.329079,0.160200,0.264313,0.261660,728,159
0.434000,30.894195,808.613000,-304.913503,1.034912,117.553711,29.859283,691.059289,0.320173,8.226743,8.546916,0.160200,0.267036,0.263796,942,192
0.436000,32.496146,792.941750,-320.724125,1.273315,119.201660,31.222831,673.740090,0.334424,8.389158,8.723582,0.160200,0.269245,0.265932,1159,163
0.438000,34.065962,776.486750,-336.217596,1.519409,123.046875,32.546553,653.439875,0.348052,8.531614,8.879667,0.160200,0.271196,0.262728,1383,174
0.440000,35.602093,759.264000,-351.378597,1.757812,119.201660,33.844281,640.062340,0.361051,8.699740,9.060791,0.160200,0.273460,0.275544,1600,160
0.442000,37.103018,741.290000,-366.192135,2.008301,125.244141,35.094717,616.045859,0.373416,8.813191,9.186607,0.160200,0.275033,0.273408,1828,187
0.444000,38.567253,722.583250,-380.643561,2.254395,123.046875,36.312858,599.536375,0.385148,8.953760,9.338909,0.160200,0.276936,0.274476,2052,198
0.446000,39.993351,703.162250,-394.718586,2.514771,130.187988,37.478580,572.974262,0.396251,9.041318,9.437569,0.160200,0.278170,0.274476,2289,194
0.448000,41.379902,683.045750,-408.403291,2.776245,130.737305,38.603657,552.308445,0.406729,9.147509,9.554239,0.160200,0.279628,0.275544,2527,168
0.450000,42.725534,662.253500,-421.684145,3.044312,134.033203,39.681222,528.220297,0.416592,9.230476,9.647068,0.160200,0.280788,0.280884,2771,179
0.452000,44.028916,640.806500,-434.548013,3.292603,124.145508,40.736313,516.660992,0.425849,9.364187,9.790036,0.160200,0.282575,0.284088,2997,169
0.454000,45.288760,618.726000,-446.982176,3.543091,125.244141,41.745669,493.481859,0.434513,9.439215,9.873728,0.160200,0.283622,0.285156,3225,215
0.456000,46.503820,596.033500,-458.974338,3.804565,130.737305,42.699255,465.296195,0.442600,9.482663,9.925264,0.160200,0.284266,0.279816,3463,207
0.458000,47.672894,572.751750,-470.512641,4.068237,131.835938,43.604657,440.915813,0.450126,9.534306,9.984432,0.160200,0.285005,0.285156,3703,206
0.460000,48.794827,548.903750,-481.585675,4.326416,129.089355,44.468411,419.814395,0.457108,9.592988,10.050096,0.160200,0.285826,0.290496,3938,184
0.462000,49.868509,524.512750,-492.182489,4.604370,138.977051,45.264139,385.535699,0.463566,9.582299,10.045866,0.160200,0.285773,0.287292,4191,209
0.464000,50.892878,499.603000,-502.292607,4.872437,134.033203,46.020441,365.569797,0.469520,9.627181,10.096702,0.160200,0.286409,0.287292,4435,177
0.466000,51.866921,474.199250,-511.906029,5.155884,141.723633,46.711037,332.475617,0.474991,9.603313,10.078304,0.160200,0.286179,0.283020,4693,241
0.468000,52.789675,448.326750,-521.013250,5.420654,132.385254,47.369021,315.941496,0.480000,9.646009,10.126009,0.160200,0.286775,0.285156,4934,178
0.470000,53.660228,422.011000,-529.605264,5.705200,142.272949,47.955028,279.738051,0.484569,9.590319,10.074888,0.160200,0.286136,0.287292,5193,181
0.472000,54.477719,395.277750,-537.673575,5.979858,137.329102,48.497861,257.948648,0.488719,9.589987,10.078706,0.160200,0.286184,0.284088,5443,236
0.474000,55.241339,368.153750,-545.210204,6.246826,133.483887,48.994513,234.669863,0.492471,9.575096,10.067567,0.160200,0.286045,0.287292,5686,241
0.476000,55.950334,340.665500,-552.207699,6.497314,125.244141,49.453020,215.421359,0.495847,9.571133,10.066980,0.160200,0.286037,0.284088,5914,183
0.478000,56.604001,312.840500,-558.659140,6.747803,125.244141,49.856198,187.596359,0.498866,9.520092,10.018958,0.160200,0.285437,0.285156,6142,184
0.480000,57.201696,284.706250,-564.558147,7.034546,143.371582,50.167150,141.334668,0.501548,9.372508,9.874056,0.160200,0.283626,0.285156,6403,178
0.482000,57.742826,256.290250,-569.898888,7.302612,134.033203,50.440214,122.257047,0.503911,9.336925,9.840836,0.160200,0.283210,0.286224,6647,175
0.484000,58.226857,227.620750,-574.676082,7.595947,146.667480,50.630910,80.953270,0.505971,9.189986,9.695957,0.160200,0.281399,0.284088,6914,176
0.486000,58.653309,198.726500,-578.885003,7.876099,140.075684,50.777210,58.650816,0.507745,9.118208,9.625952,0.160200,0.280524,0.278748,7169,217
0.488000,59.021763,169.635750,-582.521491,8.144165,134.033203,50.877598,35.602547,0.509245,9.035161,9.544407,0.160200,0.279505,0.281952,7413,201
0.490000,59.331852,140.376750,-585.581948,8.441895,148.864746,50.889957,-8.487996,0.510486,8.844937,9.355423,0.160200,0.277143,0.285156,7684,199
0.492000,59.583270,110.979500,-588.063350,8.728638,143.371582,50.854632,-32.392082,0.511476,8.734471,9.245947,0.160200,0.275774,0.276612,7945,175
0.494000,59.775770,81.472250,-589.963242,8.982422,126.892090,50.793348,-45.419840,0.512225,8.666930,9.179155,0.160200,0.274939,0.276612,8176,218
0.496000,59.909159,51.884250,-591.279745,9.239502,128.540039,50.669657,-76.655789,0.512739,8.509049,9.021789,0.160200,0.272972,0.274476,8410,216
0.498000,59.983307,22.245500,-592.011558,9.507568,134.033203,50.475739,-111.787703,0.513023,8.321912,8.834936,0.160200,0.270637,0.271272,8654,199
0.500000,59.998141,-7.415500,-592.157957,9.793213,142.822266,50.204928,-150.237766,0.513080,8.106877,8.619957,-0.160200,-0.052451,0.270204,8914,219
0.502000,59.953645,-37.069500,-591.718797,10.052490,129.638672,49.901155,-166.708172,0.512910,7.981993,8.494903,-0.160200,-0.054014,-0.051264,9150,104
0.504000,59.849863,-66.686750,-590.694512,10.177734,62.622070,49.672129,-129.308820,0.512511,8.105206,8.617717,-0.160200,-0.052479,-0.052332,9264,18
0.506000,59.686898,-96.237750,-589.086116,10.184326,3.295898,49.502572,-99.533648,0.511880,8.205531,8.717411,-0.160200,-0.051232,-0.053400,9270,-20
0.508000,59.464912,-125.693750,-586.895198,10.153564,-15.380859,49.311348,-110.312891,0.511012,8.125123,8.636135,-0.160200,-0.052248,-0.051264,9242,-20
0.510000,59.184123,-155.025500,-584.123926,10.130493,-11.535645,49.053630,-143.489855,0.509897,7.935381,8.445278,-0.160200,-0.054634,-0.052332,9221,-19
0.512000,58.844810,-184.203750,-580.775039,10.107422,-11.535645,48.737388,-172.668105,0.508528,7.752872,8.261401,-0.160200,-0.056932,-0.055536,9200,-15
0.514000,58.447308,-213.200000,-576.851850,10.089844,-8.789062,48.357464,-204.410938,0.506893,7.548059,8.054952,-0.160200,-0.059513,-0.060876,9184,-13
0.516000,57.992010,-241.985500,-572.358237,10.076660,-6.591797,47.915350,-235.393703,0.504978,7.335707,7.840685,-0.160200,-0.062191,-0.063012,9172,-13
0.518000,57.479366,-270.531750,-567.298644,10.062378,-7.141113,47.416988,-263.390637,0.502768,7.126567,7.629335,-0.160200,-0.064833,-0.063012,9159,-11
0.520000,56.909883,-298.810250,-561.678075,10.045898,-8.239746,46.863985,-290.570504,0.500248,6.911455,7.411703,-0.160200,-0.067554,-0.064080,9144,-13
0.522000,56.284125,-326.793250,-555.502087,10.028320,-8.789062,46.255805,-318.004187,0.497400,6.685606,7.183006,-0.160200,-0.070412,-0.065148,9128,-12
0.524000,55.602710,-354.453500,-548.776788,10.011841,-8.239746,45.590869,-346.213754,0.494205,6.446465,6.940670,-0.160200,-0.073442,-0.075828,9113,-12
0.526000,54.866311,-381.763000,-541.508828,9.996460,-7.690430,44.869851,-374.072570,0.490644,6.199067,6.689710,-0.160200,-0.076579,-0.075828,9099,-11
0.528000,54.075658,-408.694750,-533.705393,9.982178,-7.141113,44.093480,-401.553637,0.486695,5.943656,6.430351,-0.160200,-0.079821,-0.076896,9086,-13
0.530000,53.231532,-435.222750,-525.374201,9.964600,-8.789062,43.266932,-426.433687,0.482338,5.690836,6.173175,-0.160200,-0.083035,-0.079032,9070,-14
0.532000,52.334767,-461.320250,-516.523489,9.948120,-8.239746,42.386647,-453.080504,0.477552,5.420929,5.898481,-0.160200,-0.086469,-0.084372,9055,-16
0.534000,51.386251,-486.961250,-507.162010,9.927246,-10.437012,41.459005,-476.524238,0.472315,5.156732,5.629047,-0.160200,-0.089837,-0.086508,9036,-13
0.536000,50.386922,-512.121000,-497.299021,9.906372,-10.437012,40.480550,-501.683988,0.466605,4.876179,5.342784,-0.160200,-0.093415,-0.089712,9017,-16
0.538000,49.337767,-536.774500,-486.944275,9.885498,-10.437012,39.452269,-526.337488,0.460401,4.589139,5.049541,-0.160200,-0.097081,-0.090780,8998,-20
0.540000,48.239824,-560.897000,-476.108012,9.860229,-12.634277,38.379595,-548.262723,0.453684,4.306255,4.759939,-0.160200,-0.100701,-0.096120,8975,-17
0.542000,47.094179,-584.465000,-464.800946,9.832764,-13.732910,37.261415,-570.732090,0.446432,4.013055,4.459487,-0.160200,-0.104456,-0.096120,8950,-21
0.544000,45.901964,-607.455000,-453.034259,9.803101,-14.831543,36.098863,-592.623457,0.438628,3.714633,4.153261,-0.160200,-0.108284,-0.103596,8923,-25
0.546000,44.664359,-629.844250,-440.819586,9.766846,-18.127441,34.897513,-611.716809,0.430254,3.421647,3.851901,-0.160200,-0.112051,-0.108936,8890,-32
0.548000,43.382587,-651.610500,-428.169007,9.729492,-18.676758,33.653095,-632.933742,0.421295,3.111879,3.533174,-0.160200,-0.116035,-0.107868,8856,-32
0.550000,42.057917,-672.732500,-415.095030,9.695435,-17.028809,32.362482,-655.703691,0.411737,2.787272,3.199009,-0.160200,-0.120212,-0.117480,8825,-34
0.552000,40.691657,-693.189500,-401.610584,9.651489,-21.972656,31.040168,-671.216844,0.401568,2.488795,2.890363,-0.160200,-0.124070,-0.118548,8785,-27
0.554000,39.285159,-712.961000,-387.729003,9.603149,-24.169922,29.682010,-688.791078,0.390778,2.175070,2.565848,-0.160200,-0.128127,-0.122820,8741,-44
0.556000,37.839813,-732.027250,-373.464013,9.551514,-25.817871,28.288299,-706.209379,0.379361,1.855820,2.235181,-0.160200,-0.132260,-0.130296,8694,-38
0.558000,36.357050,-750.369750,-358.829722,9.493286,-29.113770,26.863764,-721.255980,0.367312,1.541538,1.908851,-0.160200,-0.136339,-0.135636,8641,-42
0.560000,34.838334,-767.970500,-343.840600,9.435059,-29.113770,25.403275,-738.856730,0.354630,1.209837,1.564468,-0.160200,-0.140644,-0.138840,8588,-52
0.562000,33.285168,-784.811250,-328.511469,9.376831,-29.113770,23.908337,-755.697480,0.341317,0.875440,1.216757,-0.160200,-0.144991,-0.139908,8535,-42
0.564000,31.699089,-800.876250,-312.857488,9.308716,-34.057617,22.390373,-766.818633,0.327376,0.561980,0.889356,-0.160200,-0.149083,-0.147384,8473,-54
0.566000,30.081663,-816.149500,-296.894136,9.238403,-35.156250,20.843260,-780.993250,0.312816,0.230109,0.542926,-0.160200,-0.153413,-0.154860,8409,-46
0.568000,28.434491,-830.615500,-280.637198,9.164795,-36.804199,19.269696,-793.811301,0.297649,-0.100459,0.197190,-0.160200,-0.157735,-0.154860,8342,-55
0.570000,26.759201,-844.260000,-264.102750,9.090088,-37.353516,17.669113,-806.906484,0.281888,-0.436952,-0.155064,-0.160200,-0.162138,-0.155928,8274,-56
0.572000,25.057451,-857.069750,-247.307143,9.015381,-37.353516,16.042070,-819.716234,0.265551,-0.776817,-0.511266,-0.160200,-0.166591,-0.158064,8206,-73
0.574000,23.330922,-869.032250,-230.266985,8.936279,-39.550781,14.394643,-829.481469,0.248660,-1.106957,-0.858297,-0.160200,-0.170929,-0.165540,8134,-78
0.576000,21.581322,-880.135250,-212.999126,8.840698,-47.790527,12.740624,-832.344723,0.231239,-1.408131,-1.176891,-0.160200,-0.174911,-0.173016,8047,-69
0.578000,19.810381,-890.367750,-195.520641,8.745117,-47.790527,11.065264,-842.577223,0.213317,-1.745184,-1.531867,-0.160200,-0.179348,-0.175152,7960,-85
0.580000,18.019851,-899.719750,-177.848815,8.645142,-49.987793,9.374709,-849.731957,0.194923,-2.071460,-1.876536,-0.160200,-0.183657,-0.177288,7869,-72
0.582000,16.211502,-908.182250,-160.001122,8.545166,-49.987793,7.666336,-858.194457,0.176093,-2.406552,-2.230459,-0.160200,-0.188081,-0.183696,7778,-85
0.584000,14.387122,-915.746750,-141.995211,8.438599,-53.283691,5.948523,-862.463059,0.156862,-2.724992,-2.568130,-0.160200,-0.192302,-0.191172,7681,-79
0.586000,12.548515,-922.405750,-123.848887,8.327637,-55.480957,4.220878,-866.924793,0.137269,-3.045991,-2.908721,-0.160200,-0.196559,-0.190104,7580,-88
0.588000,10.697499,-928.152250,-105.580095,8.203491,-62.072754,2.494008,-866.079496,0.117358,-3.343698,-3.226341,-0.160200,-0.200529,-0.197580,7467,-102
0.590000,8.835906,-932.981250,-87.206899,8.068359,-67.565918,0.767547,-865.415332,0.097170,-3.642125,-3.544954,-0.160200,-0.204512,-0.200784,7344,-87
0.592000,6.965574,-936.887750,-68.747467,7.936523,-65.917969,-0.970949,-870.969781,0.076753,-3.969785,-3.893032,-0.160200,-0.208863,-0.203988,7224,-112
0.594000,5.088355,-939.867500,-50.220055,7.796997,-69.763184,-2.708642,-870.104316,0.056152,-4.269294,-4.213141,-0.160200,-0.212864,-0.208260,7097,-97
0.596000,3.206104,-941.918000,-31.642982,7.645386,-75.805664,-4.439282,-866.112336,0.035418,-4.553929,-4.518511,-0.160200,-0.216681,-0.217872,6959,-115
0.598000,1.320683,-943.037000,-13.034619,7.490479,-77.453613,-6.169796,-865.583387,0.014598,-4.853652,-4.839055,-0.160200,-0.220688,-0.217872,6818,-114
0.600000,-0.566044,-943.223750,5.586634,7.326782,-81.848145,-7.892826,-861.375605,-0.006257,-5.136018,-5.142275,-0.160200,-0.224478,-0.223212,6669,-116
0.602000,-2.452212,-942.477500,24.202362,7.145508,-90.637207,-9.597720,-851.840293,-0.027097,-5.391973,-5.419070,-0.160200,-0.227938,-0.224280,6504,-120
0.604000,-4.335954,-940.799250,42.794157,6.958740,-93.383789,-11.294694,-847.415461,-0.047872,-5.668844,-5.716715,-0.160200,-0.231659,-0.229620,6334,-116
0.606000,-6.215409,-938.191000,61.343636,6.771973,-93.383789,-12.987382,-844.807211,-0.068532,-5.952893,-6.021424,-0.160200,-0.235468,-0.233892,6164,-120
0.608000,-8.088718,-934.654750,79.832454,6.570923,-100.524902,-14.659641,-834.129848,-0.089028,-6.198168,-6.287196,-0.160200,-0.238790,-0.237096,5981,-163
0.610000,-9.954028,-930.194250,98.242329,6.375366,-97.778320,-16.329394,-832.415930,-0.109313,-6.482117,-6.591430,-0.160200,-0.242593,-0.239232,5803,-166
0.612000,-11.809495,-924.814250,116.555057,6.186401,-94.482422,-17.995896,-830.331828,-0.129341,-6.763883,-6.893223,-0.160200,-0.246365,-0.247776,5631,-135
0.614000,-13.653285,-918.519500,134.752529,6.000732,-92.834473,-19.654017,-825.685027,-0.149066,-7.033004,-7.182070,-0.160200,-0.249976,-0.245640,5462,-137
0.616000,-15.483573,-911.316250,152.816750,5.778809,-110.961914,-21.262382,-800.354336,-0.168446,-7.203190,-7.371636,-0.160200,-0.252345,-0.248844,5260,-157
0.618000,-17.298550,-903.212000,170.729857,5.559082,-109.863281,-22.857632,-793.348719,-0.187442,-7.451046,-7.638488,-0.160200,-0.255681,-0.250980,5060,-162
0.620000,-19.096421,-894.214750,188.474137,5.322876,-118.103027,-24.419297,-776.111723,-0.206014,-7.648398,-7.854412,-0.160200,-0.258380,-0.254184,4845,-156
0.622000,-20.875409,-884.333250,206.032044,5.108643,-107.116699,-25.984052,-777.216551,-0.224129,-7.926319,-8.150448,-0.160200,-0.262081,-0.257388,4650,-163
0.624000,-22.633754,-873.577000,223.386214,4.865845,-121.398926,-27.499599,-752.178074,-0.241754,-8.081581,-8.323335,-0.160200,-0.264242,-0.268068,4429,-176
0.626000,-24.369717,-861.957250,240.519488,4.629639,-118.103027,-28.999356,-743.854223,-0.258860,-8.307019,-8.565878,-0.160200,-0.267273,-0.259524,4214,-184
0.628000,-26.081583,-849.485000,257.414922,4.386841,-121.398926,-30.468424,-728.086074,-0.275421,-8.494618,-8.770039,-0.160200,-0.269825,-0.268068,3993,-169
0.630000,-27.767657,-836.172500,274.055810,4.133057,-126.892090,-31.900714,-709.280410,-0.291415,-8.662544,-8.953959,-0.160200,-0.272124,-0.270204,3762,-165
0.632000,-29.426273,-822.033500,290.425697,3.878174,-127.441406,-33.304447,-694.592094,-0.306822,-8.843452,-9.150274,-0.160200,-0.274578,-0.272340,3530,-187
0.634000,-31.055791,-807.081500,306.508394,3.618896,-129.638672,-34.674687,-677.442828,-0.321626,-9.007777,-9.329403,-0.160200,-0.276818,-0.275544,3294,-200
0.636000,-32.654599,-791.331500,322.287999,3.377197,-120.849609,-36.031796,-670.481891,-0.335815,-9.214264,-9.550079,-0.160200,-0.279576,-0.280884,3074,-178
0.638000,-34.221117,-774.798750,337.748907,3.115723,-130.737305,-37.336840,-644.061445,-0.349381,-9.326756,-9.676137,-0.160200,-0.281152,-0.280884,2836,-216
0.640000,-35.753794,-757.500000,352.875831,2.844360,-135.681152,-38.598154,-621.818848,-0.362316,-9.449845,-9.812161,-0.160200,-0.282852,-0.284088,2589,-228
0.642000,-37.251117,-739.452250,367.653811,2.575195,-134.582520,-39.826312,-604.869730,-0.374618,-9.590245,-9.964863,-0.160200,-0.284761,-0.283020,2344,-239
0.644000,-38.711603,-720.673000,382.068234,2.322510,-126.342773,-41.034113,-594.330227,-0.386287,-9.755059,-10.141346,-0.160200,-0.286967,-0.285156,2114,-215
0.646000,-40.133809,-701.181500,396.104847,2.045654,-138.427734,-42.179463,-562.753766,-0.397327,-9.817182,-10.214509,-0.160200,-0.287881,-0.293700,1862,-196
0.648000,-41.516329,-680.996500,409.749770,1.742432,-151.611328,-43.258761,-529.385172,-0.407743,-9.859957,-10.267700,-0.160200,-0.288546,-0.286224,1586,-247
0.650000,-42.857795,-660.137750,422.989509,1.456787,-142.822266,-44.314582,-517.315484,-0.417545,-9.991568,-10.409113,-0.160200,-0.290314,-0.289428,1326,-189
0.652000,-44.156880,-638.626500,435.810972,1.164551,-146.118164,-45.321431,-492.508336,-0.426742,-10.059055,-10.485797,-0.160200,-0.291272,-0.292632,1060,-190
0.654000,-45.412301,-616.484000,448.201482,0.884399,-140.075684,-46.296700,-476.408316,-0.435348,-10.159022,-10.594370,-0.160200,-0.292630,-0.289428,805,-226
0.656000,-46.622816,-593.731750,460.148784,0.622925,-130.737305,-47.245741,-462.994445,-0.443378,-10.266132,-10.709510,-0.160200,-0.294069,-0.291564,567,-240
0.658000,-47.787228,-570.392000,471.641066,0.328491,-147.216797,-48.115719,-423.175203,-0.450848,-10.244227,-10.695076,-0.160200,-0.293888,-0.295836,299,-226
0.660000,-48.904384,-546.488500,482.666963,0.034058,-147.216797,-48.938442,-399.271703,-0.457777,-10.283521,-10.741298,-0.160200,-0.294466,-0.291564,31,-190
0.662000,-49.973182,-522.044750,493.215571,-0.263672,-148.864746,-49.709510,-373.180004,-0.464184,-10.304251,-10.768435,-0.160200,-0.294805,-0.293700,-240,-195
0.664000,-50.992563,-497.084500,503.276461,-0.552612,-144.470215,-50.439951,-352.614285,-0.470089,-10.342002,-10.812091,-0.160200,-0.295351,-0.295836,-503,-231
0.666000,-51.961520,-471.632750,512.839683,-0.837158,-142.272949,-51.124362,-329.359801,-0.475512,-10.359988,-10.835500,-0.160200,-0.295644,-0.297972,-762,-205
0.668000,-52.879094,-445.714750,521.895780,-1.141479,-152.160645,-51.737615,-293.554105,-0.480477,-10.310789,-10.791265,-0.160200,-0.295091,-0.296904,-1039,-196
0.670000,-53.744379,-419.356000,530.435797,-1.465576,-162.048340,-52.278803,-257.307660,-0.485002,-10.247089,-10.732091,-0.160200,-0.294351,-0.293700,-1334,-205
0.672000,-54.556518,-392.582500,538.451290,-1.807251,-170.837402,-52.749267,-221.745098,-0.489112,-10.174029,-10.663141,-0.160200,-0.293489,-0.294768,-1645,-235
0.674000,-55.314709,-365.420750,545.934333,-2.083008,-137.878418,-53.231701,-227.542332,-0.492826,-10.283525,-10.776351,-0.160200,-0.294904,-0.310788,-1896,-254
0.676000,-56.018201,-337.897750,552.877525,-2.369751,-143.371582,-53.648450,-194.526168,-0.496165,-10.212201,-10.708366,-0.160200,-0.294055,-0.292632,-2157,-244
0.678000,-56.666300,-310.040500,559.274000,-2.653198,-141.723633,-54.013102,-168.316867,-0.499149,-10.161486,-10.660635,-0.160200,-0.293458,-0.292632,-2415,-194
0.680000,-57.258363,-281.876750,565.117435,-2.924561,-135.681152,-54.333802,-146.195598,-0.501798,-10.120936,-10.622735,-0.160200,-0.292984,-0.295836,-2662,-250
0.682000,-57.793807,-253.434250,570.402050,-3.215698,-145.568848,-54.578109,-107.865402,-0.504130,-9.996329,-10.500459,-0.160200,-0.291456,-0.294768,-2927,-203
0.684000,-58.272100,-224.741000,575.122619,-3.505737,-145.019531,-54.766363,-79.721469,-0.506161,-9.906384,-10.412545,-0.160200,-0.290357,-0.289428,-3191,-201
0.686000,-58.692771,-195.825750,579.274475,-3.819946,-157.104492,-54.872825,-38.721258,-0.507907,-9.746068,-10.253975,-0.160200,-0.288375,-0.290496,-3477,-241
0.688000,-59.055403,-166.716750,582.853512,-4.097900,-138.977051,-54.957503,-27.739699,-0.509381,-9.712931,-10.222312,-0.160200,-0.287979,-0.287292,-3730,-205
0.690000,-59.359638,-137.443000,585.856191,-4.393433,-147.766113,-54.966205,10.323113,-0.510596,-9.548370,-10.058965,-0.160200,-0.285937,-0.283020,-3999,-222
0.692000,-59.605175,-108.033250,588.279543,-4.687866,-147.216797,-54.917309,39.183547,-0.511562,-9.413908,-9.925470,-0.160200,-0.284268,-0.284088,-4267,-221
0.694000,-59.791771,-78.516750,590.121171,-4.951538,-131.835938,-54.840233,53.319188,-0.512287,-9.338777,-9.851064,-0.160200,-0.283338,-0.275544,-4507,-191
0.696000,-59.919242,-48.922500,591.379254,-5.232788,-140.625000,-54.686454,91.702500,-0.512778,-9.144459,-9.657237,-0.160200,-0.280915,-0.284088,-4763,-233
0.698000,-59.987461,-19.279750,592.052549,-5.523926,-145.568848,-54.463535,126.289098,-0.513039,-8.954640,-9.467679,-0.160200,-0.278546,-0.278748,-5028,-178
0.700000,-59.996361,10.382000,592.140388,-5.776611,-126.342773,-54.219750,136.724773,-0.513073,-8.866557,-9.379630,0.160200,0.042955,-0.280884,-5258,-238
0.702000,-59.945933,40.033500,591.642687,-6.022705,-123.046875,-53.923228,163.080375,-0.512880,-8.699806,-9.212687,0.160200,0.045041,0.041652,-5482,-120
0.704000,-59.836227,69.645250,590.559936,-6.169922,-73.608398,-53.666305,143.253648,-0.512459,-8.741475,-9.253934,0.160200,0.044526,0.044856,-5616,-23
0.706000,-59.667352,99.188000,588.893206,-6.188599,-9.338379,-53.478753,108.526379,-0.511804,-8.860268,-9.372072,0.160200,0.043049,0.043788,-5633,14
0.708000,-59.439475,128.633000,586.644146,-6.169922,9.338379,-53.269553,119.294621,-0.510911,-8.776770,-9.287681,0.160200,0.044104,0.042720,-5616,16
0.710000,-59.152820,157.950750,583.814980,-6.149048,10.437012,-53.003772,147.513738,-0.509772,-8.607253,-9.117026,0.160200,0.046237,0.046992,-5597,11
0.712000,-58.807672,187.112000,580.408504,-6.131470,8.789062,-52.676202,178.322937,-0.508377,-8.415651,-8.924028,0.160200,0.048650,0.048060,-5581,9
0.714000,-58.404372,216.088500,576.428088,-6.118286,6.591797,-52.286086,209.496703,-0.506714,-8.211542,-8.718256,0.160200,0.051222,0.048060,-5569,11
0.716000,-57.943318,244.851250,571.877668,-6.107300,5.493164,-51.836018,239.358086,-0.504770,-8.002695,-8.507465,0.160200,0.053857,0.050196,-5559,9
0.718000,-57.424967,273.372000,566.761744,-6.095215,6.042480,-51.329752,267.329520,-0.502530,-7.792287,-8.294817,0.160200,0.056515,0.053400,-5548,7
0.720000,-56.849830,301.622500,561.085374,-6.085327,4.943848,-50.764503,296.678652,-0.499978,-7.565572,-8.065551,0.160200,0.059381,0.056604,-5539,10
0.722000,-56.218477,329.574500,554.854171,-6.074341,5.493164,-50.144136,324.081336,-0.497096,-7.337731,-7.834828,0.160200,0.062265,0.058740,-5529,8
0.724000,-55.531532,357.200500,548.074297,-6.060059,7.141113,-49.471473,350.059387,-0.493866,-7.106979,-7.600844,0.160200,0.065189,0.060876,-5516,8
0.726000,-54.789675,384.473250,540.752457,-6.047974,6.042480,-48.741701,378.430770,-0.490266,-6.855816,-7.346082,0.160200,0.068374,0.065148,-5505,11
0.728000,-53.993639,411.366250,532.895891,-6.033691,7.141113,-47.959948,404.225137,-0.486278,-6.606825,-7.093103,0.160200,0.071536,0.069420,-5492,12
0.730000,-53.144210,437.852250,524.512368,-6.017212,8.239746,-47.126998,429.612504,-0.481879,-6.350675,-6.832554,0.160200,0.074793,0.074760,-5477,16
0.732000,-52.242230,463.905250,515.610177,-5.997437,9.887695,-46.244793,454.017555,-0.477049,-6.090214,-6.567263,0.160200,0.078109,0.072624,-5459,19
0.734000,-51.288589,489.499500,506.198122,-5.974365,11.535645,-45.314224,477.963855,-0.471765,-5.823313,-6.295079,0.160200,0.081512,0.075828,-5438,13
0.736000,-50.284232,514.609750,496.285511,-5.954590,9.887695,-44.329642,504.722055,-0.466007,-5.534717,-6.000724,0.160200,0.085191,0.073692,-5420,13
0.738000,-49.230150,539.211000,485.882144,-5.937012,8.789062,-43.293138,530.421937,-0.459753,-5.241676,-5.701429,0.160200,0.088932,0.081168,-5404,13
0.740000,-48.127388,563.279000,474.998310,-5.916138,10.437012,-42.211250,552.841988,-0.452983,-4.955025,-5.408008,0.160200,0.092600,0.085440,-5385,19
0.742000,-46.977034,586.790500,463.644772,-5.893066,11.535645,-41.083968,575.254855,-0.445677,-4.660482,-5.106159,0.160200,0.096373,0.089712,-5364,23
0.744000,-45.780226,609.721250,451.832755,-5.865601,13.732910,-39.914625,595.988340,-0.437817,-4.365927,-4.803743,0.160200,0.100153,0.097188,-5339,17
0.746000,-44.538149,632.049000,439.573941,-5.840332,12.634277,-38.697817,619.414723,-0.429385,-4.051337,-4.480722,0.160200,0.104191,0.101460,-5316,24
0.748000,-43.252030,653.752250,426.880452,-5.812866,13.732910,-37.439164,640.019340,-0.420367,-3.741756,-4.162122,0.160200,0.108173,0.105732,-5291,26
0.750000,-41.923140,674.808750,413.764839,-5.784302,14.282227,-36.138838,660.526523,-0.410748,-3.425326,-3.836074,0.160200,0.112249,0.110004,-5265,21
0.752000,-40.552795,695.197750,400.240073,-5.752441,15.930176,-34.800354,679.267574,-0.400517,-3.109944,-3.510461,0.160200,0.116319,0.115344,-5236,28
0.754000,-39.142349,714.899500,386.319527,-5.711792,20.324707,-33.430557,694.574793,-0.389665,-2.804079,-3.193743,0.160200,0.120278,0.116412,-5199,27
0.756000,-37.693197,733.894500,372.016967,-5.670044,20.874023,-32.023153,713.020477,-0.378185,-2.477956,-2.856141,0.160200,0.124498,0.120684,-5161,37
0.758000,-36.206771,752.163500,357.346536,-5.626099,21.972656,-30.580672,730.190844,-0.366073,-2.151276,-2.517348,0.160200,0.128733,0.124956,-5121,35
0.760000,-34.684543,769.688750,342.322740,-5.574463,25.817871,-29.110080,743.870879,-0.353327,-1.834918,-2.188246,0.160200,0.132847,0.129228,-5074,39
0.762000,-33.128016,786.453000,326.960436,-5.525024,24.719238,-27.602992,761.733762,-0.339951,-1.493940,-1.833891,0.160200,0.137276,0.131364,-5029,33
0.764000,-31.538731,802.439500,311.274816,-5.470093,27.465820,-26.068638,774.973680,-0.325948,-1.168375,-1.494323,0.160200,0.141521,0.137772,-4979,44
0.766000,-29.918258,817.632750,295.281390,-5.407471,31.311035,-24.510787,786.321715,-0.311327,-0.846964,-1.158290,0.160200,0.145721,0.142044,-4922,41
0.768000,-28.268200,832.017250,278.995973,-5.340454,33.508301,-22.927746,798.508949,-0.296099,-0.517494,-0.813593,0.160200,0.150030,0.146316,-4861,63
0.770000,-26.590189,845.578750,262.434670,-5.274536,32.958984,-21.315653,812.619766,-0.280279,-0.174561,-0.454840,0.160200,0.154514,0.149520,-4801,69
0.772000,-24.885885,858.304250,245.613856,-5.194336,40.100098,-19.691549,818.204152,-0.263886,0.133265,-0.130621,0.160200,0.158567,0.151656,-4728,65
0.774000,-23.156972,870.181250,228.550165,-5.109741,42.297363,-18.047231,827.883887,-0.246941,0.462489,0.215548,0.160200,0.162894,0.162336,-4651,60
0.776000,-21.405160,881.197750,211.260472,-5.018555,45.593262,-16.386605,835.604488,-0.229469,0.786010,0.556541,0.160200,0.167157,0.162336,-4568,80
0.778000,-19.632181,891.342750,193.761872,-4.924072,47.241211,-14.708109,844.101539,-0.211498,1.116039,0.904540,0.160200,0.171507,0.163404,-4482,67
0.780000,-17.839789,900.606250,176.071670,-4.817505,53.283691,-13.022284,847.322559,-0.193059,1.424325,1.231265,0.160200,0.175591,0.171948,-4385,79
0.782000,-16.029756,908.979500,158.207358,-4.724121,46.691895,-11.305635,862.287605,-0.174187,1.789234,1.615047,0.160200,0.180388,0.177288,-4300,72
0.784000,-14.203871,916.453500,140.186602,-4.615356,54.382324,-9.588515,862.071176,-0.154918,2.087984,1.933066,0.160200,0.184363,0.177288,-4201,88
0.786000,-12.363942,923.021250,122.027222,-4.500000,57.678223,-7.863942,865.343027,-0.135292,2.403254,2.267963,0.160200,0.188550,0.182628,-4096,79
0.788000,-10.511786,928.676750,103.747174,-4.385742,57.128906,-6.126044,871.547844,-0.115351,2.733649,2.618298,0.160200,0.192929,0.190104,-3992,80
0.790000,-8.649235,933.413500,85.364535,-4.269287,58.227539,-4.379948,875.185961,-0.095138,3.054274,2.959136,0.160200,0.197189,0.193308,-3886,93
0.792000,-6.778132,937.227250,66.897484,-4.145142,62.072754,-2.632990,875.154496,-0.074700,3.359038,3.284338,0.160200,0.201254,0.198648,-3773,107
0.794000,-4.900326,940.114500,48.364280,-4.014404,65.368652,-0.885922,874.745848,-0.054084,3.662176,3.608092,0.160200,0.205301,0.199716,-3654,93
0.796000,-3.017674,942.072000,29.783250,-3.879272,67.565918,0.861598,874.506082,-0.033339,3.966130,3.932791,0.160200,0.209360,0.205056,-3531,126
0.798000,-1.132038,943.097750,11.172770,-3.729858,74.707031,2.597820,868.390719,-0.012513,4.242475,4.229961,0.160200,0.213075,0.207192,-3395,123
0.800000,0.754717,943.191000,-7.448759,-3.580444,74.707031,4.335161,868.483969,0.008343,4.546105,4.554447,0.160200,0.217131,0.207192,-3259,102
0.802000,2.640726,942.351500,-26.062922,-3.418945,80.749512,6.059671,861.601988,0.029178,4.817060,4.846238,0.160200,0.220778,0.214668,-3112,131
0.804000,4.524123,940.580250,-44.651312,-3.250854,84.045410,7.774977,856.534840,0.049944,5.094328,5.144272,0.160200,0.224503,0.222144,-2959,116
0.806000,6.403047,937.879250,-63.195549,-3.078369,86.242676,9.481416,851.636574,0.070590,5.370785,5.441375,0.160200,0.228217,0.227484,-2802,155
0.808000,8.275640,934.250250,-81.677295,-2.914673,81.848145,11.190313,852.402105,0.091067,5.672384,5.763451,0.160200,0.232243,0.225348,-2653,147
0.810000,10.140048,929.697500,-100.078273,-2.722412,96.130371,12.862460,833.567129,0.111328,5.882046,5.993374,0.160200,0.235117,0.237096,-2478,153
0.812000,11.994430,924.225750,-118.380289,-2.512573,104.919434,14.507003,819.306316,0.131327,6.106848,6.238175,0.160200,0.238177,0.238164,-2287,157
0.814000,13.836951,917.839750,-136.565243,-2.296143,108.215332,16.133094,809.624418,0.151020,6.348409,6.499429,0.160200,0.241443,0.237096,-2090,136
0.816000,15.665789,910.546250,-154.615154,-2.097290,99.426270,17.763079,811.119980,0.170364,6.639421,6.809784,0.160200,0.245322,0.239232,-1909,137
0.818000,17.479136,902.352500,-172.512173,-1.883057,107.116699,19.362193,795.235801,0.189318,6.849211,7.038529,0.160200,0.248182,0.243504,-1714,134
0.820000,19.275199,893.266250,-190.238603,-1.680908,101.074219,20.956107,792.192031,0.207847,7.114121,7.321967,0.160200,0.251725,0.246708,-1530,166
0.822000,21.052201,883.296750,-207.776914,-1.453491,113.708496,22.505692,769.588254,0.225914,7.285947,7.511861,0.160200,0.254098,0.253116,-1323,173
0.824000,22.808386,872.453750,-225.109763,-1.218384,117.553711,24.026770,754.900039,0.243488,7.487335,7.730823,0.160200,0.256835,0.250980,-1109,187
0.826000,24.542016,860.748000,-242.220011,-0.976685,120.849609,25.518701,739.898391,0.260541,7.682269,7.942810,0.160200,0.259485,0.257388,-889,178
0.828000,26.251378,848.191500,-259.090739,-0.750366,113.159180,27.001744,735.032320,0.277046,7.919877,8.196923,0.160200,0.262662,0.260592,-683,195
0.830000,27.934782,834.795750,-275.705263,-0.510864,119.750977,28.445646,715.044773,0.292982,8.084673,8.377655,0.160200,0.264921,0.265932,-465,147
0.832000,29.590561,820.574500,-292.047155,-0.243896,133.483887,29.834457,687.090613,0.308329,8.205094,8.513423,0.160200,0.266618,0.265932,-222,166
0.834000,31.217080,805.542250,-308.100254,0.009888,126.892090,31.207192,678.650160,0.323073,8.407853,8.730925,0.160200,0.269337,0.265932,9,151
0.836000,32.812730,789.713000,-323.848686,0.255981,123.046875,32.556749,666.666125,0.337200,8.591104,8.928304,0.160200,0.271804,0.267000,233,169
0.838000,34.375932,773.103000,-339.276878,0.496582,120.300293,33.879350,652.802707,0.350703,8.761451,9.112154,0.160200,0.274102,0.272340,452,205
0.840000,35.905142,755.728750,-354.369575,0.780029,141.723633,35.125113,614.005117,0.363574,8.809591,9.173166,0.160200,0.274865,0.276612,710,200
0.842000,37.398847,737.607000,-369.111851,1.022827,121.398926,36.376020,616.208074,0.375813,9.037528,9.413341,0.160200,0.277867,0.271272,931,188
0.844000,38.855570,718.755750,-383.489129,1.273315,125.244141,37.582255,593.511609,0.387419,9.149024,9.536443,0.160200,0.279406,0.306516,1159,189
0.846000,40.273870,699.193750,-397.487191,1.520508,123.596191,38.753362,575.597559,0.398396,9.275256,9.673652,0.160200,0.281121,0.283020,1384,198
0.848000,41.652345,678.940500,-411.092196,1.805054,142.272949,39.847291,536.667551,0.408751,9.296318,9.705069,0.160200,0.281513,0.279816,1643,177
0.850000,42.989632,658.015750,-424.290690,2.073120,134.033203,40.916512,523.982547,0.418491,9.427584,9.846075,0.160200,0.283276,0.285156,1887,209
0.852000,44.284408,636.440500,-437.069622,2.341187,134.033203,41.943221,502.407297,0.427629,9.512639,9.940267,0.160200,0.284453,0.279816,2131,174
0.854000,45.535394,614.235750,-449.416355,2.643311,151.062012,42.892083,463.173738,0.436177,9.507057,9.943234,0.160200,0.284490,0.285156,2406,174
0.856000,46.741351,591.423500,-461.318679,2.921265,138.977051,43.820086,452.446449,0.444150,9.622218,10.066368,0.160200,0.286030,0.281952,2659,213
0.858000,47.901088,568.026750,-472.764826,3.213501,146.118164,44.687587,421.908586,0.451565,9.640379,10.091944,0.160200,0.286349,0.288360,2925,215
0.860000,49.013458,544.068250,-483.743477,3.479370,132.934570,45.534088,411.133680,0.458441,9.741107,10.199548,0.160200,0.287694,0.287292,3167,230
0.862000,50.077361,519.571500,-494.243776,3.754028,137.329102,46.323333,382.242398,0.464797,9.752794,10.217590,0.160200,0.287920,0.284088,3417,182
0.864000,51.091744,494.561000,-504.255338,4.045166,145.568848,47.046578,348.992152,0.470652,9.733942,10.204595,0.160200,0.287757,0.290496,3682,193
0.866000,52.055605,469.061500,-513.768265,4.323120,138.977051,47.732485,330.084449,0.476029,9.771155,10.247185,0.160200,0.288290,0.285156,3935,181
0.868000,52.967990,443.098250,-522.773149,4.634033,155.456543,48.333957,287.641707,0.480948,9.690941,10.171889,0.160200,0.287349,0.287292,4218,239
0.870000,53.827998,416.697000,-531.261085,4.927368,146.667480,48.900630,270.029520,0.485432,9.712996,10.198428,0.160200,0.287680,0.290496,4485,214
0.872000,54.634778,389.883250,-539.223681,5.221802,147.216797,49.412976,242.666453,0.489501,9.683023,10.172524,0.160200,0.287357,0.285156,4753,214
0.874000,55.387531,362.684250,-546.653063,5.528320,153.259277,49.859211,209.424973,0.493176,9.615863,10.109039,0.160200,0.286563,0.290496,5032,217
0.876000,56.085515,335.126750,-553.541883,5.801880,136.779785,50.283635,198.346965,0.496479,9.641602,10.138081,0.160200,0.286926,0.281952,5281,185
0.878000,56.728038,307.237500,-559.883330,6.060059,129.089355,50.667979,178.148145,0.499429,9.620549,10.119978,0.160200,0.286700,0.285156,5516,208
0.880000,57.314465,279.044500,-565.671134,6.318237,129.089355,50.996228,149.955145,0.502046,9.554824,10.056869,0.160200,0.285911,0.281952,5751,241
0.882000,57.844216,250.575750,-570.899570,6.624756,153.259277,51.219460,97.316473,0.504346,9.364105,9.868452,0.160200,0.283556,0.281952,6030,247
0.884000,58.316768,221.859250,-575.563469,6.909302,142.272949,51.407466,79.586301,0.506348,9.319556,9.825904,0.160200,0.283024,0.286224,6289,232
0.886000,58.731653,192.923000,-579.658219,7.192749,141.723633,51.538904,51.199367,0.508066,9.218635,9.726701,0.160200,0.281784,0.280884,6547,213
0.888000,59.088460,163.796250,-583.179770,7.492676,149.963379,51.595784,13.832871,0.509514,9.065520,9.575034,0.160200,0.279888,0.284088,6820,239
0.890000,59.386838,134.507750,-586.124640,7.787109,147.216797,51.599729,-12.709047,0.510704,8.950398,9.461101,0.160200,0.278464,0.279816,7088,183
0.892000,59.626491,105.085750,-588.489918,8.079346,146.118164,51.547145,-41.032414,0.511645,8.817636,9.329281,0.160200,0.276816,0.276612,7354,188
0.894000,59.807181,75.560000,-590.273264,8.346313,133.483887,51.460868,-57.923887,0.512346,8.728875,9.241222,0.160200,0.275715,0.276612,7597,218
0.896000,59.928731,45.960000,-591.472915,8.623169,138.427734,51.305562,-92.467734,0.512814,8.551043,9.063858,0.160200,0.273498,0.281952,7849,233
0.898000,59.991021,16.314000,-592.087684,8.897827,137.329102,51.093194,-121.015102,0.513053,8.389417,8.902469,0.160200,0.271481,0.274476,8099,174
0.900000,59.993987,-13.348000,-592.116964,9.196655,149.414062,50.797332,-162.762063,0.513064,8.155623,8.668688,-0.160200,-0.051841,0.272340,8371,224
0.902000,59.937629,-42.996750,-591.560726,9.458130,130.737305,50.479499,-173.734055,0.512848,8.052277,8.565125,-0.160200,-0.053136,-0.055536,8609,139
0.904000,59.822000,-72.603250,-590.419519,9.588867,65.368652,50.233133,-137.971902,0.512404,8.165320,8.677723,-0.160200,-0.051728,-0.055536,8728,13
0.906000,59.647216,-102.137500,-588.694473,9.592163,1.647949,50.055053,-103.785449,0.511726,8.283405,8.795131,-0.160200,-0.050261,-0.046992,8731,-15
0.908000,59.413450,-131.570750,-586.387293,9.565796,-13.183594,49.847654,-118.387156,0.510809,8.183495,8.694304,-0.160200,-0.051521,-0.046992,8707,-22
0.910000,59.120933,-160.874250,-583.500260,9.538330,-13.732910,49.582603,-147.141340,0.509644,8.011772,8.521416,-0.160200,-0.053682,-0.052332,8682,-14
0.912000,58.769953,-190.018750,-580.036229,9.517456,-10.437012,49.252497,-179.581738,0.508223,7.812609,8.320832,-0.160200,-0.056190,-0.051264,8663,-15
0.914000,58.360858,-218.975000,-575.998627,9.499878,-8.789062,48.860980,-210.185938,0.506533,7.610741,8.117273,-0.160200,-0.058734,-0.056604,8647,-8
0.916000,57.894053,-247.714750,-571.391445,9.488892,-5.493164,48.405161,-242.221586,0.504560,7.391403,7.895963,-0.160200,-0.061500,-0.059808,8637,-7
0.918000,57.369999,-276.209500,-566.219239,9.480103,-4.394531,47.889896,-271.814969,0.502290,7.172347,7.674637,-0.160200,-0.064267,-0.059808,8629,-8
0.920000,56.789215,-304.431250,-560.487123,9.468018,-6.042480,47.321197,-298.388770,0.499705,6.957140,7.456846,-0.160200,-0.066989,-0.064080,8618,-7
0.922000,56.152274,-332.352250,-554.200767,9.457031,-5.493164,46.695243,-326.859086,0.496789,6.723666,7.220455,-0.160200,-0.069944,-0.065148,8608,-10
0.924000,55.459806,-359.944250,-547.366387,9.443848,-6.591797,46.015958,-353.352453,0.493523,6.489509,6.983032,-0.160200,-0.072912,-0.067284,8596,-13
0.926000,54.712497,-387.180250,-539.990739,9.429565,-7.141113,45.282932,-380.039137,0.489885,6.245129,6.735014,-0.160200,-0.076012,-0.070488,8583,-14
0.928000,53.911085,-414.033500,-532.081119,9.411987,-8.789062,44.499098,-405.244438,0.485857,5.998345,6.484202,-0.160200,-0.079147,-0.073692,8567,-15
0.930000,53.056363,-440.477500,-523.645347,9.393311,-9.338379,43.663052,-431.139121,0.481416,5.739441,6.220857,-0.160200,-0.082439,-0.086508,8550,-17
0.932000,52.149175,-466.485750,-514.691766,9.370239,-11.535645,42.778936,-454.950105,0.476541,5.481238,5.957780,-0.160200,-0.085728,-0.082236,8529,-19
0.934000,51.190420,-492.032750,-505.229228,9.344971,-12.634277,41.845449,-479.398473,0.471211,5.211638,5.682850,-0.160200,-0.089164,-0.082236,8506,-18
0.936000,50.181044,-517.093250,-495.267092,9.321899,-11.535645,40.859145,-505.557605,0.465404,4.925355,5.390759,-0.160200,-0.092816,-0.089712,8485,-18
0.938000,49.122047,-541.642250,-484.815208,9.297729,-12.084961,39.824318,-529.557289,0.459100,4.640025,5.099125,-0.160200,-0.096461,-0.096120,8463,-20
0.940000,48.014475,-565.655750,-473.883912,9.272461,-12.634277,38.742014,-553.021473,0.452277,4.348746,4.801022,-0.160200,-0.100187,-0.099324,8440,-26
0.942000,46.859424,-589.109750,-462.484012,9.244995,-13.732910,37.614429,-575.376840,0.444916,4.054401,4.499317,-0.160200,-0.103959,-0.103596,8415,-19
0.944000,45.658036,-611.981500,-450.626783,9.217529,-13.732910,36.440507,-598.248590,0.436999,3.749716,4.186716,-0.160200,-0.107866,-0.098256,8390,-22
0.946000,44.411498,-634.248000,-438.323949,9.186768,-15.380859,35.224730,-618.867141,0.428510,3.447558,3.876068,-0.160200,-0.111749,-0.112140,8362,-24
0.948000,43.121044,-655.887250,-425.587675,9.152710,-17.028809,33.968334,-638.858441,0.419432,3.141047,3.560479,-0.160200,-0.115694,-0.110004,8331,-24
0.950000,41.787949,-676.878000,-412.430557,9.116455,-18.127441,32.671494,-658.750559,0.409752,2.827910,3.237662,-0.160200,-0.119729,-0.115344,8298,-34
0.952000,40.413532,-697.199250,-398.865605,9.078003,-19.226074,31.335529,-677.973176,0.399460,2.510866,2.910325,-0.160200,-0.123821,-0.115344,8263,-36
0.954000,38.999152,-716.831250,-384.906231,9.031860,-23.071289,29.967292,-693.759961,0.388545,2.203180,2.591725,-0.160200,-0.127803,-0.124956,8221,-39
0.956000,37.546207,-735.754250,-370.566241,8.986816,-22.521973,28.559391,-713.232277,0.377002,1.872491,2.249493,-0.160200,-0.132081,-0.131364,8180,-34
0.958000,36.056135,-753.949750,-355.859815,8.935181,-25.817871,27.120954,-728.131879,0.364827,1.556425,1.921252,-0.160200,-0.136184,-0.131364,8133,-42
0.960000,34.530408,-771.399750,-340.801494,8.873657,-30.761719,25.656751,-740.638031,0.352018,1.246305,1.598323,-0.160200,-0.140221,-0.137772,8077,-51
0.962000,32.970536,-788.087000,-325.406170,8.814331,-29.663086,24.156205,-758.423914,0.338579,0.906805,1.245383,-0.160200,-0.144633,-0.140976,8023,-45
0.964000,31.378060,-803.994750,-309.689066,8.742920,-35.705566,22.635140,-768.289184,0.324513,0.598283,0.922797,-0.160200,-0.148665,-0.144180,7958,-43
0.966000,29.754557,-819.107500,-293.665724,8.677002,-32.958984,21.077555,-786.148516,0.309831,0.248507,0.558338,-0.160200,-0.153221,-0.150588,7898,-62
0.968000,28.101630,-833.410500,-277.351990,8.591309,-42.846680,19.510321,-790.563820,0.294543,-0.044292,0.250251,-0.160200,-0.157072,-0.153792,7820,-54
0.970000,26.420915,-846.889250,-260.763994,8.491333,-49.987793,17.929582,-796.901457,0.278666,-0.347836,-0.069171,-0.160200,-0.161065,-0.153792,7729,-69
0.972000,24.714073,-859.530750,-243.918140,8.400146,-45.593262,16.313927,-813.937488,0.262216,-0.704155,-0.441939,-0.160200,-0.165724,-0.160200,7646,-72
0.974000,22.982792,-871.322000,-226.831086,8.314453,-42.846680,14.668339,-828.475320,0.245217,-1.054797,-0.809580,-0.160200,-0.170320,-0.165540,7568,-76
0.976000,21.228785,-882.251500,-209.519729,8.208984,-52.734375,13.019801,-829.517125,0.227694,-1.347067,-1.119373,-0.160200,-0.174192,-0.165540,7472,-74
0.978000,19.453786,-892.308750,-192.001187,8.109009,-49.987793,11.344777,-842.320957,0.209675,-1.695281,-1.485607,-0.160200,-0.178770,-0.171948,7381,-83
0.980000,17.659550,-901.483750,-174.292784,7.999146,-54.931641,9.660404,-846.552109,0.191191,-2.007722,-1.816531,-0.160200,-0.182907,-0.177288,7281,-88
0.982000,15.847851,-909.767250,-156.412030,7.894775,-52.185059,7.953076,-857.582191,0.172277,-2.353835,-2.181557,-0.160200,-0.187469,-0.184764,7186,-78
0.984000,14.020481,-917.151250,-138.376607,7.781616,-56.579590,6.238865,-860.571660,0.152971,-2.666065,-2.513094,-0.160200,-0.191614,-0.189036,7083,-110
0.986000,12.179246,-923.628250,-120.204350,7.639893,-70.861816,4.539353,-852.766434,0.133311,-2.928629,-2.795318,-0.160200,-0.195141,-0.190104,6954,-111
0.988000,10.325968,-929.191750,-101.913228,7.516846,-61.523438,2.809122,-867.668312,0.113341,-3.295633,-3.182292,-0.160200,-0.199979,-0.195444,6842,-112
0.990000,8.462479,-933.836500,-83.521328,7.380615,-68.115234,1.081864,-865.721266,0.093104,-3.588601,-3.495497,-0.160200,-0.203894,-0.201852,6718,-106
0.992000,6.590622,-937.557750,-65.046838,7.253174,-63.720703,-0.662552,-873.837047,0.072646,-3.928471,-3.855825,-0.160200,-0.208398,-0.194376,6602,-126
0.994000,4.712248,-940.352000,-46.508026,7.105957,-73.608398,-2.393709,-866.743602,0.052015,-4.199663,-4.147649,-0.160200,-0.212046,-0.211464,6468,-96
0.996000,2.829214,-942.216500,-27.923224,6.951050,-77.453613,-4.121836,-864.762887,0.031259,-4.492636,-4.461377,-0.160200,-0.215967,-0.212532,6327,-109
0.998000,0.943382,-943.149000,-9.310810,6.790649,-80.200195,-5.847267,-862.948805,0.010428,-4.785865,-4.775437,-0.160200,-0.219893,-0.215736,6181,-133
1.000000,-0.943382,-943.149000,9.310810,6.619263,-85.693359,-7.562645,-857.455641,-0.010428,-5.061287,-5.071715,-0.160200,-0.223596,-0.221076,6025,-139
1.002000,-2.829214,-942.216500,27.923224,6.445679,-86.791992,-9.274893,-855.424508,-0.031259,-5.351268,-5.382527,-0.160200,-0.227482,-0.223212,5867,-144
1.004000,-4.712248,-940.352000,46.508026,6.250122,-97.778320,-10.962370,-842.573680,-0.052015,-5.589716,-5.641730,-0.160200,-0.230722,-0.229620,5689,-129
1.006000,-6.590622,-937.557750,65.046838,6.058960,-95.581055,-12.649582,-841.976695,-0.072646,-5.881585,-5.954231,-0.160200,-0.234628,-0.232824,5515,-137
1.008000,-8.462479,-933.836500,83.521328,5.853516,-102.722168,-14.315995,-831.114332,-0.093104,-6.125033,-6.218136,-0.160200,-0.237927,-0.232824,5328,-165
1.010000,-10.325968,-929.191750,101.913228,5.673340,-90.087891,-15.999308,-839.103859,-0.113341,-6.453687,-6.567028,-0.160200,-0.242288,-0.238164,5164,-136
1.012000,-12.179246,-923.628250,120.204350,5.475586,-98.876953,-17.654832,-824.751297,-0.133311,-6.680006,-6.813317,-0.160200,-0.245366,-0.244572,4984,-155
1.014000,-14.020481,-917.151250,138.376607,5.273438,-101.074219,-19.293919,-816.077031,-0.152971,-6.928232,-7.081203,-0.160200,-0.248715,-0.246708,4800,-182
1.016000,-15.847851,-909.767250,156.412030,5.061401,-106.018066,-20.909252,-803.749184,-0.172277,-7.156370,-7.328648,-0.160200,-0.251808,-0.249912,4607,-153
1.018000,-17.659550,-901.483750,174.292784,4.860352,-100.524902,-22.519902,-800.958848,-0.191191,-7.425307,-7.616498,-0.160200,-0.255406,-0.246708,4424,-154
1.020000,-19.453786,-892.308750,192.001187,4.641724,-109.313965,-24.095510,-782.994785,-0.209675,-7.621919,-7.831594,-0.160200,-0.258095,-0.255252,4225,-157
1.022000,-21.228785,-882.251500,209.519729,4.427490,-107.116699,-25.656275,-775.134801,-0.227694,-7.860028,-8.087722,-0.160200,-0.261297,-0.259524,4030,-198
1.024000,-22.982792,-871.322000,226.831086,4.218750,-104.370117,-27.201542,-766.951883,-0.245217,-8.094024,-8.339241,-0.160200,-0.264441,-0.265932,3840,-194
1.026000,-24.714073,-859.530750,243.918140,3.971558,-123.596191,-28.685631,-735.934559,-0.262216,-8.217707,-8.479924,-0.160200,-0.266199,-0.262728,3615,-156
1.028000,-26.420915,-846.889250,260.763994,3.738647,-116.455078,-30.159562,-730.434172,-0.278666,-8.450957,-8.729623,-0.160200,-0.269320,-0.264864,3403,-204
1.030000,-28.101630,-833.410500,277.351990,3.499146,-119.750977,-31.600776,-713.659523,-0.294543,-8.629303,-8.923846,-0.160200,-0.271748,-0.267000,3185,-167
1.032000,-29.754557,-819.107500,293.665724,3.244263,-127.441406,-32.998820,-691.666094,-0.309831,-8.777343,-9.087174,-0.160200,-0.273790,-0.273408,2953,-218
1.034000,-31.378060,-803.994750,309.689066,2.988281,-127.990723,-34.366341,-676.004027,-0.324513,-8.947682,-9.272196,-0.160200,-0.276102,-0.274476,2720,-217
1.036000,-32.970536,-788.087000,325.406170,2.729004,-129.638672,-35.699540,-658.448328,-0.338579,-9.103768,-9.442347,-0.160200,-0.278229,-0.275544,2484,-165
1.038000,-34.530408,-771.399750,340.801494,2.481812,-123.596191,-37.012220,-647.803559,-0.352018,-9.286427,-9.638445,-0.160200,-0.280681,-0.279816,2259,-234
1.040000,-36.056135,-753.949750,355.859815,2.193970,-143.920898,-38.250105,-610.028852,-0.364827,-9.337656,-9.702482,-0.160200,-0.281481,-0.276612,1997,-184
1.042000,-37.546207,-735.754250,370.566241,1.920410,-136.779785,-39.466617,-598.974465,-0.377002,-9.501743,-9.878745,-0.160200,-0.283684,-0.284088,1748,-214
1.044000,-38.999152,-716.831250,384.906231,1.607300,-156.555176,-40.606452,-560.276074,-0.388545,-9.531828,-9.920374,-0.160200,-0.284205,-0.280884,1463,-230
1.046000,-40.413532,-697.199250,398.865605,1.322754,-142.272949,-41.736286,-554.926301,-0.399460,-9.705679,-10.105139,-0.160200,-0.286514,-0.281952,1204,-233
1.048000,-41.787949,-676.878000,412.430557,1.036011,-143.371582,-42.823960,-533.506418,-0.409752,-9.802052,-10.211804,-0.160200,-0.287848,-0.286224,943,-196
1.050000,-43.121044,-655.887250,425.587675,0.781128,-127.441406,-43.902172,-528.445844,-0.419432,-9.968154,-10.387586,-0.160200,-0.290045,-0.285156,711,-246
1.052000,-44.411498,-634.248000,438.323949,0.525146,-127.990723,-44.936644,-506.257277,-0.428510,-10.051888,-10.480398,-0.160200,-0.291205,-0.288360,478,-213
1.054000,-45.658036,-611.981500,450.626783,0.234009,-145.568848,-45.892045,-466.412652,-0.436999,-10.044782,-10.481781,-0.160200,-0.291222,-0.290496,213,-238
1.056000,-46.859424,-589.109750,462.484012,-0.026367,-130.187988,-46.833057,-458.921762,-0.444916,-10.176334,-10.621250,-0.160200,-0.292966,-0.291564,-24,-253
1.058000,-48.014475,-565.655750,473.883912,-0.291138,-132.385254,-47.723337,-433.270496,-0.452277,-10.219793,-10.672070,-0.160200,-0.293601,-0.294768,-265,-243
1.060000,-49.122047,-541.642250,484.815208,-0.560303,-134.582520,-48.561744,-407.059730,-0.459100,-10.251756,-10.710856,-0.160200,-0.294086,-0.295836,-510,-193
1.062000,-50.181044,-517.093250,495.267092,-0.852539,-146.118164,-49.328505,-370.975086,-0.465404,-10.228132,-10.693537,-0.160200,-0.293869,-0.293700,-776,-260
1.064000,-51.190420,-492.032750,505.229228,-1.171143,-159.301758,-50.019277,-332.730992,-0.471211,-10.181824,-10.653035,-0.160200,-0.293363,-0.293700,-1066,-232
1.066000,-52.149175,-466.485750,514.691766,-1.441406,-135.131836,-50.707769,-331.353914,-0.476541,-10.295979,-10.772521,-0.160200,-0.294857,-0.293700,-1312,-188
1.068000,-53.056363,-440.477500,523.645347,-1.710571,-134.582520,-51.345792,-305.894980,-0.481416,-10.296250,-10.777666,-0.160200,-0.294921,-0.295836,-1557,-232
1.070000,-53.911085,-414.033500,532.081119,-2.026978,-158.203125,-51.884107,-255.830375,-0.485857,-10.171756,-10.657613,-0.160200,-0.293420,-0.291564,-1845,-228
1.072000,-54.712497,-387.180250,539.990739,-2.329102,-151.062012,-52.383395,-236.118238,-0.489885,-10.172887,-10.662773,-0.160200,-0.293485,-0.294768,-2120,-254
1.074000,-55.459806,-359.944250,547.366387,-2.620239,-145.568848,-52.839567,-214.375402,-0.493523,-10.157633,-10.651156,-0.160200,-0.293339,-0.295836,-2385,-207
1.076000,-56.152274,-332.352250,554.200767,-2.892700,-136.230469,-53.259574,-196.121781,-0.496789,-10.151292,-10.648081,-0.160200,-0.293301,-0.293700,-2633,-237
1.078000,-56.789215,-304.431250,560.487123,-3.188232,-147.766113,-53.600983,-156.665137,-0.499705,-10.038717,-10.538422,-0.160200,-0.291930,-0.292632,-2902,-230
1.080000,-57.369999,-276.209500,566.219239,-3.490356,-151.062012,-53.879643,-125.147488,-0.502290,-9.949831,-10.452120,-0.160200,-0.290852,-0.288360,-3177,-224
1.082000,-57.894053,-247.714750,571.391445,-3.818848,-164.245605,-54.075205,-83.469145,-0.504560,-9.802107,-10.306666,-0.160200,-0.289033,-0.292632,-3476,-235
1.084000,-58.360858,-218.975000,575.998627,-4.122070,-151.611328,-54.238788,-67.363672,-0.506533,-9.760384,-10.266916,-0.160200,-0.288536,-0.292632,-3752,-228
1.086000,-58.769953,-190.018750,580.036229,-4.463745,-170.837402,-54.306208,-19.181348,-0.508223,-9.561916,-10.070139,-0.160200,-0.286077,-0.286224,-4063,-241
1.088000,-59.120933,-160.874250,583.500260,-4.777954,-157.104492,-54.342979,-3.769758,-0.509644,-9.501088,-10.010732,-0.160200,-0.285334,-0.284088,-4349,-241
1.090000,-59.413450,-131.570750,586.387293,-5.078979,-150.512695,-54.334471,18.941945,-0.510809,-9.400504,-9.911313,-0.160200,-0.284091,-0.285156,-4623,-223
1.092000,-59.647216,-102.137500,588.694473,-5.375610,-148.315430,-54.271606,46.177930,-0.511726,-9.270693,-9.782419,-0.160200,-0.282480,-0.279816,-4893,-247
1.094000,-59.822000,-72.603250,590.419519,-5.670044,-147.216797,-54.151956,74.613547,-0.512404,-9.125736,-9.638140,-0.160200,-0.280677,-0.283020,-5161,-225
1.096000,-59.937629,-42.996750,591.560726,-5.972168,-151.062012,-53.965461,108.065262,-0.512848,-8.947226,-9.460075,-0.160200,-0.278451,-0.284088,-5436,-233
1.098000,-59.993987,-13.348000,592.116964,-6.278687,-153.259277,-53.715300,139.911277,-0.513064,-8.764610,-9.277675,-0.160200,-0.276171,-0.283020,-5715,-174
1.100000,-59.991021,16.314000,592.087684,-6.562134,-141.723633,-53.428887,158.037633,-0.513053,-8.635531,-9.148584,0.160200,0.045843,-0.278748,-5973,-185
1.102000,-59.928731,45.960000,591.472915,-6.837891,-137.878418,-53.090840,183.838418,-0.512814,-8.463953,-8.976768,0.160200,0.047990,0.046992,-6224,-155
1.104000,-59.807181,75.560000,590.273264,-6.985107,-73.608398,-52.822074,149.168398,-0.512346,-8.568321,-9.080668,0.160200,0.046692,0.046992,-6358,-32
1.106000,-59.626491,105.085750,588.489918,-7.008179,-11.535645,-52.618312,116.621395,-0.511645,-8.674771,-9.186416,0.160200,0.045370,0.050196,-6379,13
1.108000,-59.386838,134.507750,586.124640,-6.987305,10.437012,-52.399533,124.070738,-0.510704,-8.604083,-9.114787,0.160200,0.046265,0.044856,-6360,20
1.110000,-59.088460,163.796250,583.179770,-6.967529,9.887695,-52.120931,153.908555,-0.509514,-8.425266,-8.934780,0.160200,0.048515,0.049128,-6342,13
1.112000,-58.731653,192.923000,579.658219,-6.952148,7.690430,-51.779505,185.232570,-0.508066,-8.228999,-8.737065,0.160200,0.050987,0.048060,-6328,7
1.114000,-58.316768,221.859250,575.563469,-6.943359,4.394531,-51.373409,217.464719,-0.506348,-8.017482,-8.523831,0.160200,0.053652,0.042720,-6320,6
1.116000,-57.844216,250.575750,570.899570,-6.936768,3.295898,-50.907448,247.279852,-0.504346,-7.806064,-8.310410,0.160200,0.056320,0.054468,-6314,4
1.118000,-57.314465,279.044500,565.671134,-6.931274,2.746582,-50.383191,276.297918,-0.502046,-7.587949,-8.089994,0.160200,0.059075,0.059808,-6309,6
1.120000,-56.728038,307.237500,559.883330,-6.923584,3.845215,-49.804454,303.392285,-0.499429,-7.368718,-7.868148,0.160200,0.061848,0.061944,-6302,6
1.122000,-56.085515,335.126750,553.541883,-6.915894,3.845215,-49.169621,331.281535,-0.496479,-7.136229,-7.632708,0.160200,0.064791,0.061944,-6295,7
1.124000,-55.387531,362.684250,546.653063,-6.903809,6.042480,-48.483722,356.641770,-0.493176,-6.905863,-7.399039,0.160200,0.067712,0.067284,-6284,9
1.126000,-54.634778,389.883250,539.223681,-6.891724,6.042480,-47.743054,383.840770,-0.489501,-6.657914,-7.147414,0.160200,0.070857,0.068352,-6273,11
1.128000,-53.827998,416.697000,531.261085,-6.879639,6.042480,-46.948359,410.654520,-0.485432,-6.402216,-6.887648,0.160200,0.074104,0.073692,-6262,12
1.130000,-52.967990,443.098250,522.773149,-6.865356,7.141113,-46.102634,435.957137,-0.480948,-6.144206,-6.625154,0.160200,0.077386,0.073692,-6249,10
1.132000,-52.055605,469.061500,513.768265,-6.851074,7.141113,-45.204531,461.920387,-0.476029,-5.874171,-6.350200,0.160200,0.080822,0.077964,-6236,9
1.134000,-51.091744,494.561000,504.255338,-6.834595,8.239746,-44.257149,486.321254,-0.470652,-5.602353,-6.073005,0.160200,0.084287,0.081168,-6221,10
1.136000,-50.077361,519.571500,494.243776,-6.817017,8.789062,-43.260344,510.782437,-0.464797,-5.321646,-5.786442,0.160200,0.087869,0.087576,-6205,12
1.138000,-49.013458,544.068250,483.743477,-6.796143,10.437012,-42.217315,533.631238,-0.458441,-5.039906,-5.498347,0.160200,0.091471,0.088644,-6186,14
1.140000,-47.901088,568.026750,472.764826,-6.774170,10.986328,-41.126918,557.040422,-0.451565,-4.747454,-5.199019,0.160200,0.095212,0.087576,-6166,21
1.142000,-46.741351,591.423500,461.318679,-6.751099,11.535645,-39.990252,579.887855,-0.444150,-4.449378,-4.893527,0.160200,0.099031,0.098256,-6145,21
1.144000,-45.535394,614.235750,449.416355,-6.724731,13.183594,-38.810663,601.052156,-0.436177,-4.151154,-4.587330,0.160200,0.102858,0.098256,-6121,24
1.146000,-44.284408,636.440500,437.069622,-6.695068,14.831543,-37.589340,621.608957,-0.427629,-3.848297,-4.275925,0.160200,0.106751,0.103596,-6094,21
1.148000,-42.989632,658.015750,424.290690,-6.667603,13.732910,-36.322029,644.282840,-0.418491,-3.528176,-3.946667,0.160200,0.110867,0.104664,-6069,28
1.150000,-41.652345,678.940500,411.092196,-6.632446,17.578125,-35.019899,661.362375,-0.408751,-3.226388,-3.635139,0.160200,0.114761,0.110004,-6037,26
1.152000,-40.273870,699.193750,397.487191,-6.595093,18.676758,-33.678777,680.516992,-0.398396,-2.908740,-3.307136,0.160200,0.118861,0.114276,-6003,25
1.154000,-38.855570,718.755750,383.489129,-6.553345,20.874023,-32.302225,697.881727,-0.387419,-2.592718,-2.980138,0.160200,0.122948,0.119616,-5965,31
1.156000,-37.398847,737.607000,369.111851,-6.510498,21.423340,-30.888349,716.183660,-0.375813,-2.266093,-2.641906,0.160200,0.127176,0.122820,-5926,29
1.158000,-35.905142,755.728750,354.369575,-6.459961,25.268555,-29.445181,730.460195,-0.363574,-1.951920,-2.315494,0.160200,0.131256,0.131364,-5880,35
1.160000,-34.375932,773.103000,339.276878,-6.405029,27.465820,-27.970903,745.637180,-0.350703,-1.628388,-1.979090,0.160200,0.135461,0.130296,-5830,39
1.162000,-32.812730,789.713000,323.848686,-6.343506,30.761719,-26.469224,758.951281,-0.337200,-1.308201,-1.645402,0.160200,0.139632,0.138840,-5774,59
1.164000,-31.217080,805.542250,308.100254,-6.275391,34.057617,-24.941689,771.484633,-0.323073,-0.986909,-1.309982,0.160200,0.143825,0.138840,-5712,63
1.166000,-29.590561,820.574500,292.047155,-6.198486,38.452148,-23.392075,782.122352,-0.308329,-0.670035,-0.978364,0.160200,0.147970,0.139908,-5642,55
1.168000,-27.934782,834.795750,275.705263,-6.123779,37.353516,-21.811003,797.442234,-0.292982,-0.327240,-0.620222,0.160200,0.152447,0.147384,-5574,50
1.170000,-26.251378,848.191500,259.090739,-6.043579,40.100098,-20.207799,808.091402,-0.277046,-0.000962,-0.278008,0.160200,0.156725,0.153792,-5501,57
1.172000,-24.542016,860.748000,242.220011,-5.951294,46.142578,-18.590722,814.605422,-0.260541,0.309694,0.049153,0.160200,0.160814,0.154860,-5417,72
1.174000,-22.808386,872.453750,225.109763,-5.854614,48.339844,-16.953772,824.113906,-0.243488,0.636884,0.393396,0.160200,0.165117,0.160200,-5329,54
1.176000,-21.052201,883.296750,207.776914,-5.756836,48.889160,-15.295365,834.407590,-0.225914,0.971245,0.745331,0.160200,0.169517,0.169812,-5240,86
1.178000,-19.275199,893.266250,190.238603,-5.642578,57.128906,-13.632621,836.137344,-0.207847,1.268996,1.061149,0.160200,0.173464,0.169812,-5136,70
1.180000,-17.479136,902.352500,172.512173,-5.523926,59.326172,-11.955210,843.026328,-0.189318,1.591818,1.402500,0.160200,0.177731,0.170880,-5028,74
1.182000,-15.665789,910.546250,154.615154,-5.404175,59.875488,-10.261614,850.670762,-0.170364,1.920762,1.750398,0.160200,0.182080,0.180492,-4919,76
1.184000,-13.836951,917.839750,136.565243,-5.281128,61.523438,-8.555823,856.316313,-0.151020,2.243112,2.092092,0.160200,0.186351,0.182628,-4807,82
1.186000,-11.994430,924.225750,118.380289,-5.142700,69.213867,-6.851730,855.011883,-0.131327,2.534841,2.403513,0.160200,0.190244,0.182628,-4681,81
1.188000,-10.140048,929.697500,100.078273,-5.005371,68.664551,-5.134677,861.032949,-0.111328,2.860795,2.749466,0.160200,0.194568,0.194376,-4556,109
1.190000,-8.275640,934.250250,81.677295,-4.873535,65.917969,-3.402105,868.332281,-0.091067,3.195035,3.103968,0.160200,0.199000,0.198648,-4436,103
1.192000,-6.403047,937.879250,63.195549,-4.729614,71.960449,-1.673433,865.918801,-0.070590,3.486214,3.415625,0.160200,0.202895,0.199716,-4305,99
1.194000,-4.524123,940.580250,44.651312,-4.585693,71.960449,0.061570,868.619801,-0.049944,3.800815,3.750871,0.160200,0.207086,0.207192,-4174,117
1.196000,-2.640726,942.351500,26.062922,-4.438477,73.608398,1.797751,868.743102,-0.029178,4.104374,4.075195,0.160200,0.211140,0.208260,-4040,104
1.198000,-0.754717,943.191000,7.448759,-4.285767,76.354980,3.531050,866.836020,-0.008343,4.398570,4.390227,0.160200,0.215078,0.211464,-3901,111
1.200000,1.132038,943.097750,-11.172770,-4.125366,80.200195,5.257404,862.897555,0.012513,4.682691,4.695204,0.160200,0.218890,0.216804,-3755,126
1.202000,3.017674,942.072000,-29.783250,-3.960571,82.397461,6.978245,859.674539,0.033339,4.968971,5.002310,0.160200,0.222729,0.216804,-3605,116
1.204000,4.900326,940.114500,-48.364280,-3.768311,96.130371,8.668637,843.984129,0.054084,5.195538,5.249622,0.160200,0.225820,0.222144,-3430,114
1.206000,6.778132,937.227250,-66.897484,-3.561768,103.271484,10.339900,833.955766,0.074700,5.443471,5.518172,0.160200,0.229177,0.226416,-3242,152
1.208000,8.649235,933.413500,-85.364535,-3.358521,101.623535,12.007756,831.789965,0.095138,5.725117,5.820255,0.160200,0.232953,0.222144,-3057,139
1.210000,10.511786,928.676750,-103.747174,-3.157471,100.524902,13.669257,828.151848,0.115351,5.999229,6.114580,0.160200,0.236632,0.232824,-2874,165
1.212000,12.363942,923.021250,-122.027222,-2.947632,104.919434,15.311574,818.101816,0.135292,6.242016,6.377308,0.160200,0.239916,0.230688,-2683,147
1.214000,14.203871,916.453500,-140.186602,-2.741089,103.271484,16.944960,813.182016,0.154918,6.505629,6.660547,0.160200,0.243457,0.237096,-2495,177
1.216000,16.029756,908.979500,-158.207358,-2.525757,107.666016,18.555513,801.313484,0.174187,6.734938,6.909125,0.160200,0.246564,0.243504,-2299,136
1.218000,17.839789,900.606250,-176.071670,-2.291748,117.004395,20.131537,783.601855,0.193059,6.932724,7.125784,0.160200,0.249272,0.245640,-2086,159
1.220000,19.632181,891.342750,-193.761872,-2.052246,119.750977,21.684427,771.591773,0.211498,7.151351,7.362849,0.160200,0.252236,0.248844,-1868,135
1.222000,21.405160,881.197750,-211.260472,-1.822632,114.807129,23.227792,766.390621,0.229469,7.398024,7.627494,0.160200,0.255544,0.253116,-1659,192
1.224000,23.156972,870.181250,-228.550165,-1.597412,112.609863,24.754384,757.571387,0.246941,7.625984,7.872925,0.160200,0.258612,0.257388,-1454,185
1.226000,24.885885,858.304250,-245.613856,-1.352417,122.497559,26.238302,735.806691,0.263886,7.790010,8.053896,0.160200,0.260874,0.257388,-1231,189
1.228000,26.590189,845.578750,-262.434670,-1.122803,114.807129,27.712992,730.771621,0.280279,8.025422,8.305702,0.160200,0.264021,0.264864,-1022,180
1.230000,28.268200,832.017250,-278.995973,-0.894287,114.257812,29.162487,717.759438,0.296099,8.221631,8.517730,0.160200,0.266672,0.263796,-814,202
1.232000,29.918258,817.632750,-295.281390,-0.660278,117.004395,30.578536,700.628355,0.311327,8.394029,8.705356,0.160200,0.269017,0.265932,-601,159
1.234000,31.538731,802.439500,-311.274816,-0.409790,125.244141,31.948521,677.195359,0.325948,8.530891,8.856839,0.160200,0.270910,0.269136,-373,184
1.236000,33.128016,786.453000,-326.960436,-0.153809,127.990723,33.281825,658.462277,0.339951,8.681858,9.021809,0.160200,0.272973,0.273408,-140,219
1.238000,34.684543,769.688750,-342.322740,0.134033,143.920898,34.550510,625.767852,0.353327,8.760629,9.113956,0.160200,0.274124,0.273408,122,169
1.240000,36.206771,752.163500,-357.346536,0.427368,146.667480,35.779403,605.496020,0.366073,8.886659,9.252731,0.160200,0.275859,0.274476,389,212
1.242000,37.693197,733.894500,-372.016967,0.695435,134.033203,36.997762,599.861297,0.378185,9.074716,9.452901,0.160200,0.278361,0.275544,633,209
1.244000,39.142349,714.899500,-386.319527,0.965698,135.131836,38.176651,579.767664,0.389665,9.192796,9.582461,0.160200,0.279981,0.277680,879,228
1.246000,40.552795,695.197750,-400.240073,1.271118,152.709961,39.281677,542.487789,0.400517,9.222995,9.623512,0.160200,0.280494,0.278748,1157,185
1.248000,41.923140,674.808750,-413.764839,1.549072,138.977051,40.374068,535.831699,0.410748,9.384611,9.795359,0.160200,0.282642,0.278748,1410,177
1.250000,43.252030,653.752250,-426.880452,1.828125,139.526367,41.423905,514.225883,0.420367,9.473569,9.893936,0.160200,0.283874,0.280884,1664,178
1.252000,44.538149,632.049000,-439.573941,2.097290,134.582520,42.440859,497.466480,0.429385,9.577934,10.007319,0.160200,0.285291,0.280884,1909,206
1.254000,45.780226,609.721250,-451.832755,2.402710,152.709961,43.377516,457.011289,0.437817,9.564893,10.002709,0.160200,0.285234,0.285156,2187,224
1.256000,46.977034,586.790500,-463.644772,2.693848,145.568848,44.283186,441.221652,0.445677,9.654067,10.099744,0.160200,0.286447,0.286224,2452,185
1.258000,48.127388,563.279000,-474.998310,2.986084,146.118164,45.141304,417.160836,0.452983,9.698851,10.151834,0.160200,0.287098,0.284088,2718,207
1.260000,49.230150,539.211000,-485.882144,3.248657,131.286621,45.981493,407.924379,0.459753,9.805190,10.264943,0.160200,0.288512,0.286224,2957,183
1.262000,50.284232,514.609750,-496.285511,3.572754,162.048340,46.711478,352.561410,0.466007,9.691030,10.157037,0.160200,0.287163,0.291564,3252,224
1.264000,51.288589,489.499500,-506.198122,3.866089,146.667480,47.422500,342.832020,0.471765,9.772675,10.244440,0.160200,0.288255,0.287292,3519,192
1.266000,52.242230,463.905250,-515.610177,4.160522,147.216797,48.081708,316.688453,0.477049,9.773655,10.250704,0.160200,0.288334,0.288360,3787,209
1.268000,53.144210,437.852250,-524.512368,4.457153,148.315430,48.687057,289.536820,0.481879,9.760837,10.242716,0.160200,0.288234,0.288360,4057,250
1.270000,53.993639,411.366250,-532.895891,4.758179,150.512695,49.235460,260.853555,0.486278,9.731397,10.217675,0.160200,0.287921,0.291564,4331,251
1.272000,54.789675,384.473250,-540.752457,5.070190,156.005859,49.719485,228.467391,0.490266,9.674564,10.164831,0.160200,0.287260,0.288360,4615,246
1.274000,55.531532,357.200500,-548.074297,5.388794,159.301758,50.142738,197.898742,0.493866,9.615055,10.108921,0.160200,0.286562,0.286224,4905,246
1.276000,56.218477,329.574500,-554.854171,5.679932,145.568848,50.538545,184.005652,0.497096,9.623516,10.120613,0.160200,0.286708,0.287292,5170,198
1.278000,56.849830,301.622500,-561.085374,5.983154,151.611328,50.866676,150.011172,0.499978,9.532457,10.032435,0.160200,0.285605,0.286224,5446,202
1.280000,57.424967,273.372000,-566.761744,6.290771,153.808594,51.134196,119.563406,0.502530,9.446294,9.948825,0.160200,0.284560,0.285156,5726,224
1.282000,57.943318,244.851250,-571.877668,6.596191,152.709961,51.347127,92.141289,0.504770,9.363806,9.868577,0.160200,0.283557,0.283020,6004,204
1.284000,58.404372,216.088500,-576.428088,6.884033,143.920898,51.520339,72.167602,0.506714,9.306886,9.813600,0.160200,0.282870,0.283020,6266,180
1.286000,58.807672,187.112000,-580.408504,7.171875,143.920898,51.635797,43.191102,0.508377,9.200603,9.708980,0.160200,0.281562,0.286224,6528,222
1.288000,59.152820,157.950750,-583.814980,7.464111,146.118164,51.688709,11.832586,0.509772,9.073011,9.582783,0.160200,0.279985,0.279816,6794,222
1.290000,59.439475,128.633000,-586.644146,7.731079,133.483887,51.708396,-4.850887,0.510911,9.003652,9.514563,0.160200,0.279132,0.278748,7037,196
1.292000,59.667352,99.188000,-588.893206,8.014526,141.723633,51.652826,-42.535633,0.511804,8.829522,9.341326,0.160200,0.276967,0.281952,7295,244
1.294000,59.836227,69.645250,-590.559936,8.285889,135.681152,51.550338,-66.035902,0.512459,8.709095,9.221554,0.160200,0.275469,0.279816,7542,223
1.296000,59.945933,40.033500,-591.642687,8.598999,156.555176,51.346934,-116.521676,0.512880,8.453309,8.966189,0.160200,0.272277,0.275544,7827,214
1.298000,59.996361,10.382000,-592.140388,8.876953,138.977051,51.119408,-128.595051,0.513073,8.360918,8.873991,0.160200,0.271125,0.274476,8080,186
1.300000,59.987461,-19.279750,-592.052549,9.183472,153.259277,50.803989,-172.539027,0.513039,8.114125,8.627165,-0.160200,-0.052360,0.271272,8359,174
1.302000,59.919242,-48.922500,-591.379254,9.450439,133.483887,50.468803,-182.406387,0.512778,8.012570,8.525348,-0.160200,-0.053633,-0.053400,8602,108
1.304000,59.791771,-78.516750,-590.121171,9.582275,65.917969,50.209496,-144.434719,0.512287,8.132995,8.645282,-0.160200,-0.052134,-0.052332,8722,21
1.306000,59.605175,-108.033250,-588.279543,9.592163,4.943848,50.013012,-112.977098,0.511562,8.235962,8.747523,-0.160200,-0.050856,-0.054468,8731,-13
1.308000,59.359638,-137.443000,-585.856191,9.567993,-12.084961,49.791645,-125.358039,0.510596,8.143304,8.653900,-0.160200,-0.052026,-0.052332,8709,-20
1.310000,59.055403,-166.716750,-582.853512,9.538330,-14.831543,49.517073,-151.885207,0.509381,7.979635,8.489016,-0.160200,-0.054087,-0.050196,8682,-18
1.312000,58.692771,-195.825750,-579.274475,9.511963,-13.183594,49.180808,-182.642156,0.507907,7.786744,8.294650,-0.160200,-0.056517,-0.053400,8658,-15
1.314000,58.272100,-224.741000,-575.122619,9.496582,-7.690430,48.775518,-217.050570,0.506161,7.565872,8.072033,-0.160200,-0.059300,-0.057672,8644,-10
1.316000,57.793807,-253.434250,-570.402050,9.485596,-5.493164,48.308211,-247.941086,0.504130,7.349526,7.853656,-0.160200,-0.062029,-0.059808,8634,-7
1.318000,57.258363,-281.876750,-565.117435,9.475708,-4.943848,47.782655,-276.932902,0.501798,7.131299,7.633097,-0.160200,-0.064786,-0.064080,8625,-9
1.320000,56.666300,-310.040500,-559.274000,9.465820,-4.943848,47.200480,-305.096652,0.499149,6.906803,7.405952,-0.160200,-0.067626,-0.065148,8616,-6
1.322000,56.018201,-337.897750,-552.877525,9.453735,-6.042480,46.564466,-331.855270,0.496165,6.679041,7.175205,-0.160200,-0.070510,-0.066216,8605,-10
