khanfazel/E-wera--maxon_motor/PD_control/pd_feedforward_log.csv
t_s,q_ref_deg,qd_ref_deg_s,qdd_ref_deg_s2,q_link_deg,qd_link_deg_s,pos_error_deg,vel_error_deg_s,tau_joint_ff_Nm,tau_pd_joint_Nm,tau_joint_total_Nm,tau_dead_motor_Nm,tau_motor_cmd_Nm,tau_motor_actual_Nm,motor_pos_counts,motor_vel_native
0.000000,0.000000,943.265500,0.000000,-4.376953,0.000000,4.376953,943.265500,0.000000,84.607211,84.607211,0.160200,0.500000,-0.001068,-3984,0
0.002000,1.886531,942.799250,0.000000,-4.367065,4.943848,6.253596,937.855402,0.027289,85.117699,85.144988,0.160200,0.500000,0.501960,-3975,110
0.004000,3.771197,941.400750,-37.220226,-4.160522,103.271484,7.931719,838.129266,0.041649,77.293615,77.335264,0.160200,0.500000,0.499824,-3787,255
0.006000,5.652134,939.071000,-55.784328,-3.801270,179.626465,9.453404,759.444535,0.062349,71.223829,71.286177,0.160200,0.500000,0.499824,-3460,348
0.008000,7.527481,935.812750,-74.293267,-3.317871,241.699219,10.845352,694.113531,0.082899,66.251446,66.334345,0.160200,0.500000,0.497688,-3020,386
0.010000,9.395385,931.629250,-92.728741,-2.712524,302.673340,12.107909,628.955910,0.103253,61.226444,61.329697,0.160200,0.500000,0.497688,-2469,461
0.012000,11.253998,926.524500,-111.072519,-2.035767,338.378906,13.289765,588.145594,0.123362,58.283890,58.407252,0.160200,0.500000,0.503028,-1853,473
0.014000,13.101483,920.503500,-129.306462,-1.306274,364.746094,14.407757,555.757406,0.143183,56.042867,56.186050,0.160200,0.500000,0.497688,-1189,494
0.016000,14.936012,913.572250,-147.412541,-0.569092,368.591309,15.505104,544.980941,0.162671,55.677012,55.839683,0.160200,0.500000,0.504096,-518,523
0.018000,16.755772,905.737500,-165.372849,0.181274,375.183105,16.574498,530.554395,0.181786,54.977992,55.159778,0.160200,0.500000,0.496620,165,543
0.020000,18.558962,897.007250,-183.169628,0.999756,409.240723,17.559206,487.766527,0.200489,51.759638,51.960127,0.160200,0.500000,0.500892,910,547
0.022000,20.343801,887.390000,-200.785278,1.841309,420.776367,18.502492,466.613633,0.218745,50.407604,50.626348,0.160200,0.500000,0.500892,1676,578
0.024000,22.108522,876.895000,-218.202380,2.697144,427.917480,19.411378,448.977520,0.236520,49.344454,49.580974,0.160200,0.500000,0.494484,2455,579
0.026000,23.851381,865.533250,-235.403712,3.560669,431.762695,20.290712,433.770555,0.253784,48.477814,48.731598,0.160200,0.500000,0.500892,3241,578
0.028000,25.570655,853.315500,-252.372264,4.404419,421.875000,21.166236,431.440500,0.270511,48.732902,49.003413,0.160200,0.500000,0.499824,4009,583
0.030000,27.264643,840.253750,-269.091255,5.205322,400.451660,22.059321,439.802090,0.286677,49.930206,50.216883,0.160200,0.500000,0.500892,4738,605
0.032000,28.931670,826.361000,-285.544154,6.046875,420.776367,22.884795,405.584633,0.302262,47.376387,47.678649,0.160200,0.500000,0.503028,5504,604
0.034000,30.570087,811.651500,-301.714692,6.948853,450.988770,23.621234,360.662730,0.317249,43.841810,44.159059,0.160200,0.500000,0.498756,6325,589
0.036000,32.178276,796.139500,-317.586877,7.850830,450.988770,24.327446,345.150730,0.331624,42.857904,43.189528,0.160200,0.500000,0.497688,7146,614
0.038000,33.754645,779.839750,-333.145014,8.738525,443.847656,25.016120,335.992094,0.345377,42.419251,42.764628,0.160200,0.500000,0.504096,7954,606
0.040000,35.297635,762.769000,-348.373719,9.630615,446.044922,25.667020,316.724078,0.358502,41.078610,41.437112,0.160200,0.500000,0.495552,8766,620
0.042000,36.805721,744.944000,-363.257932,10.544678,457.031250,26.261043,287.912750,0.370994,38.875377,39.246371,0.160200,0.500000,0.499824,9598,611
0.044000,38.277411,726.382500,-377.782936,11.462036,458.679199,26.815375,267.703301,0.382852,37.402018,37.784870,0.160200,0.500000,0.496620,10433,603
0.046000,39.711251,707.102750,-391.934367,12.377197,457.580566,27.334054,249.522184,0.394081,36.086995,36.481076,0.160200,0.500000,0.503028,11266,598
0.048000,41.105822,687.123500,-405.698231,13.242920,432.861328,27.862902,254.262172,0.404683,36.777542,37.182225,0.160200,0.500000,0.499824,12054,610
0.050000,42.459745,666.465000,-419.060918,14.167969,462.524414,28.291776,203.940586,0.414668,32.610713,33.025381,0.160200,0.500000,0.498756,12896,630
0.052000,43.771682,645.147500,-432.009215,15.114990,473.510742,28.656692,171.636758,0.424045,29.982741,30.406787,0.160200,0.500000,0.499824,13758,611
0.054000,45.040335,623.191750,-444.530316,16.024658,454.833984,29.015677,168.357766,0.432827,29.884560,30.317387,0.160200,0.500000,0.498756,14586,618
0.056000,46.264449,600.619750,-456.611842,16.953003,464.172363,29.311446,136.447387,0.441028,27.254718,27.695746,0.160200,0.500000,0.499824,15431,619
0.058000,47.442814,577.454250,-468.241844,17.752808,399.902344,29.690006,177.551906,0.448665,31.039978,31.488643,0.160200,0.500000,0.501960,16159,611
0.060000,48.574266,553.717500,-479.408822,18.706421,476.806641,29.867845,76.910859,0.455754,22.350506,22.806260,0.160200,0.445278,0.509436,17027,639
0.062000,49.657684,529.433000,-490.101734,19.475464,384.521484,30.182220,144.911516,0.462316,28.449289,28.911604,0.160200,0.500000,0.444288,17727,606
0.064000,50.691998,504.625250,-500.310006,20.297241,410.888672,30.394757,93.736578,0.468369,24.094717,24.563086,0.160200,0.467239,0.500892,18475,610
0.066000,51.676185,479.318500,-510.023544,21.203613,453.186035,30.472572,26.132465,0.473935,18.235889,18.709824,0.160200,0.394073,0.469920,19300,601
0.068000,52.609272,453.537750,-519.232741,22.062744,429.565430,30.546528,23.972320,0.479034,18.086104,18.565138,0.160200,0.392264,0.394092,20082,565
0.070000,53.490336,427.308250,-527.928493,22.776855,357.055664,30.713481,70.252586,0.483689,22.212235,22.695925,0.160200,0.443899,0.389820,20732,520
0.072000,54.318505,400.656500,-536.102199,23.541504,382.324219,30.777001,18.332281,0.487921,17.714593,18.202515,0.160200,0.387731,0.444288,21428,519
0.074000,55.092962,373.608500,-543.745778,24.211670,335.083008,30.881292,38.525492,0.491752,19.531390,20.023142,0.160200,0.410489,0.387684,22038,519
0.076000,55.812939,346.191000,-550.851670,24.868652,328.491211,30.944287,17.699789,0.495201,17.746989,18.242190,0.160200,0.388227,0.410112,22636,484
0.078000,56.477726,318.431250,-557.412850,25.589355,360.351562,30.888371,-41.920313,0.498290,12.514876,13.013166,0.160200,0.322865,0.395160,23292,457
0.080000,57.086664,290.356250,-563.422828,26.284790,347.717285,30.801874,-57.361035,0.501038,11.122129,11.623167,0.160200,0.305490,0.320400,23925,433
0.082000,57.639151,261.994500,-568.875663,26.919800,317.504883,30.719351,-55.510383,0.503463,11.240420,11.743883,0.160200,0.306999,0.302244,24503,385
0.084000,58.134642,233.373750,-573.765962,27.431763,255.981445,30.702879,-22.607695,0.505582,14.103096,14.608679,0.160200,0.342808,0.306516,24969,317
0.086000,58.572646,204.522000,-578.088888,27.885498,226.867676,30.687148,-22.345676,0.507412,14.117725,14.625137,0.160200,0.343014,0.339624,25382,375
0.088000,58.952730,175.468250,-581.840169,28.395264,254.882812,30.557466,-79.414563,0.508967,9.069624,9.578591,0.160200,0.279932,0.342828,25846,359
0.090000,59.274519,146.240750,-585.016093,28.866577,235.656738,30.407942,-89.415988,0.510258,8.118544,8.628802,0.160200,0.268060,0.281952,26275,313
0.092000,59.537693,116.868500,-587.613520,29.239014,186.218262,30.298679,-69.349762,0.511298,9.812443,10.323741,0.160200,0.289247,0.262728,26614,249
0.094000,59.741993,87.381000,-589.629883,29.643311,202.148438,30.098682,-114.767437,0.512094,5.744285,6.256379,0.160200,0.238405,0.289428,26982,291
0.096000,59.887217,57.807000,-591.063187,29.977295,166.992188,29.909922,-109.185187,0.512655,6.132593,6.645248,0.160200,0.243266,0.238164,27286,211
0.098000,59.973221,28.176000,-591.912014,30.325562,174.133301,29.647659,-145.957301,0.512985,2.786301,3.299286,0.160200,0.201441,0.246708,27603,198
0.100000,59.999921,-1.483000,-592.175526,30.659546,166.992188,29.340375,-168.475188,0.513087,0.660351,1.173438,-0.160200,-0.145532,0.201852,27907,199
0.102000,59.967289,-31.140750,-591.853461,30.917725,129.089355,29.049564,-160.230105,0.512962,1.227602,1.740564,-0.160200,-0.138443,-0.143112,28142,102
0.104000,59.875358,-60.767500,-590.946139,30.992432,37.353516,28.882926,-98.121016,0.512609,6.560391,7.073000,-0.160200,-0.071787,-0.137772,28210,-28
0.106000,59.724219,-90.334250,-589.454456,30.941895,-25.268555,28.782324,-65.065695,0.512025,9.392337,9.904362,-0.160200,-0.036395,-0.068352,28164,-46
0.108000,59.514021,-119.811500,-587.379888,30.877075,-32.409668,28.636946,-87.401832,0.511205,7.367021,7.878226,-0.160200,-0.061722,-0.034176,28105,-33
0.110000,59.244973,-149.170500,-584.724485,30.838623,-19.226074,28.406350,-129.944426,0.510140,3.533740,4.043880,-0.160200,-0.109651,-0.061944,28070,-20
0.112000,58.917339,-178.382000,-581.490875,30.811157,-13.732910,28.106182,-164.649090,0.508823,0.348019,0.856842,-0.160200,-0.149489,-0.108936,28045,-23
0.114000,58.531445,-207.416750,-577.682254,30.767212,-21.972656,27.764233,-185.444094,0.507242,-1.645732,-1.138490,-0.160200,-0.174431,-0.147384,28005,-40
0.116000,58.087672,-236.246500,-573.302388,30.702393,-32.409668,27.385279,-203.836832,0.505384,-3.449221,-2.943837,-0.160200,-0.196998,-0.171948,27946,-56
0.118000,57.586459,-264.842750,-568.355609,30.606812,-47.790527,26.979647,-217.052223,0.503234,-4.814869,-4.311635,-0.160200,-0.214095,-0.196512,27859,-75
0.120000,57.028301,-293.177250,-562.846808,30.481567,-62.622070,26.546734,-230.555180,0.500778,-6.219898,-5.719120,-0.160200,-0.231689,-0.213600,27745,-116
0.122000,56.413750,-321.221750,-556.781433,30.342041,-69.763184,26.071709,-251.458566,0.497997,-8.292785,-7.794788,-0.160200,-0.257635,-0.234960,27618,-108
0.124000,55.743414,-348.948750,-550.165481,30.166260,-87.890625,25.577154,-261.058125,0.494873,-9.389452,-8.894580,-0.160200,-0.271382,-0.260592,27458,-129
0.126000,55.017955,-376.330500,-543.005495,29.963013,-101.623535,25.054942,-274.706965,0.491386,-10.853968,-10.362582,-0.160200,-0.289732,-0.270204,27273,-194
0.128000,54.238092,-403.339750,-535.308555,29.720215,-121.398926,24.517877,-281.940824,0.487517,-11.766448,-11.278931,-0.160200,-0.301187,-0.291564,27052,-200
0.130000,53.404596,-429.950500,-527.082272,29.458740,-130.737305,23.945856,-299.213195,0.483243,-13.573256,-13.090013,-0.160200,-0.323825,-0.297972,26814,-231
0.132000,52.518290,-456.136500,-518.334780,29.189575,-134.582520,23.328715,-321.553980,0.478545,-15.845992,-15.367447,-0.160200,-0.352293,-0.324672,26569,-274
0.134000,51.580050,-481.871000,-509.074730,28.902832,-143.371582,22.677218,-338.499418,0.473399,-17.665883,-17.192484,-0.160200,-0.375106,-0.351372,26308,-268
0.136000,50.590806,-507.128750,-499.311279,28.540283,-181.274414,22.050523,-325.854336,0.467786,-16.890528,-16.422743,-0.160200,-0.365484,-0.374868,25978,-327
0.138000,49.551535,-531.885500,-489.054081,28.132690,-203.796387,21.418845,-328.089113,0.461683,-17.416296,-16.954613,-0.160200,-0.372133,-0.364188,25607,-348
0.140000,48.463264,-556.116250,-478.313278,27.694336,-219.177246,20.768928,-336.939004,0.455069,-18.528890,-18.073820,-0.160200,-0.386123,-0.348168,25208,-315
0.142000,47.327070,-579.796750,-467.099493,27.251587,-221.374512,20.075483,-358.422238,0.447926,-20.766742,-20.318816,-0.160200,-0.414185,-0.394092,24805,-329
0.144000,46.144077,-602.904250,-455.423814,26.785767,-232.910156,19.358310,-369.994094,0.440234,-22.152088,-21.711854,-0.160200,-0.431598,-0.415452,24381,-347
0.146000,44.915453,-625.415500,-443.297786,26.267212,-259.277344,18.648241,-366.138156,0.431975,-22.187386,-21.755410,-0.160200,-0.432143,-0.432540,23909,-383
0.148000,43.642415,-647.308250,-430.733401,25.684937,-291.137695,17.957478,-356.170555,0.423135,-21.679231,-21.256096,-0.160200,-0.425901,-0.435744,23379,-454
0.150000,42.326220,-668.560750,-417.743082,25.094971,-294.982910,17.231249,-373.577840,0.413697,-23.578556,-23.164858,-0.160200,-0.449761,-0.431472,22842,-477
0.152000,40.968172,-689.152250,-404.339676,24.444580,-325.195312,16.523592,-363.956937,0.403651,-23.109502,-22.705851,-0.160200,-0.444023,-0.448560,22250,-467
0.154000,39.569611,-709.062500,-390.536436,23.823853,-310.363770,15.745758,-398.698730,0.392986,-26.548568,-26.155582,-0.160200,-0.487145,-0.447492,21685,-493
0.156000,38.131922,-728.271250,-376.347012,23.193237,-315.307617,14.938685,-412.963633,0.381695,-28.215998,-27.834303,-0.160200,-0.500000,-0.490212,21111,-517
0.158000,36.656526,-746.760000,-361.785435,22.503296,-344.970703,14.153230,-401.789297,0.369773,-27.652117,-27.282344,-0.160200,-0.500000,-0.496620,20483,-528
0.160000,35.144882,-764.510500,-346.866104,21.744141,-379.577637,13.400741,-384.932863,0.357218,-26.575118,-26.217900,-0.160200,-0.487924,-0.497688,19792,-572
0.162000,33.598484,-781.504750,-331.603773,20.963013,-390.563965,12.635471,-390.940785,0.344030,-27.500102,-27.156072,-0.160200,-0.499651,-0.491280,19081,-586
0.164000,32.018863,-797.726250,-316.013534,20.090698,-436.157227,11.928165,-361.569023,0.330214,-25.307277,-24.977063,-0.160200,-0.472413,-0.498756,18287,-596
0.166000,30.407579,-813.159000,-300.110802,19.246948,-421.875000,11.160631,-391.284000,0.315777,-28.302278,-27.986501,-0.160200,-0.500000,-0.474192,17519,-619
0.168000,28.766227,-827.787250,-283.911305,18.465820,-390.563965,10.300407,-437.223285,0.300730,-32.761649,-32.460919,-0.160200,-0.500000,-0.498756,16808,-608
0.170000,27.096430,-841.597500,-267.431059,17.692383,-386.718750,9.404047,-454.878750,0.285086,-34.771712,-34.486625,-0.160200,-0.500000,-0.505164,16104,-631
0.172000,25.399837,-854.575500,-250.686364,16.794800,-448.791504,8.605037,-405.783996,0.268863,-30.905747,-30.636884,-0.160200,-0.500000,-0.498756,15287,-638
0.174000,23.678128,-866.708000,-233.693775,15.944458,-425.170898,7.733670,-441.537102,0.252081,-34.482041,-34.229959,-0.160200,-0.500000,-0.504096,14513,-637
0.176000,21.933005,-877.983750,-216.470097,15.045776,-449.340820,6.887229,-428.642930,0.234765,-33.800008,-33.565243,-0.160200,-0.500000,-0.503028,13695,-644
0.178000,20.166193,-888.391250,-199.032362,14.232788,-406.494141,5.933405,-481.897109,0.216940,-38.946733,-38.729792,-0.160200,-0.500000,-0.500892,12955,-667
0.180000,18.379440,-897.920250,-181.397812,13.339600,-446.594238,5.039840,-451.326012,0.198638,-36.746770,-36.548132,-0.160200,-0.500000,-0.492348,12142,-647
0.182000,16.574512,-906.561500,-163.583885,12.465088,-437.255859,4.109424,-469.305641,0.179892,-38.802954,-38.623062,-0.160200,-0.500000,-0.498756,11346,-646
0.184000,14.753194,-914.306250,-145.608198,11.629028,-418.029785,3.124166,-496.276465,0.160738,-41.672482,-41.511744,-0.160200,-0.500000,-0.500892,10585,-654
0.186000,12.917287,-921.146750,-127.488525,10.768799,-430.114746,2.148488,-491.032004,0.141215,-41.725680,-41.584465,-0.160200,-0.500000,-0.496620,9802,-661
0.188000,11.068607,-927.076250,-109.242785,9.882202,-443.298340,1.186405,-483.777910,0.121364,-41.596387,-41.475023,-0.160200,-0.500000,-0.499824,8995,-648
0.190000,9.208982,-932.089000,-90.889019,8.991211,-445.495605,0.217771,-486.593395,0.101228,-42.349260,-42.248032,-0.160200,-0.500000,-0.498756,8184,-658
0.192000,7.340251,-936.180250,-72.445377,8.039795,-475.708008,-0.699544,-460.472242,0.080852,-40.550064,-40.469212,-0.160200,-0.500000,-0.499824,7318,-667
0.194000,5.464261,-939.345750,-53.930097,7.147705,-446.044922,-1.683444,-493.300828,0.060285,-43.930068,-43.869783,-0.160200,-0.500000,-0.497688,6506,-644
0.196000,3.582868,-941.582500,-35.361488,6.314941,-416.381836,-2.732073,-525.200664,0.039573,-47.262914,-47.223341,-0.160200,-0.500000,-0.500892,5748,-660
0.198000,1.697931,-942.888000,-16.757912,5.516235,-399.353027,-3.818304,-543.534973,0.018766,-49.431634,-49.412868,-0.160200,-0.500000,-0.495552,5021,-681
0.200000,-0.188684,-943.261000,1.862236,4.557129,-479.553223,-4.745813,-463.707777,-0.002086,-42.951039,-42.953125,-0.160200,-0.500000,-0.497688,4148,-663
0.202000,-2.075113,-942.701250,20.480542,3.603516,-476.806641,-5.678629,-465.894609,-0.022933,-43.630297,-43.653230,-0.160200,-0.500000,-0.496620,3280,-656
0.204000,-3.959489,-941.209500,39.078596,2.632324,-485.595703,-6.591813,-455.613797,-0.043725,-43.211270,-43.254994,-0.160200,-0.500000,-0.499824,2396,-689
0.206000,-5.839951,-938.787000,57.638006,1.796265,-418.029785,-7.636216,-520.757215,-0.064411,-49.442953,-49.507365,-0.160200,-0.500000,-0.500892,1635,-660
0.208000,-7.714637,-935.436000,76.140422,0.936035,-430.114746,-8.650672,-505.321254,-0.084944,-48.627080,-48.712024,-0.160200,-0.500000,-0.506232,852,-692
0.210000,-9.581695,-931.160250,94.567545,0.038452,-448.791504,-9.620147,-482.368746,-0.105275,-47.131711,-47.236987,-0.160200,-0.500000,-0.511572,35,-661
0.212000,-11.439278,-925.963500,112.901154,-0.919556,-479.003906,-10.519722,-446.959594,-0.125358,-44.512696,-44.638054,-0.160200,-0.500000,-0.500892,-837,-669
0.214000,-13.285549,-919.851000,131.123121,-1.922607,-501.525879,-11.362942,-418.325121,-0.145147,-42.455376,-42.600523,-0.160200,-0.500000,-0.498756,-1750,-656
0.216000,-15.118682,-912.829250,149.215425,-2.890503,-483.947754,-12.228179,-428.881496,-0.164600,-43.829631,-43.994230,-0.160200,-0.500000,-0.499824,-2631,-682
0.218000,-16.936866,-904.904750,167.160178,-3.905640,-507.568359,-13.031226,-397.336391,-0.183675,-41.497275,-41.680951,-0.160200,-0.500000,-0.503028,-3555,-670
0.220000,-18.738301,-896.085250,184.939632,-4.858154,-476.257324,-13.880147,-419.827926,-0.202335,-43.904526,-44.106861,-0.160200,-0.500000,-0.501960,-4422,-676
0.222000,-20.521207,-886.379750,202.536209,-5.768921,-455.383301,-14.752286,-430.996449,-0.220544,-45.335814,-45.556359,-0.160200,-0.500000,-0.496620,-5251,-674
0.224000,-22.283820,-875.797750,219.932506,-6.641235,-436.157227,-15.642585,-439.640523,-0.238269,-46.556311,-46.794581,-0.160200,-0.500000,-0.498756,-6045,-682
0.226000,-24.024398,-864.349750,237.111321,-7.494873,-426.818848,-16.529525,-437.530902,-0.255481,-46.836613,-47.092095,-0.160200,-0.500000,-0.504096,-6822,-678
0.228000,-25.741219,-852.047000,254.055668,-8.410034,-457.580566,-17.331185,-394.466434,-0.272153,-43.498277,-43.770431,-0.160200,-0.500000,-0.501960,-7655,-690
0.230000,-27.432586,-838.901750,270.748790,-9.324097,-457.031250,-18.108489,-381.870500,-0.288262,-42.806071,-43.094333,-0.160200,-0.500000,-0.504096,-8487,-683
0.232000,-29.096826,-824.926750,287.174181,-10.243652,-459.777832,-18.853174,-365.148918,-0.303788,-41.736753,-42.040541,-0.160200,-0.500000,-0.494484,-9324,-676
0.234000,-30.732293,-810.136250,303.315597,-11.166504,-461.425781,-19.565789,-348.710469,-0.318714,-40.675352,-40.994066,-0.160200,-0.500000,-0.498756,-10164,-667
0.236000,-32.337371,-794.544500,319.157079,-11.991577,-412.536621,-20.345794,-382.007879,-0.333027,-43.989509,-44.322536,-0.160200,-0.500000,-0.498756,-10915,-688
0.238000,-33.910471,-778.167000,334.682960,-12.818848,-413.635254,-21.091623,-364.531746,-0.346718,-42.854944,-43.201662,-0.160200,-0.500000,-0.500892,-11668,-683
0.240000,-35.450039,-761.020250,349.877888,-13.770264,-475.708008,-21.679775,-285.312242,-0.359779,-36.249694,-36.609473,-0.160200,-0.500000,-0.500892,-12534,-710
0.242000,-36.954552,-743.120750,364.726837,-14.742554,-486.145020,-22.211998,-256.975730,-0.372208,-34.055538,-34.427746,-0.160200,-0.500000,-0.499824,-13419,-686
0.244000,-38.422522,-724.486500,379.215124,-15.733521,-495.483398,-22.689001,-229.003102,-0.384004,-31.864224,-32.248228,-0.160200,-0.500000,-0.500892,-14321,-704
0.246000,-39.852498,-705.136000,393.328421,-16.747559,-507.019043,-23.104939,-198.116957,-0.395169,-29.386684,-29.781853,-0.160200,-0.500000,-0.500892,-15244,-681
0.248000,-41.243066,-685.088000,407.052774,-17.636353,-444.396973,-23.606713,-240.691027,-0.405709,-33.364701,-33.770410,-0.160200,-0.500000,-0.497688,-16053,-713
0.250000,-42.592850,-664.362500,420.374610,-18.569092,-466.369629,-24.023758,-197.992871,-0.415633,-29.856948,-30.272581,-0.160200,-0.500000,-0.498756,-16902,-682
0.252000,-43.900516,-642.980250,433.280756,-19.440308,-435.607910,-24.460208,-207.372340,-0.424950,-30.903986,-31.328936,-0.160200,-0.500000,-0.500892,-17695,-693
0.254000,-45.164771,-620.962000,445.758450,-20.333496,-446.594238,-24.831275,-174.367762,-0.433673,-28.218083,-28.651756,-0.160200,-0.500000,-0.495552,-18508,-704
0.256000,-46.384364,-598.329500,457.795354,-21.378296,-522.399902,-25.006068,-75.929598,-0.441817,-19.719254,-20.161071,-0.160200,-0.412213,-0.510504,-19459,-687
0.258000,-47.558089,-575.105750,469.379563,-22.423096,-522.399902,-25.134993,-52.705848,-0.449398,-17.760105,-18.209503,-0.160200,-0.387819,-0.415452,-20410,-695
0.260000,-48.684787,-551.313500,480.499624,-23.419556,-498.229980,-25.265231,-53.083520,-0.456434,-17.861255,-18.317689,-0.160200,-0.389171,-0.387684,-21317,-632
0.262000,-49.763343,-526.975500,491.144540,-24.286377,-433.410645,-25.476966,-93.564855,-0.462943,-21.504782,-21.967726,-0.160200,-0.434797,-0.390888,-22106,-574
0.264000,-50.792689,-502.116500,501.303785,-25.115845,-414.733887,-25.676844,-87.382613,-0.468947,-21.069936,-21.538883,-0.160200,-0.429436,-0.434676,-22861,-549
0.266000,-51.771809,-476.761250,510.967313,-25.926636,-405.395508,-25.845173,-71.365742,-0.474465,-19.760337,-20.234802,-0.160200,-0.413135,-0.428268,-23599,-535
0.268000,-52.699734,-450.934500,520.125568,-26.758301,-415.832520,-25.941433,-35.101980,-0.479519,-16.646128,-17.125648,-0.160200,-0.374271,-0.415452,-24356,-560
0.270000,-53.575547,-424.661750,528.769493,-27.493286,-367.492676,-26.082261,-57.169074,-0.484131,-18.645583,-19.129714,-0.160200,-0.399321,-0.374868,-25025,-518
0.272000,-54.398381,-397.969000,536.890542,-28.223877,-365.295410,-26.174504,-32.673590,-0.488322,-16.556247,-17.044569,-0.160200,-0.373257,-0.405840,-25690,-497
0.274000,-55.167423,-370.883000,544.480683,-28.970947,-373.535156,-26.196476,2.652156,-0.492113,-13.484998,-13.977112,-0.160200,-0.334914,-0.366324,-26370,-450
0.276000,-55.881913,-343.430000,551.532412,-29.666382,-347.717285,-26.215531,4.287285,-0.495526,-13.352284,-13.847810,-0.160200,-0.333298,-0.336420,-27003,-456
0.278000,-56.541143,-315.637250,558.038754,-30.343140,-338.378906,-26.198003,22.741656,-0.498580,-11.732659,-12.231238,-0.160200,-0.313090,-0.334284,-27619,-421
0.280000,-57.144462,-287.532750,563.993277,-30.962769,-309.814453,-26.181693,22.281703,-0.501295,-11.764257,-12.265552,-0.160200,-0.313519,-0.316128,-28183,-384
0.282000,-57.691274,-259.143750,569.390091,-31.528564,-282.897949,-26.162710,23.754199,-0.503688,-11.625818,-12.129506,-0.160200,-0.311819,-0.315060,-28698,-406
0.284000,-58.181037,-230.498500,574.223861,-32.061401,-266.418457,-26.119636,35.919957,-0.505778,-10.541602,-11.047380,-0.160200,-0.298292,-0.315060,-29183,-381
0.286000,-58.613268,-201.625250,578.489806,-32.584351,-261.474609,-26.028917,59.849359,-0.507580,-8.405867,-8.913447,-0.160200,-0.271618,-0.297972,-29659,-367
0.288000,-58.987538,-172.552500,582.183708,-33.072144,-243.896484,-25.915394,71.343984,-0.509107,-7.343332,-7.852439,-0.160200,-0.258355,-0.276612,-30103,-264
0.290000,-59.303478,-143.309500,585.301915,-33.522583,-225.219727,-25.780895,81.910227,-0.510373,-6.350829,-6.861202,-0.160200,-0.245965,-0.255252,-30513,-250
0.292000,-59.560776,-113.924750,587.841342,-33.946655,-212.036133,-25.614121,98.111383,-0.511388,-4.849689,-5.361077,-0.160200,-0.227213,-0.249912,-30899,-264
0.294000,-59.759177,-84.427000,589.799479,-34.319092,-186.218262,-25.440085,101.791262,-0.512161,-4.437434,-4.949595,-0.160200,-0.222070,-0.230688,-31238,-265
0.296000,-59.898484,-54.846000,591.174389,-34.657471,-169.189453,-25.241013,114.343453,-0.512698,-3.237815,-3.750513,-0.160200,-0.207081,-0.222144,-31546,-204
0.298000,-59.978561,-25.210750,591.964713,-34.955200,-148.864746,-25.023361,123.653996,-0.513005,-2.311354,-2.824359,-0.160200,-0.195504,-0.207192,-31817,-168
0.300000,-59.999327,4.449500,592.169669,-35.227661,-136.230469,-24.771666,140.679969,-0.513085,-0.693771,-1.206855,0.160200,0.145114,-0.195444,-32065,-143
0.302000,-59.960763,34.105250,591.789055,-35.458374,-115.356445,-24.502389,149.461695,-0.512937,0.213573,-0.299365,0.160200,0.156458,0.143112,-32275,-77
0.304000,-59.862906,63.727250,590.823247,-35.518799,-30.212402,-24.344107,93.939652,-0.512561,-4.548764,-5.061325,0.160200,0.096933,0.154860,-32330,38
0.306000,-59.705854,93.286250,589.273200,-35.449585,34.606934,-24.256269,58.679316,-0.511954,-7.579816,-8.091770,0.160200,0.059053,0.099324,-32267,57
0.308000,-59.489761,122.753250,587.140446,-35.359497,45.043945,-24.130264,77.709305,-0.511109,-5.853161,-6.364270,0.160200,0.080647,0.059808,-32185,48
0.310000,-59.214841,152.098750,584.427095,-35.295776,31.860352,-23.919065,120.238398,-0.510020,-2.031213,-2.541233,0.160200,0.128435,0.082236,-32127,35
0.312000,-58.881366,181.293750,581.135831,-35.244141,25.817871,-23.637225,155.475879,-0.508677,1.191408,0.682731,0.160200,0.168734,0.128160,-32080,41
0.314000,-58.489666,210.309500,577.269906,-35.180420,31.860352,-23.309246,178.449148,-0.507069,3.367933,2.860865,0.160200,0.195961,0.163404,-32022,50
0.316000,-58.040128,239.117250,572.833145,-35.090332,45.043945,-22.949796,194.073305,-0.505182,4.919606,4.414424,0.160200,0.215380,0.196512,-31940,74
0.318000,-57.533197,267.688500,567.829934,-34.960693,64.819336,-22.572504,202.869164,-0.503003,5.884739,5.381736,0.160200,0.227472,0.214668,-31822,119
0.320000,-56.969374,295.995250,562.265222,-34.795898,82.397461,-22.173476,213.597789,-0.500515,7.029919,6.529404,0.160200,0.241818,0.226416,-31672,144
0.322000,-56.349216,324.009250,556.144510,-34.598145,98.876953,-21.751071,225.132297,-0.497700,8.257665,7.759965,0.160200,0.257200,0.241368,-31492,129
0.324000,-55.673337,351.702750,549.473852,-34.372925,112.609863,-21.300412,239.092887,-0.494541,9.711921,9.217380,0.160200,0.275417,0.256320,-31287,143
0.326000,-54.942405,379.048500,542.259843,-34.112549,130.187988,-20.829856,248.860512,-0.491017,10.810689,10.319673,0.160200,0.289196,0.274476,-31050,223
0.328000,-54.157143,406.019250,534.509617,-33.810425,151.062012,-20.346718,254.957238,-0.487108,11.595700,11.108592,0.160200,0.299057,0.290496,-30775,184
0.330000,-53.318328,432.588750,526.230838,-33.481934,164.245605,-19.836394,268.343145,-0.482793,13.031045,12.548252,0.160200,0.317053,0.293700,-30476,279
0.332000,-52.426788,458.730500,517.431693,-33.154541,163.696289,-19.272247,295.034211,-0.478051,15.655667,15.177616,0.160200,0.349920,0.316128,-30178,290
0.334000,-51.483406,484.418500,508.120883,-32.797485,178.527832,-18.685921,305.890668,-0.472859,16.910071,16.437212,0.160200,0.365665,0.350304,-29853,257
0.336000,-50.489114,509.627750,498.307614,-32.432739,182.373047,-18.056375,327.254703,-0.467198,19.104065,18.636867,0.160200,0.393161,0.365256,-29521,338
0.338000,-49.444895,534.332750,488.001591,-32.021851,205.444336,-17.423044,328.888414,-0.461045,19.578244,19.117199,0.160200,0.399165,0.394092,-29147,330
0.340000,-48.351783,558.509250,477.213005,-31.602173,209.838867,-16.749610,348.670383,-0.454379,21.657156,21.202776,0.160200,0.425235,0.397296,-28765,392
0.342000,-47.210858,582.133750,465.952524,-31.123169,239.501953,-16.087689,342.631797,-0.447182,21.476771,21.029589,0.160200,0.423070,0.426132,-28329,411
0.344000,-46.023248,605.182500,454.231283,-30.591431,265.869141,-15.431817,339.313359,-0.439434,21.530596,21.091162,0.160200,0.423840,0.426132,-27845,445
0.346000,-44.790128,627.633000,442.060872,-29.932251,329.589844,-14.857877,298.043156,-0.431118,18.229606,17.798488,0.160200,0.382681,0.423996,-27245,465
0.348000,-43.512716,649.462750,429.453327,-29.228027,352.111816,-14.284689,297.350934,-0.422218,18.469319,18.047101,0.160200,0.385789,0.386616,-26604,455
0.350000,-42.192277,670.650000,416.421115,-28.620483,303.771973,-13.571794,366.878027,-0.412720,24.909973,24.497253,0.160200,0.466416,0.387684,-26051,490
0.352000,-40.830116,691.174250,402.977123,-28.043701,288.391113,-12.786415,402.783137,-0.402613,28.454508,28.051896,0.160200,0.500000,0.467784,-25526,462
0.354000,-39.427580,711.015250,389.134644,-27.312012,365.844727,-12.115568,345.170523,-0.391885,23.778114,23.386229,0.160200,0.452528,0.498756,-24860,547
0.356000,-37.986055,730.153000,374.907367,-26.507812,402.099609,-11.478243,328.053391,-0.380531,22.618065,22.237534,0.160200,0.438169,0.452832,-24128,560
0.358000,-36.506968,748.568500,360.309360,-25.667358,420.227051,-10.839610,328.341449,-0.368546,22.977590,22.609045,0.160200,0.442813,0.441084,-23363,563
0.360000,-34.991781,766.244000,345.355060,-24.856567,405.395508,-10.135214,360.848492,-0.355927,26.183186,25.827259,0.160200,0.483041,0.443220,-22625,568
0.362000,-33.441992,783.162000,330.059253,-23.988647,433.959961,-9.453345,349.202039,-0.342677,25.523867,25.181191,0.160200,0.474965,0.485940,-21835,569
0.364000,-31.859133,799.305250,314.437066,-23.170166,409.240723,-8.688967,390.064527,-0.328798,29.490019,29.161221,0.160200,0.500000,0.470988,-21090,593
0.366000,-30.244771,814.658000,298.503945,-22.273682,448.242188,-7.971089,366.415812,-0.314300,27.802159,27.487859,0.160200,0.500000,0.498756,-20274,618
0.368000,-28.600501,829.205500,282.275647,-21.339844,466.918945,-7.260657,362.286555,-0.299192,27.813795,27.514602,0.160200,0.500000,0.507300,-19424,623
0.370000,-26.927949,842.933000,265.768219,-20.419189,460.327148,-6.508760,382.605852,-0.283490,29.980681,29.697191,0.160200,0.500000,0.497688,-18586,644
0.372000,-25.228769,855.827000,248.997985,-19.440308,489.440918,-5.788461,366.386082,-0.267210,28.942386,28.675176,0.160200,0.500000,0.501960,-17695,662
0.374000,-23.504641,867.874500,231.981527,-18.502075,469.116211,-5.002566,398.758289,-0.250373,32.178888,31.928515,0.160200,0.500000,0.504096,-16841,689
0.376000,-21.757271,879.063750,214.735673,-17.525391,488.342285,-4.231880,390.721465,-0.233005,31.881073,31.648068,0.160200,0.500000,0.497688,-15952,705
0.378000,-19.988386,889.384000,197.277477,-16.552002,486.694336,-3.436384,402.689664,-0.215131,33.342016,33.126885,0.160200,0.500000,0.501960,-15066,692
0.380000,-18.199735,898.824500,179.624202,-15.613770,469.116211,-2.585965,429.708289,-0.196783,36.145114,35.948331,0.160200,0.500000,0.492348,-14212,703
0.382000,-16.393088,907.376250,161.793304,-14.797485,408.142090,-1.595603,499.234160,-0.177994,42.730944,42.552949,0.160200,0.500000,0.501960,-13469,716
0.384000,-14.570230,915.031000,143.802416,-13.936157,430.664062,-0.634073,484.366937,-0.158802,41.936990,41.778188,0.160200,0.500000,0.499824,-12685,701
0.386000,-12.732964,921.780750,125.669328,-13.088013,424.072266,0.355049,497.708484,-0.139244,43.619162,43.479918,0.160200,0.500000,0.501960,-11913,725
0.388000,-10.883107,927.618750,107.411971,-12.171753,458.129883,1.288646,469.488867,-0.119362,41.645366,41.526004,0.160200,0.500000,0.499824,-11079,690
0.390000,-9.022489,932.539750,89.048399,-11.297241,437.255859,2.274752,495.283891,-0.099200,44.412731,44.313530,0.160200,0.500000,0.500892,-10283,722
0.392000,-7.152948,936.538750,70.596771,-10.399658,448.791504,3.246710,487.747246,-0.078804,44.263950,44.185147,0.160200,0.500000,0.498756,-9466,690
0.394000,-5.276334,939.611250,52.075334,-9.459229,470.214844,4.182895,469.396406,-0.058219,43.152722,43.094503,0.160200,0.500000,0.500892,-8610,733
0.396000,-3.394503,941.754750,33.502401,-8.510010,474.609375,5.115507,467.145375,-0.037496,43.444597,43.407102,0.160200,0.500000,0.497688,-7746,717
0.398000,-1.509315,942.967250,14.896339,-7.515747,497.131348,6.006432,445.835902,-0.016682,42.051483,42.034800,0.160200,0.500000,0.500892,-6841,731
0.400000,0.377366,943.247000,-3.724453,-6.477539,519.104004,6.854905,424.142996,0.004172,40.602679,40.606850,0.160200,0.500000,0.500892,-5896,743
0.402000,2.263673,942.594000,-22.341562,-5.505249,486.145020,7.768922,456.448980,0.025015,43.900486,43.925501,0.160200,0.500000,0.503028,-5011,723
0.404000,4.147742,941.009250,-40.936579,-4.526367,489.440918,8.674109,451.568332,0.045799,43.948524,43.994323,0.160200,0.500000,0.495552,-4120,735
0.406000,6.027710,938.493750,-59.491115,-3.478271,524.047852,9.505981,414.445898,0.066472,41.144548,41.211020,0.160200,0.500000,0.501960,-3166,717
0.408000,7.901717,935.050000,-77.986823,-2.516968,480.651855,10.418685,454.398145,0.086987,45.108929,45.195917,0.160200,0.500000,0.505164,-2291,736
0.410000,9.767910,930.681750,-96.405414,-1.574341,471.313477,11.342251,459.368273,0.107296,46.026233,46.133529,0.160200,0.500000,0.500892,-1433,711
0.412000,11.624444,925.393250,-114.728673,-0.656982,458.679199,12.281426,466.714051,0.127351,47.159024,47.286375,0.160200,0.500000,0.501960,-598,713
0.414000,13.469483,919.189750,-132.938482,0.459229,558.105469,13.010254,361.084281,0.147108,38.322701,38.469809,0.160200,0.500000,0.494484,418,721
0.416000,15.301203,912.077500,-151.016834,1.491943,516.357422,13.809260,395.720078,0.166525,41.763603,41.930128,0.160200,0.500000,0.500892,1358,741
0.418000,17.117793,904.063000,-168.945853,2.374146,441.101074,14.743647,462.961926,0.185560,48.120805,48.306366,0.160200,0.500000,0.495552,2161,736
0.420000,18.917455,895.154250,-186.707808,3.474976,550.415039,15.442479,344.739211,0.204177,38.169835,38.374012,0.160200,0.500000,0.512640,3163,736
0.422000,20.698410,885.360750,-204.285136,4.576904,550.964355,16.121506,334.396395,0.222339,37.622791,37.845130,0.160200,0.500000,0.506232,4166,721
0.424000,22.458898,874.691750,-221.660456,5.573364,498.229980,16.885534,376.461770,0.240014,41.693732,41.933746,0.160200,0.500000,0.499824,5073,733
0.426000,24.197177,863.157750,-238.816585,6.462158,444.396973,17.735019,418.760777,0.257173,45.829806,46.086979,0.160200,0.500000,0.511572,5882,763
0.428000,25.911529,850.770250,-255.736559,7.415771,476.806641,18.495758,373.963609,0.273790,42.318837,42.592627,0.160200,0.500000,0.500892,6750,724
0.430000,27.600258,837.541250,-272.403647,8.522095,553.161621,19.078163,284.379629,0.289841,34.806107,35.095948,0.160200,0.500000,0.498756,7757,747
0.432000,29.261694,823.484250,-288.801367,9.475708,476.806641,19.785986,346.677609,0.305308,40.613247,40.918554,0.160200,0.500000,0.499824,8625,773
0.434000,30.894195,808.613000,-304.913503,10.456787,490.539551,20.437408,318.073449,0.320173,38.458147,38.778320,0.160200,0.500000,0.503028,9518,753
0.436000,32.496146,792.941750,-320.724125,11.460938,502.075195,21.035209,290.866555,0.334424,36.396905,36.731329,0.160200,0.500000,0.503028,10432,748
0.438000,34.065962,776.486750,-336.217596,12.460693,499.877930,21.605269,276.608820,0.348052,35.451165,35.799218,0.160200,0.500000,0.504096,11342,749
0.440000,35.602093,759.264000,-351.378597,13.352783,446.044922,22.249310,313.219078,0.361051,38.983232,39.344283,0.160200,0.500000,0.501960,12154,767
0.442000,37.103018,741.290000,-366.192135,14.247070,447.143555,22.855948,294.146445,0.373416,37.636466,38.009882,0.160200,0.500000,0.497688,12968,737
0.444000,38.567253,722.583250,-380.643561,15.143555,448.242188,23.423698,274.341062,0.385148,36.205394,36.590542,0.160200,0.500000,0.500892,13784,767
0.446000,39.993351,703.162250,-394.718586,16.109253,482.849121,23.884098,220.313129,0.396251,31.731632,32.127883,0.160200,0.500000,0.507300,14663,744
0.448000,41.379902,683.045750,-408.403291,17.048584,469.665527,24.331318,213.380223,0.406729,31.360786,31.767515,0.160200,0.500000,0.499824,15518,739
0.450000,42.725534,662.253500,-421.684145,18.013184,482.299805,24.712350,179.953695,0.416592,28.643279,29.059871,0.160200,0.500000,0.501960,16396,767
0.452000,44.028916,640.806500,-434.548013,19.028320,507.568359,25.000596,133.238141,0.425849,24.717503,25.143351,0.160200,0.474492,0.503028,17320,747
0.454000,45.288760,618.726000,-446.982176,19.976440,474.060059,25.312320,144.665941,0.434513,25.877984,26.312498,0.160200,0.489106,0.474192,18183,725
0.456000,46.503820,596.033500,-458.974338,21.045410,534.484863,25.458410,61.548637,0.442600,18.701124,19.143724,0.160200,0.399497,0.487008,19156,738
0.458000,47.672894,572.751750,-470.512641,22.148438,551.513672,25.524456,21.238078,0.450126,15.217946,15.668072,0.160200,0.356051,0.399432,20160,696
0.460000,48.794827,548.903750,-481.585675,23.199829,525.695801,25.594998,23.207949,0.457108,15.426785,15.883893,0.160200,0.358749,0.353508,21117,653
0.462000,49.868509,524.512750,-492.182489,24.164429,482.299805,25.704080,42.212945,0.463566,17.142399,17.605966,0.160200,0.380275,0.353508,21995,611
0.464000,50.892878,499.603000,-502.292607,25.049927,442.749023,25.842951,56.853977,0.469520,18.492783,18.962303,0.160200,0.397229,0.375936,22801,554
0.466000,51.866921,474.199250,-511.906029,25.801392,375.732422,26.065529,98.466828,0.474991,22.240731,22.715722,0.160200,0.444147,0.426132,23485,528
0.468000,52.789675,448.326750,-521.013250,26.551758,375.183105,26.237917,73.143645,0.480000,20.121128,20.601129,0.160200,0.417714,0.443220,24168,538
0.470000,53.660228,422.011000,-529.605264,27.312012,380.126953,26.348216,41.884047,0.484569,17.450966,17.935535,0.160200,0.384394,0.417588,24860,540
0.472000,54.477719,395.277750,-537.673575,28.075562,381.774902,26.402157,13.502848,0.488719,15.002483,15.491202,0.160200,0.353840,0.385548,25555,543
0.474000,55.241339,368.153750,-545.210204,28.835815,380.126953,26.405524,-11.973203,0.492471,12.781041,13.273512,0.160200,0.326119,0.352440,26247,503
0.476000,55.950334,340.665500,-552.207699,29.522461,343.322754,26.427873,-2.657254,0.495847,13.605713,14.101560,0.160200,0.336469,0.316128,26872,501
0.478000,56.604001,312.840500,-558.659140,30.160767,319.152832,26.443234,-6.312332,0.498866,13.294790,13.793657,0.160200,0.332621,0.341760,27453,483
0.480000,57.201696,284.706250,-564.558147,30.740845,290.039062,26.460851,-5.332812,0.501548,13.389494,13.891042,0.160200,0.333838,0.333216,27981,428
0.482000,57.742826,256.290250,-569.898888,31.362671,310.913086,26.380155,-54.622836,0.503911,9.045875,9.549786,0.160200,0.279572,0.336420,28547,409
0.484000,58.226857,227.620750,-574.676082,31.908691,273.010254,26.318166,-45.389504,0.505971,9.819178,10.325149,0.160200,0.289264,0.286224,29044,381
0.486000,58.653309,198.726500,-578.885003,32.374512,232.910156,26.278797,-34.183656,0.507745,10.776459,11.284204,0.160200,0.301253,0.290496,29468,349
0.488000,59.021763,169.635750,-582.521491,32.917236,271.362305,26.104527,-101.726555,0.509245,4.790982,5.300227,0.160200,0.226453,0.300108,29962,339
0.490000,59.331852,140.376750,-585.581948,33.329224,205.993652,26.002628,-65.616902,0.510486,7.888789,8.399275,0.160200,0.265191,0.227484,30337,319
0.492000,59.583270,110.979500,-588.063350,33.726929,198.852539,25.856341,-87.873039,0.511476,5.869979,6.381455,0.160200,0.239968,0.263796,30699,256
0.494000,59.775770,81.472250,-589.963242,34.094971,184.020996,25.680799,-102.548746,0.512225,4.497369,5.009594,0.160200,0.222820,0.238164,31034,315
0.496000,59.909159,51.884250,-591.279745,34.466309,185.668945,25.442850,-133.784695,0.512739,1.646928,2.159667,0.160200,0.187196,0.225348,31372,229
0.498000,59.983307,22.245500,-592.011558,34.790405,162.048340,25.192902,-139.802840,0.513023,0.990873,1.503897,0.160200,0.178999,0.181560,31667,224
0.500000,59.998141,-7.415500,-592.157957,35.066162,137.878418,24.931979,-145.293918,0.513080,0.375067,0.888147,-0.160200,-0.149098,0.171948,31918,208
0.502000,59.953645,-37.069500,-591.718797,35.299072,116.455078,24.654573,-153.524578,0.512910,-0.488443,0.024467,-0.160200,-0.159894,-0.148452,32130,84
0.504000,59.849863,-66.686750,-590.694512,35.369385,35.156250,24.480478,-101.843000,0.512511,3.930470,4.442981,-0.160200,-0.104663,-0.159132,32194,-31
0.506000,59.686898,-96.237750,-589.086116,35.303467,-32.958984,24.383431,-63.278766,0.511880,7.245021,7.756901,-0.160200,-0.063239,-0.104664,32134,-64
0.508000,59.464912,-125.693750,-586.895198,35.213379,-45.043945,24.251533,-80.649805,0.511012,5.660050,6.171061,-0.160200,-0.083062,-0.061944,32052,-70
0.510000,59.184123,-155.025500,-584.123926,35.129883,-41.748047,24.054240,-113.277453,0.509897,2.709448,3.219346,-0.160200,-0.119958,-0.081168,31976,-42
0.512000,58.844810,-184.203750,-580.775039,35.070557,-29.663086,23.774253,-154.540664,0.508528,-1.038047,-0.529519,-0.160200,-0.166819,-0.119616,31922,-42
0.514000,58.447308,-213.200000,-576.851850,35.005737,-32.409668,23.441571,-180.790332,0.506893,-3.502955,-2.996062,-0.160200,-0.197651,-0.164472,31863,-62
0.516000,57.992010,-241.985500,-572.358237,34.912354,-46.691895,23.079656,-195.293605,0.504978,-4.958102,-4.453125,-0.160200,-0.215864,-0.196512,31778,-74
0.518000,57.479366,-270.531750,-567.298644,34.779419,-66.467285,22.699947,-204.064465,0.502768,-5.922320,-5.419551,-0.160200,-0.227944,-0.214668,31657,-116
0.520000,56.909883,-298.810250,-561.678075,34.622314,-78.552246,22.287569,-220.258004,0.500248,-7.551393,-7.051145,-0.160200,-0.248339,-0.225348,31514,-117
0.522000,56.284125,-326.793250,-555.502087,34.425659,-98.327637,21.858466,-228.465613,0.497400,-8.492320,-7.994920,-0.160200,-0.260136,-0.249912,31335,-166
0.524000,55.602710,-354.453500,-548.776788,34.192749,-116.455078,21.409961,-237.998422,0.494205,-9.559051,-9.064846,-0.160200,-0.273511,-0.260592,31123,-156
0.526000,54.866311,-381.763000,-541.508828,33.926880,-132.934570,20.939431,-248.828430,0.490644,-10.750516,-10.259873,-0.160200,-0.288448,-0.272340,30881,-197
0.528000,54.075658,-408.694750,-533.705393,33.639038,-143.920898,20.436620,-264.773852,0.486695,-12.405288,-11.918593,-0.160200,-0.309182,-0.289428,30619,-241
0.530000,53.231532,-435.222750,-525.374201,33.321533,-158.752441,19.909999,-276.470309,0.482338,-13.701735,-13.219397,-0.160200,-0.325442,-0.311856,30330,-214
0.532000,52.334767,-461.320250,-516.523489,32.944702,-188.415527,19.390065,-272.904723,0.477552,-13.662816,-13.185264,-0.160200,-0.325016,-0.330012,29987,-298
0.534000,51.386251,-486.961250,-507.162010,32.563477,-190.612793,18.822774,-296.348457,0.472315,-16.005700,-15.533385,-0.160200,-0.354367,-0.323604,29640,-311
0.536000,50.386922,-512.121000,-497.299021,32.171265,-196.105957,18.215657,-316.015043,0.466605,-18.039819,-17.573214,-0.160200,-0.379865,-0.353508,29283,-302
0.538000,49.337767,-536.774500,-486.944275,31.673584,-248.840332,17.664183,-287.934168,0.460401,-15.878052,-15.417650,-0.160200,-0.352921,-0.382344,28830,-311
0.540000,48.239824,-560.897000,-476.108012,31.127563,-273.010254,17.112261,-287.886746,0.453684,-16.162899,-15.709216,-0.160200,-0.356565,-0.352440,28333,-419
0.542000,47.094179,-584.465000,-464.800946,30.578247,-274.658203,16.515932,-309.806797,0.446432,-18.388022,-17.941589,-0.160200,-0.384470,-0.352440,27833,-401
0.544000,45.901964,-607.455000,-453.034259,29.989380,-294.433594,15.912584,-313.021406,0.438628,-18.984461,-18.545833,-0.160200,-0.392023,-0.384480,27297,-391
0.546000,44.664359,-629.844250,-440.819586,29.369751,-309.814453,15.294608,-320.029797,0.430254,-19.919630,-19.489376,-0.160200,-0.403817,-0.393024,26733,-403
0.548000,43.382587,-651.610500,-428.169007,28.718262,-325.744629,14.664325,-325.865871,0.421295,-20.758939,-20.337644,-0.160200,-0.414421,-0.402636,26140,-467
0.550000,42.057917,-672.732500,-415.095030,28.029419,-344.421387,14.028498,-328.311113,0.411737,-21.305245,-20.893508,-0.160200,-0.421369,-0.419724,25513,-480
0.552000,40.691657,-693.189500,-401.610584,27.303223,-363.098145,13.388434,-330.091355,0.401568,-21.795737,-21.394169,-0.160200,-0.427627,-0.422928,24852,-506
0.554000,39.285159,-712.961000,-387.729003,26.545166,-379.028320,12.739993,-333.932680,0.390778,-22.470479,-22.079701,-0.160200,-0.436196,-0.422928,24162,-514
0.556000,37.839813,-732.027250,-373.464013,25.805786,-369.689941,12.034027,-362.337309,0.379361,-25.318893,-24.939532,-0.160200,-0.471944,-0.434676,23489,-539
0.558000,36.357050,-750.369750,-358.829722,25.071899,-366.943359,11.285151,-383.426391,0.367312,-27.551374,-27.184061,-0.160200,-0.500000,-0.472056,22821,-556
0.560000,34.838334,-767.970500,-343.840600,24.214966,-428.466797,10.623368,-339.503703,0.354630,-24.064905,-23.710274,-0.160200,-0.456578,-0.498756,22041,-610
0.562000,33.285168,-784.811250,-328.511469,23.298706,-458.129883,9.986462,-326.681367,0.341317,-23.279428,-22.938111,-0.160200,-0.446926,-0.458172,21207,-615
0.564000,31.699089,-800.876250,-312.857488,22.352783,-472.961426,9.346306,-327.914824,0.327376,-23.722252,-23.394876,-0.160200,-0.452636,-0.446424,20346,-631
0.566000,30.081663,-816.149500,-296.894136,21.403564,-474.609375,8.678099,-341.540125,0.312816,-25.261157,-24.948340,-0.160200,-0.472054,-0.454968,19482,-622
0.568000,28.434491,-830.615500,-280.637198,20.446655,-478.454590,7.987836,-352.160910,0.297649,-26.549416,-26.251767,-0.160200,-0.488347,-0.470988,18611,-653
0.570000,26.759201,-844.260000,-264.102750,19.467773,-489.440918,7.291428,-354.819082,0.281888,-27.146024,-26.864136,-0.160200,-0.496002,-0.490212,17720,-694
0.572000,25.057451,-857.069750,-247.307143,18.458130,-504.821777,6.599321,-352.247973,0.265551,-27.284038,-27.018487,-0.160200,-0.497931,-0.495552,16801,-701
0.574000,23.330922,-869.032250,-230.266985,17.458374,-499.877930,5.872548,-369.154320,0.248660,-29.139933,-28.891273,-0.160200,-0.500000,-0.497688,15891,-717
0.576000,21.581322,-880.135250,-212.999126,16.391602,-533.386230,5.189720,-346.749020,0.231239,-27.542229,-27.310990,-0.160200,-0.500000,-0.497688,14920,-734
0.578000,19.810381,-890.367750,-195.520641,15.300659,-545.471191,4.509722,-344.896559,0.213317,-27.736618,-27.523301,-0.160200,-0.500000,-0.494484,13927,-729
0.580000,18.019851,-899.719750,-177.848815,14.185547,-557.556152,3.834304,-342.163598,0.194923,-27.851770,-27.656846,-0.160200,-0.500000,-0.503028,12912,-745
0.582000,16.211502,-908.182250,-160.001122,13.055054,-565.246582,3.156448,-342.935668,0.176093,-28.274070,-28.097977,-0.160200,-0.500000,-0.505164,11883,-740
0.584000,14.387122,-915.746750,-141.995211,11.917969,-568.542480,2.469153,-347.204270,0.156862,-29.006443,-28.849581,-0.160200,-0.500000,-0.497688,10848,-770
0.586000,12.548515,-922.405750,-123.848887,10.836914,-540.527344,1.711601,-381.878406,0.137269,-32.428986,-32.291716,-0.160200,-0.500000,-0.492348,9864,-763
0.588000,10.697499,-928.152250,-105.580095,9.651489,-592.712402,1.046010,-335.439848,0.117358,-28.724959,-28.607602,-0.160200,-0.500000,-0.499824,8785,-756
0.590000,8.835906,-932.981250,-87.206899,8.480347,-585.571289,0.355559,-347.409961,0.097170,-30.131068,-30.033898,-0.160200,-0.500000,-0.504096,7719,-799
0.592000,6.965574,-936.887750,-68.747467,7.303711,-588.317871,-0.338137,-348.569879,0.076753,-30.595508,-30.518756,-0.160200,-0.500000,-0.496620,6648,-792
0.594000,5.088355,-939.867500,-50.220055,6.189697,-557.006836,-1.101342,-382.860664,0.056152,-33.987557,-33.931405,-0.160200,-0.500000,-0.501960,5634,-806
0.596000,3.206104,-941.918000,-31.642982,4.972412,-608.642578,-1.766308,-333.275422,0.035418,-30.008604,-29.973186,-0.160200,-0.500000,-0.497688,4526,-812
0.598000,1.320683,-943.037000,-13.034619,3.921021,-525.695801,-2.600338,-417.341199,0.014598,-37.781424,-37.766826,-0.160200,-0.500000,-0.501960,3569,-801
0.600000,-0.566044,-943.223750,5.586634,2.847656,-536.682129,-3.413700,-406.541621,-0.006257,-37.264858,-37.271116,-0.160200,-0.500000,-0.500892,2592,-817
0.602000,-2.452212,-942.477500,24.202362,1.697388,-575.134277,-4.149600,-367.343223,-0.027097,-34.229469,-34.256566,-0.160200,-0.500000,-0.499824,1545,-799
0.604000,-4.335954,-940.799250,42.794157,0.569092,-564.147949,-4.905046,-376.651301,-0.047872,-35.437303,-35.485174,-0.160200,-0.500000,-0.500892,518,-808
0.606000,-6.215409,-938.191000,61.343636,-0.485596,-527.343750,-5.729813,-410.847250,-0.068532,-38.853309,-38.921841,-0.160200,-0.500000,-0.498756,-442,-799
0.608000,-8.088718,-934.654750,79.832454,-1.590820,-552.612305,-6.497898,-382.042445,-0.089028,-36.741784,-36.830812,-0.160200,-0.500000,-0.500892,-1448,-806
0.610000,-9.954028,-930.194250,98.242329,-2.678467,-543.823242,-7.275561,-386.371008,-0.109313,-37.526706,-37.636019,-0.160200,-0.500000,-0.504096,-2438,-787
0.612000,-11.809495,-924.814250,116.555057,-3.795776,-558.654785,-8.013719,-366.159465,-0.129341,-36.149415,-36.278755,-0.160200,-0.500000,-0.503028,-3455,-814
0.614000,-13.653285,-918.519500,134.752529,-4.864746,-534.484863,-8.788539,-384.034637,-0.149066,-38.115012,-38.264078,-0.160200,-0.500000,-0.503028,-4428,-810
0.616000,-15.483573,-911.316250,152.816750,-5.956787,-546.020508,-9.526786,-365.295742,-0.168446,-36.866281,-37.034727,-0.160200,-0.500000,-0.497688,-5422,-826
0.618000,-17.298550,-903.212000,170.729857,-7.172974,-608.093262,-10.125576,-295.118738,-0.187442,-31.055708,-31.243149,-0.160200,-0.500000,-0.504096,-6529,-805
0.620000,-19.096421,-894.214750,188.474137,-8.269409,-548.217773,-10.827012,-345.996977,-0.206014,-35.862942,-36.068957,-0.160200,-0.500000,-0.497688,-7527,-811
0.622000,-20.875409,-884.333250,206.032044,-9.244995,-487.792969,-11.630414,-396.540281,-0.224129,-40.694338,-40.918467,-0.160200,-0.500000,-0.498756,-8415,-814
0.624000,-22.633754,-873.577000,223.386214,-10.270020,-512.512207,-12.363734,-361.064793,-0.241754,-37.982483,-38.224237,-0.160200,-0.500000,-0.504096,-9348,-820
0.626000,-24.369717,-861.957250,240.519488,-11.320312,-525.146484,-13.049405,-336.810766,-0.258860,-36.224936,-36.483796,-0.160200,-0.500000,-0.503028,-10304,-819
0.628000,-26.081583,-849.485000,257.414922,-12.548584,-614.135742,-13.532999,-235.349258,-0.275421,-27.623959,-27.899380,-0.160200,-0.500000,-0.504096,-11422,-827
0.630000,-27.767657,-836.172500,274.055810,-13.652710,-552.062988,-14.114947,-284.109512,-0.291415,-32.183801,-32.475216,-0.160200,-0.500000,-0.499824,-12427,-798
0.632000,-29.426273,-822.033500,290.425697,-14.879883,-613.586426,-14.546390,-208.447074,-0.306822,-25.806911,-26.113732,-0.160200,-0.486622,-0.496620,-13544,-810
0.634000,-31.055791,-807.081500,306.508394,-16.131226,-625.671387,-14.924565,-181.410113,-0.321626,-23.645503,-23.967129,-0.160200,-0.459789,-0.492348,-14683,-825
0.636000,-32.654599,-791.331500,322.287999,-17.204590,-536.682129,-15.450009,-254.649371,-0.335815,-30.311956,-30.647771,-0.160200,-0.500000,-0.462444,-15660,-790
0.638000,-34.221117,-774.798750,337.748907,-18.355957,-575.683594,-15.865160,-199.115156,-0.349381,-25.683054,-26.032434,-0.160200,-0.485605,-0.501960,-16708,-787
0.640000,-35.753794,-757.500000,352.875831,-19.549072,-596.557617,-16.204722,-160.942383,-0.362316,-22.529645,-22.891961,-0.160200,-0.446350,-0.483804,-17794,-796
0.642000,-37.251117,-739.452250,367.653811,-20.743286,-597.106934,-16.507831,-142.345316,-0.374618,-21.065452,-21.440070,-0.160200,-0.428201,-0.443220,-18881,-802
0.644000,-38.711603,-720.673000,382.068234,-21.935303,-596.008301,-16.776300,-124.664699,-0.386287,-19.663098,-20.049385,-0.160200,-0.410817,-0.425064,-19966,-782
0.646000,-40.133809,-701.181500,396.104847,-22.928467,-496.582031,-17.205342,-204.599469,-0.397327,-26.863368,-27.260695,-0.160200,-0.500000,-0.414384,-20870,-746
0.648000,-41.516329,-680.996500,409.749770,-23.946899,-509.216309,-17.569430,-171.780191,-0.407743,-24.189981,-24.597725,-0.160200,-0.467672,-0.497688,-21797,-703
0.650000,-42.857795,-660.137750,422.989509,-24.989502,-521.301270,-17.868293,-138.836480,-0.417545,-21.471585,-21.889129,-0.160200,-0.433814,-0.468852,-22746,-736
0.652000,-44.156880,-638.626500,435.810972,-25.973877,-492.187500,-18.183003,-146.439000,-0.426742,-22.299812,-22.726553,-0.160200,-0.444282,-0.433608,-23642,-696
0.654000,-45.412301,-616.484000,448.201482,-26.874756,-450.439453,-18.537545,-166.044547,-0.435348,-24.196356,-24.631704,-0.160200,-0.468096,-0.448560,-24462,-694
0.656000,-46.622816,-593.731750,460.148784,-27.909668,-517.456055,-18.713148,-76.275695,-0.443378,-16.454492,-16.897869,-0.160200,-0.371423,-0.484872,-25404,-702
0.658000,-47.787228,-570.392000,471.641066,-28.874268,-482.299805,-18.912960,-88.092195,-0.450848,-17.590297,-18.041145,-0.160200,-0.385714,-0.372732,-26282,-671
0.660000,-48.904384,-546.488500,482.666963,-29.725708,-425.720215,-19.178676,-120.768285,-0.457777,-20.580952,-21.038729,-0.160200,-0.423184,-0.383412,-27057,-670
0.662000,-49.973182,-522.044750,493.215571,-30.615601,-444.946289,-19.357581,-77.098461,-0.464184,-16.863716,-17.327900,-0.160200,-0.376799,-0.420792,-27867,-615
0.664000,-50.992563,-497.084500,503.276461,-31.411011,-397.705078,-19.581552,-99.379422,-0.470089,-18.925367,-19.395456,-0.160200,-0.402643,-0.372732,-28591,-623
0.666000,-51.961520,-471.632750,512.839683,-32.293213,-441.101074,-19.668307,-30.531676,-0.475512,-12.962693,-13.438205,-0.160200,-0.328178,-0.399432,-29394,-587
0.668000,-52.879094,-445.714750,521.895780,-33.180908,-443.847656,-19.698186,-1.867094,-0.480477,-10.476881,-10.957357,-0.160200,-0.297167,-0.332148,-30202,-571
0.670000,-53.744379,-419.356000,530.435797,-33.979614,-399.353027,-19.764765,-20.002973,-0.485002,-12.094395,-12.579398,-0.160200,-0.317442,-0.291564,-30929,-527
0.672000,-54.556518,-392.582500,538.451290,-34.738770,-379.577637,-19.817748,-13.004863,-0.489112,-11.511437,-12.000549,-0.160200,-0.310207,-0.315060,-31620,-454
0.674000,-55.314709,-365.420750,545.934333,-35.435303,-348.266602,-19.879406,-17.154148,-0.492826,-11.905815,-12.398640,-0.160200,-0.315183,-0.310788,-32254,-441
0.676000,-56.018201,-337.897750,552.877525,-36.014282,-289.489746,-20.003919,-48.408004,-0.496165,-14.698423,-15.194587,-0.160200,-0.350132,-0.312924,-32781,-425
0.678000,-56.666300,-310.040500,559.274000,-36.592163,-288.940430,-20.074137,-21.100070,-0.499149,-12.352122,-12.851271,-0.160200,-0.320841,-0.349236,-33307,-413
0.680000,-57.258363,-281.876750,565.117435,-37.150269,-279.052734,-20.108094,-2.824016,-0.501798,-10.775015,-11.276814,-0.160200,-0.301160,-0.323604,-33815,-399
0.682000,-57.793807,-253.434250,570.402050,-37.694092,-271.911621,-20.099715,18.477371,-0.504130,-8.911731,-9.415862,-0.160200,-0.277898,-0.299040,-34310,-373
0.684000,-58.272100,-224.741000,575.122619,-38.254395,-280.151367,-20.017705,55.410367,-0.506161,-5.645779,-6.151940,-0.160200,-0.237099,-0.277680,-34820,-333
0.686000,-58.692771,-195.825750,579.274475,-38.754272,-249.938965,-19.938499,54.113215,-0.507907,-5.717505,-6.225411,-0.160200,-0.238018,-0.236028,-35275,-314
0.688000,-59.055403,-166.716750,582.853512,-39.176147,-210.937500,-19.879256,44.220750,-0.509381,-6.549765,-7.059146,-0.160200,-0.248439,-0.240300,-35659,-298
0.690000,-59.359638,-137.443000,585.856191,-39.543091,-183.471680,-19.816547,46.028680,-0.510596,-6.359160,-6.869756,-0.160200,-0.246072,-0.246708,-35993,-256
0.692000,-59.605175,-108.033250,588.279543,-39.951782,-204.345703,-19.653393,96.312453,-0.511562,-1.885645,-2.397207,-0.160200,-0.190165,-0.247776,-36365,-301
0.694000,-59.791771,-78.516750,590.121171,-40.307739,-177.978516,-19.484032,99.461766,-0.512287,-1.522139,-2.034426,-0.160200,-0.185630,-0.191172,-36689,-277
0.696000,-59.919242,-48.922500,591.379254,-40.605469,-148.864746,-19.313773,99.942246,-0.512778,-1.391062,-1.903840,-0.160200,-0.183998,-0.178356,-36960,-244
0.698000,-59.987461,-19.279750,592.052549,-40.875732,-135.131836,-19.111729,115.852086,-0.513039,0.103124,-0.409915,-0.160200,-0.165324,-0.183696,-37206,-169
0.700000,-59.996361,10.382000,592.140388,-41.124023,-124.145508,-18.872338,134.527508,-0.513073,1.858207,1.345134,0.160200,0.177014,-0.166608,-37432,-167
0.702000,-59.945933,40.033500,591.642687,-41.320679,-98.327637,-18.625254,138.361137,-0.512880,2.322127,1.809246,0.160200,0.182816,0.177288,-37611,-80
0.704000,-59.836227,69.645250,590.559936,-41.376709,-28.015137,-18.459518,97.660387,-0.512459,-1.142905,-1.655363,0.160200,0.139508,0.182628,-37662,29
0.706000,-59.667352,99.188000,588.893206,-41.307495,34.606934,-18.359857,64.581066,-0.511804,-3.977437,-4.489242,0.160200,0.104084,0.137772,-37599,74
0.708000,-59.439475,128.633000,586.644146,-41.199829,53.833008,-18.239646,74.799992,-0.510911,-3.022726,-3.533637,0.160200,0.116030,0.106800,-37501,78
0.710000,-59.152820,157.950750,583.814980,-41.095459,52.185059,-18.057361,105.765691,-0.509772,-0.225014,-0.734787,0.160200,0.151015,0.117480,-37406,78
0.712000,-58.807672,187.112000,580.408504,-40.987793,53.833008,-17.819879,133.278992,-0.508377,2.300319,1.791942,0.160200,0.182599,0.150588,-37308,86
0.714000,-58.404372,216.088500,576.428088,-40.863647,62.072754,-17.540725,154.015746,-0.506714,4.256107,3.749393,0.160200,0.207067,0.183696,-37195,108
0.716000,-57.943318,244.851250,571.877668,-40.714233,74.707031,-17.229085,170.144219,-0.504770,5.826757,5.321986,0.160200,0.226725,0.206124,-37059,126
0.718000,-57.424967,273.372000,566.761744,-40.527466,93.383789,-16.897501,179.988211,-0.502530,6.859424,6.356893,0.160200,0.239661,0.226416,-36889,143
0.720000,-56.849830,301.622500,561.085374,-40.302246,112.609863,-16.547584,189.012637,-0.499978,7.830170,7.330191,0.160200,0.251827,0.239232,-36684,143
0.722000,-56.218477,329.574500,554.854171,-40.041870,130.187988,-16.176607,199.386512,-0.497096,8.929704,8.432608,0.160200,0.265608,0.250980,-36447,195
0.724000,-55.531532,357.200500,548.074297,-39.748535,146.667480,-15.782997,210.533020,-0.493866,10.108514,9.614648,0.160200,0.280383,0.265932,-36180,234
0.726000,-54.789675,384.473250,540.752457,-39.420044,164.245605,-15.369631,220.227645,-0.490266,11.170968,10.680701,0.160200,0.293709,0.280884,-35881,259
0.728000,-53.993639,411.366250,532.895891,-39.097046,161.499023,-14.896593,249.867227,-0.486278,14.005191,13.518913,0.160200,0.329186,0.293700,-35587,251
0.730000,-53.144210,437.852250,524.512368,-38.704834,196.105957,-14.439376,241.746293,-0.481879,13.535904,13.054025,0.160200,0.323375,0.330012,-35230,312
0.732000,-52.242230,463.905250,515.610177,-38.311523,196.655273,-13.930707,267.249977,-0.477049,16.027859,15.550810,0.160200,0.354585,0.322536,-34872,271
0.734000,-51.288589,489.499500,506.198122,-37.883057,214.233398,-13.405532,275.266102,-0.471765,17.002379,16.530613,0.160200,0.366833,0.354576,-34482,336
0.736000,-50.284232,514.609750,496.285511,-37.468872,207.092285,-12.815360,307.517465,-0.466007,20.125855,19.659847,0.160200,0.405948,0.359916,-34105,331
0.738000,-49.230150,539.211000,485.882144,-36.987671,240.600586,-12.242479,298.610414,-0.459753,19.648527,19.188774,0.160200,0.400060,0.405840,-33667,366
0.740000,-48.127388,563.279000,474.998310,-36.364746,311.462402,-11.762642,251.816598,-0.452983,15.816239,15.363256,0.160200,0.352241,0.400500,-33100,445
0.742000,-46.977034,586.790500,463.644772,-35.683594,340.576172,-11.293440,246.214328,-0.445677,15.573022,15.127345,0.160200,0.349292,0.351372,-32480,493
0.744000,-45.780226,609.721250,451.832755,-35.029907,326.843262,-10.750319,282.877988,-0.437817,19.056908,18.619091,0.160200,0.392939,0.347100,-31885,469
0.746000,-44.538149,632.049000,439.573941,-34.450928,289.489746,-10.087221,342.559254,-0.429385,24.612278,24.182893,0.160200,0.462486,0.399432,-31358,454
0.748000,-43.252030,653.752250,426.880452,-33.843384,303.771973,-9.408646,349.980277,-0.420367,25.615185,25.194819,0.160200,0.475135,0.461376,-30805,486
0.750000,-41.923140,674.808750,413.764839,-33.185303,329.040527,-8.737837,345.768223,-0.410748,25.598849,25.188101,0.160200,0.475051,0.477396,-30206,535
0.752000,-40.552795,695.197750,400.240073,-32.471191,357.055664,-8.081604,338.142086,-0.400517,25.276946,24.876429,0.160200,0.471155,0.474192,-29556,576
0.754000,-39.142349,714.899500,386.319527,-31.690063,390.563965,-7.452286,324.335535,-0.389665,24.401607,24.011942,0.160200,0.460349,0.469920,-28845,623
0.756000,-37.693197,733.894500,372.016967,-30.946289,371.887207,-6.746908,362.007293,-0.378185,28.058423,27.680238,0.160200,0.500000,0.456036,-28168,655
0.758000,-36.206771,752.163500,357.346536,-30.122314,411.987305,-6.084457,340.176195,-0.366073,26.500159,26.134086,0.160200,0.486876,0.506232,-27418,661
0.760000,-34.684543,769.688750,342.322740,-29.221436,450.439453,-5.463107,319.249297,-0.353327,24.999280,24.645953,0.160200,0.468274,0.487008,-26598,686
0.762000,-33.128016,786.453000,326.960436,-28.351318,435.058594,-4.776698,351.394406,-0.339951,28.163874,27.823923,0.160200,0.500000,0.464580,-25806,681
0.764000,-31.538731,802.439500,311.274816,-27.403198,474.060059,-4.135533,328.379441,-0.325948,26.491152,26.165204,0.160200,0.487265,0.500892,-24943,714
0.766000,-29.918258,817.632750,295.281390,-26.469360,466.918945,-3.448898,350.713805,-0.311327,28.799715,28.488388,0.160200,0.500000,0.481668,-24093,747
0.768000,-28.268200,832.017250,278.995973,-25.359741,554.809570,-2.908459,277.207680,-0.296099,22.668068,22.371969,0.160200,0.439850,0.500892,-23083,745
0.770000,-26.590189,845.578750,262.434670,-24.225952,566.894531,-2.364237,278.684219,-0.280279,23.081874,22.801595,0.160200,0.445220,0.435744,-22051,747
0.772000,-24.885885,858.304250,245.613856,-23.104248,560.852051,-1.781637,297.452199,-0.263886,25.024738,24.760852,0.160200,0.469711,0.450696,-21030,716
0.774000,-23.156972,870.181250,228.550165,-21.996826,553.710938,-1.160146,316.470312,-0.246941,27.009794,26.762852,0.160200,0.494736,0.469920,-20022,733
0.776000,-21.405160,881.197750,211.260472,-20.885010,555.908203,-0.520150,325.289547,-0.229469,28.114518,27.885049,0.160200,0.500000,0.493416,-19010,750
0.778000,-19.632181,891.342750,193.761872,-19.754517,565.246582,0.122336,326.096168,-0.211498,28.521314,28.309816,0.160200,0.500000,0.500892,-17981,761
0.780000,-17.839789,900.606250,176.071670,-18.717407,518.554688,0.877618,382.051563,-0.193059,33.799808,33.606749,0.160200,0.500000,0.506232,-17037,784
0.782000,-16.029756,908.979500,158.207358,-17.656128,530.639648,1.626372,378.339852,-0.174187,33.867947,33.693760,0.160200,0.500000,0.497688,-16071,788
0.784000,-14.203871,916.453500,140.186602,-16.504761,575.683594,2.300890,340.769906,-0.154918,30.942527,30.787609,0.160200,0.500000,0.497688,-15023,781
0.786000,-12.363942,923.021250,122.027222,-15.362183,571.289062,2.998241,351.732187,-0.135292,32.264299,32.129007,0.160200,0.500000,0.495552,-13983,808
0.788000,-10.511786,928.676750,103.747174,-14.261353,550.415039,3.749567,378.261711,-0.115351,34.972830,34.857479,0.160200,0.500000,0.500892,-12981,816
0.790000,-8.649235,933.413500,85.364535,-13.072632,594.360352,4.423397,339.053148,-0.095138,31.904054,31.808916,0.160200,0.500000,0.496620,-11899,820
0.792000,-6.778132,937.227250,66.897484,-11.947632,562.500000,5.169500,374.727250,-0.074700,35.407865,35.333165,0.160200,0.500000,0.497688,-10875,837
0.794000,-4.900326,940.114500,48.364280,-10.694092,626.770020,5.793766,313.344480,-0.054084,30.378073,30.323989,0.160200,0.500000,0.500892,-9734,838
0.796000,-3.017674,942.072000,29.783250,-9.562500,565.795898,6.544826,376.276102,-0.033339,36.263147,36.229809,0.160200,0.500000,0.493416,-8704,844
0.798000,-1.132038,943.097750,11.172770,-8.293579,634.460449,7.161541,308.637301,-0.012513,30.683460,30.670947,0.160200,0.500000,0.500892,-7549,848
0.800000,0.754717,943.191000,-7.448759,-7.018066,637.756348,7.772783,305.434652,0.008343,30.724022,30.732364,0.160200,0.500000,0.497688,-6388,860
0.802000,2.640726,942.351500,-26.062922,-5.868896,574.584961,8.509622,367.766539,0.029178,36.549313,36.578491,0.160200,0.500000,0.497688,-5342,851
0.804000,4.524123,940.580250,-44.651312,-4.590088,639.404297,9.114211,301.175953,0.049944,31.054750,31.104694,0.160200,0.500000,0.499824,-4178,884
0.806000,6.403047,937.879250,-63.195549,-3.432129,578.979492,9.835176,358.899758,0.070590,36.469598,36.540188,0.160200,0.500000,0.492348,-3124,879
0.808000,8.275640,934.250250,-81.677295,-2.273071,579.528809,10.548711,354.721441,0.091067,36.478578,36.569645,0.160200,0.500000,0.496620,-2069,872
0.810000,10.140048,929.697500,-100.078273,-1.141479,565.795898,11.281527,363.901602,0.111328,37.663399,37.774728,0.160200,0.500000,0.497688,-1039,855
0.812000,11.994430,924.225750,-118.380289,0.020874,581.176758,11.973556,343.048992,0.131327,36.206011,36.337339,0.160200,0.500000,0.531864,19,884
0.814000,13.836951,917.839750,-136.565243,1.265625,622.375488,12.571326,295.464262,0.151020,32.366452,32.517472,0.160200,0.500000,0.504096,1152,860
0.816000,15.665789,910.546250,-154.615154,2.435669,585.021973,13.230120,325.524277,0.170364,35.334627,35.504991,0.160200,0.500000,0.506232,2217,871
0.818000,17.479136,902.352500,-172.512173,3.603516,583.923340,13.875620,318.429160,0.189318,35.053444,35.242763,0.160200,0.500000,0.499824,3280,859
0.820000,19.275199,893.266250,-190.238603,4.779053,587.768555,14.496146,305.497695,0.207847,34.249868,34.457714,0.160200,0.500000,0.492348,4350,870
0.822000,21.052201,883.296750,-207.776914,5.961182,591.064453,15.091019,292.232297,0.225914,33.403718,33.629632,0.160200,0.500000,0.498756,5426,892
0.824000,22.808386,872.453750,-225.109763,7.143311,591.064453,15.665075,281.389297,0.243488,32.758063,33.001551,0.160200,0.500000,0.506232,6502,870
0.826000,24.542016,860.748000,-242.220011,8.322144,589.416504,16.219872,271.331496,0.260541,32.170845,32.431386,0.160200,0.500000,0.499824,7575,894
0.828000,26.251378,848.191500,-259.090739,9.374634,526.245117,16.876744,321.946383,0.277046,36.931765,37.208811,0.160200,0.500000,0.500892,8533,906
0.830000,27.934782,834.795750,-275.705263,10.432617,528.991699,17.502165,305.804051,0.292982,35.850550,36.143532,0.160200,0.500000,0.493416,9496,896
0.832000,29.590561,820.574500,-292.047155,11.492798,530.090332,18.097763,290.484168,0.308329,34.825492,35.133822,0.160200,0.500000,0.505164,10461,869
0.834000,31.217080,805.542250,-308.100254,12.629883,568.542480,18.587197,236.999770,0.323073,30.414365,30.737438,0.160200,0.500000,0.497688,11496,898
0.836000,32.812730,789.713000,-323.848686,13.746094,558.105469,19.066636,231.607531,0.337200,30.194837,30.532038,0.160200,0.500000,0.504096,12512,873
0.838000,34.375932,773.103000,-339.276878,14.813965,533.935547,19.561967,239.167453,0.350703,31.113920,31.464622,0.160200,0.500000,0.500892,13484,878
0.840000,35.905142,755.728750,-354.369575,15.882935,534.484863,20.022207,221.243887,0.363574,29.790775,30.154349,0.160200,0.500000,0.491280,14457,886
0.842000,37.398847,737.607000,-369.111851,16.949707,533.386230,20.449140,204.220770,0.375813,28.528769,28.904582,0.160200,0.500000,0.501960,15428,902
0.844000,38.855570,718.755750,-383.489129,18.017578,533.935547,20.837992,184.820203,0.387419,27.039352,27.426772,0.160200,0.500000,0.500892,16400,902
0.846000,40.273870,699.193750,-397.487191,19.089844,536.132812,21.184026,163.060937,0.398396,25.321681,25.720078,0.160200,0.481701,0.500892,17376,902
0.848000,41.652345,678.940500,-411.092196,20.379639,644.897461,21.272706,34.043039,0.408751,14.109179,14.517929,0.160200,0.341674,0.478464,18550,883
0.850000,42.989632,658.015750,-424.290690,21.704590,662.475586,21.285042,-4.459836,0.418491,10.755628,11.174119,0.160200,0.299876,0.346032,19756,848
0.852000,44.284408,636.440500,-437.069622,22.822998,559.204102,21.461410,77.236398,0.427629,17.977315,18.404944,0.160200,0.390262,0.299040,20774,795
0.854000,45.535394,614.235750,-449.416355,23.771118,474.060059,21.764276,140.175691,0.436177,23.628385,24.064561,0.160200,0.461007,0.385548,21637,732
0.856000,46.741351,591.423500,-461.318679,24.729126,479.003906,22.012225,112.419594,0.444150,21.336034,21.780184,0.160200,0.432452,0.457104,22509,687
0.858000,47.901088,568.026750,-472.764826,25.643188,457.031250,22.257900,110.995500,0.451565,21.340394,21.791959,0.160200,0.432599,0.435744,23341,693
0.860000,49.013458,544.068250,-483.743477,26.602295,479.553223,22.411163,64.515027,0.458441,17.364456,17.822897,0.160200,0.382986,0.435744,24214,712
0.862000,50.077361,519.571500,-494.243776,27.555908,476.806641,22.521453,42.764859,0.464797,15.524143,15.988940,0.160200,0.360062,0.385548,25082,691
0.864000,51.091744,494.561000,-504.255338,28.544678,494.384766,22.547066,0.176234,0.470652,11.820996,12.291648,0.160200,0.313846,0.358848,25982,664
0.866000,52.055605,469.061500,-513.768265,29.367554,411.437988,22.688051,57.623512,0.476029,16.908036,17.384065,0.160200,0.377501,0.311856,26731,628
0.868000,52.967990,443.098250,-522.773149,30.101440,366.943359,22.866550,76.154891,0.480948,18.618665,19.099614,0.160200,0.398945,0.371664,27399,583
0.870000,53.827998,416.697000,-531.261085,30.810059,354.309082,23.017939,62.387918,0.485432,17.496538,17.981970,0.160200,0.384975,0.397296,28044,583
0.872000,54.634778,389.883250,-539.223681,31.518677,354.309082,23.116101,35.574168,0.489501,15.207994,15.697495,0.160200,0.356419,0.387684,28689,566
0.874000,55.387531,362.684250,-546.653063,32.222900,352.111816,23.164631,10.572434,0.493176,13.051591,13.544767,0.160200,0.329510,0.355644,29330,562
0.876000,56.085515,335.126750,-553.541883,32.913940,345.520020,23.171575,-10.393270,0.496479,11.225624,11.722103,0.160200,0.306726,0.327876,29959,562
0.878000,56.728038,307.237500,-559.883330,33.576416,331.237793,23.151622,-24.000293,0.499429,10.027740,10.527169,0.160200,0.291790,0.306516,30562,519
0.880000,57.314465,279.044500,-565.671134,34.201538,312.561035,23.112927,-33.516535,0.502046,9.177031,9.679076,0.160200,0.281188,0.289428,31131,483
0.882000,57.844216,250.575750,-570.899570,34.784912,291.687012,23.059304,-41.111262,0.504346,8.486189,8.990535,0.160200,0.272582,0.281952,31662,439
0.884000,58.316768,221.859250,-575.563469,35.330933,273.010254,22.985835,-51.151004,0.506348,7.571588,8.077936,0.160200,0.261174,0.271272,32159,461
0.886000,58.731653,192.923000,-579.658219,35.840698,254.882812,22.890955,-61.959813,0.508066,6.578662,7.086728,0.160200,0.248784,0.264864,32623,378
0.888000,59.088460,163.796250,-583.179770,36.316406,237.854004,22.772054,-74.057754,0.509514,5.460661,5.970175,0.160200,0.234827,0.248844,33056,391
0.890000,59.386838,134.507750,-586.124640,36.760254,221.923828,22.626584,-87.416078,0.510704,4.218760,4.729463,0.160200,0.219318,0.238164,33460,373
0.892000,59.626491,105.085750,-588.489918,37.199707,219.726562,22.426784,-114.640812,0.511645,1.738338,2.249983,0.160200,0.188325,0.215736,33860,277
0.894000,59.807181,75.560000,-590.273264,37.587524,193.908691,22.219657,-118.348691,0.512346,1.306313,1.818660,0.160200,0.182933,0.186900,34213,310
0.896000,59.928731,45.960000,-591.472915,37.911621,162.048340,22.017110,-116.088340,0.512814,1.397513,1.910327,0.160200,0.184079,0.183696,34508,274
0.898000,59.991021,16.314000,-592.087684,38.198364,143.371582,21.792657,-127.057582,0.513053,0.322743,0.835796,0.160200,0.170647,0.185832,34769,195
0.900000,59.993987,-13.348000,-592.116964,38.452148,126.892090,21.541839,-140.240090,0.513064,-0.958976,-0.445912,-0.160200,-0.165774,0.169812,35000,232
0.902000,59.937629,-42.996750,-591.560726,38.701538,124.694824,21.236091,-167.691574,0.512848,-3.514659,-3.001811,-0.160200,-0.197723,-0.164472,35227,94
0.904000,59.822000,-72.603250,-590.419519,38.785034,41.748047,21.036966,-114.351297,0.512404,1.035896,1.548300,-0.160200,-0.140846,-0.196512,35303,-35
0.906000,59.647216,-102.137500,-588.694473,38.727905,-28.564453,20.919311,-73.573047,0.511726,4.532866,5.044592,-0.160200,-0.097143,-0.144180,35251,-91
0.908000,59.413450,-131.570750,-586.387293,38.625732,-51.086426,20.787718,-80.484324,0.510809,3.860841,4.371650,-0.160200,-0.105554,-0.096120,35158,-98
0.910000,59.120933,-160.874250,-583.500260,38.521362,-52.185059,20.599571,-108.689191,0.509644,1.300989,1.810633,-0.160200,-0.137567,-0.104664,35063,-84
0.912000,58.769953,-190.018750,-580.036229,38.429077,-46.142578,20.340876,-143.876172,0.508223,-1.905107,-1.396884,-0.160200,-0.177661,-0.138840,34979,-88
0.914000,58.360858,-218.975000,-575.998627,38.334595,-47.241211,20.026263,-171.733789,0.506533,-4.500873,-3.994341,-0.160200,-0.210129,-0.171948,34893,-74
0.916000,57.894053,-247.714750,-571.391445,38.224731,-54.931641,19.669322,-192.783109,0.504560,-6.524667,-6.020108,-0.160200,-0.235451,-0.210396,34793,-119
0.918000,57.369999,-276.209500,-566.219239,38.087402,-68.664551,19.282597,-207.544949,0.502290,-8.015370,-7.513080,-0.160200,-0.254113,-0.236028,34668,-130
0.920000,56.789215,-304.431250,-560.487123,37.903931,-91.735840,18.885284,-212.695410,0.499705,-8.672864,-8.173159,-0.160200,-0.262364,-0.247776,34501,-166
0.922000,56.152274,-332.352250,-554.200767,37.696289,-103.820801,18.455985,-228.531449,0.496789,-10.279600,-9.782811,-0.160200,-0.282485,-0.263796,34312,-171
0.924000,55.459806,-359.944250,-547.366387,37.455688,-120.300293,18.004118,-239.643957,0.493523,-11.485947,-10.992424,-0.160200,-0.297605,-0.280884,34093,-219
0.926000,54.712497,-387.180250,-539.990739,37.164551,-145.568848,17.547946,-241.611402,0.489885,-11.896489,-11.406604,-0.160200,-0.302783,-0.297972,33828,-257
0.928000,53.911085,-414.033500,-532.081119,36.850342,-157.104492,17.060743,-256.929008,0.485857,-13.488301,-13.002444,-0.160200,-0.322731,-0.300108,33542,-304
0.930000,53.056363,-440.477500,-523.645347,36.503174,-173.583984,16.553189,-266.893516,0.481416,-14.623623,-14.142207,-0.160200,-0.336978,-0.322536,33226,-332
0.932000,52.149175,-466.485750,-514.691766,36.127441,-187.866211,16.021734,-278.619539,0.476541,-15.925181,-15.448640,-0.160200,-0.353308,-0.337488,32884,-363
0.934000,51.190420,-492.032750,-505.229228,35.718750,-204.345703,15.471670,-287.687047,0.471211,-17.004483,-16.533272,-0.160200,-0.366866,-0.352440,32512,-343
0.936000,50.181044,-517.093250,-495.267092,35.274902,-221.923828,14.906142,-295.169422,0.465404,-17.953554,-17.488149,-0.160200,-0.378802,-0.367392,32108,-383
0.938000,49.122047,-541.642250,-484.815208,34.796997,-238.952637,14.325050,-302.689613,0.459100,-18.914073,-18.454974,-0.160200,-0.390887,-0.378072,31673,-450
0.940000,48.014475,-565.655750,-473.883912,34.245483,-275.756836,13.768992,-289.898914,0.452277,-18.089026,-17.636749,-0.160200,-0.380659,-0.399432,31171,-443
0.942000,46.859424,-589.109750,-462.484012,33.666504,-289.489746,13.192920,-299.620004,0.444916,-19.238981,-18.794065,-0.160200,-0.395126,-0.381276,30644,-479
0.944000,45.658036,-611.981500,-450.626783,33.046875,-309.814453,12.611161,-302.167047,0.436999,-19.765861,-19.328861,-0.160200,-0.401811,-0.393024,30080,-490
0.946000,44.411498,-634.248000,-438.323949,32.349243,-348.815918,12.062255,-285.432082,0.428510,-18.592866,-18.164356,-0.160200,-0.387254,-0.401568,29445,-540
0.948000,43.121044,-655.887250,-425.587675,31.699951,-324.645996,11.421093,-331.241254,0.419432,-22.926182,-22.506750,-0.160200,-0.441534,-0.387684,28854,-549
0.950000,41.787949,-676.878000,-412.430557,31.004517,-347.717285,10.783432,-329.160715,0.409752,-23.078499,-22.668747,-0.160200,-0.443559,-0.437880,28221,-570
0.952000,40.413532,-697.199250,-398.865605,30.328857,-337.829590,10.084675,-359.369660,0.399460,-26.080596,-25.681136,-0.160200,-0.481214,-0.445356,27606,-572
0.954000,38.999152,-716.831250,-384.906231,29.618042,-355.407715,9.381110,-361.423535,0.388545,-26.628216,-26.239671,-0.160200,-0.488196,-0.479532,26959,-636
0.956000,37.546207,-735.754250,-370.566241,28.862183,-377.929688,8.684024,-357.824563,0.377002,-26.679139,-26.302137,-0.160200,-0.488977,-0.491280,26271,-674
0.958000,36.056135,-753.949750,-355.859815,28.062378,-399.902344,7.993757,-354.047406,0.364827,-26.710943,-26.346117,-0.160200,-0.489526,-0.484872,25543,-719
0.960000,34.530408,-771.399750,-340.801494,27.221924,-420.227051,7.308484,-351.172699,0.352018,-26.818886,-26.466868,-0.160200,-0.491036,-0.492348,24778,-735
0.962000,32.970536,-788.087000,-325.406170,26.351807,-435.058594,6.618729,-353.028406,0.338579,-27.341982,-27.003403,-0.160200,-0.497743,-0.493416,23986,-766
0.964000,31.378060,-803.994750,-309.689066,25.453125,-449.340820,5.924935,-354.653930,0.324513,-27.847105,-27.522592,-0.160200,-0.500000,-0.490212,23168,-749
0.966000,29.754557,-819.107500,-293.665724,24.525879,-463.623047,5.228678,-355.484453,0.309831,-28.284141,-27.974310,-0.160200,-0.500000,-0.503028,22324,-802
0.968000,28.101630,-833.410500,-277.351990,23.498657,-513.610840,4.602973,-319.799660,0.294543,-25.497674,-25.203131,-0.160200,-0.475239,-0.504096,21389,-832
0.970000,26.420915,-846.889250,-260.763994,22.520874,-488.891602,3.900041,-357.997648,0.278666,-29.199132,-28.920466,-0.160200,-0.500000,-0.473124,20499,-832
0.972000,24.714073,-859.530750,-243.918140,21.487061,-516.906738,3.227012,-342.624012,0.262216,-28.209926,-27.947709,-0.160200,-0.500000,-0.501960,19558,-842
0.974000,22.982792,-871.322000,-226.831086,20.489502,-498.779297,2.493290,-372.542703,0.245217,-31.205000,-30.959783,-0.160200,-0.500000,-0.501960,18650,-840
0.976000,21.228785,-882.251500,-209.519729,19.474365,-507.568359,1.754420,-374.683141,0.227694,-31.778660,-31.550966,-0.160200,-0.500000,-0.503028,17726,-843
0.978000,19.453786,-892.308750,-192.001187,18.442749,-515.808105,1.011037,-376.500645,0.209675,-32.326502,-32.116827,-0.160200,-0.500000,-0.500892,16787,-876
0.980000,17.659550,-901.483750,-174.292784,17.402344,-520.202637,0.257206,-381.281113,0.191191,-33.138381,-32.947190,-0.160200,-0.500000,-0.495552,15840,-855
0.982000,15.847851,-909.767250,-156.412030,16.276245,-563.049316,-0.428394,-346.717934,0.172277,-30.481154,-30.308877,-0.160200,-0.500000,-0.508368,14815,-902
0.984000,14.020481,-917.151250,-138.376607,15.005127,-635.559082,-0.984646,-281.592168,0.152971,-25.089112,-24.936141,-0.160200,-0.471902,-0.498756,13658,-892
0.986000,12.179246,-923.628250,-120.204350,13.804321,-600.402832,-1.625075,-323.225418,0.133311,-29.057626,-28.924315,-0.160200,-0.500000,-0.475260,12565,-893
0.988000,10.325968,-929.191750,-101.913228,12.612305,-596.008301,-2.286337,-333.183449,0.113341,-30.272864,-30.159523,-0.160200,-0.500000,-0.499824,11480,-870
0.990000,8.462479,-933.836500,-83.521328,11.365356,-623.474121,-2.902877,-310.362379,0.093104,-28.604170,-28.511066,-0.160200,-0.500000,-0.503028,10345,-881
0.992000,6.590622,-937.557750,-65.046838,10.078857,-643.249512,-3.488235,-294.308238,0.072646,-27.509675,-27.437029,-0.160200,-0.500000,-0.503028,9174,-880
0.994000,4.712248,-940.352000,-46.508026,8.863770,-607.543945,-4.151522,-332.808055,0.052015,-31.216713,-31.164699,-0.160200,-0.500000,-0.495552,8068,-911
0.996000,2.829214,-942.216500,-27.923224,7.510254,-676.757812,-4.681040,-265.458687,0.031259,-25.616627,-25.585369,-0.160200,-0.480017,-0.498756,6836,-899
0.998000,0.943382,-943.149000,-9.310810,6.230347,-639.953613,-5.286965,-303.195387,0.010428,-29.227037,-29.216609,-0.160200,-0.500000,-0.476328,5671,-890
1.000000,-0.943382,-943.149000,9.310810,5.059204,-585.571289,-6.002586,-357.577711,-0.010428,-34.347489,-34.357917,-0.160200,-0.500000,-0.496620,4605,-923
1.002000,-2.829214,-942.216500,27.923224,3.751831,-653.686523,-6.581045,-288.529977,-0.031259,-28.624818,-28.656076,-0.160200,-0.500000,-0.501960,3415,-890
1.004000,-4.712248,-940.352000,46.508026,2.388428,-681.701660,-7.100676,-258.650340,-0.052015,-26.289405,-26.341420,-0.160200,-0.489468,-0.506232,2174,-904
1.006000,-6.590622,-937.557750,65.046838,1.095337,-646.545410,-7.685959,-291.012340,-0.072646,-29.419976,-29.492622,-0.160200,-0.500000,-0.490212,997,-914
1.008000,-8.462479,-933.836500,83.521328,-0.277954,-686.645508,-8.184525,-247.190992,-0.093104,-25.856891,-25.949994,-0.160200,-0.484575,-0.509436,-253,-912
1.010000,-10.325968,-929.191750,101.913228,-1.653442,-687.744141,-8.672526,-241.447609,-0.113341,-25.611203,-25.724543,-0.160200,-0.481757,-0.487008,-1505,-922
1.012000,-12.179246,-923.628250,120.204350,-3.031128,-688.842773,-9.148118,-234.785477,-0.133311,-25.278841,-25.412153,-0.160200,-0.477852,-0.482736,-2759,-908
1.014000,-14.020481,-917.151250,138.376607,-4.128662,-548.767090,-9.891819,-368.384160,-0.152971,-37.326927,-37.479898,-0.160200,-0.500000,-0.474192,-3758,-923
1.016000,-15.847851,-909.767250,156.412030,-5.216309,-543.823242,-10.631542,-365.944008,-0.172277,-37.501302,-37.673579,-0.160200,-0.500000,-0.499824,-4748,-905
1.018000,-17.659550,-901.483750,174.292784,-6.359985,-571.838379,-11.299565,-329.645371,-0.191191,-34.683424,-34.874615,-0.160200,-0.500000,-0.500892,-5789,-916
1.020000,-19.453786,-892.308750,192.001187,-7.486084,-563.049316,-11.967702,-329.259434,-0.209675,-34.999580,-35.209255,-0.160200,-0.500000,-0.495552,-6814,-914
1.022000,-21.228785,-882.251500,209.519729,-8.647339,-580.627441,-12.581446,-301.624059,-0.227694,-32.909294,-33.136989,-0.160200,-0.500000,-0.500892,-7871,-927
1.024000,-22.982792,-871.322000,226.831086,-9.978882,-665.771484,-13.003910,-205.550516,-0.245217,-24.746498,-24.991715,-0.160200,-0.472596,-0.497688,-9083,-934
1.026000,-24.714073,-859.530750,243.918140,-11.286255,-653.686523,-13.427818,-205.844227,-0.262216,-24.994087,-25.256303,-0.160200,-0.475904,-0.479532,-10273,-938
1.028000,-26.420915,-846.889250,260.763994,-12.616699,-665.222168,-13.804216,-181.667082,-0.278666,-23.081314,-23.359980,-0.160200,-0.452200,-0.474192,-11484,-924
1.030000,-28.101630,-833.410500,277.351990,-13.770264,-576.782227,-14.331366,-256.628273,-0.294543,-29.898927,-30.193471,-0.160200,-0.500000,-0.449628,-12534,-904
1.032000,-29.754557,-819.107500,293.665724,-14.851318,-540.527344,-14.903239,-278.580156,-0.309831,-32.114022,-32.423853,-0.160200,-0.500000,-0.495552,-13518,-891
1.034000,-31.378060,-803.994750,309.689066,-15.932373,-540.527344,-15.445687,-263.467406,-0.324513,-31.079211,-31.403725,-0.160200,-0.500000,-0.496620,-14502,-904
1.036000,-32.970536,-788.087000,325.406170,-17.023315,-545.471191,-15.947221,-242.615809,-0.338579,-29.522169,-29.860747,-0.160200,-0.500000,-0.496620,-15495,-908
1.038000,-34.530408,-771.399750,340.801494,-18.119751,-548.217773,-16.410657,-223.181977,-0.352018,-28.068902,-28.420920,-0.160200,-0.500000,-0.496620,-16493,-926
1.040000,-36.056135,-753.949750,355.859815,-19.221680,-550.964355,-16.834455,-202.985395,-0.364827,-26.528318,-26.893144,-0.160200,-0.496364,-0.505164,-17496,-907
1.042000,-37.546207,-735.754250,370.566241,-20.326904,-552.612305,-17.219303,-183.141945,-0.377002,-24.998156,-25.375158,-0.160200,-0.477389,-0.504096,-18502,-927
1.044000,-38.999152,-716.831250,384.906231,-21.439819,-556.457520,-17.559333,-160.373730,-0.388545,-23.189293,-23.577838,-0.160200,-0.454923,-0.474192,-19515,-942
1.046000,-40.413532,-697.199250,398.865605,-22.548340,-554.260254,-17.865192,-142.938996,-0.399460,-21.827973,-22.227433,-0.160200,-0.438043,-0.451764,-20524,-921
1.048000,-41.787949,-676.878000,412.430557,-23.639282,-545.471191,-18.148667,-131.406809,-0.409752,-20.970027,-21.379779,-0.160200,-0.427447,-0.433608,-21517,-883
1.050000,-43.121044,-655.887250,425.587675,-24.702759,-531.738281,-18.418285,-124.148969,-0.419432,-20.477833,-20.897265,-0.160200,-0.421416,-0.427200,-22485,-877
1.052000,-44.411498,-634.248000,438.323949,-25.743164,-520.202637,-18.668334,-114.045363,-0.428510,-19.727052,-20.155562,-0.160200,-0.412145,-0.421860,-23432,-834
1.054000,-45.658036,-611.981500,450.626783,-26.756104,-506.469727,-18.901932,-105.511773,-0.436999,-19.104668,-19.541667,-0.160200,-0.404471,-0.402636,-24354,-827
1.056000,-46.859424,-589.109750,462.484012,-27.740479,-492.187500,-19.118945,-96.922250,-0.444916,-18.468718,-18.913634,-0.160200,-0.396620,-0.403704,-25250,-795
1.058000,-48.014475,-565.655750,473.883912,-28.694092,-476.806641,-19.320383,-88.849109,-0.452277,-17.869676,-18.321953,-0.160200,-0.389224,-0.395160,-26118,-757
1.060000,-49.122047,-541.642250,484.815208,-29.688354,-497.131348,-19.433693,-44.510902,-0.459100,-14.059767,-14.518866,-0.160200,-0.341686,-0.388752,-27023,-757
1.062000,-50.181044,-517.093250,495.267092,-30.629883,-470.764160,-19.551161,-46.329090,-0.465404,-14.279940,-14.745344,-0.160200,-0.344517,-0.341760,-27880,-700
1.064000,-51.190420,-492.032750,505.229228,-31.480225,-425.170898,-19.710195,-66.861852,-0.471211,-16.155031,-16.626243,-0.160200,-0.368028,-0.341760,-28654,-682
1.066000,-52.149175,-466.485750,514.691766,-32.345947,-432.861328,-19.803228,-33.624422,-0.476541,-13.303230,-13.779772,-0.160200,-0.332447,-0.371664,-29442,-670
1.068000,-53.056363,-440.477500,523.645347,-33.118286,-386.169434,-19.938077,-54.308066,-0.481416,-15.178825,-15.660242,-0.160200,-0.355953,-0.341760,-30145,-612
1.070000,-53.911085,-414.033500,532.081119,-33.857666,-369.689941,-20.053419,-44.343559,-0.485857,-14.369651,-14.855508,-0.160200,-0.345894,-0.353508,-30818,-593
1.072000,-54.712497,-387.180250,539.990739,-34.575073,-358.703613,-20.137424,-28.476637,-0.489885,-13.028986,-13.518871,-0.160200,-0.329186,-0.348168,-31471,-584
1.074000,-55.459806,-359.944250,547.366387,-35.267212,-346.069336,-20.192594,-13.874914,-0.493523,-11.783632,-12.277155,-0.160200,-0.313664,-0.315060,-32101,-560
1.076000,-56.152274,-332.352250,554.200767,-35.932983,-332.885742,-20.219291,0.533492,-0.496789,-10.540240,-11.037029,-0.160200,-0.298163,-0.307584,-32707,-554
1.078000,-56.789215,-304.431250,560.487123,-36.572388,-319.702148,-20.216827,15.270898,-0.499705,-9.252869,-9.752574,-0.160200,-0.282107,-0.296904,-33289,-520
1.080000,-57.369999,-276.209500,566.219239,-37.205200,-316.406250,-20.164799,40.196750,-0.502290,-7.050436,-7.552725,-0.160200,-0.254609,-0.281952,-33865,-484
1.082000,-57.894053,-247.714750,571.391445,-37.769897,-282.348633,-20.124156,34.633883,-0.504560,-7.514607,-8.019167,-0.160200,-0.260440,-0.250980,-34379,-457
1.084000,-58.360858,-218.975000,575.998627,-38.296143,-263.122559,-20.064715,44.147559,-0.506533,-6.653259,-7.159792,-0.160200,-0.249697,-0.259524,-34858,-407
1.086000,-58.769953,-190.018750,580.036229,-38.789429,-246.643066,-19.980524,56.624316,-0.508223,-5.520374,-6.028597,-0.160200,-0.235557,-0.250980,-35307,-419
1.088000,-59.120933,-160.874250,583.500260,-39.246460,-228.515625,-19.874473,67.641375,-0.509644,-4.503426,-5.013071,-0.160200,-0.222863,-0.234960,-35723,-344
1.090000,-59.413450,-131.570750,586.387293,-39.699097,-226.318359,-19.714353,94.747609,-0.510809,-2.054123,-2.564931,-0.160200,-0.192262,-0.220008,-36135,-300
1.092000,-59.647216,-102.137500,588.694473,-40.083618,-192.260742,-19.563598,90.123242,-0.511726,-2.378739,-2.890465,-0.160200,-0.196331,-0.194376,-36485,-326
1.094000,-59.822000,-72.603250,590.419519,-40.429688,-173.034668,-19.392313,100.431418,-0.512404,-1.389497,-1.901900,-0.160200,-0.183974,-0.196512,-36800,-259
1.096000,-59.937629,-42.996750,591.560726,-40.742798,-156.555176,-19.194831,113.558426,-0.512848,-0.140548,-0.653396,-0.160200,-0.168367,-0.185832,-37085,-228
1.098000,-59.993987,-13.348000,592.116964,-41.057007,-157.104492,-18.936980,143.756492,-0.513064,2.629741,2.116677,-0.160200,-0.133742,-0.169812,-37371,-244
1.100000,-59.991021,16.314000,592.087684,-41.299805,-121.398926,-18.691216,137.712926,-0.513053,2.231022,1.717969,0.160200,0.181675,-0.132432,-37592,-164
1.102000,-59.928731,45.960000,591.472915,-41.511841,-106.018066,-18.416890,151.978066,-0.512814,3.619527,3.106713,0.160200,0.199034,0.181560,-37785,-65
1.104000,-59.807181,75.560000,590.273264,-41.565674,-26.916504,-18.241507,102.476504,-0.512346,-0.608469,-1.120815,0.160200,0.146190,0.199716,-37834,40
1.106000,-59.626491,105.085750,588.489918,-41.497559,34.057617,-18.128932,71.028133,-0.511645,-3.293913,-3.805558,0.160200,0.112631,0.145248,-37772,83
1.108000,-59.386838,134.507750,586.124640,-41.385498,56.030273,-18.001340,78.477477,-0.510704,-2.577028,-3.087731,0.160200,0.121603,0.118548,-37670,92
1.110000,-59.088460,163.796250,583.179770,-41.250366,67.565918,-17.838094,96.230332,-0.509514,-0.942323,-1.451837,0.160200,0.142052,0.120684,-37547,100
1.112000,-58.731653,192.923000,579.658219,-41.128418,60.974121,-17.603235,131.948879,-0.508066,2.297680,1.789613,0.160200,0.182570,0.143112,-37436,78
1.114000,-58.316768,221.859250,575.563469,-41.025146,51.635742,-17.291622,170.223508,-0.506348,5.800932,5.294583,0.160200,0.226382,0.180492,-37342,89
1.116000,-57.844216,250.575750,570.899570,-40.904297,60.424805,-16.939919,190.150945,-0.504346,7.724079,7.219733,0.160200,0.250447,0.223212,-37232,139
1.118000,-57.314465,279.044500,565.671134,-40.726318,88.989258,-16.588147,190.055242,-0.502046,7.899915,7.397870,0.160200,0.252673,0.249912,-37070,133
1.120000,-56.728038,307.237500,559.883330,-40.484619,120.849609,-16.243419,186.387891,-0.499429,7.760378,7.260949,0.160200,0.250962,0.249912,-36850,175
1.122000,-56.085515,335.126750,553.541883,-40.234131,125.244141,-15.851384,209.882609,-0.496479,10.015948,9.519469,0.160200,0.279193,0.248844,-36622,186
1.124000,-55.387531,362.684250,546.653063,-39.973755,130.187988,-15.413776,232.496262,-0.493176,12.218492,11.725316,0.160200,0.306766,0.276612,-36385,234
1.126000,-54.634778,389.883250,539.223681,-39.683716,145.019531,-14.951062,244.863719,-0.489501,13.540033,13.050532,0.160200,0.323332,0.302244,-36121,232
1.128000,-53.827998,416.697000,531.261085,-39.360718,161.499023,-14.467280,255.197977,-0.485432,14.695174,14.209743,0.160200,0.337822,0.324672,-35827,259
1.130000,-52.967990,443.098250,522.773149,-38.999268,180.725098,-13.968722,262.373152,-0.480948,15.582371,15.101422,0.160200,0.348968,0.335352,-35498,287
1.132000,-52.055605,469.061500,513.768265,-38.572998,213.134766,-13.482607,255.926734,-0.476029,15.274344,14.798315,0.160200,0.345179,0.347100,-35110,321
1.134000,-51.091744,494.561000,504.255338,-38.079712,246.643066,-13.012032,247.917934,-0.470652,14.821837,14.351185,0.160200,0.339590,0.342828,-34661,414
1.136000,-50.077361,519.571500,494.243776,-37.487549,296.081543,-12.589812,223.489957,-0.464797,12.911168,12.446371,0.160200,0.315780,0.336420,-34122,420
1.138000,-49.013458,544.068250,483.743477,-36.866821,310.363770,-12.146637,233.704480,-0.458441,14.034599,13.576158,0.160200,0.329902,0.316128,-33557,403
1.140000,-47.901088,568.026750,472.764826,-36.360352,253.234863,-11.540736,314.791887,-0.451565,21.428059,20.976494,0.160200,0.422406,0.325740,-33096,421
1.142000,-46.741351,591.423500,461.318679,-35.753906,303.222656,-10.987445,288.200844,-0.444150,19.397256,18.953106,0.160200,0.397114,0.425064,-32544,455
1.144000,-45.535394,614.235750,449.416355,-35.148560,302.673340,-10.386834,311.562410,-0.436177,21.750416,21.314239,0.160200,0.426628,0.396228,-31993,474
1.146000,-44.284408,636.440500,437.069622,-34.468506,340.026855,-9.815902,296.413645,-0.427629,20.727376,20.299747,0.160200,0.413947,0.431472,-31374,526
1.148000,-42.989632,658.015750,424.290690,-33.741211,363.647461,-9.248421,294.368289,-0.418491,20.846017,20.427526,0.160200,0.415544,0.413316,-30712,563
1.150000,-41.652345,678.940500,411.092196,-33.010620,365.295410,-8.641725,313.645090,-0.408751,22.845901,22.437150,0.160200,0.440664,0.416520,-30047,590
1.152000,-40.273870,699.193750,397.487191,-32.183350,413.635254,-8.090520,285.558496,-0.398396,20.683493,20.285097,0.160200,0.413764,0.443220,-29294,610
1.154000,-38.855570,718.755750,383.489129,-31.353882,414.733887,-7.501688,304.021863,-0.387419,22.603038,22.215619,0.160200,0.437895,0.415452,-28539,613
1.156000,-37.398847,737.607000,369.111851,-30.502441,425.720215,-6.896406,311.886785,-0.375813,23.606307,23.230494,0.160200,0.450581,0.442152,-27764,644
1.158000,-35.905142,755.728750,354.369575,-29.727905,387.268066,-6.177237,368.460684,-0.363574,28.919867,28.556293,0.160200,0.500000,0.450696,-27059,670
1.160000,-34.375932,773.103000,339.276878,-28.928101,399.902344,-5.447831,373.200656,-0.350703,29.715423,29.364721,0.160200,0.500000,0.497688,-26331,696
1.162000,-32.812730,789.713000,323.848686,-28.090942,418.579102,-4.721788,371.133898,-0.337200,29.915220,29.578020,0.160200,0.500000,0.503028,-25569,743
1.164000,-31.217080,805.542250,308.100254,-27.209839,440.551758,-4.007241,364.990492,-0.323073,29.753243,29.430170,0.160200,0.500000,0.499824,-24767,740
1.166000,-29.590561,820.574500,292.047155,-26.290283,459.777832,-3.300278,360.796668,-0.308329,29.757428,29.449098,0.160200,0.500000,0.496620,-23930,780
1.168000,-27.934782,834.795750,275.705263,-25.336670,476.806641,-2.598112,357.989109,-0.292982,29.880075,29.587093,0.160200,0.500000,0.501960,-23062,836
1.170000,-26.251378,848.191500,259.090739,-24.355591,490.539551,-1.895787,357.651949,-0.277046,30.218389,29.941343,0.160200,0.500000,0.500892,-22169,829
1.172000,-24.542016,860.748000,242.220011,-23.226196,564.697266,-1.315820,296.050734,-0.260541,25.146339,24.885798,0.160200,0.471272,0.497688,-21141,861
1.174000,-22.808386,872.453750,225.109763,-22.068237,578.979492,-0.740149,293.474258,-0.243488,25.222919,24.979431,0.160200,0.472443,0.467784,-20087,865
1.176000,-21.052201,883.296750,207.776914,-21.028931,519.653320,-0.023270,363.643430,-0.225914,31.721691,31.495777,0.160200,0.500000,0.476328,-19141,881
1.178000,-19.275199,893.266250,190.238603,-19.989624,519.653320,0.714425,373.612930,-0.207847,32.977951,32.770104,0.160200,0.500000,0.500892,-18195,868
1.180000,-17.479136,902.352500,172.512173,-18.941528,524.047852,1.462392,378.304648,-0.189318,33.779015,33.589697,0.160200,0.500000,0.495552,-17241,890
1.182000,-15.665789,910.546250,154.615154,-17.879150,531.188965,2.213361,379.357285,-0.170364,34.264082,34.093718,0.160200,0.500000,0.497688,-16274,898
1.184000,-13.836951,917.839750,136.565243,-16.798096,540.527344,2.961145,377.312406,-0.151020,34.477171,34.326151,0.160200,0.500000,0.500892,-15290,895
1.186000,-11.994430,924.225750,118.380289,-15.704956,546.569824,3.710526,377.655926,-0.131327,34.899524,34.768196,0.160200,0.500000,0.495552,-14295,919
1.188000,-10.140048,929.697500,100.078273,-14.605225,549.865723,4.465177,379.831777,-0.111328,35.484537,35.373208,0.160200,0.500000,0.498756,-13294,905
1.190000,-8.275640,934.250250,81.677295,-13.495605,554.809570,5.219965,379.440680,-0.091067,35.845613,35.754546,0.160200,0.500000,0.506232,-12284,930
1.192000,-6.403047,937.879250,63.195549,-12.372803,561.401367,5.969756,376.477883,-0.070590,35.979650,35.909060,0.160200,0.500000,0.498756,-11262,943
1.194000,-4.524123,940.580250,44.651312,-11.242310,565.246582,6.718187,375.333668,-0.049944,36.271676,36.221732,0.160200,0.500000,0.500892,-10233,962
1.196000,-2.640726,942.351500,26.062922,-10.108521,566.894531,7.467795,375.456969,-0.029178,36.674930,36.645751,0.160200,0.500000,0.498756,-9201,937
1.198000,-0.754717,943.191000,7.448759,-8.967041,570.739746,8.212324,372.451254,-0.008343,36.802466,36.794124,0.160200,0.500000,0.498756,-8162,962
1.200000,1.132038,943.097750,-11.172770,-7.814575,576.232910,8.946613,366.864840,0.012513,36.699433,36.711946,0.160200,0.500000,0.497688,-7113,957
1.202000,3.017674,942.072000,-29.783250,-6.658813,577.880859,9.676487,364.191141,0.033339,36.848270,36.881608,0.160200,0.500000,0.512640,-6061,979
1.204000,4.900326,940.114500,-48.364280,-5.414062,622.375488,10.314388,317.739012,0.054084,33.128561,33.182645,0.160200,0.500000,0.490212,-4928,961
1.206000,6.778132,937.227250,-66.897484,-4.101196,656.433105,10.879328,280.794145,0.074700,30.200315,30.275015,0.160200,0.500000,0.499824,-3733,991
1.208000,8.649235,933.413500,-85.364535,-2.780640,660.278320,11.429875,273.135180,0.095138,29.820209,29.915347,0.160200,0.500000,0.496620,-2531,985
1.210000,10.511786,928.676750,-103.747174,-1.544678,617.980957,12.056464,310.695793,0.115351,33.426072,33.541423,0.160200,0.500000,0.501960,-1406,978
1.212000,12.363942,923.021250,-122.027222,-0.279053,632.812500,12.642995,290.208750,0.135292,31.945348,32.080640,0.160200,0.500000,0.498756,-254,975
1.214000,14.203871,916.453500,-140.186602,0.906372,592.712402,13.297499,323.741098,0.154918,35.214295,35.369213,0.160200,0.500000,0.496620,825,987
1.216000,16.029756,908.979500,-158.207358,2.242310,667.968750,13.787446,241.010750,0.174187,28.251246,28.425433,0.160200,0.500000,0.499824,2041,999
1.218000,17.839789,900.606250,-176.071670,3.488159,622.924805,14.351630,277.681445,0.193059,31.746773,31.939833,0.160200,0.500000,0.503028,3175,1006
1.220000,19.632181,891.342750,-193.761872,4.768066,639.953613,14.864115,251.389137,0.211498,29.720673,29.932171,0.160200,0.500000,0.500892,4340,995
1.222000,21.405160,881.197750,-211.260472,6.080933,656.433105,15.324227,224.764645,0.229469,27.638162,27.867631,0.160200,0.500000,0.501960,5535,1006
1.224000,23.156972,870.181250,-228.550165,7.304810,611.938477,15.852162,258.242773,0.246941,30.836106,31.083048,0.160200,0.500000,0.494484,6649,1010
1.226000,24.885885,858.304250,-245.613856,8.497925,596.557617,16.387960,261.746633,0.263886,31.422419,31.686305,0.160200,0.500000,0.498756,7735,1019
1.228000,26.590189,845.578750,-262.434670,9.754761,628.417969,16.835428,217.160781,0.280279,27.765863,28.046142,0.160200,0.500000,0.503028,8879,992
1.230000,28.268200,832.017250,-278.995973,11.136841,691.040039,17.131359,140.977211,0.296099,21.272541,21.568640,0.160200,0.429808,0.494484,10137,992
1.232000,29.918258,817.632750,-295.281390,12.455200,659.179688,17.463058,158.453062,0.311327,22.971274,23.282601,0.160200,0.451233,0.449628,11337,982
1.234000,31.538731,802.439500,-311.274816,13.656006,600.402832,17.882725,202.036668,0.325948,26.994398,27.320346,0.160200,0.500000,0.449628,12430,973
1.236000,33.128016,786.453000,-326.960436,14.865601,604.797363,18.262415,181.655637,0.339951,25.414623,25.754574,0.160200,0.482132,0.495552,13531,959
1.238000,34.684543,769.688750,-342.322740,16.163086,648.742676,18.521457,120.946074,0.353327,20.252348,20.605676,0.160200,0.417771,0.479532,14712,953
1.240000,36.206771,752.163500,-357.346536,17.370483,603.698730,18.836288,148.464770,0.366073,22.818652,23.184725,0.160200,0.450009,0.420792,15811,956
1.242000,37.693197,733.894500,-372.016967,18.636108,632.812500,19.057089,101.082000,0.378185,18.799337,19.177522,0.160200,0.399919,0.453900,16963,918
1.244000,39.142349,714.899500,-386.319527,19.769897,566.894531,19.372452,148.004969,0.389665,23.059262,23.448927,0.160200,0.453312,0.394092,17995,894
1.246000,40.552795,695.197750,-400.240073,20.893799,561.950684,19.658996,133.247066,0.400517,21.921426,22.321943,0.160200,0.439224,0.456036,19018,868
1.248000,41.923140,674.808750,-413.764839,21.944092,525.146484,19.979048,149.662266,0.410748,23.521502,23.932249,0.160200,0.459353,0.442152,19974,870
1.250000,43.252030,653.752250,-426.880452,23.038330,547.119141,20.213700,106.633109,0.420367,19.889363,20.309729,0.160200,0.414072,0.456036,20970,875
1.252000,44.538149,632.049000,-439.573941,24.082031,521.850586,20.456118,110.198414,0.429385,20.327424,20.756809,0.160200,0.419660,0.412248,21920,863
1.254000,45.780226,609.721250,-451.832755,25.107056,512.512207,20.673170,97.209043,0.437817,19.307536,19.745353,0.160200,0.407017,0.421860,22853,835
1.256000,46.977034,586.790500,-463.644772,26.107910,500.427246,20.869124,86.363254,0.445677,18.463663,18.909340,0.160200,0.396567,0.407976,23764,819
1.258000,48.127388,563.279000,-474.998310,27.114258,503.173828,21.013130,60.105172,0.452983,16.247615,16.700598,0.160200,0.368957,0.390888,24680,829
1.260000,49.230150,539.211000,-485.882144,28.073364,479.553223,21.156786,59.657777,0.459753,16.283790,16.743543,0.160200,0.369494,0.366324,25553,779
1.262000,50.284232,514.609750,-496.285511,29.069824,498.229980,21.214408,16.379770,0.466007,12.537242,13.003250,0.160200,0.322741,0.370596,26460,739
1.264000,51.288589,489.499500,-506.198122,29.980591,455.383301,21.307998,34.116199,0.471765,14.134042,14.605807,0.160200,0.342773,0.326808,27289,701
1.266000,52.242230,463.905250,-515.610177,30.843018,431.213379,21.399212,32.691871,0.477049,14.057505,14.534554,0.160200,0.341882,0.342828,28074,695
1.268000,53.144210,437.852250,-524.512368,31.646118,401.550293,21.498092,36.301957,0.481879,14.424318,14.906197,0.160200,0.346527,0.338556,28805,651
1.270000,53.993639,411.366250,-532.895891,32.478882,416.381836,21.514757,-5.015586,0.486278,10.827408,11.313686,0.160200,0.301621,0.349236,29563,622
1.272000,54.789675,384.473250,-540.752457,33.265503,393.310547,21.524172,-8.837297,0.490266,10.498831,10.989097,0.160200,0.297564,0.301176,30279,589
1.274000,55.531532,357.200500,-548.074297,33.973022,353.759766,21.558510,3.440734,0.493866,11.588270,12.082136,0.160200,0.311227,0.299040,30923,557
1.276000,56.218477,329.574500,-554.854171,34.722290,374.633789,21.496187,-45.059289,0.497096,7.323212,7.820309,0.160200,0.257954,0.311856,31605,532
1.278000,56.849830,301.622500,-561.085374,35.359497,318.603516,21.490333,-16.981016,0.499978,9.770439,10.270417,0.160200,0.288580,0.257388,32185,499
1.280000,57.424967,273.372000,-566.761744,35.956055,298.278809,21.468912,-24.906809,0.502530,9.067567,9.570098,0.160200,0.279826,0.292632,32728,500
1.282000,57.943318,244.851250,-571.877668,36.522949,283.447266,21.420369,-38.596016,0.504770,7.847541,8.352311,0.160200,0.264604,0.277680,33244,489
1.284000,58.404372,216.088500,-576.428088,37.067871,272.460938,21.336501,-56.372438,0.506714,6.252343,6.759057,0.160200,0.244688,0.265932,33740,440
1.286000,58.807672,187.112000,-580.408504,37.586426,259.277344,21.221246,-72.165344,0.508377,4.813804,5.322181,0.160200,0.226727,0.246708,34212,427
1.288000,59.152820,157.950750,-583.814980,38.067627,240.600586,21.085193,-82.649836,0.509772,3.827622,4.337395,0.160200,0.214417,0.228552,34650,368
1.290000,59.439475,128.633000,-586.644146,38.510376,221.374512,20.929099,-92.741512,0.510911,2.865227,3.376138,0.160200,0.202402,0.211464,35053,304
