khanfazel/E-wera--maxon_motor/PD_control/pd_feedforward_log.csv
t_s,q_ref_deg,qd_ref_deg_s,qdd_ref_deg_s2,q_link_deg,qd_link_deg_s,pos_error_deg,vel_error_deg_s,tau_joint_ff_Nm,tau_pd_joint_Nm,tau_joint_total_Nm,tau_dead_motor_Nm,tau_motor_cmd_Nm,tau_motor_actual_Nm,motor_pos_counts,motor_vel_native
0.000000,0.000000,943.265500,0.000000,-4.684570,0.000000,4.684570,943.265500,0.000000,26.329857,26.329857,0.160200,0.489323,-0.001068,-4264,0
0.002000,1.886531,942.799250,0.000000,-4.675781,4.394531,6.562312,938.404719,0.027289,26.858057,26.885346,0.160200,0.496267,0.489144,-4256,83
0.004000,3.771197,941.400750,-37.220226,-4.495605,90.087891,8.266802,851.312859,0.041649,25.172977,25.214626,0.160200,0.475383,0.494484,-4092,210
0.006000,5.652134,939.071000,-55.784328,-4.172607,161.499023,9.824741,777.571977,0.062349,23.786268,23.848617,0.160200,0.458308,0.475260,-3798,301
0.008000,7.527481,935.812750,-74.293267,-3.752930,209.838867,11.280411,725.973883,0.082899,22.943558,23.026457,0.160200,0.448031,0.459240,-3416,370
0.010000,9.395385,931.629250,-92.728741,-3.276123,238.403320,12.671508,693.225930,0.103253,22.571803,22.675056,0.160200,0.443638,0.448560,-2982,346
0.012000,11.253998,926.524500,-111.072519,-2.710327,282.897949,13.964325,643.626551,0.123362,21.724573,21.847935,0.160200,0.433299,0.448560,-2467,415
0.014000,13.101483,920.503500,-129.306462,-2.117065,296.630859,15.218548,623.872641,0.143183,21.645223,21.788406,0.160200,0.432555,0.430404,-1927,417
0.016000,14.936012,913.572250,-147.412541,-1.636963,240.051270,16.572975,673.520980,0.162671,23.417798,23.580468,0.160200,0.454956,0.429336,-1490,390
0.018000,16.755772,905.737500,-165.372849,-1.150269,243.347168,17.906041,662.390332,0.181786,23.591726,23.773511,0.160200,0.457369,0.457104,-1047,448
0.020000,18.558962,897.007250,-183.169628,-0.650391,249.938965,19.209353,647.068285,0.200489,23.645537,23.846026,0.160200,0.458275,0.452832,-592,425
0.022000,20.343801,887.390000,-200.785278,-0.096680,276.855469,20.440481,610.534531,0.218745,23.118830,23.337575,0.160200,0.451920,0.437880,-88,458
0.024000,22.108522,876.895000,-218.202380,0.454834,275.756836,21.653688,601.138164,0.236520,23.296323,23.532843,0.160200,0.454361,0.451764,414,465
0.026000,23.851381,865.533250,-235.403712,0.985474,265.319824,22.865907,600.213426,0.253784,23.695258,23.949042,0.160200,0.459563,0.459240,897,472
0.028000,25.570655,853.315500,-252.372264,1.519409,266.967773,24.051246,586.347727,0.270511,23.746016,24.016527,0.160200,0.460407,0.459240,1383,434
0.030000,27.264643,840.253750,-269.091255,2.058838,269.714355,25.205805,570.539395,0.286677,23.735172,24.021849,0.160200,0.460473,0.457104,1874,427
0.032000,28.931670,826.361000,-285.544154,2.603760,272.460938,26.327910,553.900063,0.302262,23.691244,23.993506,0.160200,0.460119,0.459240,2370,448
0.034000,30.570087,811.651500,-301.714692,3.151978,274.108887,27.418109,537.542613,0.317249,23.643558,23.960807,0.160200,0.459710,0.457104,2869,449
0.036000,32.178276,796.139500,-317.586877,3.741943,294.982910,28.436333,501.156590,0.331624,23.046401,23.378025,0.160200,0.452425,0.459240,3406,455
0.038000,33.754645,779.839750,-333.145014,4.324219,291.137695,29.430426,488.702055,0.345377,23.067347,23.412724,0.160200,0.452859,0.450696,3936,462
0.040000,35.297635,762.769000,-348.373719,4.877930,276.855469,30.419705,485.913531,0.358502,23.339667,23.698168,0.160200,0.456427,0.451764,4440,473
0.042000,36.805721,744.944000,-363.257932,5.431641,276.855469,31.374080,468.088531,0.370994,23.206149,23.577143,0.160200,0.454914,0.450696,4944,439
0.044000,38.277411,726.382500,-377.782936,5.986450,277.404785,32.290961,448.977715,0.382852,23.025881,23.408733,0.160200,0.452809,0.454968,5449,478
0.046000,39.711251,707.102750,-391.934367,6.581909,297.729492,33.129342,409.373258,0.394081,22.281689,22.675769,0.160200,0.443647,0.456036,5991,449
0.048000,41.105822,687.123500,-405.698231,7.200439,309.265137,33.905383,377.858363,0.404683,21.727520,22.132203,0.160200,0.436853,0.441084,6554,432
0.050000,42.459745,666.465000,-419.060918,7.771729,285.644531,34.688016,380.820469,0.414668,22.078259,22.492927,0.160200,0.441362,0.434676,7074,440
0.052000,43.771682,645.147500,-432.009215,8.349609,288.940430,35.422073,356.207070,0.424045,21.690115,22.114161,0.160200,0.436627,0.442152,7600,456
0.054000,45.040335,623.191750,-444.530316,8.886841,268.615723,36.153494,354.576027,0.432827,21.902729,22.335556,0.160200,0.439394,0.437880,8089,429
0.056000,46.264449,600.619750,-456.611842,9.448242,280.700684,36.816207,319.919066,0.441028,21.226742,21.667770,0.160200,0.431047,0.442152,8600,453
0.058000,47.442814,577.454250,-468.241844,10.048096,299.926758,37.394718,277.527492,0.448665,20.318872,20.767537,0.160200,0.419794,0.434676,9146,430
0.060000,48.574266,553.717500,-479.408822,10.577637,264.770508,37.996629,288.946992,0.455754,20.827940,21.283694,0.160200,0.426246,0.420792,9628,468
0.062000,49.657684,529.433000,-490.101734,11.200562,311.462402,38.457122,217.970598,0.462316,19.130525,19.592841,0.160200,0.405111,0.429336,10195,437
0.064000,50.691998,504.625250,-500.310006,11.710327,254.882812,38.981671,249.742437,0.468369,20.145412,20.613781,0.160200,0.417872,0.403704,10659,454
0.066000,51.676185,479.318500,-510.023544,12.269531,279.602051,39.406654,199.716449,0.473935,18.984082,19.458016,0.160200,0.403425,0.419724,11168,434
0.068000,52.609272,453.537750,-519.232741,12.797974,264.221191,39.811298,189.316559,0.479034,18.853061,19.332095,0.160200,0.401851,0.402636,11649,427
0.070000,53.490336,427.308250,-527.928493,13.319824,260.925293,40.170512,166.382957,0.483689,18.378049,18.861739,0.160200,0.395972,0.402636,12124,413
0.072000,54.318505,400.656500,-536.102199,13.821899,251.037598,40.496606,149.618902,0.487921,18.052996,18.540917,0.160200,0.391961,0.403704,12581,361
0.074000,55.092962,373.608500,-543.745778,14.372314,275.207520,40.720648,98.400980,0.491752,16.790319,17.282071,0.160200,0.376226,0.390888,13082,350
0.076000,55.812939,346.191000,-550.851670,14.913940,270.812988,40.898999,75.378012,0.495201,16.249835,16.745037,0.160200,0.369513,0.373800,13575,346
0.078000,56.477726,318.431250,-557.412850,15.394043,240.051270,41.083683,78.379980,0.498290,16.392894,16.891184,0.160200,0.371340,0.366324,14012,331
0.080000,57.086664,290.356250,-563.422828,15.836792,221.374512,41.249872,68.981738,0.501038,16.204859,16.705897,0.160200,0.369024,0.371664,14415,357
0.082000,57.639151,261.994500,-568.875663,16.279541,221.374512,41.359610,40.619988,0.503463,15.500656,16.004119,0.160200,0.360251,0.367392,14818,306
0.084000,58.134642,233.373750,-573.765962,16.733276,226.867676,41.401366,6.506074,0.505582,14.622132,15.127714,0.160200,0.349296,0.360984,15231,369
0.086000,58.572646,204.522000,-578.088888,17.197998,232.360840,41.374648,-27.838840,0.507412,13.713658,14.221070,0.160200,0.337963,0.346032,15654,377
0.088000,58.952730,175.468250,-581.840169,17.581421,191.711426,41.371309,-16.243176,0.508967,14.016066,14.525032,0.160200,0.341763,0.336420,16003,338
0.090000,59.274519,146.240750,-585.016093,17.968140,193.359375,41.306379,-47.118625,0.510258,13.185084,13.695342,0.160200,0.331392,0.342828,16355,311
0.092000,59.537693,116.868500,-587.613520,18.387817,209.838867,41.149876,-92.970367,0.511298,11.930058,12.441355,0.160200,0.315717,0.346032,16737,315
0.094000,59.741993,87.381000,-589.629883,18.775635,193.908691,40.966358,-106.527691,0.512094,11.511068,12.023162,0.160200,0.310490,0.311856,17090,295
0.096000,59.887217,57.807000,-591.063187,19.132690,178.527832,40.754527,-120.720832,0.512655,11.065549,11.578204,0.160200,0.304928,0.311856,17415,310
0.098000,59.973221,28.176000,-591.912014,19.486450,176.879883,40.486771,-148.703883,0.512985,10.239491,10.752475,0.160200,0.294606,0.304380,17737,302
0.100000,59.999921,-1.483000,-592.175526,19.827026,170.288086,40.172895,-171.771086,0.513087,9.526029,10.039116,-0.160200,-0.034711,0.293700,18047,286
0.102000,59.967289,-31.140750,-591.853461,20.154419,163.696289,39.812870,-194.837039,0.512962,8.796492,9.309454,-0.160200,-0.043832,-0.034176,18345,169
0.104000,59.875358,-60.767500,-590.946139,20.329102,87.341309,39.546256,-148.108809,0.512609,9.926768,10.439377,-0.160200,-0.029708,-0.041652,18504,37
0.106000,59.724219,-90.334250,-589.454456,20.360962,15.930176,39.363257,-106.264426,0.512025,10.958373,11.470398,-0.160200,-0.016820,-0.028836,18533,0
0.108000,59.514021,-119.811500,-587.379888,20.348877,-6.042480,39.165144,-113.769020,0.511205,10.692748,11.203953,-0.160200,-0.020151,-0.016020,18522,-9
0.110000,59.244973,-149.170500,-584.724485,20.337891,-5.493164,38.907082,-143.677336,0.510140,9.819670,10.329810,-0.160200,-0.031077,-0.022428,18512,-6
0.112000,58.917339,-178.382000,-581.490875,20.331299,-3.295898,38.586040,-175.086102,0.508823,8.885326,9.394149,-0.160200,-0.042773,-0.033108,18506,-4
0.114000,58.531445,-207.416750,-577.682254,20.325806,-2.746582,38.205639,-204.670168,0.507242,7.978032,8.485273,-0.160200,-0.054134,-0.041652,18501,-7
0.116000,58.087672,-236.246500,-573.302388,20.314819,-5.493164,37.772853,-230.753336,0.505384,7.144105,7.649488,-0.160200,-0.064581,-0.052332,18491,-9
0.118000,57.586459,-264.842750,-568.355609,20.300537,-7.141113,37.285922,-257.701637,0.503234,6.268629,6.771863,-0.160200,-0.075552,-0.061944,18478,-14
0.120000,57.028301,-293.177250,-562.846808,20.277466,-11.535645,36.750835,-281.641605,0.500778,5.455102,5.955879,-0.160200,-0.085752,-0.076896,18457,-15
0.122000,56.413750,-321.221750,-556.781433,20.254395,-11.535645,36.159355,-309.686105,0.497997,4.514433,5.012430,-0.160200,-0.097545,-0.082236,18436,-21
0.124000,55.743414,-348.948750,-550.165481,20.224731,-14.831543,35.518683,-334.117207,0.494873,3.651191,4.146064,-0.160200,-0.108374,-0.098256,18409,-23
0.126000,55.017955,-376.330500,-543.005495,20.188477,-18.127441,34.829478,-358.203059,0.491386,2.780047,3.271433,-0.160200,-0.119307,-0.108936,18376,-32
0.128000,54.238092,-403.339750,-535.308555,20.145630,-21.423340,34.092462,-381.916410,0.487517,1.901966,2.389483,-0.160200,-0.130331,-0.118548,18337,-31
0.130000,53.404596,-429.950500,-527.082272,20.096191,-24.719238,33.308405,-405.231262,0.483243,1.017897,1.501140,-0.160200,-0.141436,-0.133500,18292,-33
0.132000,52.518290,-456.136500,-518.334780,20.042358,-26.916504,32.475932,-429.219996,0.478545,0.099285,0.577830,-0.160200,-0.152977,-0.138840,18243,-56
0.134000,51.580050,-481.871000,-509.074730,19.973145,-34.606934,31.606905,-447.264066,0.473399,-0.676455,-0.203055,-0.160200,-0.162738,-0.152724,18180,-48
0.136000,50.590806,-507.128750,-499.311279,19.902832,-35.156250,30.687974,-471.972500,0.467786,-1.644087,-1.176302,-0.160200,-0.174904,-0.160200,18116,-73
0.138000,49.551535,-531.885500,-489.054081,19.812744,-45.043945,29.738791,-486.841555,0.461683,-2.364686,-1.903003,-0.160200,-0.183988,-0.174084,18034,-82
0.140000,48.463264,-556.116250,-478.313278,19.720459,-46.142578,28.742805,-509.973672,0.455069,-3.317948,-2.862879,-0.160200,-0.195986,-0.183696,17950,-81
0.142000,47.327070,-579.796750,-467.099493,19.590820,-64.819336,27.736250,-514.977414,0.447926,-3.800300,-3.352374,-0.160200,-0.202105,-0.199716,17832,-92
0.144000,46.144077,-602.904250,-455.423814,19.462280,-64.270020,26.681797,-538.634230,0.440234,-4.787707,-4.347473,-0.160200,-0.214543,-0.196512,17715,-93
0.146000,44.915453,-625.415500,-443.297786,19.316162,-73.059082,25.599291,-552.356418,0.431975,-5.524819,-5.092844,-0.160200,-0.223861,-0.216804,17582,-132
0.148000,43.642415,-647.308250,-430.733401,19.166748,-74.707031,24.475667,-572.601219,0.423135,-6.447045,-6.023911,-0.160200,-0.235499,-0.224280,17446,-133
0.150000,42.326220,-668.560750,-417.743082,18.987671,-89.538574,23.338549,-579.022176,0.413697,-7.012075,-6.598377,-0.160200,-0.242680,-0.236028,17283,-146
0.152000,40.968172,-689.152250,-404.339676,18.812988,-87.341309,22.155184,-601.810941,0.403651,-8.021756,-7.618105,-0.160200,-0.255426,-0.240300,17124,-131
0.154000,39.569611,-709.062500,-390.536436,18.614136,-99.426270,20.955475,-609.636230,0.392986,-8.645398,-8.252412,-0.160200,-0.263355,-0.250980,16943,-156
0.156000,38.131922,-728.271250,-376.347012,18.394409,-109.863281,19.737513,-618.407969,0.381695,-9.300191,-8.918496,-0.160200,-0.271681,-0.263796,16743,-149
0.158000,36.656526,-746.760000,-361.785435,18.169189,-112.609863,18.487337,-634.150137,0.369773,-10.148714,-9.778941,-0.160200,-0.282437,-0.273408,16538,-196
0.160000,35.144882,-764.510500,-346.866104,17.903320,-132.934570,17.241562,-631.575930,0.357218,-10.516179,-10.158961,-0.160200,-0.287187,-0.283020,16296,-166
0.162000,33.598484,-781.504750,-331.603773,17.659424,-121.948242,15.939060,-659.556508,0.344030,-11.703367,-11.359337,-0.160200,-0.302192,-0.285156,16074,-211
0.164000,32.018863,-797.726250,-316.013534,17.390259,-134.582520,14.628604,-663.143730,0.330214,-12.254716,-11.924502,-0.160200,-0.309256,-0.303312,15829,-210
0.166000,30.407579,-813.159000,-300.110802,17.101318,-144.470215,13.306261,-668.688785,0.315777,-12.861470,-12.545693,-0.160200,-0.317021,-0.311856,15566,-197
0.168000,28.766227,-827.787250,-283.911305,16.798096,-151.611328,11.968131,-676.175922,0.300730,-13.524578,-13.223848,-0.160200,-0.325498,-0.318264,15290,-260
0.170000,27.096430,-841.597500,-267.431059,16.466309,-165.893555,10.630121,-675.703945,0.285086,-13.979276,-13.694189,-0.160200,-0.331377,-0.326808,14988,-206
0.172000,25.399837,-854.575500,-250.686364,16.111450,-177.429199,9.288387,-677.146301,0.268863,-14.485390,-14.216527,-0.160200,-0.337907,-0.332148,14665,-261
0.174000,23.678128,-866.708000,-233.693775,15.724731,-193.359375,7.953397,-673.348625,0.252081,-14.851967,-14.599885,-0.160200,-0.342699,-0.334284,14313,-233
0.176000,21.933005,-877.983750,-216.470097,15.322632,-201.049805,6.610373,-676.933945,0.234765,-15.414634,-15.179869,-0.160200,-0.349948,-0.344964,13947,-245
0.178000,20.166193,-888.391250,-199.032362,14.900757,-210.937500,5.265436,-677.453750,0.216940,-15.897714,-15.680774,-0.160200,-0.356210,-0.350304,13563,-319
0.180000,18.379440,-897.920250,-181.397812,14.551392,-174.682617,3.828048,-723.237633,0.198638,-17.598076,-17.399438,-0.160200,-0.377693,-0.358848,13245,-331
0.182000,16.574512,-906.561500,-163.583885,14.192139,-179.626465,2.382373,-726.935035,0.179892,-18.199510,-18.019617,-0.160200,-0.385445,-0.377004,12918,-344
0.184000,14.753194,-914.306250,-145.608198,13.772461,-209.838867,0.980733,-704.467383,0.160738,-18.100573,-17.939834,-0.160200,-0.384448,-0.385548,12536,-282
0.186000,12.917287,-921.146750,-127.488525,13.354980,-208.740234,-0.437693,-712.406516,0.141215,-18.803543,-18.662328,-0.160200,-0.393479,-0.374868,12156,-305
0.188000,11.068607,-927.076250,-109.242785,12.936401,-209.289551,-1.867794,-717.786699,0.121364,-19.443595,-19.322232,-0.160200,-0.401728,-0.390888,11775,-301
0.190000,9.208982,-932.089000,-90.889019,12.492554,-221.923828,-3.283572,-710.165172,0.101228,-19.738263,-19.637036,-0.160200,-0.405663,-0.404772,11371,-321
0.192000,7.340251,-936.180250,-72.445377,12.015747,-238.403320,-4.675496,-697.776930,0.080852,-19.899813,-19.818961,-0.160200,-0.407937,-0.403704,10937,-336
0.194000,5.464261,-939.345750,-53.930097,11.491699,-262.023926,-6.027438,-677.321824,0.060285,-19.836217,-19.775932,-0.160200,-0.407399,-0.402636,10460,-346
0.196000,3.582868,-941.582500,-35.361488,10.967651,-262.023926,-7.384783,-679.558574,0.039573,-20.368578,-20.329005,-0.160200,-0.414313,-0.406908,9983,-408
0.198000,1.697931,-942.888000,-16.757912,10.430420,-268.615723,-8.732489,-674.272277,0.018766,-20.700621,-20.681854,-0.160200,-0.418723,-0.414384,9494,-386
0.200000,-0.188684,-943.261000,1.862236,9.870117,-280.151367,-10.058801,-663.109633,-0.002086,-20.871354,-20.873439,-0.160200,-0.421118,-0.419724,8984,-416
0.202000,-2.075113,-942.701250,20.480542,9.336182,-266.967773,-11.411295,-675.733477,-0.022933,-21.673954,-21.696887,-0.160200,-0.431411,-0.423996,8498,-383
0.204000,-3.959489,-941.209500,39.078596,8.804443,-265.869141,-12.763932,-675.340359,-0.043725,-22.135822,-22.179547,-0.160200,-0.437444,-0.432540,8014,-380
0.206000,-5.839951,-938.787000,57.638006,8.234253,-285.095215,-14.074204,-653.691785,-0.064411,-22.026435,-22.090846,-0.160200,-0.436336,-0.436812,7495,-389
0.208000,-7.714637,-935.436000,76.140422,7.678345,-277.954102,-15.392982,-657.481898,-0.084944,-22.586000,-22.670944,-0.160200,-0.443587,-0.441084,6989,-436
0.210000,-9.581695,-931.160250,94.567545,7.101562,-288.391113,-16.683257,-642.769137,-0.105275,-22.651212,-22.756488,-0.160200,-0.444656,-0.445356,6464,-463
0.212000,-11.439278,-925.963500,112.901154,6.444580,-328.491211,-17.883858,-597.472289,-0.125358,-21.884432,-22.009790,-0.160200,-0.435322,-0.442152,5866,-425
0.214000,-13.285549,-919.851000,131.123121,5.756836,-343.872070,-19.042385,-575.978930,-0.145147,-21.726139,-21.871286,-0.160200,-0.433591,-0.437880,5240,-458
0.216000,-15.118682,-912.829250,149.215425,5.078979,-338.928223,-20.197661,-573.901027,-0.164600,-22.075008,-22.239607,-0.160200,-0.438195,-0.436812,4623,-433
0.218000,-16.936866,-904.904750,167.160178,4.471436,-303.771973,-21.408302,-601.132777,-0.183675,-23.210526,-23.394201,-0.160200,-0.452628,-0.436812,4070,-455
0.220000,-18.738301,-896.085250,184.939632,3.835327,-318.054199,-22.573628,-578.031051,-0.202335,-23.012500,-23.214835,-0.160200,-0.450385,-0.443220,3491,-441
0.222000,-20.521207,-886.379750,202.536209,3.175049,-330.139160,-23.696256,-556.240590,-0.220544,-22.833898,-23.054443,-0.160200,-0.448381,-0.453900,2890,-469
0.224000,-22.283820,-875.797750,219.932506,2.481812,-346.618652,-24.765632,-529.179098,-0.238269,-22.498713,-22.736982,-0.160200,-0.444412,-0.450696,2259,-462
0.226000,-24.024398,-864.349750,237.111321,1.808350,-336.730957,-25.832748,-527.618793,-0.255481,-22.830358,-23.085839,-0.160200,-0.448773,-0.442152,1646,-481
0.228000,-25.741219,-852.047000,254.055668,1.101929,-353.210449,-26.843148,-498.836551,-0.272153,-22.429537,-22.701690,-0.160200,-0.443971,-0.446424,1003,-474
0.230000,-27.432586,-838.901750,270.748790,0.395508,-353.210449,-27.828094,-485.691301,-0.288262,-22.429206,-22.717468,-0.160200,-0.444168,-0.443220,360,-469
0.232000,-29.096826,-824.926750,287.174181,-0.295532,-345.520020,-28.801294,-479.406730,-0.303788,-22.604387,-22.908175,-0.160200,-0.446552,-0.442152,-269,-482
0.234000,-30.732293,-810.136250,303.315597,-1.018433,-361.450195,-29.713860,-448.686055,-0.318714,-22.118667,-22.437381,-0.160200,-0.440667,-0.450696,-927,-495
0.236000,-32.337371,-794.544500,319.157079,-1.723755,-352.661133,-30.613616,-441.883367,-0.333027,-22.254647,-22.587675,-0.160200,-0.442546,-0.441084,-1569,-494
0.238000,-33.910471,-778.167000,334.682960,-2.387329,-331.787109,-31.523142,-446.379891,-0.346718,-22.689851,-23.036568,-0.160200,-0.448157,-0.441084,-2173,-456
0.240000,-35.450039,-761.020250,349.877888,-3.097046,-354.858398,-32.352993,-406.161852,-0.359779,-21.926617,-22.286397,-0.160200,-0.438780,-0.443220,-2819,-485
0.242000,-36.954552,-743.120750,364.726837,-3.810059,-356.506348,-33.144493,-386.614402,-0.372208,-21.691152,-22.063360,-0.160200,-0.435992,-0.438948,-3468,-478
0.244000,-38.422522,-724.486500,379.215124,-4.491211,-340.576172,-33.931311,-383.910328,-0.384004,-21.895011,-22.279014,-0.160200,-0.438688,-0.435744,-4088,-467
0.246000,-39.852498,-705.136000,393.328421,-5.195435,-352.111816,-34.657063,-353.024184,-0.395169,-21.339749,-21.734918,-0.160200,-0.431886,-0.440016,-4729,-454
0.248000,-41.243066,-685.088000,407.052774,-5.895264,-349.914551,-35.347802,-335.173449,-0.405709,-21.113531,-21.519241,-0.160200,-0.429191,-0.430404,-5366,-468
0.250000,-42.592850,-664.362500,420.374610,-6.588501,-346.618652,-36.004349,-317.743848,-0.415633,-20.886403,-21.302036,-0.160200,-0.426475,-0.427200,-5997,-445
0.252000,-43.900516,-642.980250,433.280756,-7.280640,-346.069336,-36.619876,-296.910914,-0.424950,-20.555858,-20.980808,-0.160200,-0.422460,-0.422928,-6627,-487
0.254000,-45.164771,-620.962000,445.758450,-7.963989,-341.674805,-37.200782,-279.287195,-0.433673,-20.297244,-20.730917,-0.160200,-0.419336,-0.421860,-7249,-439
0.256000,-46.384364,-598.329500,457.795354,-8.598999,-317.504883,-37.785365,-280.824617,-0.441817,-20.541552,-20.983369,-0.160200,-0.422492,-0.421860,-7827,-440
0.258000,-47.558089,-575.105750,469.379563,-9.201050,-301.025391,-38.357039,-274.080359,-0.449398,-20.564540,-21.013938,-0.160200,-0.422874,-0.422928,-8375,-427
0.260000,-48.684787,-551.313500,480.499624,-9.803101,-301.025391,-38.881686,-250.288109,-0.456434,-20.124796,-20.581230,-0.160200,-0.417465,-0.427200,-8923,-437
0.262000,-49.763343,-526.975500,491.144540,-10.398560,-297.729492,-39.364783,-229.246008,-0.462943,-19.742548,-20.205491,-0.160200,-0.412769,-0.417588,-9465,-438
0.264000,-50.792689,-502.116500,501.303785,-11.053345,-327.392578,-39.739344,-174.723922,-0.468947,-18.445910,-18.914856,-0.160200,-0.396636,-0.411180,-10061,-417
0.266000,-51.771809,-476.761250,510.967313,-11.640015,-293.334961,-40.131794,-183.426289,-0.474465,-18.810728,-19.285193,-0.160200,-0.401265,-0.396228,-10595,-463
0.268000,-52.699734,-450.934500,520.125568,-12.192627,-276.306152,-40.507107,-174.628348,-0.479519,-18.711407,-19.190927,-0.160200,-0.400087,-0.399432,-11098,-400
0.270000,-53.575547,-424.661750,528.769493,-12.784790,-296.081543,-40.790757,-128.580207,-0.484131,-17.604882,-18.089013,-0.160200,-0.386313,-0.401568,-11637,-406
0.272000,-54.398381,-397.969000,536.890542,-13.279175,-247.192383,-41.119206,-150.776617,-0.488322,-18.300633,-18.788955,-0.160200,-0.395062,-0.387684,-12087,-424
0.274000,-55.167423,-370.883000,544.480683,-13.825195,-273.010254,-41.342228,-97.872746,-0.492113,-16.993462,-17.485576,-0.160200,-0.378770,-0.399432,-12584,-430
0.276000,-55.881913,-343.430000,551.532412,-14.400879,-287.841797,-41.481034,-55.588203,-0.495526,-15.934908,-16.430434,-0.160200,-0.365580,-0.374868,-13108,-414
0.278000,-56.541143,-315.637250,558.038754,-14.985352,-292.236328,-41.555791,-23.400922,-0.498580,-15.118342,-15.616922,-0.160200,-0.355412,-0.364188,-13640,-376
0.280000,-57.144462,-287.532750,563.993277,-15.461060,-237.854004,-41.683402,-49.678746,-0.501295,-15.850839,-16.352133,-0.160200,-0.364602,-0.356712,-14073,-328
0.282000,-57.691274,-259.143750,569.390091,-15.933472,-236.206055,-41.757802,-22.937695,-0.503688,-15.176730,-15.680419,-0.160200,-0.356205,-0.365256,-14503,-341
0.284000,-58.181037,-230.498500,574.223861,-16.416870,-241.699219,-41.764167,11.200719,-0.505778,-14.285210,-14.790988,-0.160200,-0.345087,-0.358848,-14943,-354
0.286000,-58.613268,-201.625250,578.489806,-16.907959,-245.544434,-41.705309,43.919184,-0.507580,-13.408098,-13.915677,-0.160200,-0.334146,-0.343896,-15390,-365
0.288000,-58.987538,-172.552500,582.183708,-17.364990,-228.515625,-41.622548,55.963125,-0.509107,-13.063899,-13.573006,-0.160200,-0.329863,-0.330012,-15806,-351
0.290000,-59.303478,-143.309500,585.301915,-17.787964,-211.486816,-41.515514,68.177316,-0.510373,-12.706770,-13.217143,-0.160200,-0.325414,-0.330012,-16191,-338
0.292000,-59.560776,-113.924750,587.841342,-18.265869,-238.952637,-41.294907,125.027887,-0.511388,-11.141419,-11.652807,-0.160200,-0.305860,-0.325740,-16626,-349
0.294000,-59.759177,-84.427000,589.799479,-18.680054,-207.092285,-41.079123,122.665285,-0.512161,-11.127949,-11.640110,-0.160200,-0.305701,-0.303312,-17003,-254
0.296000,-59.898484,-54.846000,591.174389,-19.073364,-196.655273,-40.825120,141.809273,-0.512698,-10.538097,-11.050795,-0.160200,-0.298335,-0.308652,-17361,-239
0.298000,-59.978561,-25.210750,591.964713,-19.446899,-186.767578,-40.531662,161.556828,-0.513005,-9.918671,-10.431676,-0.160200,-0.290596,-0.301176,-17701,-224
0.300000,-59.999327,4.449500,592.169669,-19.781982,-167.541504,-40.217345,171.991004,-0.513085,-9.535788,-10.048872,0.160200,0.034589,-0.292632,-18006,-212
0.302000,-59.960763,34.105250,591.789055,-20.084106,-151.062012,-39.876657,185.167262,-0.512937,-9.071911,-9.584849,0.160200,0.040389,0.033108,-18281,-193
0.304000,-59.862906,63.727250,590.823247,-20.281860,-98.876953,-39.581046,162.604203,-0.512561,-9.559423,-10.071985,0.160200,0.034300,0.042720,-18461,-72
0.306000,-59.705854,93.286250,589.273200,-20.336792,-27.465820,-39.369062,120.752070,-0.511954,-10.581113,-11.093067,0.160200,0.021537,0.035244,-18511,0
0.308000,-59.489761,122.753250,587.140446,-20.328003,4.394531,-39.161758,118.358719,-0.511109,-10.571408,-11.082518,0.160200,0.021669,0.022428,-18503,14
0.310000,-59.214841,152.098750,584.427095,-20.313721,7.141113,-38.901120,144.957637,-0.510020,-9.784071,-10.294091,0.160200,0.031524,0.022428,-18490,6
0.312000,-58.881366,181.293750,581.135831,-20.306030,3.845215,-38.575336,177.448535,-0.508677,-8.819741,-9.328418,0.160200,0.043595,0.030972,-18483,6
0.314000,-58.489666,210.309500,577.269906,-20.299438,3.295898,-38.190228,207.013602,-0.507069,-7.911301,-8.418370,0.160200,0.054970,0.045924,-18477,5
0.316000,-58.040128,239.117250,572.833145,-20.291748,3.845215,-37.748380,235.272035,-0.505182,-7.017263,-7.522445,0.160200,0.066169,0.054468,-18470,8
0.318000,-57.533197,267.688500,567.829934,-20.279663,6.042480,-37.253534,261.646020,-0.503003,-6.154060,-6.657063,0.160200,0.076987,0.065148,-18459,9
0.320000,-56.969374,295.995250,562.265222,-20.263184,8.239746,-36.706190,287.755504,-0.500515,-5.279456,-5.779971,0.160200,0.087950,0.073692,-18444,15
0.322000,-56.349216,324.009250,556.144510,-20.236816,13.183594,-36.112400,310.825656,-0.497700,-4.468209,-4.965909,0.160200,0.098126,0.084372,-18420,23
0.324000,-55.673337,351.702750,549.473852,-20.199463,18.676758,-35.473874,333.025992,-0.494541,-3.664118,-4.158659,0.160200,0.108217,0.099324,-18386,23
0.326000,-54.942405,379.048500,542.259843,-20.159912,19.775391,-34.782493,359.273109,-0.491017,-2.735632,-3.226649,0.160200,0.119867,0.106800,-18350,32
0.328000,-54.157143,406.019250,534.509617,-20.111572,24.169922,-34.045571,381.849328,-0.487108,-1.887354,-2.374462,0.160200,0.130519,0.116412,-18306,34
0.330000,-53.318328,432.588750,526.230838,-20.053345,29.113770,-33.264983,403.474980,-0.482793,-1.048719,-1.531512,0.160200,0.141056,0.130296,-18253,49
0.332000,-52.426788,458.730500,517.431693,-19.986328,33.508301,-32.440460,425.222199,-0.478051,-0.191566,-0.669616,0.160200,0.151830,0.138840,-18192,58
0.334000,-51.483406,484.418500,508.120883,-19.923706,31.311035,-31.559700,453.107465,-0.472859,0.845912,0.373053,0.160200,0.164863,0.152724,-18135,51
0.336000,-50.489114,509.627750,498.307614,-19.841309,41.198730,-30.647805,468.429020,-0.467198,1.565341,1.098143,0.160200,0.173927,0.167676,-18060,61
0.338000,-49.444895,534.332750,488.001591,-19.746826,47.241211,-29.698069,487.091539,-0.461045,2.385445,1.924400,0.160200,0.184255,0.170880,-17974,81
0.340000,-48.351783,558.509250,477.213005,-19.639160,53.833008,-28.712623,504.676242,-0.454379,3.189797,2.735418,0.160200,0.194393,0.184764,-17876,83
0.342000,-47.210858,582.133750,465.952524,-19.533691,52.734375,-27.677167,529.399375,-0.447182,4.198490,3.751308,0.160200,0.207091,0.190104,-17780,83
0.344000,-46.023248,605.182500,454.231283,-19.408447,62.622070,-26.614801,542.560430,-0.439434,4.913881,4.474447,0.160200,0.216131,0.208260,-17666,92
0.346000,-44.790128,627.633000,442.060872,-19.274414,67.016602,-25.515714,560.616398,-0.431118,5.770239,5.339121,0.160200,0.226939,0.218940,-17544,99
0.348000,-43.512716,649.462750,429.453327,-19.116211,79.101562,-24.396505,570.361188,-0.422218,6.416034,5.993816,0.160200,0.235123,0.226416,-17400,137
0.350000,-42.192277,670.650000,416.421115,-18.949219,83.496094,-23.243058,587.153906,-0.412720,7.258295,6.845575,0.160200,0.245770,0.236028,-17248,136
0.352000,-40.830116,691.174250,402.977123,-18.775635,86.791992,-22.054481,604.382258,-0.402613,8.124224,7.721612,0.160200,0.256720,0.244572,-17090,123
0.354000,-39.427580,711.015250,389.134644,-18.595459,90.087891,-20.832121,620.927359,-0.391885,8.984058,8.592173,0.160200,0.267602,0.256320,-16926,147
0.356000,-37.986055,730.153000,374.907367,-18.401001,97.229004,-19.585054,632.923996,-0.380531,9.733438,9.352907,0.160200,0.277111,0.271272,-16749,140
0.358000,-36.506968,748.568500,360.309360,-18.165894,117.553711,-18.341074,631.014789,-0.368546,10.117686,9.749140,0.160200,0.282064,0.278748,-16535,184
0.360000,-34.991781,766.244000,345.355060,-17.886841,139.526367,-17.104940,626.717633,-0.355927,10.436679,10.080752,0.160200,0.286209,0.280884,-16281,185
0.362000,-33.441992,783.162000,330.059253,-17.598999,143.920898,-15.842993,639.241102,-0.342677,11.205045,10.862369,0.160200,0.295980,0.285156,-16019,237
0.364000,-31.859133,799.305250,314.437066,-17.301270,148.864746,-14.557863,650.440504,-0.328798,11.946840,11.618041,0.160200,0.305426,0.295836,-15748,237
0.366000,-30.244771,814.658000,298.503945,-17.004639,148.315430,-13.240132,666.342570,-0.314300,12.823130,12.508830,0.160200,0.316560,0.305448,-15478,204
0.368000,-28.600501,829.205500,282.275647,-16.692627,156.005859,-11.907874,673.199641,-0.299192,13.467693,13.168501,0.160200,0.324806,0.315060,-15194,212
0.370000,-26.927949,842.933000,265.768219,-16.327881,182.373047,-10.600068,660.559953,-0.283490,13.593297,13.309807,0.160200,0.326573,0.323604,-14862,287
0.372000,-25.228769,855.827000,248.997985,-15.967529,180.175781,-9.261240,675.651219,-0.267210,14.455725,14.188515,0.160200,0.337556,0.331080,-14534,234
0.374000,-23.504641,867.874500,231.981527,-15.598389,184.570312,-7.906252,683.304188,-0.250373,15.129059,14.878686,0.160200,0.346184,0.336420,-14198,307
0.376000,-21.757271,879.063750,214.735673,-15.198486,199.951172,-6.558785,679.112578,-0.233005,15.489678,15.256673,0.160200,0.350908,0.344964,-13834,245
0.378000,-19.988386,889.384000,197.277477,-14.818359,190.063477,-5.170027,699.320523,-0.215131,16.503489,16.288358,0.160200,0.363804,0.349236,-13488,303
0.380000,-18.199735,898.824500,179.624202,-14.388794,214.782715,-3.810941,684.041785,-0.196783,16.577903,16.381120,0.160200,0.364964,0.366324,-13097,279
0.382000,-16.393088,907.376250,161.793304,-13.949341,219.726562,-2.443747,687.649688,-0.177994,17.149598,16.971604,0.160200,0.372345,0.368460,-12697,346
0.384000,-14.570230,915.031000,143.802416,-13.463745,242.797852,-1.106485,672.233148,-0.158802,17.212787,17.053985,0.160200,0.373375,0.369528,-12255,378
0.386000,-12.732964,921.780750,125.669328,-12.963867,249.938965,0.230903,671.841785,-0.139244,17.669377,17.530133,0.160200,0.379327,0.371664,-11800,362
0.388000,-10.883107,927.618750,107.411971,-12.503540,230.163574,1.620433,697.455176,-0.119362,18.824972,18.705610,0.160200,0.394020,0.380208,-11381,342
0.390000,-9.022489,932.539750,89.048399,-12.054199,224.670410,3.031710,707.869340,-0.099200,19.590242,19.491042,0.160200,0.403838,0.390888,-10972,395
0.392000,-7.152948,936.538750,70.596771,-11.547729,253.234863,4.394781,683.303887,-0.078804,19.422922,19.344119,0.160200,0.402001,0.407976,-10511,411
0.394000,-5.276334,939.611250,52.075334,-11.068726,239.501953,5.792392,700.109297,-0.058219,20.350745,20.292525,0.160200,0.413857,0.406908,-10075,359
0.396000,-3.394503,941.754750,33.502401,-10.569946,249.389648,7.175443,692.365102,-0.037496,20.630778,20.593282,0.160200,0.417616,0.414384,-9621,359
0.398000,-1.509315,942.967250,14.896339,-10.066772,251.586914,8.557457,691.380336,-0.016682,21.087411,21.070729,0.160200,0.423584,0.411180,-9163,382
0.400000,0.377366,943.247000,-3.724453,-9.525146,270.812988,9.902512,672.434012,0.004172,21.060910,21.065082,0.160200,0.423514,0.425064,-8670,408
0.402000,2.263673,942.594000,-22.341562,-8.990112,267.517090,11.253785,675.076910,0.025015,21.601784,21.626800,0.160200,0.430535,0.423996,-8183,422
0.404000,4.147742,941.009250,-40.936579,-8.453979,268.066406,12.601721,672.942844,0.045799,22.016433,22.062232,0.160200,0.435978,0.427200,-7695,435
0.406000,6.027710,938.493750,-59.491115,-7.803589,325.195312,13.831299,613.298437,0.066472,20.884150,20.950622,0.160200,0.422083,0.436812,-7103,469
0.408000,7.901717,935.050000,-77.986823,-7.274048,264.770508,15.175765,670.279492,0.086987,22.845217,22.932205,0.160200,0.446853,0.426132,-6621,450
0.410000,9.767910,930.681750,-96.405414,-6.741211,266.418457,16.509121,664.263293,0.107296,23.153143,23.260438,0.160200,0.450955,0.447492,-6136,427
0.412000,11.624444,925.393250,-114.728673,-6.200684,270.263672,17.825128,655.129578,0.127351,23.373396,23.500746,0.160200,0.453959,0.451764,-5644,430
0.414000,13.469483,919.189750,-132.938482,-5.650269,275.207520,19.119752,643.982230,0.147108,23.533468,23.680576,0.160200,0.456207,0.454968,-5143,475
0.416000,15.301203,912.077500,-151.016834,-5.088867,280.700684,20.390070,631.376816,0.166525,23.646884,23.813408,0.160200,0.457868,0.453900,-4632,485
0.418000,17.117793,904.063000,-168.945853,-4.471436,308.715820,21.589229,595.347180,0.185560,23.122215,23.307776,0.160200,0.451547,0.457104,-4070,512
0.420000,18.917455,895.154250,-186.707808,-3.857300,307.067871,22.774755,588.086379,0.204177,23.345955,23.550132,0.160200,0.454577,0.452832,-3511,473
0.422000,20.698410,885.360750,-204.285136,-3.267334,294.982910,23.965744,590.377840,0.222339,23.821679,24.044018,0.160200,0.460750,0.456036,-2974,496
0.424000,22.458898,874.691750,-221.660456,-2.675171,296.081543,25.134069,578.610207,0.240014,23.921425,24.161439,0.160200,0.462218,0.462444,-2435,490
0.426000,24.197177,863.157750,-238.816585,-2.078613,298.278809,26.275790,564.878941,0.257173,23.960477,24.217650,0.160200,0.462921,0.462444,-1892,485
0.428000,25.911529,850.770250,-255.736559,-1.433716,322.448730,27.345245,528.321520,0.273790,23.376716,23.650506,0.160200,0.455831,0.457104,-1305,504
0.430000,27.600258,837.541250,-272.403647,-0.799805,316.955566,28.400063,520.585684,0.289841,23.542393,23.832235,0.160200,0.458103,0.454968,-728,495
0.432000,29.261694,823.484250,-288.801367,-0.190063,304.870605,29.451757,518.613645,0.305308,23.857876,24.163184,0.160200,0.462240,0.457104,-173,519
0.434000,30.894195,808.613000,-304.913503,0.419678,304.870605,30.474517,503.742395,0.320173,23.825558,24.145731,0.160200,0.462022,0.462444,382,504
0.436000,32.496146,792.941750,-320.724125,1.032715,306.518555,31.463431,486.423195,0.334424,23.717339,24.051763,0.160200,0.460847,0.463512,940,541
0.438000,34.065962,776.486750,-336.217596,1.651245,309.265137,32.414717,467.221613,0.348052,23.546704,23.894756,0.160200,0.458884,0.457104,1503,501
0.440000,35.602093,759.264000,-351.378597,2.271973,310.363770,33.330120,448.900230,0.361051,23.386587,23.747638,0.160200,0.457045,0.460308,2068,515
0.442000,37.103018,741.290000,-366.192135,2.936646,332.336426,34.166372,408.953574,0.373416,22.632693,23.006109,0.160200,0.447776,0.461376,2673,528
0.444000,38.567253,722.583250,-380.643561,3.629883,346.618652,34.937370,375.964598,0.385148,22.038173,22.423321,0.160200,0.440492,0.448560,3304,508
0.446000,39.993351,703.162250,-394.718586,4.275879,322.998047,35.717472,380.164203,0.396251,22.420425,22.816676,0.160200,0.445408,0.440016,3892,515
0.448000,41.379902,683.045750,-408.403291,4.885620,304.870605,36.494282,378.175145,0.406729,22.639510,23.046239,0.160200,0.448278,0.446424,4447,510
0.450000,42.725534,662.253500,-421.684145,5.509644,312.011719,37.215890,350.241781,0.416592,22.160105,22.576697,0.160200,0.442409,0.446424,5015,526
0.452000,44.028916,640.806500,-434.548013,6.146851,318.603516,37.882065,322.202984,0.425849,21.658590,22.084439,0.160200,0.436255,0.441084,5595,493
0.454000,45.288760,618.726000,-446.982176,6.868652,360.900879,38.420108,257.825121,0.434513,20.160993,20.595507,0.160200,0.417644,0.437880,6252,487
0.456000,46.503820,596.033500,-458.974338,7.566284,348.815918,38.937536,247.217582,0.442600,20.063905,20.506505,0.160200,0.416531,0.418656,6887,484
0.458000,47.672894,572.751750,-470.512641,8.188110,310.913086,39.484784,261.838664,0.450126,20.637710,21.087836,0.160200,0.423798,0.417588,7453,505
0.460000,48.794827,548.903750,-481.585675,8.901123,356.506348,39.893704,192.397402,0.457108,18.962482,19.419590,0.160200,0.402945,0.429336,8102,462
0.462000,49.868509,524.512750,-492.182489,9.561401,330.139160,40.307108,194.373590,0.463566,19.158523,19.622090,0.160200,0.405476,0.404772,8703,472
0.464000,50.892878,499.603000,-502.292607,10.112915,275.756836,40.779963,223.846164,0.469520,20.095171,20.564692,0.160200,0.417259,0.403704,9205,460
0.466000,51.866921,474.199250,-511.906029,10.722656,304.870605,41.144265,169.328645,0.474991,18.795071,19.270062,0.160200,0.401076,0.419724,9760,431
0.468000,52.789675,448.326750,-521.013250,11.329102,303.222656,41.460573,145.104094,0.480000,18.271287,18.751287,0.160200,0.394591,0.402636,10312,421
0.470000,53.660228,422.011000,-529.605264,11.895996,283.447266,41.764232,138.563734,0.484569,18.206057,18.690626,0.160200,0.393833,0.395160,10828,454
0.472000,54.477719,395.277750,-537.673575,12.504639,304.321289,41.973080,90.956461,0.488719,17.032604,17.521322,0.160200,0.379217,0.390888,11382,413
0.474000,55.241339,368.153750,-545.210204,13.115479,305.419922,42.125860,62.733828,0.492471,16.347067,16.839538,0.160200,0.370694,0.378072,11938,409
0.476000,55.950334,340.665500,-552.207699,13.676880,280.700684,42.273454,59.964816,0.495847,16.326094,16.821942,0.160200,0.370474,0.371664,12449,427
0.478000,56.604001,312.840500,-558.659140,14.282227,302.673340,42.321774,10.167160,0.498866,15.039262,15.538128,0.160200,0.354427,0.366324,13000,391
0.480000,57.201696,284.706250,-564.558147,14.869995,293.884277,42.331701,-9.178027,0.501548,14.536271,15.037819,0.160200,0.348173,0.351372,13535,400
0.482000,57.742826,256.290250,-569.898888,15.437988,283.996582,42.304838,-27.706332,0.503911,14.041824,14.545735,0.160200,0.342022,0.350304,14052,343
0.484000,58.226857,227.620750,-574.676082,15.978516,270.263672,42.248341,-42.642922,0.505971,13.631064,14.137035,0.160200,0.336913,0.340692,14544,301
0.486000,58.653309,198.726500,-578.885003,16.466309,243.896484,42.187000,-45.169984,0.507745,13.543494,14.051238,0.160200,0.335840,0.338556,14988,371
0.488000,59.021763,169.635750,-582.521491,16.970581,252.136230,42.051182,-82.500480,0.509245,12.518774,13.028020,0.160200,0.323050,0.333216,15447,303
0.490000,59.331852,140.376750,-585.581948,17.468262,248.840332,41.863590,-108.463582,0.510486,11.773580,12.284066,0.160200,0.313751,0.323604,15900,349
0.492000,59.583270,110.979500,-588.063350,17.939575,235.656738,41.643695,-124.677238,0.511476,11.272349,11.783825,0.160200,0.307498,0.318264,16329,268
0.494000,59.775770,81.472250,-589.963242,18.392212,226.318359,41.383558,-144.846109,0.512225,10.653525,11.165750,0.160200,0.299772,0.306516,16741,317
0.496000,59.909159,51.884250,-591.279745,18.825073,216.430664,41.084086,-164.546414,0.512739,10.033236,10.545976,0.160200,0.292025,0.296904,17135,243
0.498000,59.983307,22.245500,-592.011558,19.221680,198.303223,40.761627,-176.057723,0.513023,9.619312,10.132335,0.160200,0.286854,0.291564,17496,267
0.500000,59.998141,-7.415500,-592.157957,19.610596,194.458008,40.387545,-201.873508,0.513080,8.812877,9.325957,-0.160200,-0.043626,0.286224,17850,271
0.502000,59.953645,-37.069500,-591.718797,19.990723,190.063477,39.962922,-227.132977,0.512910,8.003364,8.516274,-0.160200,-0.053747,-0.041652,18196,183
0.504000,59.849863,-66.686750,-590.694512,20.177490,93.383789,39.672373,-160.070539,0.512511,9.657634,10.170145,-0.160200,-0.033073,-0.056604,18366,42
0.506000,59.686898,-96.237750,-589.086116,20.208252,15.380859,39.478646,-111.618609,0.511880,10.858479,11.370359,-0.160200,-0.018071,-0.030972,18394,-8
0.508000,59.464912,-125.693750,-586.895198,20.190674,-8.789062,39.274238,-116.904687,0.511012,10.648738,11.159749,-0.160200,-0.020703,-0.013884,18378,-9
0.510000,59.184123,-155.025500,-584.123926,20.178589,-6.042480,39.005534,-148.983020,0.509897,9.715134,10.225031,-0.160200,-0.032387,-0.019224,18367,-5
0.512000,58.844810,-184.203750,-580.775039,20.173096,-2.746582,38.671714,-181.457168,0.508528,8.748437,9.256966,-0.160200,-0.044488,-0.034176,18362,-3
0.514000,58.447308,-213.200000,-576.851850,20.168701,-2.197266,38.278607,-211.002734,0.506893,7.837716,8.344609,-0.160200,-0.055892,-0.044856,18358,-4
0.516000,57.992010,-241.985500,-572.358237,20.159912,-4.394531,37.832098,-237.590969,0.504978,6.985776,7.490754,-0.160200,-0.066566,-0.054468,18350,-8
0.518000,57.479366,-270.531750,-567.298644,20.148926,-5.493164,37.330440,-265.038586,0.502768,6.092088,6.594856,-0.160200,-0.077764,-0.069420,18340,-13
0.520000,56.909883,-298.810250,-561.678075,20.129150,-9.887695,36.780733,-288.922555,0.500248,5.274923,5.775171,-0.160200,-0.088010,-0.077964,18322,-19
0.522000,56.284125,-326.793250,-555.502087,20.102783,-13.183594,36.181342,-313.609656,0.497400,4.419389,4.916789,-0.160200,-0.098740,-0.087576,18298,-20
0.524000,55.602710,-354.453500,-548.776788,20.069824,-16.479492,35.532886,-337.974008,0.494205,3.555178,4.049383,-0.160200,-0.109583,-0.097188,18268,-23
0.526000,54.866311,-381.763000,-541.508828,20.029175,-20.324707,34.837136,-361.438293,0.490644,2.698022,3.188666,-0.160200,-0.120342,-0.106800,18231,-33
0.528000,54.075658,-408.694750,-533.705393,19.977539,-25.817871,34.098119,-382.876879,0.486695,1.878796,2.365491,-0.160200,-0.130631,-0.121752,18184,-36
0.530000,53.231532,-435.222750,-525.374201,19.916016,-30.761719,33.315516,-404.461031,0.482338,1.040544,1.522882,-0.160200,-0.141164,-0.132432,18128,-55
0.532000,52.334767,-461.320250,-516.523489,19.838013,-39.001465,32.496754,-422.318785,0.477552,0.287227,0.764779,-0.160200,-0.150640,-0.142044,18057,-49
0.534000,51.386251,-486.961250,-507.162010,19.760010,-39.001465,31.626241,-447.959785,0.472315,-0.687919,-0.215604,-0.160200,-0.162895,-0.150588,17986,-70
0.536000,50.386922,-512.121000,-497.299021,19.664429,-47.790527,30.722493,-464.330473,0.466605,-1.431970,-0.965365,-0.160200,-0.172267,-0.164472,17899,-70
0.538000,49.337767,-536.774500,-486.944275,19.554565,-54.931641,29.783202,-481.842859,0.460401,-2.218318,-1.757917,-0.160200,-0.182174,-0.167676,17799,-79
0.540000,48.239824,-560.897000,-476.108012,19.432617,-60.974121,28.807207,-499.922879,0.453684,-3.032338,-2.578655,-0.160200,-0.192433,-0.183696,17688,-84
0.542000,47.094179,-584.465000,-464.800946,19.290894,-70.861816,27.803285,-513.603184,0.446432,-3.740922,-3.294490,-0.160200,-0.201381,-0.193308,17559,-92
0.544000,45.901964,-607.455000,-453.034259,19.160156,-65.368652,26.741808,-542.086348,0.438628,-4.857136,-4.418507,-0.160200,-0.215431,-0.203988,17440,-109
0.546000,44.664359,-629.844250,-440.819586,19.006348,-76.904297,25.658011,-552.939953,0.430254,-5.519599,-5.089344,-0.160200,-0.223817,-0.216804,17300,-114
0.548000,43.382587,-651.610500,-428.169007,18.839355,-83.496094,24.543232,-568.114406,0.421295,-6.305996,-5.884701,-0.160200,-0.233759,-0.225348,17148,-151
0.550000,42.057917,-672.732500,-415.095030,18.638306,-100.524902,23.419611,-572.207598,0.411737,-6.805373,-6.393636,-0.160200,-0.240120,-0.234960,16965,-148
0.552000,40.691657,-693.189500,-401.610584,18.440552,-98.876953,22.251105,-594.312547,0.401568,-7.791965,-7.390397,-0.160200,-0.252580,-0.239232,16785,-163
0.554000,39.285159,-712.961000,-387.729003,18.205444,-117.553711,21.079715,-595.407289,0.390778,-8.229518,-7.838740,-0.160200,-0.258184,-0.248844,16571,-154
0.556000,37.839813,-732.027250,-373.464013,17.980225,-112.609863,19.859588,-619.417387,0.379361,-9.284005,-8.904644,-0.160200,-0.271508,-0.259524,16366,-191
0.558000,36.357050,-750.369750,-358.829722,17.739624,-120.300293,18.617426,-630.069457,0.367312,-9.996472,-9.629160,-0.160200,-0.280564,-0.276612,16147,-192
0.560000,34.838334,-767.970500,-343.840600,17.461670,-138.977051,17.376664,-628.993449,0.354630,-10.401410,-10.046779,-0.160200,-0.285785,-0.280884,15894,-232
0.562000,33.285168,-784.811250,-328.511469,17.144165,-158.752441,16.141003,-626.058809,0.341317,-10.755908,-10.414592,-0.160200,-0.290382,-0.288360,15605,-189
0.564000,31.699089,-800.876250,-312.857488,16.811279,-166.442871,14.887810,-634.433379,0.327376,-11.412601,-11.085225,-0.160200,-0.298765,-0.290496,15302,-192
0.566000,30.081663,-816.149500,-296.894136,16.494873,-158.203125,13.586790,-657.946375,0.312816,-12.482311,-12.169495,-0.160200,-0.312319,-0.299040,15014,-211
0.568000,28.434491,-830.615500,-280.637198,16.171875,-161.499023,12.262616,-669.116477,0.297649,-13.236968,-12.939319,-0.160200,-0.321941,-0.310788,14720,-273
0.570000,26.759201,-844.260000,-264.102750,15.795044,-188.415527,10.964157,-655.844473,0.281888,-13.342755,-13.060868,-0.160200,-0.323461,-0.322536,14377,-208
0.572000,25.057451,-857.069750,-247.307143,15.440186,-177.429199,9.617265,-679.640551,0.265551,-14.435889,-14.170338,-0.160200,-0.337329,-0.322536,14054,-260
0.574000,23.330922,-869.032250,-230.266985,15.017212,-211.486816,8.313710,-657.545434,0.248660,-14.312467,-14.063807,-0.160200,-0.335998,-0.338556,13669,-296
0.576000,21.581322,-880.135250,-212.999126,14.579956,-218.627930,7.001366,-661.507320,0.231239,-14.874283,-14.643044,-0.160200,-0.343238,-0.339624,13271,-283
0.578000,19.810381,-890.367750,-195.520641,14.135010,-222.473145,5.675371,-667.894605,0.213317,-15.504362,-15.291045,-0.160200,-0.351338,-0.347100,12866,-300
0.580000,18.019851,-899.719750,-177.848815,13.669189,-232.910156,4.350662,-666.809594,0.194923,-15.938367,-15.743444,-0.160200,-0.356993,-0.353508,12442,-354
0.582000,16.211502,-908.182250,-160.001122,13.213257,-227.966309,2.998245,-680.215941,0.176093,-16.761427,-16.585334,-0.160200,-0.367517,-0.355644,12027,-367
0.584000,14.387122,-915.746750,-141.995211,12.755127,-229.064941,1.631995,-686.681809,0.156862,-17.407614,-17.250752,-0.160200,-0.375834,-0.362052,11610,-345
0.586000,12.548515,-922.405750,-123.848887,12.242065,-256.530762,0.306450,-665.874988,0.137269,-17.325595,-17.188326,-0.160200,-0.375054,-0.377004,11143,-354
0.588000,10.697499,-928.152250,-105.580095,11.720215,-260.925293,-1.022716,-667.226957,0.117358,-17.824956,-17.707598,-0.160200,-0.381545,-0.372732,10668,-334
0.590000,8.835906,-932.981250,-87.206899,11.186279,-266.967773,-2.350373,-666.013477,0.097170,-18.256627,-18.159457,-0.160200,-0.387193,-0.380208,10182,-388
0.592000,6.965574,-936.887750,-68.747467,10.638062,-274.108887,-3.672488,-662.778863,0.076753,-18.633450,-18.556697,-0.160200,-0.392159,-0.389820,9683,-372
0.594000,5.088355,-939.867500,-50.220055,10.068970,-284.545898,-4.980615,-655.321602,0.056152,-18.894842,-18.838690,-0.160200,-0.395684,-0.393024,9165,-383
0.596000,3.206104,-941.918000,-31.642982,9.511963,-278.503418,-6.305859,-663.414582,0.035418,-19.569313,-19.533896,-0.160200,-0.404374,-0.399432,8658,-381
0.598000,1.320683,-943.037000,-13.034619,8.956055,-277.954102,-7.635372,-665.082898,0.014598,-20.077077,-20.062479,-0.160200,-0.410981,-0.404772,8152,-430
0.600000,-0.566044,-943.223750,5.586634,8.407837,-274.108887,-8.973881,-669.114863,-0.006257,-20.649862,-20.656119,-0.160200,-0.418401,-0.412248,7653,-409
0.602000,-2.452212,-942.477500,24.202362,7.780518,-313.659668,-10.232730,-628.817832,-0.027097,-20.034309,-20.061406,-0.160200,-0.410968,-0.418656,7082,-430
0.604000,-4.335954,-940.799250,42.794157,7.203735,-288.391113,-11.539689,-652.408137,-0.047872,-21.108117,-21.155988,-0.160200,-0.424650,-0.410112,6557,-447
0.606000,-6.215409,-938.191000,61.343636,6.591797,-305.969238,-12.807206,-632.221762,-0.068532,-21.022085,-21.090617,-0.160200,-0.423833,-0.426132,6000,-439
0.608000,-8.088718,-934.654750,79.832454,5.977661,-307.067871,-14.066379,-627.586879,-0.089028,-21.340279,-21.429307,-0.160200,-0.428066,-0.426132,5441,-425
0.610000,-9.954028,-930.194250,98.242329,5.363525,-307.067871,-15.317553,-623.126379,-0.109313,-21.660245,-21.769559,-0.160200,-0.432319,-0.430404,4882,-463
0.612000,-11.809495,-924.814250,116.555057,4.741699,-310.913086,-16.551194,-613.901164,-0.129341,-21.849352,-21.978692,-0.160200,-0.434934,-0.432540,4316,-438
0.614000,-13.653285,-918.519500,134.752529,4.112183,-314.758301,-17.765468,-603.761199,-0.149066,-22.007749,-22.156815,-0.160200,-0.437160,-0.434676,3743,-449
0.616000,-15.483573,-911.316250,152.816750,3.545288,-283.447266,-19.028861,-627.868984,-0.168446,-23.079897,-23.248343,-0.160200,-0.450804,-0.437880,3227,-474
0.618000,-17.298550,-903.212000,170.729857,2.975098,-285.095215,-20.273648,-618.116785,-0.187442,-23.259098,-23.446539,-0.160200,-0.453282,-0.447492,2708,-499
0.620000,-19.096421,-894.214750,188.474137,2.276367,-349.365234,-21.372788,-544.849516,-0.206014,-21.724637,-21.930652,-0.160200,-0.434333,-0.452832,2072,-492
0.622000,-20.875409,-884.333250,206.032044,1.578735,-348.815918,-22.454144,-535.517332,-0.224129,-21.857786,-22.081915,-0.160200,-0.436224,-0.420792,1437,-493
0.624000,-22.633754,-873.577000,223.386214,0.876709,-351.013184,-23.510463,-522.563816,-0.241754,-21.887388,-22.129142,-0.160200,-0.436814,-0.435744,798,-501
0.626000,-24.369717,-861.957250,240.519488,0.236206,-320.251465,-24.605923,-541.705785,-0.258860,-22.770912,-23.029771,-0.160200,-0.448072,-0.435744,215,-506
0.628000,-26.081583,-849.485000,257.414922,-0.390015,-313.110352,-25.691568,-536.374648,-0.275421,-23.010305,-23.285725,-0.160200,-0.451272,-0.447492,-355,-514
0.630000,-27.767657,-836.172500,274.055810,-1.117310,-363.647461,-26.650347,-472.525039,-0.291415,-21.673403,-21.964817,-0.160200,-0.434760,-0.452832,-1017,-502
0.632000,-29.426273,-822.033500,290.425697,-1.881958,-382.324219,-27.544315,-439.709281,-0.306822,-21.126342,-21.433163,-0.160200,-0.428115,-0.432540,-1713,-516
0.634000,-31.055791,-807.081500,306.508394,-2.526855,-322.448730,-28.528936,-484.632770,-0.321626,-22.646133,-22.967759,-0.160200,-0.447297,-0.427200,-2300,-510
0.636000,-32.654599,-791.331500,322.287999,-3.184937,-329.040527,-29.469662,-462.290973,-0.335815,-22.389602,-22.725418,-0.160200,-0.444268,-0.443220,-2899,-528
0.638000,-34.221117,-774.798750,337.748907,-3.904541,-359.802246,-30.316576,-414.996504,-0.349381,-21.447064,-21.796445,-0.160200,-0.432656,-0.437880,-3554,-528
0.640000,-35.753794,-757.500000,352.875831,-4.641724,-368.591309,-31.112070,-388.908691,-0.362316,-21.041767,-21.404083,-0.160200,-0.427751,-0.431472,-4225,-515
0.642000,-37.251117,-739.452250,367.653811,-5.332764,-345.520020,-31.918353,-393.932230,-0.374618,-21.454729,-21.829346,-0.160200,-0.433067,-0.427200,-4854,-521
0.644000,-38.711603,-720.673000,382.068234,-5.985352,-326.293945,-32.726251,-394.379055,-0.386287,-21.748436,-22.134723,-0.160200,-0.436884,-0.428268,-5448,-515
0.646000,-40.133809,-701.181500,396.104847,-6.692871,-353.759766,-33.440938,-347.421734,-0.397327,-20.768569,-21.165896,-0.160200,-0.424774,-0.434676,-6092,-506
0.648000,-41.516329,-680.996500,409.749770,-7.416870,-361.999512,-34.099459,-318.996988,-0.407743,-20.254278,-20.662021,-0.160200,-0.418475,-0.426132,-6751,-485
0.650000,-42.857795,-660.137750,422.989509,-8.119995,-351.562500,-34.737800,-308.575250,-0.417545,-20.204261,-20.621805,-0.160200,-0.417973,-0.415452,-7391,-476
0.652000,-44.156880,-638.626500,435.810972,-8.784668,-332.336426,-35.372212,-306.290074,-0.426742,-20.365887,-20.792628,-0.160200,-0.420108,-0.419724,-7996,-460
0.654000,-45.412301,-616.484000,448.201482,-9.415283,-315.307617,-35.997018,-301.176383,-0.435348,-20.450109,-20.885457,-0.160200,-0.421268,-0.419724,-8570,-505
0.656000,-46.622816,-593.731750,460.148784,-10.028320,-306.518555,-36.594496,-287.213195,-0.443378,-20.293113,-20.736490,-0.160200,-0.419406,-0.420792,-9128,-481
0.658000,-47.787228,-570.392000,471.641066,-10.721558,-346.618652,-37.065670,-223.773348,-0.450848,-18.796732,-19.247580,-0.160200,-0.400795,-0.420792,-9759,-494
0.660000,-48.904384,-546.488500,482.666963,-11.401611,-340.026855,-37.502773,-206.461645,-0.457777,-18.496090,-18.953868,-0.160200,-0.397123,-0.399432,-10378,-489
0.662000,-49.973182,-522.044750,493.215571,-12.043213,-320.800781,-37.929969,-201.243969,-0.464184,-18.508612,-18.972796,-0.160200,-0.397360,-0.396228,-10962,-463
0.664000,-50.992563,-497.084500,503.276461,-12.687012,-321.899414,-38.305551,-175.185086,-0.470089,-17.957495,-18.427583,-0.160200,-0.390545,-0.397296,-11548,-462
0.666000,-51.961520,-471.632750,512.839683,-13.262695,-287.841797,-38.698825,-183.790953,-0.475512,-18.320074,-18.795587,-0.160200,-0.395145,-0.389820,-12072,-468
0.668000,-52.879094,-445.714750,521.895780,-13.828491,-282.897949,-39.050603,-162.816801,-0.480477,-17.893766,-18.374242,-0.160200,-0.389878,-0.386616,-12587,-429
0.670000,-53.744379,-419.356000,530.435797,-14.363525,-267.517090,-39.380854,-151.838910,-0.485002,-17.721645,-18.206647,-0.160200,-0.387783,-0.386616,-13074,-462
0.672000,-54.556518,-392.582500,538.451290,-14.954590,-295.532227,-39.601928,-97.050273,-0.489112,-16.364451,-16.853563,-0.160200,-0.370870,-0.385548,-13612,-399
0.674000,-55.314709,-365.420750,545.934333,-15.511597,-278.503418,-39.803112,-86.917332,-0.492826,-16.169398,-16.662223,-0.160200,-0.368478,-0.368460,-14119,-460
0.676000,-56.018201,-337.897750,552.877525,-16.079590,-283.996582,-39.938611,-53.901168,-0.496165,-15.352335,-15.848499,-0.160200,-0.358306,-0.368460,-14636,-413
0.678000,-56.666300,-310.040500,559.274000,-16.598145,-259.277344,-40.068155,-50.763156,-0.499149,-15.315401,-15.814550,-0.160200,-0.357882,-0.355644,-15108,-400
0.680000,-57.258363,-281.876750,565.117435,-17.169434,-285.644531,-40.088929,3.767781,-0.501798,-13.895036,-14.396834,-0.160200,-0.340160,-0.357780,-15628,-403
0.682000,-57.793807,-253.434250,570.402050,-17.691284,-260.925293,-40.102523,7.491043,-0.504130,-13.802306,-14.306436,-0.160200,-0.339030,-0.337488,-16103,-349
0.684000,-58.272100,-224.741000,575.122619,-18.251587,-280.151367,-40.020513,55.410367,-0.506161,-12.519154,-13.025315,-0.160200,-0.323016,-0.340692,-16613,-397
0.686000,-58.692771,-195.825750,579.274475,-18.795410,-271.911621,-39.897361,76.085871,-0.507907,-11.934883,-12.442790,-0.160200,-0.315735,-0.322536,-17108,-375
0.688000,-59.055403,-166.716750,582.853512,-19.278809,-241.699219,-39.776594,74.982469,-0.509381,-11.921614,-12.430995,-0.160200,-0.315587,-0.315060,-17548,-332
0.690000,-59.359638,-137.443000,585.856191,-19.751221,-236.206055,-39.608417,98.763055,-0.510596,-11.240335,-11.750931,-0.160200,-0.307087,-0.316128,-17978,-326
0.692000,-59.605175,-108.033250,588.279543,-20.197266,-223.022461,-39.407909,114.989211,-0.511562,-10.745545,-11.257107,-0.160200,-0.300914,-0.301176,-18384,-267
0.694000,-59.791771,-78.516750,590.121171,-20.642212,-222.473145,-39.149559,143.956395,-0.512287,-9.897005,-10.409291,-0.160200,-0.290316,-0.299040,-18789,-321
0.696000,-59.919242,-48.922500,591.379254,-21.087158,-222.473145,-38.832084,173.550645,-0.512778,-9.011409,-9.524187,-0.160200,-0.279252,-0.289428,-19194,-267
0.698000,-59.987461,-19.279750,592.052549,-21.469482,-191.162109,-38.517979,171.882359,-0.513039,-8.945441,-9.458481,-0.160200,-0.278431,-0.280884,-19542,-247
0.700000,-59.996361,10.382000,592.140388,-21.790283,-160.400391,-38.206078,170.782391,-0.513073,-8.865365,-9.378438,0.160200,0.042970,-0.281952,-19834,-254
0.702000,-59.945933,40.033500,591.642687,-22.133057,-171.386719,-37.812876,211.420219,-0.512880,-7.664215,-8.177096,0.160200,0.057986,0.043788,-20146,-173
0.704000,-59.836227,69.645250,590.559936,-22.338501,-102.722168,-37.497726,172.367418,-0.512459,-8.576607,-9.089066,0.160200,0.046587,0.057672,-20333,-54
0.706000,-59.667352,99.188000,588.893206,-22.383545,-22.521973,-37.283807,121.709973,-0.511804,-9.828144,-10.339948,0.160200,0.030951,0.045924,-20374,3
0.708000,-59.439475,128.633000,586.644146,-22.367065,8.239746,-37.072410,120.393254,-0.510911,-9.788824,-10.299736,0.160200,0.031453,0.028836,-20359,16
0.710000,-59.152820,157.950750,583.814980,-22.348389,9.338379,-36.804431,148.612371,-0.509772,-8.956507,-9.466280,0.160200,0.041872,0.029904,-20342,11
0.712000,-58.807672,187.112000,580.408504,-22.335205,6.591797,-36.472467,180.520203,-0.508377,-8.005285,-8.513662,0.160200,0.053779,0.041652,-20330,8
0.714000,-58.404372,216.088500,576.428088,-22.324219,5.493164,-36.080153,210.595336,-0.506714,-7.080976,-7.587690,0.160200,0.065354,0.048060,-20320,10
0.716000,-57.943318,244.851250,571.877668,-22.312134,6.042480,-35.631184,238.808770,-0.504770,-6.185631,-6.690401,0.160200,0.076570,0.067284,-20309,14
0.718000,-57.424967,273.372000,566.761744,-22.295654,8.239746,-35.129313,265.132254,-0.502530,-5.321297,-5.823828,0.160200,0.087402,0.080100,-20294,19
0.720000,-56.849830,301.622500,561.085374,-22.272583,11.535645,-34.577247,290.086855,-0.499978,-4.475280,-4.975258,0.160200,0.098009,0.083304,-20273,22
0.722000,-56.218477,329.574500,554.854171,-22.244019,14.282227,-33.974458,315.292273,-0.497096,-3.604991,-4.102087,0.160200,0.108924,0.099324,-20247,32
0.724000,-55.531532,357.200500,548.074297,-22.202271,20.874023,-33.329261,336.326477,-0.493866,-2.829100,-3.322966,0.160200,0.118663,0.108936,-20209,32
0.726000,-54.789675,384.473250,540.752457,-22.157227,22.521973,-32.632448,361.951277,-0.490266,-1.915011,-2.405277,0.160200,0.130134,0.118548,-20168,37
0.728000,-53.993639,411.366250,532.895891,-22.102295,27.465820,-31.891344,383.900430,-0.486278,-1.081689,-1.567967,0.160200,0.140600,0.131364,-20118,44
0.730000,-53.144210,437.852250,524.512368,-22.034180,34.057617,-31.110030,403.794633,-0.481879,-0.288130,-0.770010,0.160200,0.150575,0.139908,-20056,57
0.732000,-52.242230,463.905250,515.610177,-21.950684,41.748047,-30.291546,422.157203,-0.477049,0.478305,0.001256,0.160200,0.160216,0.151656,-19980,49
0.734000,-51.288589,489.499500,506.198122,-21.859497,45.593262,-29.429092,443.906238,-0.471765,1.348747,0.876982,0.160200,0.171162,0.161268,-19897,74
0.736000,-50.284232,514.609750,496.285511,-21.765015,47.241211,-28.519217,467.368539,-0.466007,2.280595,1.814588,0.160200,0.182882,0.168744,-19811,85
0.738000,-49.230150,539.211000,485.882144,-21.656250,54.382324,-27.573900,484.828676,-0.459753,3.067678,2.607925,0.160200,0.192799,0.185832,-19712,90
0.740000,-48.127388,563.279000,474.998310,-21.521118,67.565918,-26.606270,495.713082,-0.452983,3.690398,3.237415,0.160200,0.200668,0.195444,-19589,92
0.742000,-46.977034,586.790500,463.644772,-21.373901,73.608398,-25.603133,513.182102,-0.445677,4.497897,4.052220,0.160200,0.210853,0.197580,-19455,107
0.744000,-45.780226,609.721250,451.832755,-21.204712,84.594727,-24.575514,525.126523,-0.437817,5.169308,4.731491,0.160200,0.219344,0.213600,-19301,135
0.746000,-44.538149,632.049000,439.573941,-21.032227,86.242676,-23.505922,545.806324,-0.429385,6.084061,5.654676,0.160200,0.230883,0.217872,-19144,121
0.748000,-43.252030,653.752250,426.880452,-20.828979,101.623535,-22.423051,552.128715,-0.420367,6.627575,6.207208,0.160200,0.237790,0.228552,-18959,156
0.750000,-41.923140,674.808750,413.764839,-20.610352,109.313965,-21.312788,565.494785,-0.410748,7.365052,6.954304,0.160200,0.247129,0.241368,-18760,132
0.752000,-40.552795,695.197750,400.240073,-20.399414,105.468750,-20.153381,589.729000,-0.400517,8.404212,8.003695,0.160200,0.260246,0.249912,-18568,166
0.754000,-39.142349,714.899500,386.319527,-20.163208,118.103027,-18.979141,596.796473,-0.389665,8.999125,8.609460,0.160200,0.267818,0.261660,-18353,171
0.756000,-37.693197,733.894500,372.016967,-19.892944,135.131836,-17.800253,598.762664,-0.378185,9.462110,9.083925,0.160200,0.273749,0.268068,-18107,159
0.758000,-36.206771,752.163500,357.346536,-19.601807,145.568848,-16.604964,606.594652,-0.366073,10.084385,9.718312,0.160200,0.281679,0.274476,-17842,210
0.760000,-34.684543,769.688750,342.322740,-19.291992,154.907227,-15.392551,614.781523,-0.353327,10.721929,10.368601,0.160200,0.289808,0.283020,-17560,243
0.762000,-33.128016,786.453000,326.960436,-18.962402,164.794922,-14.165614,621.658078,-0.339951,11.330238,10.990288,0.160200,0.297579,0.285156,-17260,254
0.764000,-31.538731,802.439500,311.274816,-18.617432,172.485352,-12.921299,629.954148,-0.325948,11.981777,11.655829,0.160200,0.305898,0.299040,-16946,209
0.766000,-29.918258,817.632750,295.281390,-18.251587,182.922363,-11.666671,634.710387,-0.311327,12.544243,12.232916,0.160200,0.313111,0.305448,-16613,226
0.768000,-28.268200,832.017250,278.995973,-17.867065,192.260742,-10.401135,639.756508,-0.296099,13.118105,12.822006,0.160200,0.320475,0.311856,-16263,297
0.770000,-26.590189,845.578750,262.434670,-17.464966,201.049805,-9.125223,644.528945,-0.280279,13.688425,13.408145,0.160200,0.327802,0.319332,-15897,263
0.772000,-24.885885,858.304250,245.613856,-17.046387,209.289551,-7.839498,649.014699,-0.263886,14.254664,13.990778,0.160200,0.335085,0.328944,-15516,265
0.774000,-23.156972,870.181250,228.550165,-16.612427,216.979980,-6.544545,653.201270,-0.246941,14.816292,14.569351,0.160200,0.342317,0.333216,-15121,307
0.776000,-21.405160,881.197750,211.260472,-16.161987,225.219727,-5.243173,655.978023,-0.229469,15.343252,15.113783,0.160200,0.349122,0.343896,-14711,335
0.778000,-19.632181,891.342750,193.761872,-15.691772,235.107422,-3.940409,656.235328,-0.211498,15.804739,15.593240,0.160200,0.355116,0.351372,-14283,350
0.780000,-17.839789,900.606250,176.071670,-15.208374,241.699219,-2.631415,658.907031,-0.193059,16.331609,16.138549,0.160200,0.361932,0.347100,-13843,353
0.782000,-16.029756,908.979500,158.207358,-14.708496,249.938965,-1.321260,659.040535,-0.174187,16.792434,16.618247,0.160200,0.367928,0.362052,-13388,300
0.784000,-14.203871,916.453500,140.186602,-14.196533,255.981445,-0.007338,660.472055,-0.154918,17.288557,17.133639,0.160200,0.374370,0.368460,-12922,347
0.786000,-12.363942,923.021250,122.027222,-13.666992,264.770508,1.303050,658.250742,-0.135292,17.687814,17.552523,0.160200,0.379607,0.373800,-12440,348
0.788000,-10.511786,928.676750,103.747174,-13.142944,262.023926,2.631158,666.652824,-0.115351,18.371378,18.256027,0.160200,0.388400,0.381276,-11963,349
0.790000,-8.649235,933.413500,85.364535,-12.673828,234.558105,4.024593,698.855395,-0.095138,19.700839,19.605701,0.160200,0.405271,0.391956,-11536,415
0.792000,-6.778132,937.227250,66.897484,-12.157471,258.178711,5.379339,679.048539,-0.074700,19.655193,19.580492,0.160200,0.404956,0.403704,-11066,357
0.794000,-4.900326,940.114500,48.364280,-11.565308,296.081543,6.664982,644.032957,-0.054084,19.187261,19.133177,0.160200,0.399365,0.399432,-10527,373
0.796000,-3.017674,942.072000,29.783250,-11.015991,274.658203,7.998317,667.413797,-0.033339,20.264792,20.231453,0.160200,0.413093,0.399432,-10027,438
0.798000,-1.132038,943.097750,11.172770,-10.444702,285.644531,9.312664,657.453219,-0.012513,20.462818,20.450305,0.160200,0.415829,0.414384,-9507,443
0.800000,0.754717,943.191000,-7.448759,-9.803101,320.800781,10.557818,622.390219,0.008343,19.979511,19.987854,0.160200,0.410048,0.414384,-8923,441
0.802000,2.640726,942.351500,-26.062922,-9.221924,290.588379,11.862650,651.763121,0.029178,21.203965,21.233143,0.160200,0.425614,0.410112,-8394,412
0.804000,4.524123,940.580250,-44.651312,-8.645142,288.391113,13.169265,652.189137,0.049944,21.671212,21.721156,0.160200,0.431714,0.426132,-7869,486
0.806000,6.403047,937.879250,-63.195549,-8.027710,308.715820,14.430757,629.163430,0.070590,21.508745,21.579334,0.160200,0.429942,0.427200,-7307,444
0.808000,8.275640,934.250250,-81.677295,-7.394897,316.406250,15.670537,617.844000,0.091067,21.645168,21.736235,0.160200,0.431903,0.431472,-6731,491
0.810000,10.140048,929.697500,-100.078273,-6.722534,336.181641,16.862582,593.515859,0.111328,21.424360,21.535689,0.160200,0.429396,0.431472,-6119,473
0.812000,11.994430,924.225750,-118.380289,-5.999634,361.450195,17.994064,562.775555,0.131327,21.014543,21.145870,0.160200,0.424523,0.423996,-5461,508
0.814000,13.836951,917.839750,-136.565243,-5.373413,313.110352,19.210364,604.729398,0.151020,22.537461,22.688481,0.160200,0.443806,0.422928,-4891,482
0.816000,15.665789,910.546250,-154.615154,-4.699951,336.730957,20.365740,573.815293,0.170364,22.131434,22.301797,0.160200,0.438972,0.444288,-4278,490
0.818000,17.479136,902.352500,-172.512173,-3.969360,365.295410,21.448496,537.057090,0.189318,21.547059,21.736378,0.160200,0.431905,0.441084,-3613,505
0.820000,19.275199,893.266250,-190.238603,-3.215698,376.831055,22.490897,516.435195,0.207847,21.371046,21.578893,0.160200,0.429936,0.435744,-2927,528
0.822000,21.052201,883.296750,-207.776914,-2.611450,302.124023,23.663651,581.172727,0.225914,23.475239,23.701153,0.160200,0.456464,0.428268,-2377,489
0.824000,22.808386,872.453750,-225.109763,-1.979736,315.856934,24.788122,556.596816,0.243488,23.224358,23.467846,0.160200,0.453548,0.453900,-1802,506
0.826000,24.542016,860.748000,-242.220011,-1.309570,335.083008,25.851586,525.664992,0.260541,22.785783,23.046324,0.160200,0.448279,0.456036,-1192,502
0.828000,26.251378,848.191500,-259.090739,-0.578979,365.295410,26.830357,482.896090,0.277046,22.007752,22.284798,0.160200,0.438760,0.446424,-527,537
0.830000,27.934782,834.795750,-275.705263,0.115356,347.167969,27.819426,487.627781,0.292982,22.476877,22.769859,0.160200,0.444823,0.440016,105,544
0.832000,29.590561,820.574500,-292.047155,0.826172,355.407715,28.764389,465.166785,0.308329,22.218704,22.527033,0.160200,0.441788,0.448560,752,514
0.834000,31.217080,805.542250,-308.100254,1.540283,357.055664,29.676797,448.486586,0.323073,22.100508,22.423580,0.160200,0.440495,0.444288,1402,531
0.836000,32.812730,789.713000,-323.848686,2.224731,342.224121,30.587999,447.488879,0.337200,22.392457,22.729657,0.160200,0.444321,0.441084,2025,526
0.838000,34.375932,773.103000,-339.276878,3.017944,396.606445,31.357988,376.496555,0.350703,20.802659,21.153362,0.160200,0.424617,0.446424,2747,534
0.840000,35.905142,755.728750,-354.369575,3.779297,380.676270,32.125845,375.052480,0.363574,21.032886,21.396461,0.160200,0.427656,0.425064,3440,536
0.842000,37.398847,737.607000,-369.111851,4.492310,356.506348,32.906537,381.100652,0.375813,21.463740,21.839553,0.160200,0.433194,0.428268,4089,523
0.844000,38.855570,718.755750,-383.489129,5.261353,384.521484,33.594217,334.234266,0.387419,20.476827,20.864246,0.160200,0.421003,0.429336,4789,545
0.846000,40.273870,699.193750,-397.487191,6.058960,398.803711,34.214910,300.390039,0.398396,19.807450,20.205846,0.160200,0.412773,0.420792,5515,511
0.848000,41.652345,678.940500,-411.092196,6.817017,379.028320,34.835328,299.912180,0.408751,20.011506,20.420257,0.160200,0.415453,0.416520,6205,526
0.850000,42.989632,658.015750,-424.290690,7.559692,371.337891,35.429940,286.677859,0.418491,19.872591,20.291082,0.160200,0.413839,0.417588,6881,493
0.852000,44.284408,636.440500,-437.069622,8.307861,374.084473,35.976547,262.356027,0.427629,19.426649,19.854277,0.160200,0.408378,0.412248,7562,495
0.854000,45.535394,614.235750,-449.416355,9.049438,370.788574,36.485956,243.447176,0.436177,19.109433,19.545610,0.160200,0.404520,0.403704,8237,470
0.856000,46.741351,591.423500,-461.318679,9.738281,344.421387,37.003070,247.002113,0.444150,19.383008,19.827158,0.160200,0.408039,0.402636,8864,489
0.858000,47.901088,568.026750,-472.764826,10.419434,340.576172,37.481654,227.450578,0.451565,19.038208,19.489773,0.160200,0.403822,0.412248,9484,455
0.860000,49.013458,544.068250,-483.743477,11.041260,310.913086,37.972198,233.155164,0.458441,19.358786,19.817227,0.160200,0.407915,0.402636,10050,472
0.862000,50.077361,519.571500,-494.243776,11.667480,313.110352,38.409881,206.461148,0.464797,18.812718,19.277514,0.160200,0.401169,0.409044,10620,475
0.864000,51.091744,494.561000,-504.255338,12.232178,282.348633,38.859566,212.212367,0.470652,19.120254,19.590907,0.160200,0.405086,0.401568,11134,464
0.866000,52.055605,469.061500,-513.768265,12.880371,324.096680,39.175234,144.964820,0.476029,17.469906,17.945936,0.160200,0.384524,0.399432,11724,461
0.868000,52.967990,443.098250,-522.773149,13.443970,281.799316,39.524020,161.298934,0.480948,18.019282,18.500230,0.160200,0.391453,0.386616,12237,452
0.870000,53.827998,416.697000,-531.261085,14.039429,297.729492,39.788569,118.967508,0.485432,17.003393,17.488825,0.160200,0.378810,0.386616,12779,425
0.872000,54.634778,389.883250,-539.223681,14.698608,329.589844,39.936170,60.293406,0.489501,15.518831,16.008331,0.160200,0.360304,0.378072,13379,473
0.874000,55.387531,362.684250,-546.653063,15.329224,315.307617,40.058307,47.376633,0.493176,15.223304,15.716480,0.160200,0.356656,0.362052,13953,437
0.876000,56.085515,335.126750,-553.541883,15.949951,310.363770,40.135564,24.762980,0.496479,14.658248,15.154727,0.160200,0.349634,0.354576,14518,396
0.878000,56.728038,307.237500,-559.883330,16.497070,273.559570,40.230968,33.677930,0.499429,14.924943,15.424372,0.160200,0.353005,0.347100,15016,442
0.880000,57.314465,279.044500,-565.671134,17.040894,271.911621,40.273571,7.132879,0.502046,14.244867,14.746912,0.160200,0.344536,0.356712,15511,386
0.882000,57.844216,250.575750,-570.899570,17.548462,253.784180,40.295754,-3.208430,0.504346,13.981875,14.486222,0.160200,0.341278,0.343896,15973,393
0.884000,58.316768,221.859250,-575.563469,18.042847,247.192383,40.273921,-25.333133,0.506348,13.395031,13.901379,0.160200,0.333967,0.341760,16423,375
0.886000,58.731653,192.923000,-579.658219,18.569092,263.122559,40.162561,-70.199559,0.508066,12.181558,12.689625,0.160200,0.318820,0.334284,16902,345
0.888000,59.088460,163.796250,-583.179770,19.114014,272.460938,39.974446,-108.664688,0.509514,11.108879,11.618393,0.160200,0.305430,0.318264,17398,340
0.890000,59.386838,134.507750,-586.124640,19.587524,236.755371,39.799314,-102.247621,0.510704,11.215745,11.726448,0.160200,0.306781,0.307584,17829,327
0.892000,59.626491,105.085750,-588.489918,20.035767,224.121094,39.590724,-119.035344,0.511645,10.703432,11.215077,0.160200,0.300388,0.308652,18237,289
0.894000,59.807181,75.560000,-590.273264,20.484009,224.121094,39.323172,-148.561094,0.512346,9.837056,10.349403,0.160200,0.289568,0.294768,18645,313
0.896000,59.928731,45.960000,-591.472915,20.904785,210.388184,39.023946,-164.428184,0.512814,9.317207,9.830021,0.160200,0.283075,0.290496,19028,342
0.898000,59.991021,16.314000,-592.087684,21.315674,205.444336,38.675347,-189.130336,0.513053,8.548822,9.061875,0.160200,0.273473,0.283020,19402,296
0.900000,59.993987,-13.348000,-592.116964,21.735352,209.838867,38.258635,-223.186867,0.513064,7.511765,8.024829,-0.160200,-0.059890,0.269136,19784,278
0.902000,59.937629,-42.996750,-591.560726,22.127563,196.105957,37.810066,-239.102707,0.512848,6.938508,7.451357,-0.160200,-0.067058,-0.056604,20141,201
0.904000,59.822000,-72.603250,-590.419519,22.328613,100.524902,37.493387,-173.128152,0.512404,8.555176,9.067580,-0.160200,-0.046855,-0.064080,20324,41
0.906000,59.647216,-102.137500,-588.694473,22.357178,14.282227,37.290038,-116.419727,0.511726,9.968818,10.480543,-0.160200,-0.029193,-0.050196,20350,-14
0.908000,59.413450,-131.570750,-586.387293,22.336304,-10.437012,37.077146,-121.133738,0.510809,9.771092,10.281900,-0.160200,-0.031676,-0.027768,20331,-13
0.910000,59.120933,-160.874250,-583.500260,22.317627,-9.338379,36.803306,-151.535871,0.509644,8.879577,9.389222,-0.160200,-0.042835,-0.033108,20314,-7
0.912000,58.769953,-190.018750,-580.036229,22.305542,-6.042480,36.464411,-183.976270,0.508223,7.911993,8.420216,-0.160200,-0.054947,-0.043788,20303,-10
0.914000,58.360858,-218.975000,-575.998627,22.292358,-6.591797,36.068500,-212.383203,0.506533,7.030102,7.536635,-0.160200,-0.065992,-0.058740,20291,-12
0.916000,57.894053,-247.714750,-571.391445,22.274780,-8.789062,35.619273,-238.925688,0.504560,6.178412,6.682972,-0.160200,-0.076663,-0.069420,20275,-15
0.918000,57.369999,-276.209500,-566.219239,22.255005,-9.887695,35.114994,-266.321805,0.502290,5.285157,5.787446,-0.160200,-0.087857,-0.079032,20257,-17
0.920000,56.789215,-304.431250,-560.487123,22.231934,-11.535645,34.557281,-292.895605,0.499705,4.394778,4.894483,-0.160200,-0.099019,-0.086508,20236,-16
0.922000,56.152274,-332.352250,-554.200767,22.205566,-13.183594,33.946708,-319.168656,0.496789,3.493820,3.990610,-0.160200,-0.110317,-0.098256,20212,-27
0.924000,55.459806,-359.944250,-547.366387,22.169312,-18.127441,33.290494,-341.816809,0.493523,2.671832,3.165354,-0.160200,-0.120633,-0.110004,20179,-29
0.926000,54.712497,-387.180250,-539.990739,22.126465,-21.423340,32.586032,-365.756910,0.489885,1.799178,2.289063,-0.160200,-0.131587,-0.118548,20140,-46
0.928000,53.911085,-414.033500,-532.081119,22.072632,-26.916504,31.838453,-387.116996,0.485857,0.979017,1.464874,-0.160200,-0.141889,-0.128160,20091,-49
0.930000,53.056363,-440.477500,-523.645347,22.003418,-34.606934,31.052945,-405.870566,0.481416,0.213856,0.695272,-0.160200,-0.151509,-0.139908,20028,-49
0.932000,52.149175,-466.485750,-514.691766,21.917725,-42.846680,30.231450,-423.639070,0.476541,-0.538078,-0.061537,-0.160200,-0.160969,-0.156996,19950,-63
0.934000,51.190420,-492.032750,-505.229228,21.816650,-50.537109,29.373770,-441.495641,0.471211,-1.304949,-0.833738,-0.160200,-0.170622,-0.158064,19858,-80
0.936000,50.181044,-517.093250,-495.267092,21.708984,-53.833008,28.472060,-463.260242,0.465404,-2.189501,-1.724097,-0.160200,-0.181751,-0.166608,19760,-84
0.938000,49.122047,-541.642250,-484.815208,21.584839,-62.072754,27.537208,-479.569496,0.459100,-2.942801,-2.483701,-0.160200,-0.191246,-0.180492,19647,-108
0.940000,48.014475,-565.655750,-473.883912,21.453003,-65.917969,26.561472,-499.737781,0.452277,-3.811402,-3.359125,-0.160200,-0.202189,-0.191172,19527,-87
0.942000,46.859424,-589.109750,-462.484012,21.309082,-71.960449,25.550342,-517.149301,0.444916,-4.620185,-4.175269,-0.160200,-0.212391,-0.200784,19396,-127
0.944000,45.658036,-611.981500,-450.626783,21.161865,-73.608398,24.496171,-538.373102,0.436999,-5.543798,-5.106799,-0.160200,-0.224035,-0.214668,19262,-139
0.946000,44.411498,-634.248000,-438.323949,21.010254,-75.805664,23.401244,-558.442336,0.428510,-6.451411,-6.022901,-0.160200,-0.235486,-0.225348,19124,-160
0.948000,43.121044,-655.887250,-425.587675,20.844360,-82.946777,22.276684,-572.940473,0.419432,-7.223517,-6.804085,-0.160200,-0.245251,-0.232824,18973,-124
0.950000,41.787949,-676.878000,-412.430557,20.648804,-97.778320,21.139145,-579.099680,0.409752,-7.781840,-7.372088,-0.160200,-0.252351,-0.245640,18795,-153
0.952000,40.413532,-697.199250,-398.865605,20.443359,-102.722168,19.970173,-594.477082,0.399460,-8.592468,-8.193009,-0.160200,-0.262613,-0.254184,18608,-168
0.954000,38.999152,-716.831250,-384.906231,20.233521,-104.919434,18.765631,-611.911816,0.388545,-9.469373,-9.080828,-0.160200,-0.273710,-0.246708,18417,-201
0.956000,37.546207,-735.754250,-370.566241,20.009399,-112.060547,17.536808,-623.693703,0.377002,-10.206762,-9.829760,-0.160200,-0.283072,-0.270204,18213,-218
0.958000,36.056135,-753.949750,-355.859815,19.766602,-121.398926,16.289533,-632.550824,0.364827,-10.874022,-10.509195,-0.160200,-0.291565,-0.279816,17992,-239
0.960000,34.530408,-771.399750,-340.801494,19.506226,-130.187988,15.024182,-641.211762,0.352018,-11.542456,-11.190437,-0.160200,-0.300080,-0.291564,17755,-257
0.962000,32.970536,-788.087000,-325.406170,19.205200,-150.512695,13.765336,-637.574305,0.338579,-11.886648,-11.548069,-0.160200,-0.304551,-0.302244,17481,-245
0.964000,31.378060,-803.994750,-309.689066,18.909668,-147.766113,12.468392,-656.228637,0.324513,-12.827736,-12.503222,-0.160200,-0.316490,-0.306516,17212,-257
0.966000,29.754557,-819.107500,-293.665724,18.602051,-153.808594,11.152506,-665.298906,0.309831,-13.524526,-13.214694,-0.160200,-0.325384,-0.315060,16932,-301
0.968000,28.101630,-833.410500,-277.351990,18.236206,-182.922363,9.865424,-650.488137,0.294543,-13.586057,-13.291514,-0.160200,-0.326344,-0.325740,16599,-254
0.970000,26.420915,-846.889250,-260.763994,17.851685,-192.260742,8.569230,-654.628508,0.278666,-14.146909,-13.868243,-0.160200,-0.333553,-0.328944,16249,-327
0.972000,24.714073,-859.530750,-243.918140,17.504517,-173.583984,7.209556,-685.946766,0.262216,-15.441434,-15.179218,-0.160200,-0.349940,-0.333216,15933,-262
0.974000,22.982792,-871.322000,-226.831086,17.125488,-189.514160,5.857304,-681.807840,0.245217,-15.805103,-15.559885,-0.160200,-0.354699,-0.349236,15588,-318
0.976000,21.228785,-882.251500,-209.519729,16.738770,-193.359375,4.490015,-688.892125,0.227694,-16.467843,-16.240148,-0.160200,-0.363202,-0.353508,15236,-297
0.978000,19.453786,-892.308750,-192.001187,16.337769,-200.500488,3.116017,-691.808262,0.209675,-17.023803,-16.814128,-0.160200,-0.370377,-0.363120,14871,-364
0.980000,17.659550,-901.483750,-174.292784,15.879639,-229.064941,1.779911,-672.418809,0.191191,-16.982577,-16.791386,-0.160200,-0.370092,-0.370596,14454,-388
0.982000,15.847851,-909.767250,-156.412030,15.436890,-221.374512,0.410961,-688.392738,0.172277,-17.878627,-17.706350,-0.160200,-0.381529,-0.367392,14051,-347
0.984000,14.020481,-917.151250,-138.376607,14.988647,-224.121094,-0.968166,-693.030156,0.152971,-18.481441,-18.328470,-0.160200,-0.389306,-0.382344,13643,-365
0.986000,12.179246,-923.628250,-120.204350,14.501953,-243.347168,-2.322707,-680.281082,0.133311,-18.620495,-18.487184,-0.160200,-0.391290,-0.389820,13200,-407
0.988000,10.325968,-929.191750,-101.913228,13.986694,-257.629395,-3.660726,-671.562355,0.113341,-18.859296,-18.745955,-0.160200,-0.394524,-0.394092,12731,-424
0.990000,8.462479,-933.836500,-83.521328,13.432983,-276.855469,-4.970504,-656.981031,0.093104,-18.934757,-18.841653,-0.160200,-0.395721,-0.394092,12227,-398
0.992000,6.590622,-937.557750,-65.046838,12.891357,-270.812988,-6.300735,-666.744762,0.072646,-19.654709,-19.582063,-0.160200,-0.404976,-0.397296,11734,-443
0.994000,4.712248,-940.352000,-46.508026,12.325562,-282.897949,-7.613314,-657.454051,0.052015,-19.869655,-19.817640,-0.160200,-0.407920,-0.401568,11219,-443
0.996000,2.829214,-942.216500,-27.923224,11.720215,-302.673340,-8.891001,-639.543160,0.031259,-19.846746,-19.815487,-0.160200,-0.407894,-0.407976,10668,-434
0.998000,0.943382,-943.149000,-9.310810,11.157715,-281.250000,-10.214333,-661.899000,0.010428,-20.893950,-20.883522,-0.160200,-0.421244,-0.404772,10156,-439
1.000000,-0.943382,-943.149000,9.310810,10.569946,-293.884277,-11.513328,-649.264723,-0.010428,-21.016620,-21.027048,-0.160200,-0.423038,-0.420792,9621,-440
1.002000,-2.829214,-942.216500,27.923224,9.938232,-315.856934,-12.767446,-626.359566,-0.031259,-20.854735,-20.885994,-0.160200,-0.421275,-0.428268,9046,-472
1.004000,-4.712248,-940.352000,46.508026,9.333984,-302.124023,-14.046232,-638.227977,-0.052015,-21.611829,-21.663844,-0.160200,-0.430998,-0.427200,8496,-484
1.006000,-6.590622,-937.557750,65.046838,8.750610,-291.687012,-15.341232,-645.870738,-0.072646,-22.263957,-22.336602,-0.160200,-0.439408,-0.432540,7965,-500
1.008000,-8.462479,-933.836500,83.521328,8.068359,-341.125488,-16.530838,-592.711012,-0.093104,-21.287489,-21.380593,-0.160200,-0.427457,-0.442152,7344,-501
1.010000,-10.325968,-929.191750,101.913228,7.403687,-332.336426,-17.729655,-596.855324,-0.113341,-21.814453,-21.927794,-0.160200,-0.434297,-0.430404,6739,-497
1.012000,-12.179246,-923.628250,120.204350,6.715942,-343.872070,-18.895188,-579.756180,-0.133311,-21.773646,-21.906958,-0.160200,-0.434037,-0.436812,6113,-529
1.014000,-14.020481,-917.151250,138.376607,5.971069,-372.436523,-19.991550,-544.714727,-0.152971,-21.238966,-21.391937,-0.160200,-0.427599,-0.436812,5435,-524
1.016000,-15.847851,-909.767250,156.412030,5.186646,-392.211914,-21.034497,-517.555336,-0.172277,-20.891991,-21.064269,-0.160200,-0.423503,-0.428268,4721,-532
1.018000,-17.659550,-901.483750,174.292784,4.450562,-368.041992,-22.110112,-533.441758,-0.191191,-21.683357,-21.874549,-0.160200,-0.433632,-0.425064,4051,-537
1.020000,-19.453786,-892.308750,192.001187,3.733154,-358.703613,-23.186940,-533.605137,-0.209675,-22.063519,-22.273194,-0.160200,-0.438615,-0.437880,3398,-501
1.022000,-21.228785,-882.251500,209.519729,2.949829,-391.662598,-24.178614,-490.588902,-0.227694,-21.283516,-21.511210,-0.160200,-0.429090,-0.437880,2685,-527
1.024000,-22.982792,-871.322000,226.831086,2.159912,-394.958496,-25.142704,-476.363504,-0.245217,-21.247627,-21.492844,-0.160200,-0.428861,-0.431472,1966,-517
1.026000,-24.714073,-859.530750,243.918140,1.364502,-397.705078,-26.078575,-461.825672,-0.262216,-21.193708,-21.455924,-0.160200,-0.428399,-0.431472,1242,-547
1.028000,-26.420915,-846.889250,260.763994,0.537231,-413.635254,-26.958146,-433.253996,-0.278666,-20.752731,-21.031397,-0.160200,-0.423092,-0.431472,489,-540
1.030000,-28.101630,-833.410500,277.351990,-0.253784,-395.507812,-27.847846,-437.902687,-0.294543,-21.184998,-21.479541,-0.160200,-0.428694,-0.419724,-231,-510
1.032000,-29.754557,-819.107500,293.665724,-1.042603,-394.409180,-28.711954,-424.698320,-0.309831,-21.140939,-21.450770,-0.160200,-0.428335,-0.430404,-949,-523
1.034000,-31.378060,-803.994750,309.689066,-1.827026,-392.211914,-29.551034,-411.782836,-0.324513,-21.095706,-21.420220,-0.160200,-0.427953,-0.430404,-1663,-543
1.036000,-32.970536,-788.087000,325.406170,-2.613647,-393.310547,-30.356889,-394.776453,-0.338579,-20.931776,-21.270355,-0.160200,-0.426079,-0.433608,-2379,-514
1.038000,-34.530408,-771.399750,340.801494,-3.405762,-396.057129,-31.124646,-375.342621,-0.352018,-20.690998,-21.043016,-0.160200,-0.423238,-0.422928,-3100,-540
1.040000,-36.056135,-753.949750,355.859815,-4.194580,-394.409180,-31.861555,-359.540570,-0.364827,-20.534531,-20.899358,-0.160200,-0.421442,-0.419724,-3818,-534
1.042000,-37.546207,-735.754250,370.566241,-4.944946,-375.183105,-32.601261,-360.571145,-0.377002,-20.819717,-21.196719,-0.160200,-0.425159,-0.421860,-4501,-520
1.044000,-38.999152,-716.831250,384.906231,-5.723877,-389.465332,-33.275275,-327.365918,-0.388545,-20.185682,-20.574227,-0.160200,-0.417378,-0.423996,-5210,-502
1.046000,-40.413532,-697.199250,398.865605,-6.498413,-387.268066,-33.915119,-309.931184,-0.399460,-19.952589,-20.352049,-0.160200,-0.414601,-0.419724,-5915,-501
1.048000,-41.787949,-676.878000,412.430557,-7.270752,-386.169434,-34.517197,-290.708566,-0.409752,-19.659507,-20.069260,-0.160200,-0.411066,-0.414384,-6618,-489
1.050000,-43.121044,-655.887250,425.587675,-7.961792,-345.520020,-35.159252,-310.367230,-0.419432,-20.398289,-20.817721,-0.160200,-0.420422,-0.409044,-7247,-521
1.052000,-44.411498,-634.248000,438.323949,-8.675903,-357.055664,-35.735595,-277.192336,-0.428510,-19.730954,-20.159464,-0.160200,-0.412193,-0.421860,-7897,-513
1.054000,-45.658036,-611.981500,450.626783,-9.432861,-378.479004,-36.225175,-233.502496,-0.436999,-18.758052,-19.195052,-0.160200,-0.400138,-0.415452,-8586,-519
1.056000,-46.859424,-589.109750,462.484012,-10.188721,-377.929688,-36.670703,-211.180062,-0.444916,-18.329171,-18.774087,-0.160200,-0.394876,-0.400500,-9274,-499
1.058000,-48.014475,-565.655750,473.883912,-10.943481,-377.380371,-37.070994,-188.275379,-0.452277,-17.869256,-18.321532,-0.160200,-0.389219,-0.388752,-9961,-491
1.060000,-49.122047,-541.642250,484.815208,-11.583984,-320.251465,-37.538063,-221.390785,-0.459100,-18.899253,-19.358353,-0.160200,-0.402179,-0.387684,-10544,-493
1.062000,-50.181044,-517.093250,495.267092,-12.303589,-359.802246,-37.877455,-157.291004,-0.465404,-17.339595,-17.804999,-0.160200,-0.382762,-0.395160,-11199,-481
1.064000,-51.190420,-492.032750,505.229228,-13.016602,-356.506348,-38.173818,-135.526402,-0.471211,-16.873249,-17.344461,-0.160200,-0.377006,-0.386616,-11848,-478
1.066000,-52.149175,-466.485750,514.691766,-13.715332,-349.365234,-38.433843,-117.120516,-0.476541,-16.482150,-16.958691,-0.160200,-0.372184,-0.378072,-12484,-432
1.068000,-53.056363,-440.477500,523.645347,-14.263550,-274.108887,-38.792813,-166.368613,-0.481416,-17.896766,-18.378183,-0.160200,-0.389927,-0.373800,-12983,-435
1.070000,-53.911085,-414.033500,532.081119,-14.797485,-266.967773,-39.113600,-147.065727,-0.485857,-17.503394,-17.989251,-0.160200,-0.385066,-0.393024,-13469,-458
1.072000,-54.712497,-387.180250,539.990739,-15.395142,-298.828125,-39.317355,-88.352125,-0.489885,-16.037399,-16.527285,-0.160200,-0.366791,-0.384480,-14013,-468
1.074000,-55.459806,-359.944250,547.366387,-16.060913,-332.885742,-39.398893,-27.058508,-0.493523,-14.461198,-14.954721,-0.160200,-0.347134,-0.367392,-14619,-466
1.076000,-56.152274,-332.352250,554.200767,-16.650879,-294.982910,-39.501395,-37.369340,-0.496789,-14.766915,-15.263705,-0.160200,-0.350996,-0.348168,-15156,-444
1.078000,-56.789215,-304.431250,560.487123,-17.216675,-282.897949,-39.572540,-21.533301,-0.499705,-14.377163,-14.876868,-0.160200,-0.346161,-0.349236,-15671,-404
1.080000,-57.369999,-276.209500,566.219239,-17.740723,-262.023926,-39.629276,-14.185574,-0.502290,-14.204605,-14.706894,-0.160200,-0.344036,-0.339624,-16148,-362
1.082000,-57.894053,-247.714750,571.391445,-18.241699,-250.488281,-39.652354,2.773531,-0.504560,-13.768672,-14.273232,-0.160200,-0.338615,-0.342828,-16604,-422
1.084000,-58.360858,-218.975000,575.998627,-18.825073,-291.687012,-39.535785,72.712012,-0.506533,-11.896996,-12.403529,-0.160200,-0.315244,-0.336420,-17135,-419
1.086000,-58.769953,-190.018750,580.036229,-19.321655,-248.291016,-39.448298,58.272266,-0.508223,-12.244489,-12.752712,-0.160200,-0.319609,-0.318264,-17587,-322
1.088000,-59.120933,-160.874250,583.500260,-19.817139,-247.741699,-39.303794,86.867449,-0.509644,-11.445428,-11.955072,-0.160200,-0.309638,-0.317196,-18038,-377
1.090000,-59.413450,-131.570750,586.387293,-20.315918,-249.389648,-39.097532,117.818898,-0.510809,-10.563122,-11.073930,-0.160200,-0.298624,-0.307584,-18492,-371
1.092000,-59.647216,-102.137500,588.694473,-20.791626,-237.854004,-38.855590,135.716504,-0.511726,-10.010110,-10.521836,-0.160200,-0.291723,-0.302244,-18925,-307
1.094000,-59.822000,-72.603250,590.419519,-21.210205,-209.289551,-38.611795,136.686301,-0.512404,-9.899620,-10.412024,-0.160200,-0.290350,-0.289428,-19306,-341
1.096000,-59.937629,-42.996750,591.560726,-21.651855,-220.825195,-38.285774,177.828445,-0.512848,-8.708718,-9.221567,-0.160200,-0.275470,-0.292632,-19708,-257
1.098000,-59.993987,-13.348000,592.116964,-22.049561,-198.852539,-37.944426,185.504539,-0.513064,-8.388606,-8.901670,-0.160200,-0.271471,-0.276612,-20070,-299
1.100000,-59.991021,16.314000,592.087684,-22.412109,-181.274414,-37.578912,197.588414,-0.513053,-7.944662,-8.457715,0.160200,0.054479,-0.271272,-20400,-276
1.102000,-59.928731,45.960000,591.472915,-22.747192,-167.541504,-37.181539,213.501504,-0.512814,-7.389349,-7.902163,0.160200,0.061423,0.056604,-20705,-168
1.104000,-59.807181,75.560000,590.273264,-22.960327,-106.567383,-36.846854,182.127383,-0.512346,-8.093895,-8.606241,0.160200,0.052622,0.060876,-20899,-60
1.106000,-59.626491,105.085750,588.489918,-23.007568,-23.620605,-36.618923,128.706355,-0.511645,-9.412891,-9.924536,0.160200,0.036143,0.052332,-20942,0
1.108000,-59.386838,134.507750,586.124640,-22.991089,8.239746,-36.395749,126.268004,-0.510704,-9.398825,-9.909528,0.160200,0.036331,0.033108,-20927,16
1.110000,-59.088460,163.796250,583.179770,-22.965820,12.634277,-36.122640,151.161973,-0.509514,-8.651769,-9.161283,0.160200,0.045684,0.039516,-20904,15
1.112000,-58.731653,192.923000,579.658219,-22.948242,8.789062,-35.783411,184.133937,-0.508066,-7.670152,-8.178218,0.160200,0.057972,0.041652,-20888,9
1.114000,-58.316768,221.859250,575.563469,-22.935059,6.591797,-35.381709,215.267453,-0.506348,-6.714858,-7.221206,0.160200,0.069935,0.054468,-20876,8
1.116000,-57.844216,250.575750,570.899570,-22.921875,6.591797,-34.922341,243.983953,-0.504346,-5.802712,-6.307058,0.160200,0.081362,0.072624,-20864,13
1.118000,-57.314465,279.044500,565.671134,-22.899902,10.986328,-34.414563,268.058172,-0.502046,-4.995202,-5.497248,0.160200,0.091484,0.082236,-20844,18
1.120000,-56.728038,307.237500,559.883330,-22.871338,14.282227,-33.856700,292.955273,-0.499429,-4.148667,-4.648096,0.160200,0.102099,0.092916,-20818,21
1.122000,-56.085515,335.126750,553.541883,-22.831787,19.775391,-33.253728,315.351359,-0.496479,-3.351862,-3.848340,0.160200,0.112096,0.102528,-20782,35
1.124000,-55.387531,362.684250,546.653063,-22.784546,23.620605,-32.602985,339.063645,-0.493176,-2.503923,-2.997099,0.160200,0.122736,0.113208,-20739,40
1.126000,-54.634778,389.883250,539.223681,-22.731812,26.367188,-31.902966,363.516063,-0.489501,-1.619408,-2.108908,0.160200,0.133839,0.118548,-20691,42
1.128000,-53.827998,416.697000,531.261085,-22.670288,30.761719,-31.157710,385.935281,-0.485432,-0.772330,-1.257762,0.160200,0.144478,0.137772,-20635,49
1.130000,-52.967990,443.098250,522.773149,-22.582397,43.945312,-30.385593,399.152938,-0.480948,-0.156773,-0.637722,0.160200,0.152228,0.143112,-20555,52
1.132000,-52.055605,469.061500,513.768265,-22.506592,37.902832,-29.549013,431.158668,-0.476029,0.973156,0.497127,0.160200,0.166414,0.154860,-20486,69
1.134000,-51.091744,494.561000,504.255338,-22.421997,42.297363,-28.669747,452.263637,-0.470652,1.832605,1.361952,0.160200,0.177224,0.168744,-20409,71
1.136000,-50.077361,519.571500,494.243776,-22.314331,53.833008,-27.763030,465.738492,-0.464797,2.501880,2.037083,0.160200,0.185664,0.175152,-20311,86
1.138000,-49.013458,544.068250,483.743477,-22.194580,59.875488,-26.818878,484.192762,-0.458441,3.314582,2.856141,0.160200,0.195902,0.185832,-20202,96
1.140000,-47.901088,568.026750,472.764826,-22.075928,59.326172,-25.825160,508.700578,-0.451565,4.303068,3.851503,0.160200,0.208344,0.196512,-20094,100
1.142000,-46.741351,591.423500,461.318679,-21.941895,67.016602,-24.799456,524.406898,-0.444150,5.072297,4.628147,0.160200,0.218052,0.208260,-19972,130
1.144000,-45.535394,614.235750,449.416355,-21.756226,92.834473,-23.779168,521.401277,-0.436177,5.349758,4.913581,0.160200,0.221620,0.221076,-19803,146
1.146000,-44.284408,636.440500,437.069622,-21.562866,96.679688,-22.721542,539.760812,-0.427629,6.199591,5.771962,0.160200,0.232350,0.221076,-19627,159
1.148000,-42.989632,658.015750,424.290690,-21.365112,98.876953,-21.624520,559.138797,-0.418491,7.089838,6.671347,0.160200,0.243592,0.236028,-19447,150
1.150000,-41.652345,678.940500,411.092196,-21.124512,120.300293,-20.527833,558.640207,-0.408751,7.459601,7.050850,0.160200,0.248336,0.242436,-19228,148
1.152000,-40.273870,699.193750,397.487191,-20.883911,120.300293,-19.389959,578.893457,-0.398396,8.387023,7.988626,0.160200,0.260058,0.249912,-19009,192
1.154000,-38.855570,718.755750,383.489129,-20.647705,118.103027,-18.207865,600.652723,-0.387419,9.369308,8.981888,0.160200,0.272474,0.257388,-18794,221
1.156000,-37.398847,737.607000,369.111851,-20.401611,123.046875,-16.997236,614.560125,-0.375813,10.155992,9.780179,0.160200,0.282452,0.272340,-18570,198
1.158000,-35.905142,755.728750,354.369575,-20.113770,143.920898,-15.791372,611.807852,-0.363574,10.504863,10.141289,0.160200,0.286966,0.280884,-18308,251
1.160000,-34.375932,773.103000,339.276878,-19.813843,149.963379,-14.562089,623.139621,-0.350703,11.230629,10.879927,0.160200,0.296199,0.290496,-18035,201
1.162000,-32.812730,789.713000,323.848686,-19.465576,174.133301,-13.347154,615.579699,-0.337200,11.456803,11.119603,0.160200,0.299195,0.301176,-17718,279
1.164000,-31.217080,805.542250,308.100254,-19.087646,188.964844,-12.129434,616.577406,-0.323073,11.907988,11.584915,0.160200,0.305011,0.299040,-17374,234
1.166000,-29.590561,820.574500,292.047155,-18.710815,188.415527,-10.879746,632.158973,-0.308329,12.752136,12.443806,0.160200,0.315748,0.304380,-17031,256
1.168000,-27.934782,834.795750,275.705263,-18.299927,205.444336,-9.634855,629.351414,-0.292982,13.113183,12.820201,0.160200,0.320453,0.318264,-16657,249
1.170000,-26.251378,848.191500,259.090739,-17.957153,171.386719,-8.294225,676.804781,-0.277046,14.823477,14.546431,0.160200,0.342030,0.322536,-16345,316
1.172000,-24.542016,860.748000,242.220011,-17.514404,221.374512,-7.027612,639.373488,-0.260541,14.285660,14.025119,0.160200,0.335514,0.340692,-15942,322
1.174000,-22.808386,872.453750,225.109763,-17.094727,209.838867,-5.713659,662.614883,-0.243488,15.352774,15.109285,0.160200,0.349066,0.335352,-15560,308
1.176000,-21.052201,883.296750,207.776914,-16.627808,233.459473,-4.424393,649.837277,-0.225914,15.468295,15.242381,0.160200,0.350730,0.351372,-15135,296
1.178000,-19.275199,893.266250,190.238603,-16.182861,222.473145,-3.092338,670.793105,-0.207847,16.481893,16.274046,0.160200,0.363626,0.348168,-14730,314
1.180000,-17.479136,902.352500,172.512173,-15.679688,251.586914,-1.799449,650.765586,-0.189318,16.408877,16.219559,0.160200,0.362944,0.362052,-14272,403
1.182000,-15.665789,910.546250,154.615154,-15.192993,243.347168,-0.472796,667.199082,-0.170364,17.302194,17.131831,0.160200,0.374348,0.365256,-13829,333
1.184000,-13.836951,917.839750,136.565243,-14.716187,238.403320,0.879236,679.436430,-0.151020,18.094515,17.943495,0.160200,0.384494,0.382344,-13395,377
1.186000,-11.994430,924.225750,118.380289,-14.236084,240.051270,2.241654,684.174480,-0.131327,18.694131,18.562803,0.160200,0.392235,0.386616,-12958,362
1.188000,-10.140048,929.697500,100.078273,-13.666992,284.545898,3.526944,645.151602,-0.111328,18.121165,18.009837,0.160200,0.385323,0.391956,-12440,386
1.190000,-8.275640,934.250250,81.677295,-13.113281,276.855469,4.837641,657.394781,-0.091067,18.899210,18.808143,0.160200,0.395302,0.386616,-11936,432
1.192000,-6.403047,937.879250,63.195549,-12.521118,296.081543,6.118071,641.797707,-0.070590,18.937834,18.867245,0.160200,0.396041,0.398364,-11397,395
1.194000,-4.524123,940.580250,44.651312,-12.009155,255.981445,7.485032,684.598805,-0.049944,20.535524,20.485580,0.160200,0.416270,0.394092,-10931,429
1.196000,-2.640726,942.351500,26.062922,-11.447754,280.700684,8.807028,661.650816,-0.029178,20.396211,20.367032,0.160200,0.414788,0.416520,-10420,454
1.198000,-0.754717,943.191000,7.448759,-10.802856,322.448730,10.048139,620.742270,-0.008343,19.758457,19.750114,0.160200,0.407076,0.411180,-9833,450
1.200000,1.132038,943.097750,-11.172770,-10.185425,308.715820,11.317463,634.381930,0.012513,20.558620,20.571133,0.160200,0.417339,0.409044,-9271,452
1.202000,3.017674,942.072000,-29.783250,-9.555908,314.758301,12.573582,627.313699,0.033339,20.812042,20.845381,0.160200,0.420767,0.418656,-8698,455
1.204000,4.900326,940.114500,-48.364280,-8.884644,335.632324,13.784970,604.482176,0.054084,20.637168,20.691253,0.160200,0.418841,0.418656,-8087,487
1.206000,6.778132,937.227250,-66.897484,-8.154053,365.295410,14.932185,571.931840,0.074700,20.185456,20.260156,0.160200,0.413452,0.414384,-7422,465
1.208000,8.649235,933.413500,-85.364535,-7.458618,347.717285,16.107853,585.696215,0.095138,20.956193,21.051331,0.160200,0.423342,0.412248,-6789,482
1.210000,10.511786,928.676750,-103.747174,-6.817017,320.800781,17.328803,607.875969,0.115351,21.963049,22.078399,0.160200,0.436180,0.423996,-6205,496
1.212000,12.363942,923.021250,-122.027222,-6.111694,352.661133,18.475636,570.360117,0.135292,21.381207,21.516499,0.160200,0.429156,0.438948,-5563,517
1.214000,14.203871,916.453500,-140.186602,-5.336060,387.817383,19.539931,528.636117,0.154918,20.660384,20.815302,0.160200,0.420391,0.428268,-4857,498
1.216000,16.029756,908.979500,-158.207358,-4.639526,348.266602,20.669282,560.712898,0.174187,21.894370,22.068557,0.160200,0.436057,0.418656,-4223,517
1.218000,17.839789,900.606250,-176.071670,-3.983643,327.941895,21.823432,572.664355,0.193059,22.610132,22.803192,0.160200,0.445240,0.437880,-3626,501
1.220000,19.632181,891.342750,-193.761872,-3.227783,377.929688,22.859964,513.413062,0.211498,21.420755,21.632254,0.160200,0.430603,0.442152,-2938,525
1.222000,21.405160,881.197750,-211.260472,-2.557617,335.083008,23.962777,546.114742,0.229469,22.661838,22.891307,0.160200,0.446341,0.427200,-2328,545
1.224000,23.156972,870.181250,-228.550165,-1.789673,383.972168,24.946645,486.209082,0.246941,21.436946,21.683887,0.160200,0.431249,0.446424,-1629,533
1.226000,24.885885,858.304250,-245.613856,-1.063477,363.098145,25.949362,495.206105,0.263886,22.022501,22.286388,0.160200,0.438780,0.431472,-968,539
1.228000,26.590189,845.578750,-262.434670,-0.333984,364.746094,26.924173,480.832656,0.280279,21.986479,22.266758,0.160200,0.438534,0.438948,-304,551
1.230000,28.268200,832.017250,-278.995973,0.402100,368.041992,27.866100,463.975258,0.296099,21.873948,22.170047,0.160200,0.437326,0.438948,366,561
1.232000,29.918258,817.632750,-295.281390,1.175537,386.718750,28.742721,430.914000,0.311327,21.314404,21.625731,0.160200,0.430522,0.440016,1070,543
1.234000,31.538731,802.439500,-311.274816,1.920410,372.436523,29.618321,430.002977,0.325948,21.596196,21.922144,0.160200,0.434227,0.431472,1748,559
1.236000,33.128016,786.453000,-326.960436,2.663086,371.337891,30.464930,415.115109,0.339951,21.501955,21.841906,0.160200,0.433224,0.434676,2424,558
1.238000,34.684543,769.688750,-342.322740,3.450806,393.859863,31.233737,375.828887,0.353327,20.741808,21.095136,0.160200,0.423889,0.430404,3141,560
1.240000,36.206771,752.163500,-357.346536,4.141846,345.520020,32.064925,406.643480,0.366073,21.838672,22.204745,0.160200,0.437759,0.426132,3770,534
1.242000,37.693197,733.894500,-372.016967,4.850464,354.309082,32.842733,379.585418,0.378185,21.401800,21.779984,0.160200,0.432450,0.440016,4415,536
1.244000,39.142349,714.899500,-386.319527,5.544800,347.167969,33.597549,367.731531,0.389665,21.354946,21.744611,0.160200,0.432008,0.433608,5047,536
1.246000,40.552795,695.197750,-400.240073,6.255615,355.407715,34.297180,339.790035,0.400517,20.867657,21.268173,0.160200,0.426052,0.434676,5694,545
1.248000,41.923140,674.808750,-413.764839,6.997192,370.788574,34.925948,304.020176,0.410748,20.150685,20.561433,0.160200,0.417218,0.425064,6369,543
1.250000,43.252030,653.752250,-426.880452,7.814575,408.691406,35.437455,245.060844,0.420367,18.785683,19.206050,0.160200,0.400276,0.416520,7113,556
1.252000,44.538149,632.049000,-439.573941,8.541870,363.647461,35.996279,268.401539,0.429385,19.591808,20.021193,0.160200,0.410465,0.401568,7775,520
1.254000,45.780226,609.721250,-451.832755,9.257080,357.604980,36.523146,252.116270,0.437817,19.349371,19.787188,0.160200,0.407540,0.409044,8426,522
1.256000,46.977034,586.790500,-463.644772,10.039307,391.113281,36.937727,195.677219,0.445677,18.016517,18.462194,0.160200,0.390977,0.412248,9138,536
1.258000,48.127388,563.279000,-474.998310,10.692993,326.843262,37.434395,236.435738,0.452983,19.256942,19.709925,0.160200,0.406574,0.391956,9733,497
1.260000,49.230150,539.211000,-485.882144,11.422485,364.746094,37.807665,174.464906,0.459753,17.764845,18.224598,0.160200,0.388007,0.406908,10397,488
1.262000,50.284232,514.609750,-496.285511,12.172852,375.183105,38.111380,139.426645,0.466007,16.953562,17.419570,0.160200,0.377945,0.388752,11080,499
1.264000,51.288589,489.499500,-506.198122,12.867188,347.167969,38.421402,142.331531,0.471765,17.137830,17.609595,0.160200,0.380320,0.380208,11712,489
1.266000,52.242230,463.905250,-515.610177,13.491211,312.011719,38.751019,151.893531,0.477049,17.503221,17.980270,0.160200,0.384953,0.381276,12280,472
1.268000,53.144210,437.852250,-524.512368,14.159180,333.984375,38.985030,103.867875,0.481879,16.327597,16.809477,0.160200,0.370318,0.382344,12888,470
1.270000,53.993639,411.366250,-532.895891,14.832642,336.730957,39.160997,74.635293,0.486278,15.623714,16.109992,0.160200,0.361575,0.367392,13501,465
1.272000,54.789675,384.473250,-540.752457,15.424805,296.081543,39.364870,88.391707,0.490266,16.055021,16.545288,0.160200,0.367016,0.362052,14040,450
1.274000,55.531532,357.200500,-548.074297,16.053223,314.208984,39.478309,42.991516,0.493866,14.906045,15.399911,0.160200,0.352699,0.367392,14612,427
1.276000,56.218477,329.574500,-554.854171,16.639893,293.334961,39.578584,36.239539,0.497096,14.764281,15.261378,0.160200,0.350967,0.354576,15146,394
1.278000,56.849830,301.622500,-561.085374,17.214478,287.292480,39.635352,14.330020,0.499978,14.210507,14.710485,0.160200,0.344081,0.349236,15669,434
1.280000,57.424967,273.372000,-566.761744,17.811035,298.278809,39.613932,-24.906809,0.502530,13.175812,13.678343,0.160200,0.331179,0.342828,16212,436
1.282000,57.943318,244.851250,-571.877668,18.351562,270.263672,39.591755,-25.412422,0.504770,13.154834,13.659604,0.160200,0.330945,0.340692,16704,377
1.284000,58.404372,216.088500,-576.428088,18.899780,274.108887,39.504592,-58.020387,0.506714,12.270734,12.777448,0.160200,0.319918,0.331080,17203,350
1.286000,58.807672,187.112000,-580.408504,19.445801,273.010254,39.361871,-85.898254,0.508377,11.491074,11.999451,0.160200,0.310193,0.321468,17700,346
1.288000,59.152820,157.950750,-583.814980,19.961060,257.629395,39.191760,-99.678645,0.509772,11.070924,11.580697,0.160200,0.304959,0.312924,18169,368
1.290000,59.439475,128.633000,-586.644146,20.463135,251.037598,38.976340,-122.404598,0.510911,10.400764,10.911676,0.160200,0.296596,0.315060,18626,331
1.292000,59.667352,99.188000,-588.893206,20.964111,250.488281,38.703241,-151.300281,0.511804,9.548948,10.060752,0.160200,0.285959,0.296904,19082,376
1.294000,59.836227,69.645250,-590.559936,21.445312,240.600586,38.390915,-170.955336,0.512459,8.925357,9.437816,0.160200,0.278173,0.286224,19520,332
