khanfazel/E-wera--maxon_motor/PD_control/pd_feedforward_log_filtered.csv
t_s,q_ref_deg,qd_ref_deg_s,qdd_ref_deg_s2,q_link_deg,qd_link_raw_deg_s,qd_link_filt_deg_s,pos_error_deg,vel_error_deg_s,tau_joint_ff_Nm,tau_pd_joint_raw_Nm,tau_pd_joint_limited_Nm,tau_joint_total_Nm,tau_dead_motor_Nm,tau_motor_cmd_before_clamp_Nm,tau_motor_cmd_Nm,tau_motor_actual_Nm,motor_pos_counts,motor_vel_native
0,0,943.2655,0,-0.003296,0,0,0.003296,943.2655,0,16.465102,16.465102,16.465102,0.1602,0.366014,0.366014,0,-3,0
0.002,1.886531,942.79925,0,0.003296,3.295898,0.32959,1.883235,942.46966,0.027289,17.599602,17.599602,17.626891,0.1602,0.380536,0.380536,0.364188,3,68
0.004,3.771197,941.40075,-37.220226,0.134033,65.368652,6.833496,3.637164,934.567254,0.041649,18.533093,18.533093,18.574742,0.1602,0.392384,0.392384,0.383412,122,178
0.006,5.652134,939.071,-55.784328,0.362549,114.257812,17.575928,5.289585,921.495072,0.062349,19.314347,19.314347,19.376696,0.1602,0.402409,0.402409,0.393024,330,231
0.008,7.527481,935.81275,-74.293267,0.689941,163.696289,32.187964,6.83754,903.624786,0.082899,19.948043,19.948043,20.030942,0.1602,0.410587,0.410587,0.40584,628,266
0.01,9.395385,931.62925,-92.728741,1.109619,209.838867,49.953054,8.285766,881.676196,0.103253,20.449639,20.449639,20.552892,0.1602,0.417111,0.417111,0.409044,1010,304
0.012,11.253998,926.5245,-111.072519,1.550171,220.275879,66.985337,9.703827,859.539163,0.123362,20.929519,20.929519,21.052881,0.1602,0.423361,0.423361,0.415452,1411,390
0.014,13.101483,920.5035,-129.306462,2.021484,235.656738,83.852477,11.079999,836.651023,0.143183,21.370701,21.370701,21.513884,0.1602,0.429124,0.429124,0.420792,1840,411
0.016,14.936012,913.57225,-147.412541,2.53894,258.728027,101.340032,12.397072,812.232218,0.162671,21.749067,21.749067,21.911737,0.1602,0.434097,0.434097,0.425064,2311,459
0.018,16.755772,905.7375,-165.372849,3.046509,253.78418,116.584447,13.709263,789.153053,0.181786,22.147831,22.147831,22.329617,0.1602,0.43932,0.43932,0.431472,2773,436
0.02,18.558962,897.00725,-183.169628,3.644165,298.828125,134.808814,14.914797,762.198436,0.200489,22.413803,22.413803,22.614292,0.1602,0.442879,0.442879,0.438948,3317,438
0.022,20.343801,887.39,-200.785278,4.200073,277.954102,149.123343,16.143728,738.266657,0.218745,22.746826,22.746826,22.965571,0.1602,0.44727,0.44727,0.440016,3823,450
0.024,22.108522,876.895,-218.20238,4.775757,287.841797,162.995189,17.332765,713.899811,0.23652,23.047886,23.047886,23.284406,0.1602,0.451255,0.451255,0.446424,4347,486
0.026,23.851381,865.53325,-235.403712,5.369019,296.630859,176.358756,18.482362,689.174494,0.253784,23.318597,23.318597,23.572381,0.1602,0.454855,0.454855,0.4539,4887,512
0.028,25.570655,853.3155,-252.372264,6.023804,327.392578,191.462138,19.546851,661.853362,0.270511,23.492012,23.492012,23.762523,0.1602,0.457232,0.457232,0.456036,5483,514
0.03,27.264643,840.25375,-269.091255,6.724731,350.463867,207.362311,20.539912,632.891439,0.286677,23.593157,23.593157,23.879835,0.1602,0.458698,0.458698,0.457104,6121,529
0.032,28.93167,826.361,-285.544154,7.467407,371.337891,223.759869,21.464263,602.601131,0.302262,23.629146,23.629146,23.931408,0.1602,0.459343,0.459343,0.457104,6797,542
0.034,30.570087,811.6515,-301.714692,8.239746,386.169434,240.000825,22.330341,571.650675,0.317249,23.618015,23.618015,23.935264,0.1602,0.459391,0.459391,0.468852,7500,548
0.036,32.178276,796.1395,-317.586877,8.978027,369.140625,252.914805,23.200249,543.224695,0.331624,23.653285,23.653285,23.984909,0.1602,0.460011,0.460011,0.461376,8172,529
0.038,33.754645,779.83975,-333.145014,9.807495,414.733887,269.096713,23.94715,510.743037,0.345377,23.542629,23.542629,23.888006,0.1602,0.4588,0.4588,0.458172,8927,563
0.04,35.297635,762.769,-348.373719,10.598511,395.507812,281.737823,24.699124,481.031177,0.358502,23.483414,23.483414,23.841916,0.1602,0.458224,0.458224,0.461376,9647,566
0.042,36.805721,744.944,-363.257932,11.328003,364.746094,290.03865,25.477718,454.90535,0.370994,23.503048,23.503048,23.874042,0.1602,0.458626,0.458626,0.460308,10311,575
0.044,38.277411,726.3825,-377.782936,12.03772,354.858398,296.520625,26.239691,429.861875,0.382852,23.53142,23.53142,23.914273,0.1602,0.459128,0.459128,0.45924,10957,557
0.046,39.711251,707.10275,-391.934367,12.768311,365.29541,303.398104,26.94294,403.704646,0.394081,23.504481,23.504481,23.898562,0.1602,0.458932,0.458932,0.4539,11622,579
0.048,41.105822,687.1235,-405.698231,13.486816,359.25293,308.983586,27.619006,378.139914,0.404683,23.471277,23.471277,23.87596,0.1602,0.45865,0.45865,0.460308,12276,589
0.05,42.459745,666.465,-419.060918,14.226196,369.689941,315.054222,28.233549,351.410778,0.414668,23.380169,23.380169,23.794837,0.1602,0.457635,0.457635,0.460308,12949,560
0.052,43.771682,645.1475,-432.009215,15.004028,388.916016,322.440401,28.767654,322.707099,0.424045,23.205461,23.205461,23.629506,0.1602,0.455569,0.455569,0.458172,13657,572
0.054,45.040335,623.19175,-444.530316,15.864258,430.114746,333.207836,29.176077,289.983914,0.432827,22.883825,22.883825,23.316653,0.1602,0.451658,0.451658,0.450696,14440,565
0.056,46.264449,600.61975,-456.611842,16.720093,427.91748,342.6788,29.544356,257.94095,0.441028,22.549539,22.549539,22.990567,0.1602,0.447582,0.447582,0.452832,15219,590
0.058,47.442814,577.45425,-468.241844,17.575928,427.91748,351.202668,29.866886,226.251582,0.448665,22.193478,22.193478,22.642142,0.1602,0.443227,0.443227,0.450696,15998,568
0.06,48.574266,553.7175,-479.408822,18.394409,409.240723,357.006474,30.179857,196.711026,0.455754,21.869081,21.869081,22.324835,0.1602,0.43926,0.43926,0.442152,16743,586
0.062,49.657684,529.433,-490.101734,19.226074,415.83252,362.889078,30.43161,166.543922,0.462316,21.496352,21.496352,21.958668,0.1602,0.434683,0.434683,0.431472,17500,569
0.064,50.691998,504.62525,-500.310006,19.951172,362.548828,362.855053,30.740826,141.770197,0.468369,21.252859,21.252859,21.721228,0.1602,0.431715,0.431715,0.433608,18160,549
0.066,51.676185,479.3185,-510.023544,20.646606,347.717285,361.341276,31.029579,117.977224,0.473935,21.013982,21.013982,21.487916,0.1602,0.428799,0.428799,0.429336,18793,549
0.068,52.609272,453.53775,-519.232741,21.349731,351.5625,360.363399,31.259541,93.174351,0.479034,20.721566,20.721566,21.2006,0.1602,0.425208,0.425208,0.430404,19433,540
0.07,53.490336,427.30825,-527.928493,22.159424,404.846191,364.811678,31.330912,62.496572,0.483689,20.229736,20.229736,20.713425,0.1602,0.419118,0.419118,0.4272,20170,549
0.072,54.318505,400.6565,-536.102199,22.880127,360.351562,364.365666,31.438378,36.290834,0.487921,19.838007,19.838007,20.325928,0.1602,0.414274,0.414274,0.41652,20826,527
0.074,55.092962,373.6085,-543.745778,23.622803,371.337891,365.062889,31.470159,8.545611,0.491752,19.373175,19.373175,19.864927,0.1602,0.408512,0.408512,0.413316,21502,515
0.076,55.812939,346.191,-550.85167,24.322632,349.914551,363.548055,31.490307,-17.357055,0.495201,18.933396,18.933396,19.428597,0.1602,0.403057,0.403057,0.40584,22139,505
0.078,56.477726,318.43125,-557.41285,25.008179,342.773438,361.470593,31.469547,-43.039343,0.49829,18.472474,18.472474,18.970764,0.1602,0.397335,0.397335,0.396228,22763,486
0.08,57.086664,290.35625,-563.422828,25.650879,321.350098,357.458544,31.435785,-67.102294,0.501038,18.031872,18.031872,18.53291,0.1602,0.391861,0.391861,0.394092,23348,470
0.082,57.639151,261.9945,-568.875663,26.38147,365.29541,358.24223,31.257681,-96.24773,0.503463,17.414391,17.414391,17.917854,0.1602,0.384173,0.384173,0.393024,24013,501
0.084,58.134642,233.37375,-573.765962,27.026367,322.44873,354.66288,31.108275,-121.28913,0.505582,16.886069,16.886069,17.391651,0.1602,0.377596,0.377596,0.38448,24600,500
0.086,58.572646,204.522,-578.088888,27.627319,300.476074,349.2442,30.945327,-144.7222,0.507412,16.377545,16.377545,16.884958,0.1602,0.371262,0.371262,0.381276,25147,441
0.088,58.95273,175.46825,-581.840169,28.272217,322.44873,346.564653,30.680513,-171.096403,0.508967,15.755463,15.755463,16.26443,0.1602,0.363505,0.363505,0.370596,25734,434
0.09,59.274519,146.24075,-585.016093,28.87207,299.926758,341.900863,30.402449,-195.660113,0.510258,15.156886,15.156886,15.667144,0.1602,0.356039,0.356039,0.364188,26280,401
0.092,59.537693,116.8685,-587.61352,29.452148,290.039062,336.714683,30.085545,-219.846183,0.511298,14.541174,14.541174,15.052471,0.1602,0.348356,0.348356,0.354576,26808,389
0.094,59.741993,87.381,-589.629883,30.072876,310.36377,334.079592,29.669117,-246.698592,0.512094,13.81813,13.81813,14.330224,0.1602,0.339328,0.339328,0.348168,27373,379
0.096,59.887217,57.807,-591.063187,30.614502,270.812988,327.752932,29.272715,-269.945932,0.512655,13.170239,13.170239,13.682894,0.1602,0.331236,0.331236,0.338556,27866,419
0.098,59.973221,28.176,-591.912014,31.081421,233.459473,318.323586,28.8918,-290.147586,0.512985,12.584966,12.584966,13.09795,0.1602,0.323924,0.323924,0.33108,28291,377
0.1,59.999921,-1.483,-592.175526,31.586792,252.685547,311.759782,28.413129,-313.242782,0.513087,11.889475,11.889475,12.402562,-0.1602,-0.005168,-0.005168,0.323604,28751,379
0.102,59.967289,-31.14075,-591.853461,32.025146,219.177246,302.501528,27.942143,-333.642278,0.512962,11.245727,11.245727,11.758689,-0.1602,-0.013216,-0.013216,-0.004272,29150,261
0.104,59.875358,-60.7675,-590.946139,32.354736,164.794922,288.730868,27.520622,-349.498368,0.512609,10.711494,10.711494,11.224103,-0.1602,-0.019899,-0.019899,-0.013884,29450,120
0.106,59.724219,-90.33425,-589.454456,32.501953,73.608398,267.218621,27.222266,-357.552871,0.512025,10.388661,10.388661,10.900686,-0.1602,-0.023941,-0.023941,-0.01602,29584,43
0.108,59.514021,-119.8115,-587.379888,32.534912,16.479492,242.144708,26.979109,-361.956208,0.511205,10.163272,10.163272,10.674477,-0.1602,-0.026769,-0.026769,-0.02136,29614,-9
0.11,59.244973,-149.1705,-584.724485,32.52063,-7.141113,217.216126,26.724343,-366.386626,0.51014,9.930319,9.930319,10.44046,-0.1602,-0.029694,-0.029694,-0.022428,29601,-15
0.112,58.917339,-178.382,-581.490875,32.505249,-7.69043,194.72547,26.41209,-373.10747,0.508823,9.622274,9.622274,10.131097,-0.1602,-0.033561,-0.033561,-0.034176,29587,-13
0.114,58.531445,-207.41675,-577.682254,32.493164,-6.04248,174.648675,26.038281,-382.065425,0.507242,9.237581,9.237581,9.744823,-0.1602,-0.03839,-0.03839,-0.033108,29576,-6
0.116,58.087672,-236.2465,-573.302388,32.485474,-3.845215,156.799286,25.602198,-393.045786,0.505384,8.77955,8.77955,9.284934,-0.1602,-0.044138,-0.044138,-0.038448,29569,-7
0.118,57.586459,-264.84275,-568.355609,32.476685,-4.394531,140.679904,25.109774,-405.522654,0.503234,8.260983,8.260983,8.764217,-0.1602,-0.050647,-0.050647,-0.04272,29561,-6
0.12,57.028301,-293.17725,-562.846808,32.466797,-4.943848,126.117529,24.561504,-419.294779,0.500778,7.685695,7.685695,8.186472,-0.1602,-0.057869,-0.057869,-0.052332,29552,-10
0.122,56.41375,-321.22175,-556.781433,32.455811,-5.493164,112.95646,23.957939,-434.17821,0.497997,7.057233,7.057233,7.55523,-0.1602,-0.06576,-0.06576,-0.060876,29542,-12
0.124,55.743414,-348.94875,-550.165481,32.439331,-8.239746,100.836839,23.304083,-449.785589,0.494873,6.385415,6.385415,6.880287,-0.1602,-0.074196,-0.074196,-0.066216,29527,-14
0.126,55.017955,-376.3305,-543.005495,32.421753,-8.789062,89.874249,22.596202,-466.204749,0.491386,5.666427,5.666427,6.157813,-0.1602,-0.083227,-0.083227,-0.075828,29511,-17
0.128,54.238092,-403.33975,-535.308555,32.401978,-9.887695,79.898055,21.836114,-483.237805,0.487517,4.904833,4.904833,5.392349,-0.1602,-0.092796,-0.092796,-0.082236,29493,-21
0.13,53.404596,-429.9505,-527.082272,32.376709,-12.634277,70.644821,21.027887,-500.595321,0.483243,4.108169,4.108169,4.591412,-0.1602,-0.102807,-0.102807,-0.089712,29470,-24
0.132,52.51829,-456.1365,-518.33478,32.345947,-15.380859,62.042253,20.172343,-518.178753,0.478545,3.278658,3.278658,3.757202,-0.1602,-0.113235,-0.113235,-0.10146,29442,-29
0.134,51.58005,-481.871,-509.07473,32.307495,-19.226074,53.915421,19.272555,-535.786421,0.473399,2.421697,2.421697,2.895096,-0.1602,-0.124011,-0.124011,-0.11214,29407,-37
0.136,50.590806,-507.12875,-499.311279,32.258057,-24.719238,46.051955,18.332749,-553.180705,0.467786,1.544015,1.544015,2.0118,-0.1602,-0.135052,-0.135052,-0.123888,29362,-33
0.138,49.551535,-531.8855,-489.054081,32.19873,-29.663086,38.480451,17.352805,-570.365951,0.461683,0.645461,0.645461,1.107144,-0.1602,-0.146361,-0.146361,-0.1335,29308,-56
0.14,48.463264,-556.11625,-478.313278,32.122925,-37.902832,30.842122,16.340339,-586.958372,0.455069,-0.262611,-0.262611,0.192458,-0.1602,-0.157794,-0.157794,-0.143112,29239,-56
0.142,47.32707,-579.79675,-467.099493,32.039429,-41.748047,23.583105,15.287641,-603.379855,0.447926,-1.192276,-1.192276,-0.74435,-0.1602,-0.169504,-0.169504,-0.156996,29163,-66
0.144,46.144077,-602.90425,-455.423814,31.95813,-40.649414,17.159854,14.185947,-620.064104,0.440234,-2.156458,-2.156458,-1.716224,-0.1602,-0.181653,-0.181653,-0.166608,29089,-80
0.146,44.915453,-625.4155,-443.297786,31.865845,-46.142578,10.82961,13.049608,-636.24511,0.431975,-3.13302,-3.13302,-2.701045,-0.1602,-0.193963,-0.193963,-0.182628,29005,-95
0.148,43.642415,-647.30825,-430.733401,31.746094,-59.875488,3.7591,11.896321,-651.06735,0.423135,-4.09622,-4.09622,-3.673085,-0.1602,-0.206114,-0.206114,-0.19758,28896,-81
0.15,42.32622,-668.56075,-417.743082,31.618652,-63.720703,-2.98888,10.707568,-665.57187,0.413697,-5.07554,-5.07554,-4.661842,-0.1602,-0.218473,-0.218473,-0.206124,28780,-101
0.152,40.968172,-689.15225,-404.339676,31.456055,-81.298828,-10.819875,9.512117,-678.332375,0.403651,-6.028512,-6.028512,-5.624861,-0.1602,-0.230511,-0.230511,-0.220008,28632,-113
0.154,39.569611,-709.0625,-390.536436,31.302246,-76.904297,-17.428317,8.267365,-691.634183,0.392986,-7.021048,-7.021048,-6.628062,-0.1602,-0.243051,-0.243051,-0.232824,28492,-129
0.156,38.131922,-728.27125,-376.347012,31.136353,-82.946777,-23.980163,6.995569,-704.291087,0.381695,-8.018848,-8.018848,-7.637153,-0.1602,-0.255664,-0.255664,-0.241368,28341,-175
0.158,36.656526,-746.76,-361.785435,30.950684,-92.834473,-30.865594,5.705842,-715.894406,0.369773,-9.009214,-9.009214,-8.639441,-0.1602,-0.268193,-0.268193,-0.257388,28172,-169
0.16,35.144882,-764.5105,-346.866104,30.749634,-100.524902,-37.831525,4.395248,-726.678975,0.357218,-9.998036,-9.998036,-9.640819,-0.1602,-0.28071,-0.28071,-0.262728,27989,-151
0.162,33.598484,-781.50475,-331.603773,30.512329,-118.652344,-45.913607,3.086155,-735.591143,0.34403,-10.953263,-10.953263,-10.609233,-0.1602,-0.292815,-0.292815,-0.279816,27773,-189
0.164,32.018863,-797.72625,-316.013534,30.215698,-148.31543,-56.153789,1.803165,-741.572461,0.330214,-11.84139,-11.84139,-11.511176,-0.1602,-0.30409,-0.30409,-0.295836,27503,-251
0.166,30.407579,-813.159,-300.110802,29.889404,-163.146973,-66.853107,0.518175,-746.305893,0.315777,-12.70896,-12.70896,-12.393183,-0.1602,-0.315115,-0.315115,-0.302244,27206,-230
0.168,28.766227,-827.78725,-283.911305,29.564209,-162.597656,-76.427562,-0.797982,-751.359688,0.30073,-13.60116,-13.60116,-13.30043,-0.1602,-0.326455,-0.326455,-0.313992,26910,-274
0.17,27.09643,-841.5975,-267.431059,29.241211,-161.499023,-84.934708,-2.144781,-756.662792,0.285086,-14.516429,-14.516429,-14.231343,-0.1602,-0.338092,-0.338092,-0.321468,26616,-269
0.172,25.399837,-854.5755,-250.686364,28.881958,-179.626465,-94.403884,-3.482121,-760.171616,0.268863,-15.394604,-15.394604,-15.125741,-0.1602,-0.349272,-0.349272,-0.340692,26289,-330
0.174,23.678128,-866.708,-233.693775,28.518311,-181.82373,-103.145869,-4.840183,-763.562131,0.252081,-16.283373,-16.283373,-16.031291,-0.1602,-0.360591,-0.360591,-0.349236,25958,-288
0.176,21.933005,-877.98375,-216.470097,28.137085,-190.612793,-111.892561,-6.20408,-766.091189,0.234765,-17.16067,-17.16067,-16.925906,-0.1602,-0.371774,-0.371774,-0.36312,25611,-306
0.178,20.166193,-888.39125,-199.032362,27.725098,-205.993652,-121.30267,-7.558905,-767.08858,0.21694,-18.005693,-18.005693,-17.788753,-0.1602,-0.382559,-0.382559,-0.36846,25236,-310
0.18,18.37944,-897.92025,-181.397812,27.277954,-223.571777,-131.529581,-8.898514,-766.390669,0.198638,-18.811833,-18.811833,-18.613195,-0.1602,-0.392865,-0.392865,-0.380208,24829,-391
0.182,16.574512,-906.5615,-163.583885,26.831909,-223.022461,-140.678869,-10.257397,-765.882631,0.179892,-19.633061,-19.633061,-19.453169,-0.1602,-0.403365,-0.403365,-0.391956,24423,-353
0.184,14.753194,-914.30625,-145.608198,26.36499,-233.459473,-149.956929,-11.611796,-764.349321,0.160738,-20.433655,-20.433655,-20.272917,-0.1602,-0.413611,-0.413611,-0.404772,23998,-388
0.186,12.917287,-921.14675,-127.488525,25.872803,-246.09375,-159.570611,-12.955516,-761.576139,0.141215,-21.206085,-21.206085,-21.064871,-0.1602,-0.423511,-0.423511,-0.417588,23550,-395
0.188,11.068607,-927.07625,-109.242785,25.316895,-277.954102,-171.40896,-14.248288,-755.66729,0.121364,-21.892666,-21.892666,-21.771302,-0.1602,-0.432341,-0.432341,-0.425064,23044,-478
0.19,9.208982,-932.089,-90.889019,24.706055,-305.419922,-184.810057,-15.497073,-747.278943,0.101228,-22.509101,-22.509101,-22.407873,-0.1602,-0.440298,-0.440298,-0.429336,22488,-484
0.192,7.340251,-936.18025,-72.445377,24.142456,-281.799316,-194.508983,-16.802205,-741.671267,0.080852,-23.208489,-23.208489,-23.127636,-0.1602,-0.449295,-0.449295,-0.442152,21975,-473
0.194,5.464261,-939.34575,-53.930097,23.554688,-293.884277,-204.446512,-18.090426,-734.899238,0.060285,-23.877224,-23.877224,-23.816939,-0.1602,-0.457912,-0.457912,-0.44856,21440,-514
0.196,3.582868,-941.5825,-35.361488,22.955933,-299.377441,-213.939605,-19.373065,-727.642895,0.039573,-24.534096,-24.534096,-24.494523,-0.1602,-0.466382,-0.466382,-0.460308,20895,-515
0.198,1.697931,-942.888,-16.757912,22.304443,-325.744629,-225.120107,-20.606512,-717.767893,0.018766,-25.115215,-25.115215,-25.096449,-0.1602,-0.473906,-0.473906,-0.465648,20302,-531
0.2,-0.188684,-943.261,1.862236,21.649658,-327.392578,-235.347354,-21.838342,-707.913646,-0.002086,-25.695708,-25.695708,-25.697794,-0.1602,-0.481422,-0.481422,-0.474192,19706,-565
0.202,-2.075113,-942.70125,20.480542,20.869629,-390.014648,-250.814084,-22.944742,-691.887166,-0.022933,-26.091854,-26.091854,-26.114787,-0.1602,-0.486635,-0.486635,-0.479532,18996,-572
0.204,-3.959489,-941.2095,39.078596,20.098389,-385.620117,-264.294687,-24.057878,-676.914813,-0.043725,-26.510513,-26.510513,-26.554238,-0.1602,-0.492128,-0.492128,-0.487008,18294,-606
0.206,-5.839951,-938.787,57.638006,19.281006,-408.691406,-278.734359,-25.120957,-660.052641,-0.064411,-26.865611,-26.865611,-26.930023,-0.1602,-0.496825,-0.496825,-0.488076,17550,-631
0.208,-7.714637,-935.436,76.140422,18.531738,-374.633789,-288.324302,-26.246375,-647.111698,-0.084944,-27.327228,-27.327228,-27.412172,-0.1602,-0.502852,-0.5,-0.494484,16868,-620
0.21,-9.581695,-931.16025,94.567545,17.763794,-383.972168,-297.889089,-27.345489,-633.271161,-0.105275,-27.757075,-27.757075,-27.862351,-0.1602,-0.508479,-0.5,-0.49662,16169,-638
0.212,-11.439278,-925.9635,112.901154,16.982666,-390.563965,-307.156576,-28.421944,-618.806924,-0.125358,-28.162196,-28.162196,-28.287554,-0.1602,-0.513794,-0.5,-0.500892,15458,-676
0.214,-13.285549,-919.851,131.123121,16.18396,-399.353027,-316.376221,-29.469509,-603.474779,-0.145147,-28.53452,-28.53452,-28.679667,-0.1602,-0.518696,-0.5,-0.497688,14731,-654
0.216,-15.118682,-912.82925,149.215425,15.310547,-436.706543,-328.409254,-30.429229,-584.419996,-0.1646,-28.788211,-28.788211,-28.952811,-0.1602,-0.52211,-0.5,-0.504096,13936,-677
0.218,-16.936866,-904.90475,167.160178,14.442627,-433.959961,-338.964324,-31.379493,-565.940426,-0.183675,-29.046165,-29.046165,-29.22984,-0.1602,-0.525573,-0.5,-0.50196,13146,-687
0.22,-18.738301,-896.08525,184.939632,13.607666,-417.480469,-346.815939,-32.345967,-549.269311,-0.202335,-29.345585,-29.345585,-29.54792,-0.1602,-0.529549,-0.5,-0.49662,12386,-698
0.222,-20.521207,-886.37975,202.536209,12.768311,-419.677734,-354.102118,-33.289518,-532.277632,-0.220544,-29.625406,-29.625406,-29.84595,-0.1602,-0.533274,-0.5,-0.500892,11622,-714
0.224,-22.28382,-875.79775,219.932506,11.798218,-485.046387,-367.196545,-34.082038,-508.601205,-0.238269,-29.696298,-29.696298,-29.934567,-0.1602,-0.534382,-0.5,-0.497688,10739,-720
0.226,-24.024398,-864.34975,237.111321,10.905029,-446.594238,-375.136314,-34.929427,-489.213436,-0.255481,-29.875558,-29.875558,-30.131039,-0.1602,-0.536838,-0.5,-0.508368,9926,-709
0.228,-25.741219,-852.047,254.055668,9.986572,-459.228516,-383.545535,-35.727791,-468.501465,-0.272153,-30.001759,-30,-30.272153,-0.1602,-0.538602,-0.5,-0.50196,9090,-701
0.23,-27.432586,-838.90175,270.74879,9.083496,-451.538086,-390.34479,-36.516082,-448.55696,-0.288262,-30.135201,-30,-30.288262,-0.1602,-0.538803,-0.5,-0.498756,8268,-748
0.232,-29.096826,-824.92675,287.174181,8.222168,-430.664062,-394.376717,-37.318994,-430.550033,-0.303788,-30.311392,-30,-30.303788,-0.1602,-0.538997,-0.5,-0.489144,7484,-714
0.234,-30.732293,-810.13625,303.315597,7.357544,-432.312012,-398.170246,-38.089837,-411.966004,-0.318714,-30.45792,-30,-30.318714,-0.1602,-0.539184,-0.5,-0.500892,6697,-717
0.236,-32.337371,-794.5445,319.157079,6.487427,-435.058594,-401.859081,-38.824798,-392.685419,-0.333027,-30.570373,-30,-30.333027,-0.1602,-0.539363,-0.5,-0.500892,5905,-746
0.238,-33.910471,-778.167,334.68296,5.612915,-437.255859,-405.398759,-39.523386,-372.768241,-0.346718,-30.649496,-30,-30.346718,-0.1602,-0.539534,-0.5,-0.506232,5109,-747
0.24,-35.450039,-761.02025,349.877888,4.735107,-438.903809,-408.749264,-40.185146,-352.270986,-0.359779,-30.695998,-30,-30.359779,-0.1602,-0.539697,-0.5,-0.50196,4310,-734
0.242,-36.954552,-743.12075,364.726837,3.856201,-439.453125,-411.81965,-40.810753,-331.3011,-0.372208,-30.712165,-30,-30.372208,-0.1602,-0.539853,-0.5,-0.498756,3510,-734
0.244,-38.422522,-724.4865,379.215124,2.995972,-430.114746,-413.64916,-41.418494,-310.83734,-0.384004,-30.726253,-30,-30.384004,-0.1602,-0.54,-0.5,-0.498756,2727,-730
0.246,-39.852498,-705.136,393.328421,2.091797,-452.087402,-417.492984,-41.944295,-287.643016,-0.395169,-30.642629,-30,-30.395169,-0.1602,-0.54014,-0.5,-0.503028,1904,-745
0.248,-41.243066,-685.088,407.052774,1.2052,-443.29834,-420.07352,-42.448266,-265.01448,-0.405709,-30.555545,-30,-30.405709,-0.1602,-0.540271,-0.5,-0.500892,1097,-736
0.25,-42.59285,-664.3625,420.37461,0.272461,-466.369629,-424.70313,-42.865311,-239.65937,-0.415633,-30.367773,-30,-30.415633,-0.1602,-0.540395,-0.5,-0.494484,248,-735
0.252,-43.900516,-642.98025,433.280756,-0.616333,-444.396973,-426.672515,-43.284183,-216.307735,-0.42495,-30.216085,-30,-30.42495,-0.1602,-0.540512,-0.5,-0.494484,-561,-742
0.254,-45.164771,-620.962,445.75845,-1.506226,-444.946289,-428.499892,-43.658545,-192.462108,-0.433673,-30.028585,-30,-30.433673,-0.1602,-0.540621,-0.5,-0.497688,-1371,-747
0.256,-46.384364,-598.3295,457.795354,-2.399414,-446.594238,-430.309327,-43.98495,-168.020173,-0.441817,-29.801382,-29.801382,-30.243199,-0.1602,-0.53824,-0.5,-0.50196,-2184,-732
0.258,-47.558089,-575.10575,469.379563,-3.409058,-504.821777,-437.760572,-44.149031,-137.345178,-0.449398,-29.366234,-29.366234,-29.815632,-0.1602,-0.532895,-0.5,-0.504096,-3103,-729
0.26,-48.684787,-551.3135,480.499624,-4.311035,-450.98877,-439.083392,-44.373752,-112.230108,-0.456434,-29.065167,-29.065167,-29.521601,-0.1602,-0.52922,-0.5,-0.498756,-3924,-745
0.262,-49.763343,-526.9755,491.14454,-5.348145,-518.554688,-447.030521,-44.415198,-79.944979,-0.462943,-28.527004,-28.527004,-28.989947,-0.1602,-0.522574,-0.5,-0.494484,-4868,-730
0.264,-50.792689,-502.1165,501.303785,-6.47644,-564.147949,-458.742264,-44.316249,-43.374236,-0.468947,-27.828279,-27.828279,-28.297226,-0.1602,-0.513915,-0.5,-0.504096,-5895,-750
0.266,-51.771809,-476.76125,510.967313,-7.608032,-565.795898,-469.447627,-44.163777,-7.313623,-0.474465,-27.105763,-27.105763,-27.580228,-0.1602,-0.504953,-0.5,-0.497688,-6925,-759
0.268,-52.699734,-450.9345,520.125568,-8.561646,-476.806641,-470.183529,-44.138088,19.249029,-0.479519,-26.626465,-26.626465,-27.105984,-0.1602,-0.499025,-0.499025,-0.503028,-7793,-747
0.27,-53.575547,-424.66175,528.769493,-9.469116,-453.735352,-468.538711,-44.106431,43.876961,-0.484131,-26.177288,-26.177288,-26.661419,-0.1602,-0.493468,-0.493468,-0.495552,-8619,-779
0.272,-54.398381,-397.969,536.890542,-10.605103,-567.993164,-478.484156,-43.793278,80.515156,-0.488322,-25.346537,-25.346537,-25.834859,-0.1602,-0.483136,-0.483136,-0.495552,-9653,-763
0.274,-55.167423,-370.883,544.480683,-11.697144,-546.020508,-485.237791,-43.470279,114.354791,-0.492113,-24.558615,-24.558615,-25.050728,-0.1602,-0.473334,-0.473334,-0.483804,-10647,-762
0.276,-55.881913,-343.43,551.532412,-12.604614,-453.735352,-482.087547,-43.277299,138.657547,-0.495526,-24.016567,-24.016567,-24.512093,-0.1602,-0.466601,-0.466601,-0.474192,-11473,-743
0.278,-56.541143,-315.63725,558.038754,-13.680176,-537.780762,-487.656869,-42.860967,172.019619,-0.49858,-23.179966,-23.179966,-23.678546,-0.1602,-0.456182,-0.456182,-0.465648,-12452,-764
0.28,-57.144462,-287.53275,563.993277,-14.718384,-519.104004,-490.801582,-42.426078,203.268832,-0.501295,-22.368906,-22.368906,-22.870201,-0.1602,-0.446078,-0.446078,-0.456036,-13397,-732
0.282,-57.691274,-259.14375,569.390091,-15.648926,-465.270996,-488.248524,-42.042348,229.104774,-0.503688,-21.683576,-21.683576,-22.187265,-0.1602,-0.437541,-0.437541,-0.458172,-14244,-693
0.284,-58.181037,-230.4985,574.223861,-16.647583,-499.328613,-489.356533,-41.533454,258.858033,-0.505778,-20.853418,-20.853418,-21.359196,-0.1602,-0.42719,-0.42719,-0.442152,-15153,-688
0.286,-58.613268,-201.62525,578.489806,-17.478149,-415.283203,-481.9492,-41.135119,280.32395,-0.50758,-20.235438,-20.235438,-20.743018,-0.1602,-0.419488,-0.419488,-0.422928,-15909,-697
0.288,-58.987538,-172.5525,582.183708,-18.386719,-454.284668,-479.182747,-40.600819,306.630247,-0.509107,-19.449922,-19.449922,-19.959029,-0.1602,-0.409688,-0.409688,-0.418656,-16736,-675
0.29,-59.303478,-143.3095,585.301915,-19.171143,-392.211914,-470.485663,-40.132335,327.176163,-0.510373,-18.805147,-18.805147,-19.315521,-0.1602,-0.401644,-0.401644,-0.412248,-17450,-643
0.292,-59.560776,-113.92475,587.841342,-19.967651,-398.254395,-463.262536,-39.593125,349.337786,-0.511388,-18.088969,-18.088969,-18.600357,-0.1602,-0.392704,-0.392704,-0.401568,-18175,-605
0.294,-59.759177,-84.427,589.799479,-20.705933,-369.140625,-453.850345,-39.053244,369.423345,-0.512161,-17.408616,-17.408616,-17.920776,-0.1602,-0.38421,-0.38421,-0.402636,-18847,-591
0.296,-59.898484,-54.846,591.174389,-21.42334,-358.703613,-444.335672,-38.475144,389.489672,-0.512698,-16.705251,-16.705251,-17.217949,-0.1602,-0.375424,-0.375424,-0.38448,-19500,-577
0.298,-59.978561,-25.21075,591.964713,-22.11438,-345.52002,-434.454107,-37.864181,409.243357,-0.513005,-15.987268,-15.987268,-16.500273,-0.1602,-0.366453,-0.366453,-0.37914,-20129,-567
0.3,-59.999327,4.4495,592.169669,-22.782349,-333.984375,-424.407134,-37.216978,428.856634,-0.513085,-15.249598,-15.249598,-15.762683,0.1602,-0.036834,-0.036834,-0.365256,-20737,-551
0.302,-59.960763,34.10525,591.789055,-23.437134,-327.392578,-414.705678,-36.523629,448.810928,-0.512937,-14.477787,-14.477787,-14.990724,0.1602,-0.027184,-0.027184,-0.03738,-21333,-443
0.304,-59.862906,63.72725,590.823247,-23.951294,-257.080078,-398.943118,-35.911612,462.670368,-0.512561,-13.862034,-13.862034,-14.374596,0.1602,-0.019482,-0.019482,-0.0267,-21801,-260
0.306,-59.705854,93.28625,589.2732,-24.274292,-161.499023,-375.198709,-35.431562,468.484959,-0.511954,-13.467305,-13.467305,-13.979258,0.1602,-0.014541,-0.014541,-0.01602,-22095,-204
0.308,-59.489761,122.75325,587.140446,-24.469849,-97.77832,-347.45667,-35.019912,470.20992,-0.511109,-13.185736,-13.185736,-13.696845,0.1602,-0.011011,-0.011011,-0.01602,-22273,-105
0.31,-59.214841,152.09875,584.427095,-24.572021,-51.086426,-317.819645,-34.64282,469.918395,-0.51002,-12.960471,-12.960471,-13.470491,0.1602,-0.008181,-0.008181,-0.01068,-22366,-40
0.312,-58.881366,181.29375,581.135831,-24.612671,-20.324707,-288.070152,-34.268695,469.363902,-0.508677,-12.741609,-12.741609,-13.250286,0.1602,-0.005429,-0.005429,-0.008544,-22403,-11
0.314,-58.489666,210.3095,577.269906,-24.619263,-3.295898,-259.592726,-33.870403,469.902226,-0.507069,-12.488911,-12.488911,-12.99598,0.1602,-0.00225,-0.00225,-0.008544,-22409,0
0.316,-58.040128,239.11725,572.833145,-24.614868,2.197266,-233.413727,-33.42526,472.530977,-0.505182,-12.171108,-12.171108,-12.67629,0.1602,0.001746,0.001746,-0.003204,-22405,5
0.318,-57.533197,267.6885,567.829934,-24.612671,1.098633,-209.962491,-32.920526,477.650991,-0.503003,-11.773423,-11.773423,-12.276425,0.1602,0.006745,0.006745,0.001068,-22403,0
0.32,-56.969374,295.99525,562.265222,-24.612671,0,-188.966242,-32.356703,484.961492,-0.500515,-11.30141,-11.30141,-11.801925,0.1602,0.012676,0.012676,0.007476,-22403,0
0.322,-56.349216,324.00925,556.14451,-24.611572,0.549316,-170.014686,-31.737644,494.023936,-0.4977,-10.765079,-10.765079,-11.262779,0.1602,0.019415,0.019415,0.011748,-22402,0
0.324,-55.673337,351.70275,549.473852,-24.609375,1.098633,-152.903354,-31.063962,504.606104,-0.494541,-10.168857,-10.168857,-10.663397,0.1602,0.026908,0.026908,0.020292,-22400,2
0.326,-54.942405,379.0485,542.259843,-24.606079,1.647949,-137.448224,-30.336326,516.496724,-0.491017,-9.516839,-9.516839,-10.007855,0.1602,0.035102,0.035102,0.024564,-22397,3
0.328,-54.157143,406.01925,534.509617,-24.602783,1.647949,-123.538607,-29.55436,529.557857,-0.487108,-8.811203,-8.811203,-9.298311,0.1602,0.043971,0.043971,0.034176,-22394,3
0.33,-53.318328,432.58875,526.230838,-24.596191,3.295898,-110.855156,-28.722137,543.443906,-0.482793,-8.060469,-8.060469,-8.543262,0.1602,0.053409,0.053409,0.044856,-22388,7
0.332,-52.426788,458.7305,517.431693,-24.587402,4.394531,-99.330187,-27.839386,558.060687,-0.478051,-7.266117,-7.266117,-7.744167,0.1602,0.063398,0.063398,0.054468,-22380,8
0.334,-51.483406,484.4185,508.120883,-24.57312,7.141113,-88.683057,-26.910286,573.101557,-0.472859,-6.436049,-6.436049,-6.908908,0.1602,0.073839,0.073839,0.06408,-22367,13
0.336,-50.489114,509.62775,498.307614,-24.556641,8.239746,-78.990777,-25.932473,588.618527,-0.467198,-5.567915,-5.567915,-6.035113,0.1602,0.084761,0.084761,0.07476,-22352,18
0.338,-49.444895,534.33275,488.001591,-24.532471,12.084961,-69.883203,-24.912424,604.215953,-0.461045,-4.672576,-4.672576,-5.133621,0.1602,0.09603,0.09603,0.089712,-22330,21
0.34,-48.351783,558.50925,477.213005,-24.503906,14.282227,-61.46666,-23.847877,619.97591,-0.454379,-3.747218,-3.747218,-4.201597,0.1602,0.10768,0.10768,0.093984,-22304,27
0.342,-47.210858,582.13375,465.952524,-24.464355,19.775391,-53.342455,-22.746503,635.476205,-0.447182,-2.803896,-2.803896,-3.251077,0.1602,0.119562,0.119562,0.107868,-22268,41
0.344,-46.023248,605.1825,454.231283,-24.411621,26.367188,-45.371491,-21.611627,650.553991,-0.439434,-1.847483,-1.847483,-2.286916,0.1602,0.131614,0.131614,0.11748,-22220,56
0.346,-44.790128,627.633,442.060872,-24.356689,27.46582,-38.08776,-20.433439,665.72076,-0.431118,-0.863058,-0.863058,-1.294176,0.1602,0.144023,0.144023,0.137772,-22170,55
0.348,-43.512716,649.46275,429.453327,-24.292969,31.860352,-31.092949,-19.219747,680.555699,-0.422218,0.137262,0.137262,-0.284956,0.1602,0.156638,0.156638,0.145248,-22112,62
0.35,-42.192277,670.65,416.421115,-24.220459,36.254883,-24.358165,-17.971818,695.008165,-0.41272,1.151822,1.151822,0.739102,0.1602,0.169439,0.169439,0.158064,-22046,78
0.352,-40.830116,691.17425,402.977123,-24.136963,41.748047,-17.747544,-16.693153,708.921794,-0.402613,2.175752,2.175752,1.77314,0.1602,0.182364,0.182364,0.175152,-21970,80
0.354,-39.42758,711.01525,389.134644,-24.040283,48.339844,-11.138805,-15.387297,722.154055,-0.391885,3.204401,3.204401,2.812516,0.1602,0.195356,0.195356,0.180492,-21882,95
0.356,-37.986055,730.153,374.907367,-23.928223,56.030273,-4.421898,-14.057832,734.574898,-0.380531,4.233309,4.233309,3.852778,0.1602,0.20836,0.20836,0.198648,-21780,89
0.358,-36.506968,748.5685,360.30936,-23.797485,65.368652,2.557157,-12.709483,746.011343,-0.368546,5.256573,5.256573,4.888027,0.1602,0.2213,0.2213,0.210396,-21661,136
0.36,-34.991781,766.244,345.35506,-23.651367,73.059082,9.60735,-11.340414,756.63665,-0.355927,6.278336,6.278336,5.922409,0.1602,0.23423,0.23423,0.22428,-21528,125
0.362,-33.441992,783.162,330.059253,-23.485474,82.946777,16.941293,-9.956518,766.220707,-0.342677,7.290983,7.290983,6.948307,0.1602,0.247054,0.247054,0.233892,-21377,132
0.364,-31.859133,799.30525,314.437066,-23.303101,91.186523,24.365816,-8.556032,774.939434,-0.328798,8.298662,8.298662,7.969864,0.1602,0.259823,0.259823,0.246708,-21211,189
0.366,-30.244771,814.658,298.503945,-23.091064,106.018066,32.531041,-7.153707,782.126959,-0.3143,9.28074,9.28074,8.96644,0.1602,0.27228,0.27228,0.264864,-21018,182
0.368,-28.600501,829.2055,282.275647,-22.819702,135.681152,42.846052,-5.780799,786.359448,-0.299192,10.193272,10.193272,9.89408,0.1602,0.283876,0.283876,0.270204,-20771,232
0.37,-26.927949,842.933,265.768219,-22.568115,125.793457,51.140792,-4.359834,791.792208,-0.28349,11.15611,11.15611,10.87262,0.1602,0.296108,0.296108,0.280884,-20542,205
0.372,-25.228769,855.827,248.997985,-22.296753,135.681152,59.594828,-2.932016,796.232172,-0.26721,12.105806,12.105806,11.838596,0.1602,0.308182,0.308182,0.294768,-20295,219
0.374,-23.504641,867.8745,231.981527,-22.000122,148.31543,68.466889,-1.504519,799.407611,-0.250373,13.033237,13.033237,12.782863,0.1602,0.319986,0.319986,0.308652,-20025,230
0.376,-21.757271,879.06375,214.735673,-21.681519,159.301758,77.550375,-0.075752,801.513375,-0.233005,13.942773,13.942773,13.709768,0.1602,0.331572,0.331572,0.31506,-19735,322
0.378,-19.988386,889.384,197.277477,-21.336548,172.485352,87.043873,1.348162,802.340127,-0.215131,14.827022,14.827022,14.611891,0.1602,0.342849,0.342849,0.330012,-19421,338
0.38,-18.199735,898.8245,179.624202,-20.894897,220.825195,100.422005,2.695162,798.402495,-0.196783,15.581133,15.581133,15.38435,0.1602,0.352504,0.352504,0.348168,-19019,290
0.382,-16.393088,907.37625,161.793304,-20.45105,221.923828,112.572188,4.057962,794.804062,-0.177994,16.350816,16.350816,16.172821,0.1602,0.36236,0.36236,0.354576,-18615,369
0.384,-14.57023,915.031,143.802416,-19.957764,246.643066,125.979275,5.387534,789.051725,-0.158802,17.062608,17.062608,16.903806,0.1602,0.371498,0.371498,0.365256,-18166,336
0.386,-12.732964,921.78075,125.669328,-19.456787,250.488281,138.430176,6.723823,783.350574,-0.139244,17.779397,17.779397,17.640153,0.1602,0.380702,0.380702,0.36846,-17710,403
0.388,-10.883107,927.61875,107.411971,-18.89209,282.348633,152.822022,8.008983,774.796728,-0.119362,18.415163,18.415163,18.295801,0.1602,0.388898,0.388898,0.382344,-17196,436
0.39,-9.022489,932.53975,89.048399,-18.270264,310.913086,168.631128,9.247775,763.908622,-0.0992,18.981865,18.981865,18.882665,0.1602,0.396233,0.396233,0.380208,-16630,425
0.392,-7.152948,936.53875,70.596771,-17.656128,307.067871,182.474802,10.50318,754.063948,-0.078804,19.576926,19.576926,19.498123,0.1602,0.403927,0.403927,0.396228,-16071,439
0.394,-5.276334,939.61125,52.075334,-17.00354,326.293945,196.856717,11.727206,742.754533,-0.058219,20.127255,20.127255,20.069035,0.1602,0.411063,0.411063,0.4005,-15477,462
0.396,-3.394503,941.75475,33.502401,-16.298218,352.661133,212.437158,12.903715,729.317592,-0.037496,20.611424,20.611424,20.573928,0.1602,0.417374,0.417374,0.412248,-14835,480
0.398,-1.509315,942.96725,14.896339,-15.641235,328.491211,224.042564,14.13192,718.924686,-0.016682,21.180302,21.180302,21.16362,0.1602,0.424745,0.424745,0.418656,-14237,501
0.4,0.377366,943.247,-3.724453,-14.887573,376.831055,239.321413,15.264939,703.925587,0.004172,21.61064,21.61064,21.614811,0.1602,0.430385,0.430385,0.423996,-13551,535
0.402,2.263673,942.594,-22.341562,-14.186646,350.463867,250.435658,16.450319,692.158342,0.025015,22.12937,22.12937,22.154385,0.1602,0.43713,0.43713,0.43254,-12913,542
0.404,4.147742,941.00925,-40.936579,-13.463745,361.450195,261.537112,17.611487,679.472138,0.045799,22.617271,22.617271,22.66307,0.1602,0.443488,0.443488,0.433608,-12255,535
0.406,6.02771,938.49375,-59.491115,-12.669434,397.155762,275.098977,18.697144,663.394773,0.066472,22.999858,22.999858,23.066331,0.1602,0.448529,0.448529,0.446424,-11532,547
0.408,7.901717,935.05,-77.986823,-11.835571,416.931152,289.282194,19.737288,645.767806,0.086987,23.327598,23.327598,23.414585,0.1602,0.452882,0.452882,0.450696,-10773,569
0.41,9.76791,930.68175,-96.405414,-11.136841,349.365234,295.290498,20.904751,635.391252,0.107296,23.859655,23.859655,23.966951,0.1602,0.459787,0.459787,0.449628,-10137,585
0.412,11.624444,925.39325,-114.728673,-10.369995,383.422852,304.103734,21.994439,621.289516,0.127351,24.279186,24.279186,24.406537,0.1602,0.465282,0.465282,0.460308,-9439,596
0.414,13.469483,919.18975,-132.938482,-9.548218,410.888672,314.782228,23.017701,604.407522,0.147108,24.609615,24.609615,24.756723,0.1602,0.469659,0.469659,0.46458,-8691,628
0.416,15.301203,912.0775,-151.016834,-8.703369,422.424316,325.546436,24.004572,586.531064,0.166525,24.900457,24.900457,25.066982,0.1602,0.473537,0.473537,0.467784,-7922,647
0.418,17.117793,904.063,-168.945853,-7.935425,383.972168,331.38901,25.053218,572.67399,0.18556,25.299187,25.299187,25.484747,0.1602,0.478759,0.478759,0.468852,-7223,634
0.42,18.917455,895.15425,-186.707808,-7.05542,440.002441,342.250353,25.972875,552.903897,0.204177,25.51592,25.51592,25.720097,0.1602,0.481701,0.481701,0.478464,-6422,666
0.422,20.69841,885.36075,-204.285136,-6.258911,398.254395,347.850757,26.957321,537.509993,0.222339,25.84861,25.84861,26.070949,0.1602,0.486087,0.486087,0.47526,-5697,682
0.424,22.458898,874.69175,-221.660456,-5.348145,455.383301,358.604011,27.807043,516.087739,0.240014,25.993786,25.993786,26.2338,0.1602,0.488123,0.488123,0.488076,-4868,688
0.426,24.197177,863.15775,-238.816585,-4.52417,411.987305,363.942341,28.721347,499.215409,0.257173,26.257825,26.257825,26.514998,0.1602,0.491637,0.491637,0.513708,-4118,703
0.428,25.911529,850.77025,-255.736559,-3.578247,472.961426,374.844249,29.489776,475.926001,0.27379,26.320755,26.320755,26.594545,0.1602,0.492632,0.492632,0.488076,-3257,718
0.43,27.600258,837.54125,-272.403647,-2.723511,427.368164,380.096641,30.323769,457.444609,0.289841,26.507651,26.507651,26.797492,0.1602,0.495169,0.495169,0.494484,-2479,727
0.432,29.261694,823.48425,-288.801367,-1.856689,433.410645,385.428041,31.118383,438.056209,0.305308,26.654662,26.654662,26.95997,0.1602,0.4972,0.4972,0.494484,-1690,709
0.434,30.894195,808.613,-304.913503,-0.983276,436.706543,390.555891,31.877471,418.057109,0.320173,26.769312,26.769312,27.089485,0.1602,0.498819,0.498819,0.493416,-895,729
0.436,32.496146,792.94175,-320.724125,0.015381,499.328613,401.433163,32.480765,391.508587,0.334424,26.674484,26.674484,27.008909,0.1602,0.497811,0.497811,0.499824,14,769
0.438,34.065962,776.48675,-336.217596,1.030518,507.568359,412.046683,33.035444,364.440067,0.348052,26.540884,26.540884,26.888936,0.1602,0.496312,0.496312,0.497688,938,761
0.44,35.602093,759.264,-351.378597,1.942383,455.932617,416.435276,33.65971,342.828724,0.361051,26.545037,26.545037,26.906087,0.1602,0.496526,0.496526,0.505164,1768,770
0.442,37.103018,741.29,-366.192135,2.858643,458.129883,420.604737,34.244375,320.685263,0.373416,26.515712,26.515712,26.889128,0.1602,0.496314,0.496314,0.493416,2602,760
0.444,38.567253,722.58325,-380.643561,3.778198,459.777832,424.522047,34.789055,298.061203,0.385148,26.453574,26.453574,26.838722,0.1602,0.495684,0.495684,0.497688,3439,776
0.446,39.993351,703.16225,-394.718586,4.707642,464.72168,428.54201,35.285709,274.62024,0.396251,26.347841,26.347841,26.744092,0.1602,0.494501,0.494501,0.499824,4285,762
0.448,41.379902,683.04575,-408.403291,5.760132,526.245117,438.312321,35.61977,244.733429,0.406729,26.030284,26.030284,26.437013,0.1602,0.490663,0.490663,0.49662,5243,762
0.45,42.725534,662.2535,-421.684145,6.814819,527.34375,447.215464,35.910715,215.038036,0.416592,25.689729,25.689729,26.106321,0.1602,0.486529,0.486529,0.474192,6203,766
0.452,44.028916,640.8065,-434.548013,7.984863,585.021973,460.996114,36.044053,179.810386,0.425849,25.156342,25.156342,25.582191,0.1602,0.479977,0.479977,0.484872,7268,792
0.454,45.28876,618.726,-446.982176,8.99231,503.723145,465.268817,36.29645,153.457183,0.434513,24.850573,24.850573,25.285086,0.1602,0.476264,0.476264,0.479532,8185,777
0.456,46.50382,596.0335,-458.974338,10.094238,550.964355,473.838371,36.409582,122.195129,0.4426,24.374055,24.374055,24.816655,0.1602,0.470408,0.470408,0.474192,9188,782
0.458,47.672894,572.75175,-470.512641,11.164307,535.03418,479.957952,36.508587,92.793798,0.450126,23.921384,23.921384,24.37151,0.1602,0.464844,0.464844,0.470988,10162,748
0.46,48.794827,548.90375,-481.585675,12.22229,528.991699,484.861327,36.572537,64.042423,0.457108,23.458643,23.458643,23.915751,0.1602,0.459147,0.459147,0.463512,11125,749
0.462,49.868509,524.51275,-492.182489,13.200073,488.891602,485.264354,36.668436,39.248396,0.463566,23.084486,23.084486,23.548053,0.1602,0.454551,0.454551,0.454968,12015,744
0.464,50.892878,499.603,-502.292607,14.148193,474.060059,484.143925,36.744685,15.459075,0.46952,22.715862,22.715862,23.185383,0.1602,0.450017,0.450017,0.454968,12878,742
0.466,51.866921,474.19925,-511.906029,15.043579,447.692871,480.498819,36.823342,-6.299569,0.474991,22.384151,22.384151,22.859142,0.1602,0.445939,0.445939,0.449628,13693,747
0.468,52.789675,448.32675,-521.01325,15.946655,451.538086,477.602746,36.84302,-29.275996,0.48,21.995157,21.995157,22.475158,0.1602,0.441139,0.441139,0.444288,14515,739
0.47,53.660228,422.011,-529.605264,16.89917,476.257324,477.468204,36.761058,-55.457204,0.484569,21.488142,21.488142,21.972711,0.1602,0.434859,0.434859,0.442152,15382,717
0.472,54.477719,395.27775,-537.673575,17.752808,426.818848,472.403268,36.724911,-77.125518,0.488719,21.087878,21.087878,21.576596,0.1602,0.429907,0.429907,0.429336,16159,711
0.474,55.241339,368.15375,-545.210204,18.596558,421.875,467.350441,36.644781,-99.196691,0.492471,20.653714,20.653714,21.146186,0.1602,0.424527,0.424527,0.426132,16927,692
0.476,55.950334,340.6655,-552.207699,19.447998,425.720215,463.187419,36.502336,-122.521919,0.495847,20.159597,20.159597,20.655444,0.1602,0.418393,0.418393,0.429336,17702,669
0.478,56.604001,312.8405,-558.65914,20.244507,398.254395,456.694116,36.359494,-143.853616,0.498866,19.700032,19.700032,20.198898,0.1602,0.412686,0.412686,0.419724,18427,679
0.48,57.201696,284.70625,-564.558147,21.043213,399.353027,450.960007,36.158483,-166.253757,0.501548,19.186285,19.186285,19.687833,0.1602,0.406298,0.406298,0.41118,19154,662
0.482,57.742826,256.29025,-569.898888,21.845215,401.000977,445.964104,35.897611,-189.673854,0.503911,18.61817,18.61817,19.12208,0.1602,0.399226,0.399226,0.402636,19884,626
0.484,58.226857,227.62075,-574.676082,22.613159,383.972168,439.764911,35.613698,-212.144161,0.505971,18.052556,18.052556,18.558527,0.1602,0.392182,0.392182,0.4005,20583,621
0.486,58.653309,198.7265,-578.885003,23.363525,375.183105,433.30673,35.289784,-234.58023,0.507745,17.463105,17.463105,17.970849,0.1602,0.384836,0.384836,0.390888,21266,621
0.488,59.021763,169.63575,-582.521491,24.098511,367.492676,426.725325,34.923252,-257.089575,0.509245,16.846341,16.846341,17.355587,0.1602,0.377145,0.377145,0.381276,21935,601
0.49,59.331852,140.37675,-585.581948,24.812622,357.055664,419.758359,34.51923,-279.381609,0.510486,16.210469,16.210469,16.720954,0.1602,0.369212,0.369212,0.37914,22585,589
0.492,59.58327,110.9795,-588.06335,25.501465,344.421387,412.224661,34.081805,-301.245161,0.511476,15.56167,15.56167,16.073146,0.1602,0.361114,0.361114,0.369528,23212,553
0.494,59.77577,81.47225,-589.963242,26.169434,333.984375,404.400633,33.606336,-322.928383,0.512225,14.892779,14.892779,15.405004,0.1602,0.352763,0.352763,0.359916,23820,547
0.496,59.909159,51.88425,-591.279745,26.81543,322.998047,396.260374,33.093729,-344.376124,0.512739,14.205312,14.205312,14.718051,0.1602,0.344176,0.344176,0.350304,24408,527
0.498,59.983307,22.2455,-592.011558,27.438354,311.462402,387.780577,32.544953,-365.535077,0.513023,13.50079,13.50079,14.013813,0.1602,0.335373,0.335373,0.342828,24975,539
0.5,59.998141,-7.4155,-592.157957,28.0448,303.222656,379.324785,31.953341,-386.740285,0.51308,12.769294,12.769294,13.282374,-0.1602,0.00583,0.00583,0.335352,25527,507
0.502,59.953645,-37.0695,-591.718797,28.67981,317.504883,373.142795,31.273835,-410.212295,0.51291,11.944544,11.944544,12.457454,-0.1602,-0.004482,-0.004482,0.007476,26105,414
0.504,59.849863,-66.68675,-590.694512,29.115967,218.078613,357.636377,30.733896,-424.323127,0.512511,11.368433,11.368433,11.880944,-0.1602,-0.011688,-0.011688,-0.002136,26502,288
0.506,59.686898,-96.23775,-589.086116,29.415894,149.963379,336.869077,30.271004,-433.106827,0.51188,10.932364,10.932364,11.444244,-0.1602,-0.017147,-0.017147,-0.006408,26775,109
0.508,59.464912,-125.69375,-586.895198,29.532349,58.227539,309.004923,29.932563,-434.698673,0.511012,10.697839,10.697839,11.208851,-0.1602,-0.020089,-0.020089,-0.014952,26881,53
0.51,59.184123,-155.0255,-584.123926,29.572998,20.324707,280.136901,29.611125,-435.162401,0.509897,10.49339,10.49339,11.003288,-0.1602,-0.022659,-0.022659,-0.019224,26918,6
0.512,58.84481,-184.20375,-580.775039,29.569702,-1.647949,251.958416,29.275108,-436.162166,0.508528,10.27068,10.27068,10.779208,-0.1602,-0.02546,-0.02546,-0.023496,26915,-15
0.514,58.447308,-213.2,-576.85185,29.55542,-7.141113,226.048463,28.891888,-439.248463,0.506893,9.982718,9.982718,10.489611,-0.1602,-0.02908,-0.02908,-0.025632,26902,-15
0.516,57.99201,-241.9855,-572.358237,29.540039,-7.69043,202.674574,28.451971,-444.660074,0.504978,9.619538,9.619538,10.124515,-0.1602,-0.033644,-0.033644,-0.028836,26888,-8
0.518,57.479366,-270.53175,-567.298644,29.529053,-5.493164,181.8578,27.950313,-452.38955,0.502768,9.178188,9.178188,9.680956,-0.1602,-0.039188,-0.039188,-0.036312,26878,-8
0.52,56.909883,-298.81025,-561.678075,29.521362,-3.845215,163.287499,27.388521,-462.097749,0.500248,8.665568,8.665568,9.165816,-0.1602,-0.045627,-0.045627,-0.041652,26871,-6
0.522,56.284125,-326.79325,-555.502087,29.514771,-3.295898,146.629159,26.769354,-473.422409,0.4974,8.089688,8.089688,8.587088,-0.1602,-0.052861,-0.052861,-0.04272,26865,-7
0.524,55.60271,-354.4535,-548.776788,29.50708,-3.845215,131.581722,26.09563,-486.035222,0.494205,7.457998,7.457998,7.952203,-0.1602,-0.060797,-0.060797,-0.051264,26858,-6
0.526,54.866311,-381.763,-541.508828,29.500488,-3.295898,118.09396,25.365823,-499.85696,0.490644,6.77095,6.77095,7.261593,-0.1602,-0.06943,-0.06943,-0.06408,26852,-8
0.528,54.075658,-408.69475,-533.705393,29.490601,-4.943848,105.790179,24.585057,-514.484929,0.486695,6.038701,6.038701,6.525396,-0.1602,-0.078633,-0.078633,-0.067284,26843,-9
0.53,53.231532,-435.22275,-525.374201,29.477417,-6.591797,94.551981,23.754115,-529.774731,0.482338,5.26425,5.26425,5.746588,-0.1602,-0.088368,-0.088368,-0.081168,26831,-16
0.532,52.334767,-461.32025,-516.523489,29.457642,-9.887695,84.108014,22.877125,-545.428264,0.477552,4.455322,4.455322,4.932874,-0.1602,-0.098539,-0.098539,-0.09612,26813,-17
0.534,51.386251,-486.96125,-507.16201,29.429077,-14.282227,74.26899,21.957174,-561.23024,0.472315,3.617559,3.617559,4.089873,-0.1602,-0.109077,-0.109077,-0.09612,26787,-28
0.536,50.386922,-512.121,-497.299021,29.391724,-18.676758,64.974415,20.995198,-577.095415,0.466605,2.753022,2.753022,3.219627,-0.1602,-0.119955,-0.119955,-0.107868,26753,-32
0.538,49.337767,-536.7745,-486.944275,29.345581,-23.071289,56.169845,19.992186,-592.944345,0.460401,1.8637,1.8637,2.324102,-0.1602,-0.131149,-0.131149,-0.118548,26711,-38
0.54,48.239824,-560.897,-476.108012,29.284058,-30.761719,47.476688,18.955766,-608.373688,0.453684,0.961295,0.961295,1.414978,-0.1602,-0.142513,-0.142513,-0.132432,26655,-59
0.542,47.094179,-584.465,-464.800946,29.220337,-31.860352,39.542984,17.873842,-624.007984,0.446432,0.027515,0.027515,0.473947,-0.1602,-0.154276,-0.154276,-0.13884,26597,-53
0.544,45.901964,-607.455,-453.034259,29.148926,-35.705566,32.018129,16.753038,-639.473129,0.438628,-0.927063,-0.927063,-0.488435,-0.1602,-0.166305,-0.166305,-0.151656,26532,-59
0.546,44.664359,-629.84425,-440.819586,29.066528,-41.19873,24.696443,15.597831,-654.540693,0.430254,-1.895718,-1.895718,-1.465463,-0.1602,-0.178518,-0.178518,-0.17088,26457,-67
0.548,43.382587,-651.6105,-428.169007,28.972046,-47.241211,17.502678,14.410541,-669.113178,0.421295,-2.875329,-2.875329,-2.454034,-0.1602,-0.190875,-0.190875,-0.178356,26371,-92
0.55,42.057917,-672.7325,-415.09503,28.858887,-56.57959,10.094451,13.19903,-682.826951,0.411737,-3.85475,-3.85475,-3.443013,-0.1602,-0.203238,-0.203238,-0.190104,26268,-109
0.552,40.691657,-693.1895,-401.610584,28.730347,-64.27002,2.658004,11.96131,-695.847504,0.401568,-4.838081,-4.838081,-4.436514,-0.1602,-0.215656,-0.215656,-0.199716,26151,-103
0.554,39.285159,-712.961,-387.729003,28.58313,-73.608398,-4.968636,10.702029,-707.992364,0.390778,-5.8193,-5.8193,-5.428522,-0.1602,-0.228057,-0.228057,-0.215736,26017,-150
0.556,37.839813,-732.02725,-373.464013,28.41394,-84.594727,-12.931245,9.425873,-719.096005,0.379361,-6.792655,-6.792655,-6.413294,-0.1602,-0.240366,-0.240366,-0.228552,25863,-173
0.558,36.35705,-750.36975,-358.829722,28.222778,-95.581055,-21.196226,8.134272,-729.173524,0.367312,-7.757535,-7.757535,-7.390223,-0.1602,-0.252578,-0.252578,-0.2403,25689,-184
0.56,34.838334,-767.9705,-343.8406,28.009644,-106.567383,-29.733342,6.82869,-738.237158,0.35463,-8.713259,-8.713259,-8.358629,-0.1602,-0.264683,-0.264683,-0.25098,25495,-167
0.562,33.285168,-784.81125,-328.511469,27.774536,-117.553711,-38.515379,5.510632,-746.295871,0.341317,-9.659067,-9.659067,-9.31775,-0.1602,-0.276672,-0.276672,-0.263796,25281,-209
0.564,31.699089,-800.87625,-312.857488,27.517456,-128.540039,-47.517845,4.181633,-753.358405,0.327376,-10.59417,-10.59417,-10.266794,-0.1602,-0.288535,-0.288535,-0.278748,25047,-246
0.566,30.081663,-816.1495,-296.894136,27.239502,-138.977051,-56.663765,2.842161,-759.485735,0.312816,-11.519349,-11.519349,-11.206533,-0.1602,-0.300282,-0.300282,-0.287292,24794,-243
0.568,28.434491,-830.6155,-280.637198,26.938477,-150.512695,-66.048658,1.496014,-764.566842,0.297649,-12.430346,-12.430346,-12.132697,-0.1602,-0.311859,-0.311859,-0.302244,24520,-224
0.57,26.759201,-844.26,-264.10275,26.617676,-160.400391,-75.483832,0.141525,-768.776168,0.281888,-13.331223,-13.331223,-13.049335,-0.1602,-0.323317,-0.323317,-0.312924,24228,-282
0.572,25.057451,-857.06975,-247.307143,26.270508,-173.583984,-85.293847,-1.213057,-771.775903,0.265551,-14.211045,-14.211045,-13.945494,-0.1602,-0.334519,-0.334519,-0.323604,23912,-301
0.574,23.330922,-869.03225,-230.266985,25.888184,-191.162109,-95.880673,-2.557262,-773.151577,0.24866,-15.056183,-15.056183,-14.807523,-0.1602,-0.345294,-0.345294,-0.333216,23564,-272
0.576,21.581322,-880.13525,-212.999126,25.467407,-210.388184,-107.331424,-3.886085,-772.803826,0.231239,-15.861846,-15.861846,-15.630606,-0.1602,-0.355583,-0.355583,-0.344964,23181,-340
0.578,19.810381,-890.36775,-195.520641,25.041138,-213.134766,-117.911758,-5.230757,-772.455992,0.213317,-16.677188,-16.677188,-16.463871,-0.1602,-0.365998,-0.365998,-0.356712,22793,-369
0.58,18.019851,-899.71975,-177.848815,24.592896,-224.121094,-128.532692,-6.573045,-771.187058,0.194923,-17.474998,-17.474998,-17.280074,-0.1602,-0.376201,-0.376201,-0.36846,22385,-435
0.582,16.211502,-908.18225,-160.001122,24.120483,-236.206055,-139.300028,-7.908981,-768.882222,0.176093,-18.250848,-18.250848,-18.074755,-0.1602,-0.386134,-0.386134,-0.375936,21955,-407
0.584,14.387122,-915.74675,-141.995211,23.619507,-250.488281,-150.418853,-9.232385,-765.327897,0.156862,-18.997235,-18.997235,-18.840373,-0.1602,-0.395705,-0.395705,-0.385548,21499,-446
0.586,12.548515,-922.40575,-123.848887,23.091064,-264.221191,-161.799087,-10.542549,-760.606663,0.137269,-19.715168,-19.715168,-19.577898,-0.1602,-0.404924,-0.404924,-0.396228,21018,-417
0.588,10.697499,-928.15225,-105.580095,22.538452,-276.306152,-173.249794,-11.840953,-754.902456,0.117358,-20.40876,-20.40876,-20.291402,-0.1602,-0.413843,-0.413843,-0.404772,20515,-460
0.59,8.835906,-932.98125,-87.206899,21.963867,-287.29248,-184.654062,-13.127961,-748.327188,0.09717,-21.080188,-21.080188,-20.983018,-0.1602,-0.422488,-0.422488,-0.415452,19992,-493
0.592,6.965574,-936.88775,-68.747467,21.36731,-298.278809,-196.016537,-14.401736,-740.871213,0.076753,-21.728162,-21.728162,-21.651409,-0.1602,-0.430843,-0.430843,-0.426132,19449,-509
0.594,5.088355,-939.8675,-50.220055,20.746582,-310.36377,-207.45126,-15.658227,-732.41624,0.056152,-22.348141,-22.348141,-22.291989,-0.1602,-0.43885,-0.43885,-0.431472,18884,-533
0.596,3.206104,-941.918,-31.642982,20.018188,-364.196777,-223.125812,-16.812084,-718.792188,0.035418,-22.815208,-22.815208,-22.779791,-0.1602,-0.444947,-0.444947,-0.43788,18221,-553
0.598,1.320683,-943.037,-13.034619,19.257935,-380.126953,-238.825926,-17.937252,-704.211074,0.014598,-23.248045,-23.248045,-23.233448,-0.1602,-0.450618,-0.450618,-0.446424,17529,-590
0.6,-0.566044,-943.22375,5.586634,18.468018,-394.958496,-254.439183,-19.034062,-688.784567,-0.006257,-23.648805,-23.648805,-23.655062,-0.1602,-0.455888,-0.455888,-0.444288,16810,-585
0.602,-2.452212,-942.4775,24.202362,17.655029,-406.494141,-269.644679,-20.107241,-672.832821,-0.027097,-24.025963,-24.025963,-24.05306,-0.1602,-0.460863,-0.460863,-0.452832,16070,-631
0.604,-4.335954,-940.79925,42.794157,16.758545,-448.242188,-287.50443,-21.094499,-653.29482,-0.047872,-24.288042,-24.288042,-24.335914,-0.1602,-0.464399,-0.464399,-0.463512,15254,-644
0.606,-6.215409,-938.191,61.343636,15.948853,-404.846191,-299.238606,-22.164262,-638.952394,-0.068532,-24.6912,-24.6912,-24.759732,-0.1602,-0.469697,-0.469697,-0.46992,14517,-651
0.608,-8.088718,-934.65475,79.832454,15.156738,-396.057129,-308.920458,-23.245456,-625.734292,-0.089028,-25.120965,-25.120965,-25.209993,-0.1602,-0.475325,-0.475325,-0.467784,13796,-674
0.61,-9.954028,-930.19425,98.242329,14.345947,-405.395508,-318.567963,-24.299975,-611.626287,-0.109313,-25.518903,-25.518903,-25.628216,-0.1602,-0.480553,-0.480553,-0.467784,13058,-703
0.612,-11.809495,-924.81425,116.555057,13.516479,-414.733887,-328.184556,-25.325974,-596.629694,-0.129341,-25.88391,-25.88391,-26.013251,-0.1602,-0.485366,-0.485366,-0.477396,12303,-692
0.614,-13.653285,-918.5195,134.752529,12.672729,-421.875,-337.5536,-26.326014,-580.9659,-0.149066,-26.221415,-26.221415,-26.370481,-0.1602,-0.489831,-0.489831,-0.484872,11535,-729
0.616,-15.483573,-911.31625,152.81675,11.745483,-463.623047,-350.160545,-27.229056,-561.155705,-0.168446,-26.427299,-26.427299,-26.595745,-0.1602,-0.492647,-0.492647,-0.487008,10691,-706
0.618,-17.29855,-903.212,170.729857,10.819336,-463.07373,-361.451863,-28.117886,-541.760137,-0.187442,-26.631737,-26.631737,-26.819179,-0.1602,-0.49544,-0.49544,-0.492348,9848,-731
0.62,-19.096421,-894.21475,188.474137,9.85144,-483.947754,-373.701452,-28.947861,-520.513298,-0.206014,-26.767913,-26.767913,-26.973927,-0.1602,-0.497374,-0.497374,-0.49128,8967,-757
0.622,-20.875409,-884.33325,206.032044,8.868164,-491.638184,-385.495125,-29.743573,-498.838125,-0.224129,-26.875683,-26.875683,-27.099812,-0.1602,-0.498948,-0.498948,-0.500892,8072,-786
0.624,-22.633754,-873.577,223.386214,7.891479,-488.342285,-395.779841,-30.525233,-477.797159,-0.241754,-26.985938,-26.985938,-27.227691,-0.1602,-0.500546,-0.5,-0.500892,7183,-795
0.626,-24.369717,-861.95725,240.519488,6.945557,-472.961426,-403.498,-31.315274,-458.45925,-0.25886,-27.131035,-27.131035,-27.389895,-0.1602,-0.502574,-0.5,-0.499824,6322,-797
0.628,-26.081583,-849.485,257.414922,5.790894,-577.331543,-420.881354,-31.872477,-428.603646,-0.275421,-26.950333,-26.950333,-27.225754,-0.1602,-0.500522,-0.5,-0.49662,5271,-814
0.63,-27.767657,-836.1725,274.05581,4.693359,-548.76709,-433.669928,-32.461016,-402.502572,-0.291415,-26.854302,-26.854302,-27.145716,-0.1602,-0.499521,-0.499521,-0.497688,4272,-828
0.632,-29.426273,-822.0335,290.425697,3.5354,-578.979492,-448.200884,-32.961673,-373.832616,-0.306822,-26.65975,-26.65975,-26.966572,-0.1602,-0.497282,-0.497282,-0.499824,3218,-803
0.634,-31.055791,-807.0815,306.508394,2.416992,-559.204102,-459.301206,-33.472783,-347.780294,-0.321626,-26.517271,-26.517271,-26.838897,-0.1602,-0.495686,-0.495686,-0.497688,2200,-839
0.636,-32.654599,-791.3315,322.287999,1.290894,-563.049316,-469.676017,-33.945493,-321.655483,-0.335815,-26.350069,-26.350069,-26.685884,-0.1602,-0.493774,-0.493774,-0.49662,1175,-837
0.638,-34.221117,-774.79875,337.748907,0.107666,-591.61377,-481.869792,-34.328783,-292.928958,-0.349381,-26.082835,-26.082835,-26.432216,-0.1602,-0.490603,-0.490603,-0.493416,98,-858
0.64,-35.753794,-757.5,352.875831,-1.026123,-566.894531,-490.372266,-34.727671,-267.127734,-0.362316,-25.876185,-25.876185,-26.238501,-0.1602,-0.488181,-0.488181,-0.483804,-934,-831
0.642,-37.251117,-739.45225,367.653811,-2.182983,-578.430176,-499.178057,-35.068134,-240.274193,-0.374618,-25.61548,-25.61548,-25.990097,-0.1602,-0.485076,-0.485076,-0.48594,-1987,-859
0.644,-38.711603,-720.673,382.068234,-3.370605,-593.811035,-508.641355,-35.340998,-212.031645,-0.386287,-25.289237,-25.289237,-25.675524,-0.1602,-0.481144,-0.481144,-0.479532,-3068,-840
0.646,-40.133809,-701.1815,396.104847,-4.583496,-606.445312,-518.421751,-35.550313,-182.759749,-0.397327,-24.90621,-24.90621,-25.303537,-0.1602,-0.476494,-0.476494,-0.4806,-4172,-830
0.648,-41.516329,-680.9965,409.74977,-5.818359,-617.431641,-528.32274,-35.69797,-152.67376,-0.407743,-24.471309,-24.471309,-24.879052,-0.1602,-0.471188,-0.471188,-0.45924,-5296,-852
0.65,-42.857795,-660.13775,422.989509,-7.098267,-639.953613,-539.485827,-35.759528,-120.651923,-0.417545,-23.950026,-23.950026,-24.367571,-0.1602,-0.464795,-0.464795,-0.473124,-6461,-808
0.652,-44.15688,-638.6265,435.810972,-8.271606,-586.669922,-544.204237,-35.885274,-94.422263,-0.426742,-23.569046,-23.569046,-23.995787,-0.1602,-0.460147,-0.460147,-0.46458,-7529,-807
0.654,-45.412301,-616.484,448.201482,-9.457031,-592.712402,-549.055053,-35.95527,-67.428947,-0.435348,-23.140682,-23.140682,-23.576029,-0.1602,-0.4549,-0.4549,-0.456036,-8608,-809
0.656,-46.622816,-593.73175,460.148784,-10.672119,-607.543945,-554.903942,-35.950697,-38.827808,-0.443378,-22.638704,-22.638704,-23.082082,-0.1602,-0.448726,-0.448726,-0.457104,-9714,-815
0.658,-47.787228,-570.392,471.641066,-11.875122,-601.501465,-559.563695,-35.912106,-10.828305,-0.450848,-22.126447,-22.126447,-22.577295,-0.1602,-0.442416,-0.442416,-0.456036,-10809,-790
0.66,-48.904384,-546.4885,482.666963,-12.991333,-558.105469,-559.417872,-35.913051,12.929372,-0.457777,-21.712374,-21.712374,-22.170151,-0.1602,-0.437327,-0.437327,-0.442152,-11825,-787
0.662,-49.973182,-522.04475,493.215571,-13.997681,-503.173828,-553.793468,-35.975501,31.748718,-0.464184,-21.422064,-21.422064,-21.886247,-0.1602,-0.433778,-0.433778,-0.430404,-12741,-787
0.664,-50.992563,-497.0845,503.276461,-15.144653,-573.486328,-555.762754,-35.84791,58.678254,-0.470089,-20.874113,-20.874113,-21.344202,-0.1602,-0.427003,-0.427003,-0.430404,-13785,-764
0.666,-51.96152,-471.63275,512.839683,-16.274048,-564.697266,-556.656205,-35.687472,85.023455,-0.475512,-20.316297,-20.316297,-20.791809,-0.1602,-0.420098,-0.420098,-0.426132,-14813,-735
0.668,-52.879094,-445.71475,521.89578,-17.341919,-533.935547,-554.384139,-35.537175,108.669389,-0.480477,-19.811786,-19.811786,-20.292263,-0.1602,-0.413853,-0.413853,-0.42186,-15785,-754
0.67,-53.744379,-419.356,530.435797,-18.319702,-488.891602,-547.834885,-35.424677,128.478885,-0.485002,-19.397324,-19.397324,-19.882327,-0.1602,-0.408729,-0.408729,-0.41652,-16675,-692
0.672,-54.556518,-392.5825,538.45129,-19.317261,-498.779297,-542.929326,-35.239257,150.346826,-0.489112,-18.90239,-18.90239,-19.391502,-0.1602,-0.402594,-0.402594,-0.412248,-17583,-699
0.674,-55.314709,-365.42075,545.934333,-20.35437,-518.554688,-540.491863,-34.960339,175.071113,-0.492826,-18.300488,-18.300488,-18.793314,-0.1602,-0.395116,-0.395116,-0.402636,-18527,-685
0.676,-56.018201,-337.89775,552.877525,-21.311279,-478.45459,-534.288135,-34.706922,196.390385,-0.496165,-17.773593,-17.773593,-18.269758,-0.1602,-0.388572,-0.388572,-0.398364,-19398,-659
0.678,-56.6663,-310.0405,559.274,-22.262695,-475.708008,-528.430123,-34.403605,218.389623,-0.499149,-17.204348,-17.204348,-17.703498,-0.1602,-0.381494,-0.381494,-0.37914,-20264,-649
0.68,-57.258363,-281.87675,565.117435,-23.225098,-481.201172,-523.707227,-34.033265,241.830477,-0.501798,-16.569001,-16.569001,-17.070799,-0.1602,-0.373585,-0.373585,-0.377004,-21140,-640
0.682,-57.793807,-253.43425,570.40205,-24.123779,-449.34082,-516.270587,-33.670028,262.836337,-0.50413,-15.98049,-15.98049,-16.48462,-0.1602,-0.366258,-0.366258,-0.370596,-21958,-602
0.684,-58.2721,-224.741,575.122619,-24.981812,-429.016113,-507.545139,-33.290288,282.804139,-0.506161,-15.400017,-15.400017,-15.906178,-0.1602,-0.359027,-0.359027,-0.366324,-22739,-593
0.686,-58.692771,-195.82575,579.274475,-25.869507,-443.847656,-501.175391,-32.823264,305.349641,-0.507907,-14.721234,-14.721234,-15.229141,-0.1602,-0.350564,-0.350564,-0.359916,-23547,-589
0.688,-59.055403,-166.71675,582.853512,-26.692383,-411.437988,-492.201651,-32.36302,325.484901,-0.509381,-14.088661,-14.088661,-14.598042,-0.1602,-0.342676,-0.342676,-0.3471,-24296,-557
0.69,-59.359638,-137.443,585.856191,-27.469116,-388.366699,-481.818156,-31.890522,344.375156,-0.510596,-13.470331,-13.470331,-13.980927,-0.1602,-0.334962,-0.334962,-0.342828,-25003,-533
0.692,-59.605175,-108.03325,588.279543,-28.266724,-398.803711,-473.516711,-31.338451,365.483461,-0.511562,-12.764681,-12.764681,-13.276243,-0.1602,-0.326153,-0.326153,-0.340692,-25729,-526
0.694,-59.791771,-78.51675,590.121171,-28.956665,-344.970703,-460.66211,-30.835106,382.14536,-0.512287,-12.1664,-12.1664,-12.678686,-0.1602,-0.318684,-0.318684,-0.327876,-26357,-480
0.696,-59.919242,-48.9225,591.379254,-29.696045,-369.689941,-451.564893,-30.223197,402.642393,-0.512778,-11.434865,-11.434865,-11.947643,-0.1602,-0.309546,-0.309546,-0.311856,-27030,-459
0.698,-59.987461,-19.27975,592.052549,-30.372803,-338.378906,-440.246295,-29.614658,420.966545,-0.513039,-10.743313,-10.743313,-11.256352,-0.1602,-0.300904,-0.300904,-0.310788,-27646,-458
0.7,-59.996361,10.382,592.140388,-31.005615,-316.40625,-427.86229,-28.990746,438.24429,-0.513073,-10.060633,-10.060633,-10.573706,0.1602,0.028029,0.028029,-0.302244,-28222,-454
0.702,-59.945933,40.0335,591.642687,-31.583496,-288.94043,-413.970104,-28.362437,454.003604,-0.51288,-9.401769,-9.401769,-9.914649,0.1602,0.036267,0.036267,0.02136,-28748,-344
0.704,-59.836227,69.64525,590.559936,-32.016357,-216.430664,-394.21616,-27.81987,463.86141,-0.512459,-8.898282,-8.898282,-9.410741,0.1602,0.042566,0.042566,0.034176,-29142,-191
0.706,-59.667352,99.188,588.893206,-32.211914,-97.77832,-364.572376,-27.455438,463.760376,-0.511804,-8.677427,-8.677427,-9.189231,0.1602,0.045335,0.045335,0.039516,-29320,-84
0.708,-59.439475,128.633,586.644146,-32.283325,-35.705566,-331.685695,-27.15615,460.318695,-0.510911,-8.554671,-8.554671,-9.065582,0.1602,0.04688,0.04688,0.045924,-29385,-8
0.71,-59.15282,157.95075,583.81498,-32.275635,3.845215,-298.132604,-26.877185,456.083354,-0.509772,-8.458182,-8.458182,-8.967954,0.1602,0.048101,0.048101,0.045924,-29378,20
0.712,-58.807672,187.112,580.408504,-32.242676,16.479492,-266.671395,-26.564996,453.783395,-0.508377,-8.307618,-8.307618,-8.815995,0.1602,0.05,0.05,0.045924,-29348,22
0.714,-58.404372,216.0885,576.428088,-32.203125,19.775391,-238.026716,-26.201247,454.115216,-0.506714,-8.079625,-8.079625,-8.586339,0.1602,0.052871,0.052871,0.050196,-29312,14
0.716,-57.943318,244.85125,571.877668,-32.181152,10.986328,-213.125412,-25.762166,457.976662,-0.50477,-7.744011,-7.744011,-8.248781,0.1602,0.05709,0.05709,0.0534,-29292,10
0.718,-57.424967,273.372,566.761744,-32.164673,8.239746,-190.988896,-25.260294,464.360896,-0.50253,-7.326009,-7.326009,-7.82854,0.1602,0.062343,0.062343,0.052332,-29277,10
0.72,-56.84983,301.6225,561.085374,-32.148193,8.239746,-171.066032,-24.701637,472.688532,-0.499978,-6.8394,-6.8394,-7.339378,0.1602,0.068458,0.068458,0.059808,-29262,13
0.722,-56.218477,329.5745,554.854171,-32.131714,8.239746,-153.135454,-24.086763,482.709954,-0.497096,-6.288888,-6.288888,-6.785985,0.1602,0.075375,0.075375,0.068352,-29247,14
0.724,-55.531532,357.2005,548.074297,-32.11084,10.437012,-136.778207,-23.420692,493.978707,-0.493866,-5.685332,-5.685332,-6.179198,0.1602,0.08296,0.08296,0.073692,-29228,15
0.726,-54.789675,384.47325,540.752457,-32.088867,10.986328,-122.001754,-22.700808,506.475004,-0.490266,-5.027478,-5.027478,-5.517744,0.1602,0.091228,0.091228,0.0801,-29208,23
0.728,-53.993639,411.36625,532.895891,-32.058105,15.380859,-108.263492,-21.935534,519.629742,-0.486278,-4.330405,-4.330405,-4.816683,0.1602,0.099991,0.099991,0.088644,-29180,23
0.73,-53.14421,437.85225,524.512368,-32.026245,15.930176,-95.844126,-21.117965,533.696376,-0.481879,-3.585472,-3.585472,-4.067351,0.1602,0.109358,0.109358,0.10146,-29151,28
0.732,-52.24223,463.90525,515.610177,-31.986694,19.775391,-84.282174,-20.255536,548.187424,-0.477049,-2.805727,-2.805727,-3.282776,0.1602,0.119165,0.119165,0.11214,-29115,42
0.734,-51.288589,489.4995,506.198122,-31.932861,26.916504,-73.162306,-19.355728,562.661806,-0.471765,-2.00344,-2.00344,-2.475205,0.1602,0.12926,0.12926,0.12282,-29066,42
0.736,-50.284232,514.60975,496.285511,-31.870239,31.311035,-62.714972,-18.413993,577.324722,-0.466007,-1.172251,-1.172251,-1.638258,0.1602,0.139722,0.139722,0.126024,-29009,54
0.738,-49.23015,539.211,485.882144,-31.798828,35.705566,-52.872918,-17.431322,592.083918,-0.459753,-0.314375,-0.314375,-0.774128,0.1602,0.150523,0.150523,0.140976,-28944,62
0.74,-48.127388,563.279,474.99831,-31.714233,42.297363,-43.35589,-16.413155,606.63489,-0.452983,0.561551,0.561551,0.108568,0.1602,0.161557,0.161557,0.151656,-28867,68
0.742,-46.977034,586.7905,463.644772,-31.616455,48.88916,-34.131385,-15.360579,620.921885,-0.445677,1.453888,1.453888,1.008211,0.1602,0.172803,0.172803,0.158064,-28778,94
0.744,-45.780226,609.72125,451.832755,-31.508789,53.833008,-25.334946,-14.271437,635.056196,-0.437817,2.365897,2.365897,1.92808,0.1602,0.184301,0.184301,0.169812,-28680,114
0.746,-44.538149,632.049,439.573941,-31.391235,58.776855,-16.923766,-13.146914,648.972766,-0.429385,3.295719,3.295719,2.866334,0.1602,0.196029,0.196029,0.180492,-28573,99
0.748,-43.25203,653.75225,426.880452,-31.239624,75.805664,-7.650823,-12.012406,661.403073,-0.420367,4.2057,4.2057,3.785333,0.1602,0.207517,0.207517,0.195444,-28435,144
0.75,-41.92314,674.80875,413.764839,-31.053955,92.834473,2.397707,-10.869185,672.411043,-0.410748,5.096179,5.096179,4.685432,0.1602,0.218768,0.218768,0.206124,-28266,151
0.752,-40.552795,695.19775,400.240073,-30.8573,98.327637,11.9907,-9.695495,683.20705,-0.400517,6.001572,6.001572,5.601055,0.1602,0.230213,0.230213,0.220008,-28087,156
0.754,-39.142349,714.8995,386.319527,-30.638672,109.313965,21.723026,-8.503677,693.176474,-0.389665,6.903611,6.903611,6.513946,0.1602,0.241624,0.241624,0.232824,-27888,186
0.756,-37.693197,733.8945,372.016967,-30.424438,107.116699,30.262394,-7.268759,703.632106,-0.378185,7.840465,7.840465,7.46228,0.1602,0.253479,0.253479,0.238164,-27693,208
0.758,-36.206771,752.1635,357.346536,-30.162964,130.737305,40.309885,-6.043807,711.853615,-0.366073,8.732238,8.732238,8.366165,0.1602,0.264777,0.264777,0.25098,-27455,224
0.76,-34.684543,769.68875,342.32274,-29.877319,142.822266,50.561123,-4.807224,719.127627,-0.353327,9.614579,9.614579,9.261252,0.1602,0.275966,0.275966,0.265932,-27195,218
0.762,-33.128016,786.453,326.960436,-29.549927,163.696289,61.874639,-3.578089,724.578361,-0.339951,10.460548,10.460548,10.120597,0.1602,0.286707,0.286707,0.276612,-26897,288
0.764,-31.538731,802.4395,311.274816,-29.245605,152.160645,70.90324,-2.293126,731.53626,-0.325948,11.366926,11.366926,11.040978,0.1602,0.298212,0.298212,0.284088,-26620,221
0.766,-29.918258,817.63275,295.28139,-28.921509,162.04834,80.01775,-0.996749,737.615,-0.311327,12.264931,12.264931,11.953604,0.1602,0.30962,0.30962,0.294768,-26325,284
0.768,-28.2682,832.01725,278.995973,-28.528198,196.655273,91.681502,0.259998,740.335748,-0.296099,13.08012,13.08012,12.784021,0.1602,0.32,0.32,0.30972,-25967,337
0.77,-26.590189,845.57875,262.43467,-28.127197,200.500488,102.563401,1.537008,743.015349,-0.280279,13.906969,13.906969,13.62669,0.1602,0.330534,0.330534,0.319332,-25602,304
0.772,-24.885885,858.30425,245.613856,-27.680054,223.571777,114.664239,2.794169,743.640011,-0.263886,14.685827,14.685827,14.421941,0.1602,0.340474,0.340474,0.335352,-25195,354
0.774,-23.156972,870.18125,228.550165,-27.204346,237.854004,126.983215,4.047374,743.198035,-0.246941,15.443653,15.443653,15.196711,0.1602,0.350159,0.350159,0.337488,-24762,385
0.776,-21.40516,881.19775,211.260472,-26.733032,235.656738,137.850567,5.327872,743.347183,-0.229469,16.228468,16.228468,15.998998,0.1602,0.360187,0.360187,0.35244,-24333,376
0.778,-19.632181,891.34275,193.761872,-26.258423,237.304688,147.795979,6.626242,743.546771,-0.211498,17.02508,17.02508,16.813582,0.1602,0.37037,0.37037,0.358848,-23901,407
0.78,-17.839789,900.60625,176.07167,-25.687134,285.644531,161.580835,7.847345,739.025415,-0.193059,17.692097,17.692097,17.499037,0.1602,0.378938,0.378938,0.370596,-23381,461
0.782,-16.029756,908.9795,158.207358,-25.126831,280.151367,173.437888,9.097075,735.541612,-0.174187,18.39471,18.39471,18.220523,0.1602,0.387957,0.387957,0.377004,-22871,458
0.784,-14.203871,916.4535,140.186602,-24.513794,306.518555,186.745955,10.309923,729.707545,-0.154918,19.033773,19.033773,18.878855,0.1602,0.396186,0.396186,0.385548,-22313,461
0.786,-12.363942,923.02125,122.027222,-23.915039,299.377441,198.009103,11.551097,725.012147,-0.135292,19.710013,19.710013,19.574721,0.1602,0.404884,0.404884,0.398364,-21768,507
0.788,-10.511786,928.67675,103.747174,-23.200928,357.055664,213.913759,12.689142,714.762991,-0.115351,20.226323,20.226323,20.110973,0.1602,0.411587,0.411587,0.40584,-21118,517
0.79,-8.649235,933.4135,85.364535,-22.576904,312.011719,223.723555,13.927669,709.689945,-0.095138,20.894355,20.894355,20.799217,0.1602,0.42019,0.42019,0.402636,-20550,545
0.792,-6.778132,937.22725,66.897484,-21.914429,331.237793,234.474979,15.136297,702.752271,-0.0747,21.511578,21.511578,21.436878,0.1602,0.428161,0.428161,0.42186,-19947,564
0.794,-4.900326,940.1145,48.36428,-21.228882,342.773438,245.304825,16.328556,694.809675,-0.054084,22.101264,22.101264,22.047179,0.1602,0.43579,0.43579,0.4272,-19323,557
0.796,-3.017674,942.072,29.78325,-20.481812,373.535156,258.127858,17.464138,683.944142,-0.033339,22.605312,22.605312,22.571973,0.1602,0.44235,0.44235,0.435744,-18643,610
0.798,-1.132038,943.09775,11.17277,-19.723755,379.02832,270.217904,18.591717,672.879846,-0.012513,23.101002,23.101002,23.088489,0.1602,0.448806,0.448806,0.440016,-17953,605
0.8,0.754717,943.191,-7.448759,-18.976685,373.535156,280.549629,19.731402,662.641371,0.008343,23.618501,23.618501,23.626844,0.1602,0.455536,0.455536,0.445356,-17273,641
0.802,2.640726,942.3515,-26.062922,-18.187866,394.40918,291.935584,20.828592,650.415916,0.029178,24.075362,24.075362,24.104541,0.1602,0.461507,0.461507,0.460308,-16555,644
0.804,4.524123,940.58025,-44.651312,-17.351807,418.029785,304.545005,21.87593,636.035245,0.049944,24.464154,24.464154,24.514098,0.1602,0.466626,0.466626,0.454968,-15794,697
0.806,6.403047,937.87925,-63.195549,-16.426758,462.524414,320.342945,22.829805,617.536305,0.07059,24.723976,24.723976,24.794566,0.1602,0.470132,0.470132,0.47526,-14952,697
0.808,8.27564,934.25025,-81.677295,-15.479736,473.510742,335.659725,23.755376,598.590525,0.091067,24.958709,24.958709,25.049776,0.1602,0.473322,0.473322,0.46458,-14090,735
0.81,10.140048,929.6975,-100.078273,-14.620605,429.56543,345.050296,24.760653,584.647204,0.111328,25.329441,25.329441,25.44077,0.1602,0.47821,0.47821,0.476328,-13308,739
0.812,11.99443,924.22575,-118.380289,-13.523071,548.76709,365.421975,25.517501,558.803775,0.131327,25.34072,25.34072,25.472048,0.1602,0.478601,0.478601,0.477396,-12309,747
0.814,13.836951,917.83975,-136.565243,-12.509033,507.019043,379.581682,26.345984,538.258068,0.15102,25.488221,25.488221,25.639241,0.1602,0.480691,0.480691,0.478464,-11386,763
0.816,15.665789,910.54625,-154.615154,-11.427979,540.527344,395.676248,27.093768,514.870002,0.170364,25.536818,25.536818,25.707181,0.1602,0.48154,0.48154,0.479532,-10402,764
0.818,17.479136,902.3525,-172.512173,-10.37439,526.794434,408.788067,27.853526,493.564433,0.189318,25.629075,25.629075,25.818393,0.1602,0.48293,0.48293,0.473124,-9443,795
0.82,19.275199,893.26625,-190.238603,-9.352661,510.864258,418.995686,28.62786,474.270564,0.207847,25.765347,25.765347,25.973194,0.1602,0.484865,0.484865,0.483804,-8513,798
0.822,21.052201,883.29675,-207.776914,-8.337524,507.568359,427.852953,29.389725,455.443797,0.225914,25.902155,25.902155,26.128069,0.1602,0.486801,0.486801,0.483804,-7589,812
0.824,22.808386,872.45375,-225.109763,-7.285034,526.245117,437.692169,30.09342,434.761581,0.243488,25.971045,25.971045,26.214534,0.1602,0.487882,0.487882,0.487008,-6631,816
0.826,24.542016,860.748,-242.220011,-6.121582,581.726074,452.09556,30.663598,408.65244,0.260541,25.863657,25.863657,26.124197,0.1602,0.486752,0.486752,0.493416,-5572,835
0.828,26.251378,848.1915,-259.090739,-4.924072,598.754883,466.761492,31.17545,381.430008,0.277046,25.701208,25.701208,25.978254,0.1602,0.484928,0.484928,0.48594,-4482,817
0.83,27.934782,834.79575,-275.705263,-3.659546,632.263184,483.311661,31.594328,351.484089,0.292982,25.434431,25.434431,25.727413,0.1602,0.481793,0.481793,0.48594,-3331,839
0.832,29.590561,820.5745,-292.047155,-2.510376,574.584961,492.438991,32.100937,328.135509,0.308329,25.336392,25.336392,25.644721,0.1602,0.480759,0.480759,0.481668,-2285,851
0.834,31.21708,805.54225,-308.100254,-1.232666,638.85498,507.08059,32.449746,298.46166,0.323073,25.03156,25.03156,25.354633,0.1602,0.477133,0.477133,0.483804,-1122,882
0.836,32.81273,789.713,-323.848686,-0.0802,576.23291,513.995822,32.89293,275.717178,0.3372,24.90532,24.90532,25.24252,0.1602,0.475732,0.475732,0.4806,-73,837
0.838,34.375932,773.103,-339.276878,1.079956,580.078125,520.604053,33.295976,252.498947,0.350703,24.746292,24.746292,25.096995,0.1602,0.473912,0.473912,0.47526,983,860
0.84,35.905142,755.72875,-354.369575,2.319214,619.628906,530.506538,33.585928,225.222212,0.363574,24.447345,24.447345,24.810919,0.1602,0.470336,0.470336,0.473124,2111,867
0.842,37.398847,737.607,-369.111851,3.39917,539.978027,531.453687,33.999677,206.153313,0.375813,24.367275,24.367275,24.743088,0.1602,0.469489,0.469489,0.46992,3094,841
0.844,38.85557,718.75575,-383.489129,4.425293,513.061523,529.61447,34.430277,189.14128,0.387419,24.333397,24.333397,24.720817,0.1602,0.46921,0.46921,0.470988,4028,882
0.846,40.27387,699.19375,-397.487191,5.581055,577.880859,534.441109,34.692815,164.752641,0.398396,24.068111,24.068111,24.466507,0.1602,0.466031,0.466031,0.467784,5080,829
0.848,41.652345,678.9405,-411.092196,6.679688,549.316406,535.928639,34.972657,143.011861,0.408751,23.859609,23.859609,24.268359,0.1602,0.463554,0.463554,0.46458,6080,823
0.85,42.989632,658.01575,-424.29069,7.820068,570.19043,539.354818,35.169564,118.660932,0.418491,23.554888,23.554888,23.973379,0.1602,0.459867,0.459867,0.454968,7118,851
0.852,44.284408,636.4405,-437.069622,8.883545,531.738281,538.593164,35.400863,97.847336,0.427629,23.332915,23.332915,23.760544,0.1602,0.457207,0.457207,0.460308,8086,834
0.854,45.535394,614.23575,-449.416355,9.89209,504.272461,535.161094,35.643304,79.074656,0.436177,23.153369,23.153369,23.589545,0.1602,0.455069,0.455069,0.460308,9004,846
0.856,46.741351,591.4235,-461.318679,11.023682,565.795898,538.224575,35.717669,53.198925,0.44415,22.747179,22.747179,23.191329,0.1602,0.450092,0.450092,0.452832,10034,836
0.858,47.901088,568.02675,-472.764826,12.220093,598.205566,544.222674,35.680995,23.804076,0.451565,22.211739,22.211739,22.663304,0.1602,0.443491,0.443491,0.451764,11123,819
0.86,49.013458,544.06825,-483.743477,13.380249,580.078125,547.808219,35.633209,-3.739969,0.458441,21.701814,21.701814,22.160255,0.1602,0.437203,0.437203,0.44322,12179,821
0.862,50.077361,519.5715,-494.243776,14.559082,589.416504,551.969047,35.518279,-32.397547,0.464797,21.131438,21.131438,21.596235,0.1602,0.430153,0.430153,0.438948,13252,792
0.864,51.091744,494.561,-504.255338,15.647827,544.372559,551.209398,35.443917,-56.648398,0.470652,20.662756,20.662756,21.133408,0.1602,0.424368,0.424368,0.436812,14243,811
0.866,52.055605,469.0615,-513.768265,16.715698,533.935547,549.482013,35.339907,-80.420513,0.476029,20.184318,20.184318,20.660347,0.1602,0.418454,0.418454,0.423996,15215,755
0.868,52.96799,443.09825,-522.773149,17.881348,582.824707,552.816283,35.086642,-109.718033,0.480948,19.518269,19.518269,19.999218,0.1602,0.41019,0.41019,0.418656,16276,797
0.87,53.827998,416.697,-531.261085,19.027222,572.937012,554.828356,34.800776,-138.131356,0.485432,18.847738,18.847738,19.333169,0.1602,0.401865,0.401865,0.414384,17319,747
0.872,54.634778,389.88325,-539.223681,20.150024,561.401367,555.485657,34.484754,-165.602407,0.489501,18.17523,18.17523,18.66473,0.1602,0.393509,0.393509,0.40584,18341,745
0.874,55.387531,362.68425,-546.653063,21.243164,546.569824,554.594073,34.144367,-191.909823,0.493176,17.508149,17.508149,18.001325,0.1602,0.385217,0.385217,0.39516,19336,708
0.876,56.085515,335.12675,-553.541883,22.309937,533.38623,552.473289,33.775578,-217.346539,0.496479,16.838914,16.838914,17.335393,0.1602,0.376892,0.376892,0.380208,20307,698
0.878,56.728038,307.2375,-559.88333,23.349243,519.65332,549.191292,33.378795,-241.953792,0.499429,16.167055,16.167055,16.666484,0.1602,0.368531,0.368531,0.375936,21253,699
0.88,57.314465,279.0445,-565.671134,24.298462,474.609375,541.733101,33.016003,-262.688601,0.502046,15.583548,15.583548,16.085593,0.1602,0.36127,0.36127,0.370596,22117,649
0.882,57.844216,250.57575,-570.89957,25.234497,468.017578,534.361548,32.609719,-283.785798,0.504346,14.967147,14.967147,15.471494,0.1602,0.353594,0.353594,0.358848,22969,621
0.884,58.316768,221.85925,-575.563469,26.079346,422.424316,523.167825,32.237422,-301.308575,0.506348,14.433894,14.433894,14.940242,0.1602,0.346953,0.346953,0.351372,23738,621
0.886,58.731653,192.923,-579.658219,26.807739,364.196777,507.27072,31.923914,-314.34772,0.508066,14.014806,14.014806,14.522873,0.1602,0.341736,0.341736,0.349236,24401,596
0.888,59.08846,163.79625,-583.17977,27.51416,353.210449,491.864693,31.5743,-328.068443,0.509514,13.561768,13.561768,14.071282,0.1602,0.336091,0.336091,0.343896,25044,568
0.89,59.386838,134.50775,-586.12464,28.254639,370.239258,479.70215,31.132199,-345.1944,0.510704,12.9928,12.9928,13.503503,0.1602,0.328994,0.328994,0.334284,25718,545
0.892,59.626491,105.08575,-588.489918,29.035767,390.563965,470.788331,30.590724,-365.702581,0.511645,12.304096,12.304096,12.815741,0.1602,0.320397,0.320397,0.330012,26429,520
0.894,59.807181,75.56,-590.273264,29.67627,320.251465,455.734645,30.130911,-380.174645,0.512346,11.770627,11.770627,12.282974,0.1602,0.313737,0.313737,0.3204,27012,510
0.896,59.928731,45.96,-591.472915,30.2948,309.265137,441.087694,29.633931,-395.127694,0.512814,11.206059,11.206059,11.718874,0.1602,0.306686,0.306686,0.313992,27575,508
0.898,59.991021,16.314,-592.087684,30.892456,298.828125,426.861737,29.098565,-410.547737,0.513053,10.609892,10.609892,11.122945,0.1602,0.299237,0.299237,0.30972,28119,500
0.9,59.993987,-13.348,-592.116964,31.46814,287.841797,412.959743,28.525847,-426.307743,0.513064,9.984975,9.984975,10.498039,-0.1602,-0.028975,-0.028975,0.30438,28643,456
0.902,59.937629,-42.99675,-591.560726,32.031738,281.799316,399.8437,27.905891,-442.84045,0.512848,9.317715,9.317715,9.830563,-0.1602,-0.037318,-0.037318,-0.025632,29156,395
0.904,59.822,-72.60325,-590.419519,32.493164,230.712891,382.930619,27.328836,-455.533869,0.512404,8.74367,8.74367,9.256074,-0.1602,-0.044499,-0.044499,-0.036312,29576,239
0.906,59.647216,-102.1375,-588.694473,32.734863,120.849609,356.722518,26.912353,-458.860018,0.511726,8.431203,8.431203,8.942928,-0.1602,-0.048413,-0.048413,-0.046992,29796,87
0.908,59.41345,-131.57075,-586.387293,32.822754,43.945312,325.444798,26.590696,-457.015548,0.510809,8.266906,8.266906,8.777715,-0.1602,-0.050479,-0.050479,-0.044856,29876,14
0.91,59.120933,-160.87425,-583.50026,32.82605,1.647949,293.065113,26.294883,-453.939363,0.509644,8.139894,8.139894,8.649538,-0.1602,-0.052081,-0.052081,-0.050196,29879,-25
0.912,58.769953,-190.01875,-580.036229,32.793091,-16.479492,262.110652,25.976862,-452.129402,0.508223,7.977215,7.977215,8.485438,-0.1602,-0.054132,-0.054132,-0.054468,29849,-34
0.914,58.360858,-218.975,-575.998627,32.752441,-20.324707,233.867116,25.608417,-452.842116,0.506533,7.739706,7.739706,8.246238,-0.1602,-0.057122,-0.057122,-0.052332,29812,-25
0.916,57.894053,-247.71475,-571.391445,32.717285,-17.578125,208.722592,25.176768,-456.437342,0.50456,7.413278,7.413278,7.917838,-0.1602,-0.061227,-0.061227,-0.057672,29780,-26
0.918,57.369999,-276.2095,-566.219239,32.685425,-15.930176,186.257315,24.684574,-462.466815,0.50229,7.00738,7.00738,7.509669,-0.1602,-0.066329,-0.066329,-0.05874,29751,-24
0.92,56.789215,-304.43125,-560.487123,32.653564,-15.930176,166.038566,24.135651,-470.469816,0.499705,6.532383,6.532383,7.032088,-0.1602,-0.072299,-0.072299,-0.066216,29722,-24
0.922,56.152274,-332.35225,-554.200767,32.620605,-16.479492,147.78676,23.531669,-480.13901,0.496789,5.994672,5.994672,6.491461,-0.1602,-0.079057,-0.079057,-0.072624,29692,-22
0.924,55.459806,-359.94425,-547.366387,32.592041,-14.282227,131.579862,22.867765,-491.524112,0.493523,5.390409,5.390409,5.883931,-0.1602,-0.086651,-0.086651,-0.075828,29666,-23
0.926,54.712497,-387.18025,-539.990739,32.556885,-17.578125,116.664063,22.155612,-503.844313,0.489885,4.740351,4.740351,5.230237,-0.1602,-0.094822,-0.094822,-0.09078,29634,-26
0.928,53.911085,-414.0335,-532.081119,32.514038,-21.42334,102.855323,21.397047,-516.888823,0.485857,4.0493,4.0493,4.535157,-0.1602,-0.103511,-0.103511,-0.091848,29595,-35
0.93,53.056363,-440.4775,-523.645347,32.470093,-21.972656,90.372525,20.58627,-530.850025,0.481416,3.310356,3.310356,3.791772,-0.1602,-0.112803,-0.112803,-0.104664,29555,-31
0.932,52.149175,-466.48575,-514.691766,32.421753,-24.169922,78.91828,19.727422,-545.40403,0.476541,2.5317,2.5317,3.008242,-0.1602,-0.122597,-0.122597,-0.108936,29511,-42
0.934,51.19042,-492.03275,-505.229228,32.370117,-25.817871,68.444665,18.820303,-560.477415,0.471211,1.714492,1.714492,2.185704,-0.1602,-0.132879,-0.132879,-0.118548,29464,-47
0.936,50.181044,-517.09325,-495.267092,32.305298,-32.409668,58.359232,17.875746,-575.452482,0.465404,0.876131,0.876131,1.341536,-0.1602,-0.143431,-0.143431,-0.130296,29405,-53
0.938,49.122047,-541.64225,-484.815208,32.213013,-46.142578,47.909051,16.909034,-589.551301,0.4591,0.03953,0.03953,0.49863,-0.1602,-0.153967,-0.153967,-0.145248,29321,-83
0.94,48.014475,-565.65575,-473.883912,32.104248,-54.382324,37.679913,15.910227,-603.335663,0.452277,-0.811189,-0.811189,-0.358913,-0.1602,-0.164686,-0.164686,-0.151656,29222,-74
0.942,46.859424,-589.10975,-462.484012,31.980103,-62.072754,27.704647,14.879321,-616.814397,0.444916,-1.676182,-1.676182,-1.231266,-0.1602,-0.175591,-0.175591,-0.16554,29109,-82
0.944,45.658036,-611.9815,-450.626783,31.833984,-73.059082,17.628274,13.824052,-629.609774,0.436999,-2.544131,-2.544131,-2.107132,-0.1602,-0.186539,-0.186539,-0.177288,28976,-125
0.946,44.411498,-634.248,-438.323949,31.679077,-77.453613,8.120085,12.732421,-642.368085,0.42851,-3.433645,-3.433645,-3.005135,-0.1602,-0.197764,-0.197764,-0.1869,28835,-134
0.948,43.121044,-655.88725,-425.587675,31.505493,-86.791992,-1.371123,11.615551,-654.516127,0.419432,-4.327925,-4.327925,-3.908493,-0.1602,-0.209056,-0.209056,-0.199716,28677,-118
0.95,41.787949,-676.878,-412.430557,31.295654,-104.919434,-11.725954,10.492295,-665.152046,0.409752,-5.199715,-5.199715,-4.789963,-0.1602,-0.220075,-0.220075,-0.20826,28486,-131
0.952,40.413532,-697.19925,-398.865605,31.068237,-113.708496,-21.924208,9.345295,-675.275042,0.39946,-6.077057,-6.077057,-5.677597,-0.1602,-0.23117,-0.23117,-0.215736,28279,-169
0.954,38.999152,-716.83125,-384.906231,30.827637,-120.300293,-31.761817,8.171515,-685.069433,0.388545,-6.965023,-6.965023,-6.576477,-0.1602,-0.242406,-0.242406,-0.230688,28060,-167
0.956,37.546207,-735.75425,-370.566241,30.57605,-125.793457,-41.164981,6.970157,-694.589269,0.377002,-7.865043,-7.865043,-7.488041,-0.1602,-0.253801,-0.253801,-0.244572,27831,-182
0.958,36.056135,-753.94975,-355.859815,30.283813,-146.118164,-51.660299,5.772322,-702.289451,0.364827,-8.731153,-8.731153,-8.366326,-0.1602,-0.264779,-0.264779,-0.249912,27565,-218
0.96,34.530408,-771.39975,-340.801494,29.959717,-162.04834,-62.699103,4.570691,-708.700647,0.352018,-9.577083,-9.577083,-9.225065,-0.1602,-0.275513,-0.275513,-0.26166,27270,-199
0.962,32.970536,-788.087,-325.40617,29.62793,-165.893555,-73.018548,3.342606,-715.068452,0.338579,-10.438417,-10.438417,-10.099838,-0.1602,-0.286448,-0.286448,-0.279816,26968,-222
0.964,31.37806,-803.99475,-309.689066,29.230225,-198.852539,-85.601947,2.147835,-718.392803,0.324513,-11.226282,-11.226282,-10.901768,-0.1602,-0.296472,-0.296472,-0.290496,26606,-322
0.966,29.754557,-819.1075,-293.665724,28.8479,-191.162109,-96.157963,0.906657,-722.949537,0.309831,-12.064005,-12.064005,-11.754174,-0.1602,-0.307127,-0.307127,-0.294768,26258,-332
0.968,28.10163,-833.4105,-277.35199,28.437012,-205.444336,-107.086601,-0.335382,-726.323899,0.294543,-12.881617,-12.881617,-12.587073,-0.1602,-0.317538,-0.317538,-0.30972,25884,-303
0.97,26.420915,-846.88925,-260.763994,27.997559,-219.726562,-118.350597,-1.576644,-728.538653,0.278666,-13.678515,-13.678515,-13.399849,-0.1602,-0.327698,-0.327698,-0.316128,25484,-325
0.972,24.714073,-859.53075,-243.91814,27.584473,-206.542969,-127.169834,-2.8704,-732.360916,0.262216,-14.535537,-14.535537,-14.27332,-0.1602,-0.338617,-0.338617,-0.326808,25108,-364
0.974,22.982792,-871.322,-226.831086,27.035156,-274.658203,-141.918671,-4.052364,-729.403329,0.245217,-15.205938,-15.205938,-14.960721,-0.1602,-0.347209,-0.347209,-0.33642,24608,-402
0.976,21.228785,-882.2515,-209.519729,26.511108,-262.023926,-153.929196,-5.282323,-728.322304,0.227694,-15.93841,-15.93841,-15.710716,-0.1602,-0.356584,-0.356584,-0.3471,24131,-413
0.978,19.453786,-892.30875,-192.001187,26.021118,-244.995117,-163.035789,-6.567332,-729.272961,0.209675,-16.739969,-16.739969,-16.530294,-0.1602,-0.366829,-0.366829,-0.360984,23685,-399
0.98,17.65955,-901.48375,-174.292784,25.491577,-264.770508,-173.20926,-7.832027,-728.27449,0.191191,-17.495101,-17.495101,-17.30391,-0.1602,-0.376499,-0.376499,-0.364188,23203,-413
0.982,15.847851,-909.76725,-156.41203,24.89502,-298.278809,-185.716215,-9.047169,-724.051035,0.172277,-18.163675,-18.163675,-17.991398,-0.1602,-0.385092,-0.385092,-0.37914,22660,-497
0.984,14.020481,-917.15125,-138.376607,24.28418,-305.419922,-197.686586,-10.263699,-719.464664,0.152971,-18.826764,-18.826764,-18.673793,-0.1602,-0.393622,-0.393622,-0.386616,22104,-490
0.986,12.179246,-923.62825,-120.20435,23.581055,-351.5625,-213.074177,-11.401809,-710.554073,0.133311,-19.366477,-19.366477,-19.233165,-0.1602,-0.400615,-0.400615,-0.394092,21464,-529
0.988,10.325968,-929.19175,-101.913228,22.872437,-354.309082,-227.197668,-12.546469,-701.994082,0.113341,-19.91631,-19.91631,-19.802969,-0.1602,-0.407737,-0.407737,-0.399432,20819,-526
0.99,8.462479,-933.8365,-83.521328,22.168213,-352.111816,-239.689083,-13.705734,-694.147417,0.093104,-20.487514,-20.487514,-20.394411,-0.1602,-0.41513,-0.41513,-0.410112,20178,-550
0.992,6.590622,-937.55775,-65.046838,21.457397,-355.407715,-251.260946,-14.866775,-686.296804,0.072646,-21.059735,-21.059735,-20.987089,-0.1602,-0.422539,-0.422539,-0.417588,19531,-583
0.994,4.712248,-940.352,-46.508026,20.758667,-349.365234,-261.071375,-16.046419,-679.280625,0.052015,-21.657883,-21.657883,-21.605868,-0.1602,-0.430273,-0.430273,-0.426132,18895,-600
0.996,2.829214,-942.2165,-27.923224,19.980835,-388.916016,-273.855839,-17.151621,-668.360661,0.031259,-22.142423,-22.142423,-22.111164,-0.1602,-0.43659,-0.43659,-0.43254,18187,-621
0.998,0.943382,-943.149,-9.31081,19.194214,-393.310547,-285.80131,-18.250832,-657.34769,0.010428,-22.62168,-22.62168,-22.611252,-0.1602,-0.442841,-0.442841,-0.442152,17471,-637
1,-0.943382,-943.149,9.31081,18.419678,-387.268066,-295.947985,-19.36306,-647.201015,-0.010428,-23.124009,-23.124009,-23.134437,-0.1602,-0.44938,-0.44938,-0.436812,16766,-680
1.002,-2.829214,-942.2165,27.923224,17.624268,-397.705078,-306.123695,-20.453482,-636.092805,-0.031259,-23.596235,-23.596235,-23.627494,-0.1602,-0.455544,-0.455544,-0.450696,16042,-689
1.004,-4.712248,-940.352,46.508026,16.643188,-490.539551,-324.56528,-21.355436,-615.78672,-0.052015,-23.7928,-23.7928,-23.844814,-0.1602,-0.45826,-0.45826,-0.457104,15149,-717
1.006,-6.590622,-937.55775,65.046838,15.564331,-539.428711,-346.051623,-22.154953,-591.506127,-0.072646,-23.85742,-23.85742,-23.930066,-0.1602,-0.459326,-0.459326,-0.460308,14167,-723
1.008,-8.462479,-933.8365,83.521328,14.582153,-491.088867,-360.555348,-23.044632,-573.281152,-0.093104,-24.082808,-24.082808,-24.175912,-0.1602,-0.462399,-0.462399,-0.465648,13273,-736
1.01,-10.325968,-929.19175,101.913228,13.598877,-491.638184,-373.663631,-23.924845,-555.528119,-0.113341,-24.310651,-24.310651,-24.423992,-0.1602,-0.4655,-0.4655,-0.460308,12378,-755
1.012,-12.179246,-923.62825,120.20435,12.646362,-476.257324,-383.923001,-24.825608,-539.705249,-0.133311,-24.584735,-24.584735,-24.718046,-0.1602,-0.469176,-0.469176,-0.466716,11511,-782
1.014,-14.020481,-917.15125,138.376607,11.724609,-460.876465,-391.618347,-25.74509,-525.532903,-0.152971,-24.89906,-24.89906,-25.052031,-0.1602,-0.47335,-0.47335,-0.465648,10672,-774
1.016,-15.847851,-909.76725,156.41203,10.55127,-586.669922,-411.123504,-26.399121,-498.643746,-0.172277,-24.82928,-24.82928,-25.001558,-0.1602,-0.472719,-0.472719,-0.478464,9604,-814
1.018,-17.65955,-901.48375,174.292784,9.474609,-538.330078,-423.844162,-27.134159,-477.639588,-0.191191,-24.911698,-24.911698,-25.102889,-0.1602,-0.473986,-0.473986,-0.474192,8624,-783
1.02,-19.453786,-892.30875,192.001187,8.26062,-606.994629,-442.159209,-27.714406,-450.149541,-0.209675,-24.786359,-24.786359,-24.996034,-0.1602,-0.47265,-0.47265,-0.476328,7519,-815
1.022,-21.228785,-882.2515,209.519729,7.07959,-590.515137,-456.994801,-28.308375,-425.256699,-0.227694,-24.714732,-24.714732,-24.942426,-0.1602,-0.47198,-0.47198,-0.478464,6444,-841
1.024,-22.982792,-871.322,226.831086,6.032593,-523.498535,-463.645175,-29.015385,-407.676825,-0.245217,-24.839793,-24.839793,-25.08501,-0.1602,-0.473763,-0.473763,-0.473124,5491,-859
1.026,-24.714073,-859.53075,243.91814,4.821899,-605.34668,-477.815325,-29.535972,-381.715425,-0.262216,-24.70469,-24.70469,-24.966906,-0.1602,-0.472286,-0.472286,-0.470988,4389,-837
1.028,-26.420915,-846.88925,260.763994,3.755127,-533.38623,-483.372416,-30.176042,-363.516834,-0.278666,-24.778061,-24.778061,-25.056726,-0.1602,-0.473409,-0.473409,-0.468852,3418,-835
1.03,-28.10163,-833.4105,277.35199,2.607056,-574.035645,-492.438739,-30.708686,-340.971761,-0.294543,-24.709948,-24.709948,-25.004492,-0.1602,-0.472756,-0.472756,-0.47526,2373,-855
1.032,-29.754557,-819.1075,293.665724,1.500732,-553.161621,-498.511027,-31.255289,-320.596473,-0.309831,-24.688234,-24.688234,-24.998065,-0.1602,-0.472676,-0.472676,-0.467784,1366,-877
1.034,-31.37806,-803.99475,309.689066,0.464722,-518.005371,-500.460461,-31.842782,-303.534289,-0.324513,-24.749321,-24.749321,-25.073835,-0.1602,-0.473623,-0.473623,-0.468852,423,-864
1.036,-32.970536,-788.087,325.40617,-0.729492,-597.106934,-510.125109,-32.241044,-277.961891,-0.338579,-24.546283,-24.546283,-24.884862,-0.1602,-0.471261,-0.471261,-0.46992,-664,-877
1.038,-34.530408,-771.39975,340.801494,-1.873169,-571.838379,-516.296436,-32.657239,-255.103314,-0.352018,-24.401565,-24.401565,-24.753583,-0.1602,-0.46962,-0.46962,-0.47526,-1705,-873
1.04,-36.056135,-753.94975,355.859815,-3.128906,-627.868652,-527.453657,-32.927229,-226.496093,-0.364827,-24.067202,-24.067202,-24.432029,-0.1602,-0.4656,-0.4656,-0.467784,-2848,-889
1.042,-37.546207,-735.75425,370.566241,-4.445068,-658.081055,-540.516397,-33.101139,-195.237853,-0.377002,-23.627878,-23.627878,-24.00488,-0.1602,-0.460261,-0.460261,-0.46458,-4046,-883
1.044,-38.999152,-716.83125,384.906231,-5.760132,-657.531738,-552.217931,-33.23902,-164.613319,-0.388545,-23.177606,-23.177606,-23.566152,-0.1602,-0.454777,-0.454777,-0.463512,-5243,-857
1.046,-40.413532,-697.19925,398.865605,-6.991699,-615.783691,-558.574507,-33.421833,-138.624743,-0.39946,-22.835694,-22.835694,-23.235154,-0.1602,-0.450639,-0.450639,-0.4539,-6364,-879
1.048,-41.787949,-676.878,412.430557,-8.092529,-550.415039,-557.75856,-33.69542,-119.11944,-0.409752,-22.662387,-22.662387,-23.072139,-0.1602,-0.448602,-0.448602,-0.449628,-7366,-861
1.05,-43.121044,-655.88725,425.587675,-9.261475,-584.472656,-560.42997,-33.859569,-95.45728,-0.419432,-22.349678,-22.349678,-22.76911,-0.1602,-0.444814,-0.444814,-0.44856,-8430,-840
1.052,-44.411498,-634.248,438.323949,-10.443604,-591.064453,-563.493418,-33.967894,-70.754582,-0.42851,-21.984706,-21.984706,-22.413216,-0.1602,-0.440365,-0.440365,-0.446424,-9506,-848
1.054,-45.658036,-611.9815,450.626783,-11.437866,-497.131348,-556.857211,-34.22017,-55.124289,-0.436999,-21.866013,-21.866013,-22.303012,-0.1602,-0.438988,-0.438988,-0.441084,-10411,-851
1.056,-46.859424,-589.10975,462.484012,-12.453003,-507.568359,-551.928326,-34.406421,-37.181424,-0.444916,-21.666625,-21.666625,-22.111541,-0.1602,-0.436594,-0.436594,-0.438948,-11335,-839
1.058,-48.014475,-565.65575,473.883912,-13.606567,-576.782227,-554.413716,-34.407908,-11.242034,-0.452277,-21.214805,-21.214805,-21.667082,-0.1602,-0.431039,-0.431039,-0.431472,-12385,-837
1.06,-49.122047,-541.64225,484.815208,-14.575562,-484.49707,-547.422051,-34.546485,5.779801,-0.4591,-21.002371,-21.002371,-21.46147,-0.1602,-0.428468,-0.428468,-0.435744,-13267,-816
1.062,-50.181044,-517.09325,495.267092,-15.704956,-564.697266,-549.149573,-34.476088,32.056323,-0.465404,-20.500755,-20.500755,-20.96616,-0.1602,-0.422277,-0.422277,-0.430404,-14295,-825
1.064,-51.19042,-492.03275,505.229228,-16.657471,-476.257324,-541.860348,-34.532949,49.827598,-0.471211,-20.225323,-20.225323,-20.696534,-0.1602,-0.418907,-0.418907,-0.419724,-15162,-787
1.066,-52.149175,-466.48575,514.691766,-17.62207,-482.299805,-535.904294,-34.527105,69.418544,-0.476541,-19.879826,-19.879826,-20.356367,-0.1602,-0.414655,-0.414655,-0.417588,-16040,-815
1.068,-53.056363,-440.4775,523.645347,-18.572388,-475.158691,-529.829733,-34.483975,89.352233,-0.481416,-19.505571,-19.505571,-19.986987,-0.1602,-0.410037,-0.410037,-0.403704,-16905,-789
1.07,-53.911085,-414.0335,532.081119,-19.529297,-478.45459,-524.692219,-34.381788,110.658719,-0.485857,-19.07128,-19.07128,-19.557137,-0.1602,-0.404664,-0.404664,-0.407976,-17776,-792
1.072,-54.712497,-387.18025,539.990739,-20.566406,-518.554688,-524.078466,-34.146091,136.898216,-0.489885,-18.469335,-18.469335,-18.959221,-0.1602,-0.39719,-0.39719,-0.406908,-18720,-745
1.074,-55.459806,-359.94425,547.366387,-21.588135,-510.864258,-522.757045,-33.871671,162.812795,-0.493523,-17.849407,-17.849407,-18.34293,-0.1602,-0.389487,-0.389487,-0.396228,-19650,-726
1.076,-56.152274,-332.35225,554.200767,-22.65271,-532.287598,-523.7101,-33.499564,191.35785,-0.496789,-17.123895,-17.123895,-17.620684,-0.1602,-0.380459,-0.380459,-0.383412,-20619,-736
1.078,-56.789215,-304.43125,560.487123,-23.674438,-510.864258,-522.425516,-33.114777,217.994266,-0.499705,-16.423948,-16.423948,-16.923654,-0.1602,-0.371746,-0.371746,-0.372732,-21549,-691
1.08,-57.369999,-276.2095,566.219239,-24.586304,-455.932617,-515.776226,-32.783695,239.566726,-0.50229,-15.845192,-15.845192,-16.347481,-0.1602,-0.364544,-0.364544,-0.375936,-22379,-679
1.082,-57.894053,-247.71475,571.391445,-25.519043,-466.369629,-510.835567,-32.37501,263.120817,-0.50456,-15.184444,-15.184444,-15.689003,-0.1602,-0.356313,-0.356313,-0.366324,-23228,-683
1.084,-58.360858,-218.975,575.998627,-26.425415,-453.186035,-505.070613,-31.935443,286.095613,-0.506533,-14.514942,-14.514942,-15.021474,-0.1602,-0.347968,-0.347968,-0.356712,-24053,-636
1.086,-58.769953,-190.01875,580.036229,-27.301025,-437.805176,-498.34407,-31.468928,308.32532,-0.508223,-13.841982,-13.841982,-14.350205,-0.1602,-0.339578,-0.339578,-0.348168,-24850,-632
1.088,-59.120933,-160.87425,583.50026,-28.148071,-423.522949,-490.861958,-30.972862,329.987708,-0.509644,-13.160873,-13.160873,-13.670517,-0.1602,-0.331081,-0.331081,-0.340692,-25621,-616
1.09,-59.41345,-131.57075,586.387293,-28.962158,-407.043457,-482.480108,-30.451292,350.909358,-0.510809,-12.477112,-12.477112,-12.987921,-0.1602,-0.322549,-0.322549,-0.335352,-26362,-575
1.092,-59.647216,-102.1375,588.694473,-29.800415,-419.128418,-476.144939,-29.846801,374.007439,-0.511726,-11.704712,-11.704712,-12.216438,-0.1602,-0.312905,-0.312905,-0.324672,-27125,-561
1.094,-59.822,-72.60325,590.419519,-30.633179,-416.381836,-470.168628,-29.188821,397.565378,-0.512404,-10.891611,-10.891611,-11.404015,-0.1602,-0.30275,-0.30275,-0.312924,-27883,-540
1.096,-59.937629,-42.99675,591.560726,-31.42749,-397.155762,-462.867342,-28.510139,419.870592,-0.512848,-10.087728,-10.087728,-10.600577,-0.1602,-0.292707,-0.292707,-0.303312,-28606,-525
1.098,-59.993987,-13.348,592.116964,-32.1427,-357.60498,-452.341106,-27.851287,438.993106,-0.513064,-9.351508,-9.351508,-9.864572,-0.1602,-0.283507,-0.283507,-0.300108,-29257,-494
1.1,-59.991021,16.314,592.087684,-32.790894,-324.09668,-439.516663,-27.200127,455.830663,-0.513053,-8.659866,-8.659866,-9.172919,0.1602,0.045539,0.045539,-0.281952,-29847,-468
1.102,-59.928731,45.96,591.472915,-33.37207,-290.588379,-424.623835,-26.556661,470.583835,-0.512814,-8.009304,-8.009304,-8.522118,0.1602,0.053674,0.053674,0.045924,-30376,-340
1.104,-59.807181,75.56,590.273264,-33.796143,-212.036133,-403.365064,-26.011038,478.925064,-0.512346,-7.53042,-7.53042,-8.042766,0.1602,0.059665,0.059665,0.0534,-30762,-218
1.106,-59.626491,105.08575,588.489918,-34.021362,-112.609863,-374.289544,-25.605129,479.375294,-0.511645,-7.274606,-7.274606,-7.786251,0.1602,0.062872,0.062872,0.061944,-30967,-83
1.108,-59.386838,134.50775,586.12464,-34.093872,-36.254883,-340.486078,-25.292966,474.993828,-0.510704,-7.160387,-7.160387,-7.671091,0.1602,0.064311,0.064311,0.061944,-31033,-10
1.11,-59.08846,163.79625,583.17977,-34.08728,3.295898,-306.10788,-25.00118,469.90413,-0.509514,-7.070977,-7.070977,-7.580491,0.1602,0.065444,0.065444,0.063012,-31027,25
1.112,-58.731653,192.923,579.658219,-34.048828,19.226074,-273.574485,-24.682825,466.497485,-0.508066,-6.935963,-6.935963,-7.444029,0.1602,0.06715,0.06715,0.065148,-30992,29
1.114,-58.316768,221.85925,575.563469,-34.003784,22.521973,-243.964839,-24.312984,465.824089,-0.506348,-6.721793,-6.721793,-7.228141,0.1602,0.069848,0.069848,0.06942,-30951,34
1.116,-57.844216,250.57575,570.89957,-33.962036,20.874023,-217.480953,-23.88218,468.056703,-0.504346,-6.419663,-6.419663,-6.924009,0.1602,0.07365,0.07365,0.068352,-30913,30
1.118,-57.314465,279.0445,565.671134,-33.922485,19.775391,-193.755319,-23.39198,472.799819,-0.502046,-6.037434,-6.037434,-6.539479,0.1602,0.078457,0.078457,0.073692,-30877,26
1.12,-56.728038,307.2375,559.88333,-33.88623,18.127441,-172.567043,-22.841808,479.804543,-0.499429,-5.579097,-5.579097,-6.078526,0.1602,0.084218,0.084218,0.079032,-30844,27
1.122,-56.085515,335.12675,553.541883,-33.848877,18.676758,-153.442663,-22.236638,488.569413,-0.496479,-5.056444,-5.056444,-5.552923,0.1602,0.090788,0.090788,0.086508,-30810,29
1.124,-55.387531,362.68425,546.653063,-33.812622,18.127441,-136.285652,-21.574909,498.969902,-0.493176,-4.470694,-4.470694,-4.96387,0.1602,0.098152,0.098152,0.089712,-30777,44
1.126,-54.634778,389.88325,539.223681,-33.77417,19.226074,-120.73448,-20.860608,510.61773,-0.489501,-3.83106,-3.83106,-4.32056,0.1602,0.106193,0.106193,0.09078,-30742,34
1.128,-53.827998,416.697,531.261085,-33.732422,20.874023,-106.573629,-20.095576,523.270629,-0.485432,-3.142894,-3.142894,-3.628325,0.1602,0.114846,0.114846,0.104664,-30704,31
