khanfazel/E-wera--maxon_motor/PD_control/pd_feedforward_log.csv
t_s,q_ref_deg,qd_ref_deg_s,qdd_ref_deg_s2,q_link_deg,qd_link_deg_s,pos_error_deg,vel_error_deg_s,tau_joint_ff_Nm,tau_pd_joint_Nm,tau_joint_total_Nm,tau_dead_motor_Nm,tau_motor_cmd_Nm,tau_motor_actual_Nm,motor_pos_counts,motor_vel_native
0.000000,0.000000,943.265500,0.000000,-4.899902,0.000000,4.899902,943.265500,0.000000,17.745880,17.745880,0.000000,0.221824,-0.003204,-4460,0
0.002000,1.886531,942.799250,0.000000,-4.897705,1.098633,6.784236,941.700617,0.027289,18.211885,18.239174,0.000000,0.227990,0.227484,-4458,31
0.004000,3.771197,941.400750,-37.220226,-4.840576,28.564453,8.611773,912.836297,0.041649,18.186556,18.228205,0.000000,0.227853,0.228552,-4406,68
0.006000,5.652134,939.071000,-55.784328,-4.742798,48.889160,10.394932,890.181840,0.062349,18.257991,18.320340,0.000000,0.229004,0.224280,-4317,100
0.008000,7.527481,935.812750,-74.293267,-4.606567,68.115234,12.134048,867.697516,0.082899,18.320865,18.403764,0.000000,0.230047,0.232824,-4193,109
0.010000,9.395385,931.629250,-92.728741,-4.442871,81.848145,13.838256,849.781105,0.103253,18.454325,18.557578,0.000000,0.231970,0.228552,-4044,105
0.012000,11.253998,926.524500,-111.072519,-4.265991,88.439941,15.519989,838.084559,0.123362,18.690459,18.813821,0.000000,0.235173,0.230688,-3883,133
0.014000,13.101483,920.503500,-129.306462,-4.093506,86.242676,17.194989,834.260824,0.143183,19.062236,19.205418,0.000000,0.240068,0.233892,-3726,130
0.016000,14.936012,913.572250,-147.412541,-3.914429,89.538574,18.850441,824.033676,0.162671,19.317135,19.479805,0.000000,0.243498,0.241368,-3563,150
0.018000,16.755772,905.737500,-165.372849,-3.738647,87.890625,20.494419,817.846875,0.181786,19.639547,19.821333,0.000000,0.247767,0.244572,-3403,131
0.020000,18.558962,897.007250,-183.169628,-3.554077,92.285156,22.113039,804.722094,0.200489,19.834230,20.034719,0.000000,0.250434,0.246708,-3235,144
0.022000,20.343801,887.390000,-200.785278,-3.353027,100.524902,23.696828,786.865098,0.218745,19.937202,20.155946,0.000000,0.251949,0.252048,-3052,144
0.024000,22.108522,876.895000,-218.202380,-3.137695,107.666016,25.246217,769.228984,0.236520,20.035023,20.271542,0.000000,0.253394,0.248844,-2856,162
0.026000,23.851381,865.533250,-235.403712,-2.912476,112.609863,26.763857,752.923387,0.253784,20.147753,20.401537,0.000000,0.255019,0.255252,-2651,140
0.028000,25.570655,853.315500,-252.372264,-2.685059,113.708496,28.255714,739.607004,0.270511,20.305906,20.576417,0.000000,0.257205,0.253116,-2444,139
0.030000,27.264643,840.253750,-269.091255,-2.445557,119.750977,29.710200,720.502773,0.286677,20.353258,20.639935,0.000000,0.257999,0.257388,-2226,181
0.032000,28.931670,826.361000,-285.544154,-2.219238,113.159180,31.150908,713.201820,0.302262,20.603009,20.905271,0.000000,0.261316,0.258456,-2020,171
0.034000,30.570087,811.651500,-301.714692,-1.984131,117.553711,32.554218,694.097789,0.317249,20.636966,20.954215,0.000000,0.261928,0.262728,-1806,142
0.036000,32.178276,796.139500,-317.586877,-1.750122,117.004395,33.928398,679.135105,0.331624,20.735578,21.067201,0.000000,0.263340,0.257388,-1593,175
0.038000,33.754645,779.839750,-333.145014,-1.521606,114.257812,35.276251,665.581938,0.345377,20.851897,21.197274,0.000000,0.264966,0.259524,-1385,166
0.040000,35.297635,762.769000,-348.373719,-1.299683,110.961914,36.597318,651.807086,0.358502,20.957335,21.315837,0.000000,0.266448,0.264864,-1183,146
0.042000,36.805721,744.944000,-363.257932,-1.054688,122.497559,37.860408,622.446441,0.370994,20.775572,21.146565,0.000000,0.264332,0.265932,-960,174
0.044000,38.277411,726.382500,-377.782936,-0.818481,118.103027,39.095892,608.279473,0.382852,20.851760,21.234613,0.000000,0.265433,0.262728,-745,161
0.046000,39.711251,707.102750,-391.934367,-0.595459,111.511230,40.306710,595.591520,0.394081,20.947305,21.341386,0.000000,0.266767,0.265932,-542,176
0.048000,41.105822,687.123500,-405.698231,-0.336182,129.638672,41.442004,557.484828,0.404683,20.579437,20.984120,0.000000,0.262302,0.273408,-306,161
0.050000,42.459745,666.465000,-419.060918,-0.088989,123.596191,42.548734,542.868809,0.414668,20.614081,21.028749,0.000000,0.262859,0.265932,-81,151
0.052000,43.771682,645.147500,-432.009215,0.146118,117.553711,43.625564,527.593789,0.424045,20.629395,21.053440,0.000000,0.263168,0.262728,133,173
0.054000,45.040335,623.191750,-444.530316,0.381226,117.553711,44.659109,505.638039,0.432827,20.516776,20.949603,0.000000,0.261870,0.264864,347,195
0.056000,46.264449,600.619750,-456.611842,0.618530,118.652344,45.645919,481.967406,0.441028,20.361992,20.803020,0.000000,0.260038,0.260592,563,161
0.058000,47.442814,577.454250,-468.241844,0.840454,110.961914,46.602360,466.492336,0.448665,20.342296,20.790961,0.000000,0.259887,0.261660,765,173
0.060000,48.574266,553.717500,-479.408822,1.068970,114.257812,47.505296,439.459688,0.455754,20.106876,20.562630,0.000000,0.257033,0.257388,973,159
0.062000,49.657684,529.433000,-490.101734,1.308472,119.750977,48.349212,409.682023,0.462316,19.808094,20.270410,0.000000,0.253380,0.257388,1191,191
0.064000,50.691998,504.625250,-500.310006,1.555664,123.596191,49.136334,381.029059,0.468369,19.514074,19.982443,0.000000,0.249781,0.256320,1416,162
0.066000,51.676185,479.318500,-510.023544,1.787476,115.905762,49.888709,363.412738,0.473935,19.403582,19.877517,0.000000,0.248469,0.245640,1627,171
0.068000,52.609272,453.537750,-519.232741,2.029175,120.849609,50.580097,332.688141,0.479034,19.048342,19.527376,0.000000,0.244092,0.250980,1847,153
0.070000,53.490336,427.308250,-527.928493,2.260986,115.905762,51.229350,311.402488,0.483689,18.846811,19.330500,0.000000,0.241631,0.243504,2058,170
0.072000,54.318505,400.656500,-536.102199,2.475220,107.116699,51.843285,293.539801,0.487921,18.695776,19.183698,0.000000,0.239796,0.245640,2253,174
0.074000,55.092962,373.608500,-543.745778,2.680664,102.722168,52.412298,270.886332,0.491752,18.449366,18.941118,0.000000,0.236764,0.238164,2440,180
0.076000,55.812939,346.191000,-550.851670,2.889404,104.370117,52.923535,241.820883,0.495201,18.075920,18.571121,0.000000,0.232139,0.236028,2630,133
0.078000,56.477726,318.431250,-557.412850,3.116821,113.708496,53.360905,204.722754,0.498290,17.542938,18.041228,0.000000,0.225515,0.232824,2837,149
0.080000,57.086664,290.356250,-563.422828,3.307983,95.581055,53.778681,194.775195,0.501038,17.478694,17.979732,0.000000,0.224747,0.229620,3011,179
0.082000,57.639151,261.994500,-568.875663,3.514526,103.271484,54.124625,158.723016,0.503463,16.940033,17.443496,0.000000,0.218044,0.221076,3199,149
0.084000,58.134642,233.373750,-573.765962,3.726562,106.018066,54.408079,127.355684,0.505582,16.466778,16.972360,0.000000,0.212155,0.217872,3392,130
0.086000,58.572646,204.522000,-578.088888,3.907837,90.637207,54.664809,113.884793,0.507412,16.298878,16.806290,0.000000,0.210079,0.213600,3557,150
0.088000,58.952730,175.468250,-581.840169,4.105591,98.876953,54.847139,76.591297,0.508967,15.695718,16.204684,0.000000,0.202559,0.210396,3737,121
0.090000,59.274519,146.240750,-585.016093,4.286865,90.637207,54.987654,55.603543,0.510258,15.366199,15.876457,0.000000,0.198456,0.202920,3902,106
0.092000,59.537693,116.868500,-587.613520,4.465942,89.538574,55.071751,27.329926,0.511298,14.894748,15.406045,0.000000,0.192576,0.200784,4065,101
0.094000,59.741993,87.381000,-589.629883,4.636230,85.144043,55.105763,2.236957,0.512094,14.465697,14.977791,0.000000,0.187222,0.193308,4220,114
0.096000,59.887217,57.807000,-591.063187,4.799927,81.848145,55.087290,-24.041145,0.512655,14.002222,14.514877,0.000000,0.181436,0.189036,4369,98
0.098000,59.973221,28.176000,-591.912014,4.955933,78.002930,55.017288,-49.826930,0.512985,13.533848,14.046833,0.000000,0.175585,0.181560,4511,108
0.100000,59.999921,-1.483000,-592.175526,5.097656,70.861816,54.902265,-72.344816,0.513087,13.110724,13.623811,-0.000000,0.170298,0.174084,4640,102
0.102000,59.967289,-31.140750,-591.853461,5.228394,65.368652,54.738895,-96.509402,0.512962,12.646202,13.159165,-0.000000,0.164490,0.174084,4759,90
0.104000,59.875358,-60.767500,-590.946139,5.361328,66.467285,54.514030,-127.234785,0.512609,12.051074,12.563683,-0.000000,0.157046,0.164472,4880,75
0.106000,59.724219,-90.334250,-589.454456,5.473389,56.030273,54.250830,-146.364523,0.512025,11.648291,12.160317,-0.000000,0.152004,0.160200,4982,91
0.108000,59.514021,-119.811500,-587.379888,5.578857,52.734375,53.935164,-172.545875,0.511205,11.108699,11.619904,-0.000000,0.145249,0.150588,5078,81
0.110000,59.244973,-149.170500,-584.724485,5.685425,53.283691,53.559548,-202.454191,0.510140,10.488365,10.998505,-0.000000,0.137481,0.145248,5175,71
0.112000,58.917339,-178.382000,-581.490875,5.783203,48.889160,53.134136,-227.271160,0.508823,9.943854,10.452677,-0.000000,0.130658,0.136704,5264,54
0.114000,58.531445,-207.416750,-577.682254,5.872192,44.494629,52.659253,-251.911379,0.507242,9.389477,9.896719,-0.000000,0.123709,0.130296,5345,51
0.116000,58.087672,-236.246500,-573.302388,5.951294,39.550781,52.136378,-275.797281,0.505384,8.835701,9.341085,-0.000000,0.116764,0.123888,5417,43
0.118000,57.586459,-264.842750,-568.355609,6.021606,35.156250,51.564853,-299.999000,0.503234,8.263677,8.766911,-0.000000,0.109586,0.113208,5481,44
0.120000,57.028301,-293.177250,-562.846808,6.082031,30.212402,50.946270,-323.389652,0.500778,7.693488,8.194266,-0.000000,0.102428,0.107868,5536,35
0.122000,56.413750,-321.221750,-556.781433,6.131470,24.719238,50.282280,-345.940988,0.497997,7.126061,7.624058,-0.000000,0.095301,0.100392,5581,27
0.124000,55.743414,-348.948750,-550.165481,6.174316,21.423340,49.569098,-370.372090,0.494873,6.512947,7.007820,-0.000000,0.087598,0.093984,5620,25
0.126000,55.017955,-376.330500,-543.005495,6.211670,18.676758,48.806285,-395.007258,0.491386,5.883278,6.374664,-0.000000,0.079683,0.088644,5654,21
0.128000,54.238092,-403.339750,-535.308555,6.238037,13.183594,48.000055,-416.523344,0.487517,5.296681,5.784198,-0.000000,0.072302,0.079032,5678,17
0.130000,53.404596,-429.950500,-527.082272,6.264404,13.183594,47.140192,-443.134094,0.483243,4.607124,5.090368,-0.000000,0.063630,0.072624,5702,12
0.132000,52.518290,-456.136500,-518.334780,6.279785,7.690430,46.238505,-463.826930,0.478545,4.009905,4.488450,-0.000000,0.056106,0.063012,5716,7
0.134000,51.580050,-481.871000,-509.074730,6.288574,4.394531,45.291476,-486.265531,0.473399,3.370346,3.843745,-0.000000,0.048047,0.055536,5724,5
0.136000,50.590806,-507.128750,-499.311279,6.292969,2.197266,44.297837,-509.326016,0.467786,2.707731,3.175516,-0.000000,0.039694,0.051264,5728,2
0.138000,49.551535,-531.885500,-489.054081,6.294067,0.549316,43.257468,-532.434816,0.461683,2.032038,2.493721,-0.000000,0.031172,0.040584,5729,1
0.140000,48.463264,-556.116250,-478.313278,6.294067,0.000000,42.169197,-556.116250,0.455069,1.333810,1.788880,-0.000000,0.022361,0.029904,5729,0
0.142000,47.327070,-579.796750,-467.099493,6.291870,-1.098633,41.035200,-578.698117,0.447926,0.642803,1.090729,-0.000000,0.013634,0.023496,5727,-1
0.144000,46.144077,-602.904250,-455.423814,6.290771,-0.549316,39.853306,-602.354934,0.440234,-0.079506,0.360728,-0.000000,0.004509,0.016020,5726,-2
0.146000,44.915453,-625.415500,-443.297786,6.287476,-1.647949,38.627977,-623.767551,0.431975,-0.774017,-0.342041,-0.000000,-0.004276,0.005340,5723,-1
0.148000,43.642415,-647.308250,-430.733401,6.286377,-0.549316,37.356038,-646.758934,0.423135,-1.508285,-1.085150,-0.000000,-0.013564,-0.006408,5722,-1
0.150000,42.326220,-668.560750,-417.743082,6.284180,-1.098633,36.042040,-667.462117,0.413697,-2.213627,-1.799930,-0.000000,-0.022499,-0.011748,5720,-2
0.152000,40.968172,-689.152250,-404.339676,6.280884,-1.647949,34.687288,-687.504301,0.403651,-2.918103,-2.514452,-0.000000,-0.031431,-0.023496,5717,-4
0.154000,39.569611,-709.062500,-390.536436,6.274292,-3.295898,33.295319,-705.766602,0.392986,-3.601257,-3.208271,-0.000000,-0.040103,-0.029904,5711,-6
0.156000,38.131922,-728.271250,-376.347012,6.266602,-3.845215,31.865320,-724.426035,0.381695,-4.301298,-3.919603,-0.000000,-0.048995,-0.041652,5704,-5
0.158000,36.656526,-746.760000,-361.785435,6.257812,-4.394531,30.398713,-742.365469,0.369773,-4.998357,-4.628584,-0.000000,-0.057857,-0.049128,5696,-8
0.160000,35.144882,-764.510500,-346.866104,6.247925,-4.943848,28.896957,-759.566652,0.357218,-5.691733,-5.334516,-0.000000,-0.066681,-0.059808,5687,-10
0.162000,33.598484,-781.504750,-331.603773,6.232544,-7.690430,27.365940,-773.814320,0.344030,-6.341221,-5.997191,-0.000000,-0.074965,-0.066216,5673,-12
0.164000,32.018863,-797.726250,-316.013534,6.209473,-11.535645,25.809390,-786.190605,0.330214,-6.964732,-6.634518,-0.000000,-0.082931,-0.081168,5652,-20
0.166000,30.407579,-813.159000,-300.110802,6.180908,-14.282227,24.226671,-798.876773,0.315777,-7.600502,-7.284725,-0.000000,-0.091059,-0.084372,5626,-24
0.168000,28.766227,-827.787250,-283.911305,6.149048,-15.930176,22.617179,-811.857074,0.300730,-8.248415,-7.947685,-0.000000,-0.099346,-0.093984,5597,-26
0.170000,27.096430,-841.597500,-267.431059,6.112793,-18.127441,20.983637,-823.470059,0.285086,-8.878760,-8.593674,-0.000000,-0.107421,-0.101460,5564,-31
0.172000,25.399837,-854.575500,-250.686364,6.074341,-19.226074,19.325496,-835.349426,0.268863,-9.520195,-9.251332,-0.000000,-0.115642,-0.105732,5529,-35
0.174000,23.678128,-866.708000,-233.693775,6.019409,-27.465820,17.658719,-839.242180,0.252081,-10.024497,-9.772416,-0.000000,-0.122155,-0.116412,5479,-38
0.176000,21.933005,-877.983750,-216.470097,5.965576,-26.916504,15.967429,-851.067246,0.234765,-10.673663,-10.438898,-0.000000,-0.130486,-0.122820,5430,-41
0.178000,20.166193,-888.391250,-199.032362,5.909546,-28.015137,14.256647,-860.376113,0.216940,-11.284014,-11.067074,-0.000000,-0.138338,-0.132432,5379,-37
0.180000,18.379440,-897.920250,-181.397812,5.845825,-31.860352,12.533615,-866.059898,0.198638,-11.834304,-11.635666,-0.000000,-0.145446,-0.138840,5321,-45
0.182000,16.574512,-906.561500,-163.583885,5.783203,-31.311035,10.791309,-875.250465,0.179892,-12.450844,-12.270952,-0.000000,-0.153387,-0.146316,5264,-54
0.184000,14.753194,-914.306250,-145.608198,5.710693,-36.254883,9.042501,-878.051367,0.160738,-12.957566,-12.796828,-0.000000,-0.159960,-0.155928,5198,-60
0.186000,12.917287,-921.146750,-127.488525,5.633789,-38.452148,7.283498,-882.694602,0.141215,-13.499112,-13.357897,-0.000000,-0.166974,-0.160200,5128,-60
0.188000,11.068607,-927.076250,-109.242785,5.552490,-40.649414,5.516117,-886.426836,0.121364,-14.026951,-13.905587,-0.000000,-0.173820,-0.164472,5054,-58
0.190000,9.208982,-932.089000,-90.889019,5.458008,-47.241211,3.750974,-884.847789,0.101228,-14.461505,-14.360277,-0.000000,-0.179503,-0.174084,4968,-77
0.192000,7.340251,-936.180250,-72.445377,5.349243,-54.382324,1.991008,-881.797926,0.080852,-14.869033,-14.788180,-0.000000,-0.184852,-0.182628,4869,-87
0.194000,5.464261,-939.345750,-53.930097,5.242676,-53.283691,0.221585,-886.062059,0.060285,-15.406689,-15.346405,-0.000000,-0.191830,-0.187968,4772,-92
0.196000,3.582868,-941.582500,-35.361488,5.125122,-58.776855,-1.542254,-882.805645,0.039573,-15.811626,-15.772053,-0.000000,-0.197151,-0.193308,4665,-96
0.198000,1.697931,-942.888000,-16.757912,4.998779,-63.171387,-3.300848,-879.716613,0.018766,-16.218111,-16.199345,-0.000000,-0.202492,-0.197580,4550,-99
0.200000,-0.188684,-943.261000,1.862236,4.875732,-61.523438,-5.064416,-881.737562,-0.002086,-16.715085,-16.717171,-0.000000,-0.208965,-0.202920,4438,-89
0.202000,-2.075113,-942.701250,20.480542,4.738403,-68.664551,-6.813516,-874.036699,-0.022933,-17.038593,-17.061525,-0.000000,-0.213269,-0.209328,4313,-94
0.204000,-3.959489,-941.209500,39.078596,4.594482,-71.960449,-8.553971,-869.249051,-0.043725,-17.410682,-17.454407,-0.000000,-0.218180,-0.211464,4182,-115
0.206000,-5.839951,-938.787000,57.638006,4.425293,-84.594727,-10.265244,-854.192273,-0.064411,-17.595902,-17.660314,-0.000000,-0.220754,-0.222144,4028,-129
0.208000,-7.714637,-935.436000,76.140422,4.279175,-73.059082,-11.993812,-862.376918,-0.084944,-18.191289,-18.276234,-0.000000,-0.228453,-0.221076,3895,-107
0.210000,-9.581695,-931.160250,94.567545,4.112183,-83.496094,-13.693878,-847.664156,-0.105275,-18.379579,-18.484855,-0.000000,-0.231061,-0.231756,3743,-146
0.212000,-11.439278,-925.963500,112.901154,3.935303,-88.439941,-15.374581,-837.523559,-0.125358,-18.642599,-18.767957,-0.000000,-0.234599,-0.231756,3582,-118
0.214000,-13.285549,-919.851000,131.123121,3.768311,-83.496094,-17.053860,-836.354906,-0.145147,-19.061837,-19.206984,-0.000000,-0.240087,-0.240300,3430,-140
0.216000,-15.118682,-912.829250,149.215425,3.581543,-93.383789,-18.700225,-819.445461,-0.164600,-19.197729,-19.362328,-0.000000,-0.242029,-0.241368,3260,-124
0.218000,-16.936866,-904.904750,167.160178,3.400269,-90.637207,-20.337135,-814.267543,-0.183675,-19.535899,-19.719574,-0.000000,-0.246495,-0.242436,3095,-128
0.220000,-18.738301,-896.085250,184.939632,3.203613,-98.327637,-21.941914,-797.757613,-0.202335,-19.667877,-19.870212,-0.000000,-0.248378,-0.247776,2916,-136
0.222000,-20.521207,-886.379750,202.536209,2.999268,-102.172852,-23.520475,-784.206898,-0.220544,-19.844638,-20.065182,-0.000000,-0.250815,-0.248844,2730,-146
0.224000,-22.283820,-875.797750,219.932506,2.780640,-109.313965,-25.064460,-766.483785,-0.238269,-19.939526,-20.177795,-0.000000,-0.252222,-0.256320,2531,-168
0.226000,-24.024398,-864.349750,237.111321,2.575195,-102.722168,-26.599593,-761.627582,-0.255481,-20.256666,-20.512148,-0.000000,-0.256402,-0.252048,2344,-152
0.228000,-25.741219,-852.047000,254.055668,2.358765,-108.215332,-28.099984,-743.831668,-0.272153,-20.338870,-20.611024,-0.000000,-0.257638,-0.257388,2147,-187
0.230000,-27.432586,-838.901750,270.748790,2.131348,-113.708496,-29.563934,-725.193254,-0.288262,-20.396830,-20.685092,-0.000000,-0.258564,-0.257388,1940,-149
0.232000,-29.096826,-824.926750,287.174181,1.907227,-112.060547,-31.004053,-712.866203,-0.303788,-20.558704,-20.862492,-0.000000,-0.260781,-0.259524,1736,-167
0.234000,-30.732293,-810.136250,303.315597,1.652344,-127.441406,-32.384637,-682.694844,-0.318714,-20.393551,-20.712265,-0.000000,-0.258903,-0.260592,1504,-153
0.236000,-32.337371,-794.544500,319.157079,1.401855,-125.244141,-33.739226,-669.300359,-0.333027,-20.514404,-20.847431,-0.000000,-0.260593,-0.258456,1276,-153
0.238000,-33.910471,-778.167000,334.682960,1.160156,-120.849609,-35.070627,-657.317391,-0.346718,-20.653821,-21.000539,-0.000000,-0.262507,-0.256320,1056,-159
0.240000,-35.450039,-761.020250,349.877888,0.900879,-129.638672,-36.350918,-631.381578,-0.359779,-20.536335,-20.896115,-0.000000,-0.261201,-0.265932,820,-161
0.242000,-36.954552,-743.120750,364.726837,0.666870,-117.004395,-37.621422,-626.116355,-0.372208,-20.777057,-21.149265,-0.000000,-0.264366,-0.261660,607,-189
0.244000,-38.422522,-724.486500,379.215124,0.459229,-103.820801,-38.881751,-620.665699,-0.384004,-21.011878,-21.395882,-0.000000,-0.267449,-0.264864,418,-170
0.246000,-39.852498,-705.136000,393.328421,0.220825,-119.201660,-40.073323,-585.934340,-0.395169,-20.717655,-21.112824,-0.000000,-0.263910,-0.267000,201,-180
0.248000,-41.243066,-685.088000,407.052774,-0.007690,-114.257812,-41.235376,-570.830188,-0.405709,-20.758262,-21.163972,-0.000000,-0.264550,-0.264864,-7,-193
0.250000,-42.592850,-664.362500,420.374610,-0.251587,-121.948242,-42.341263,-542.414258,-0.415633,-20.551831,-20.967464,-0.000000,-0.262093,-0.264864,-229,-188
0.252000,-43.900516,-642.980250,433.280756,-0.482300,-115.356445,-43.418216,-527.623805,-0.424950,-20.575635,-21.000585,-0.000000,-0.262507,-0.265932,-439,-174
0.254000,-45.164771,-620.962000,445.758450,-0.745972,-131.835938,-44.418799,-489.126062,-0.433673,-20.165675,-20.599348,-0.000000,-0.257492,-0.263796,-679,-204
0.256000,-46.384364,-598.329500,457.795354,-1.016235,-135.131836,-45.368129,-463.197664,-0.441817,-19.961673,-20.403490,-0.000000,-0.255044,-0.257388,-925,-157
0.258000,-47.558089,-575.105750,469.379563,-1.268921,-126.342773,-46.289168,-448.762977,-0.449398,-19.950867,-20.400265,-0.000000,-0.255003,-0.247776,-1155,-192
0.260000,-48.684787,-551.313500,480.499624,-1.516113,-123.596191,-47.168674,-427.717309,-0.456434,-19.813805,-20.270239,-0.000000,-0.253378,-0.252048,-1380,-169
0.262000,-49.763343,-526.975500,491.144540,-1.749023,-116.455078,-48.014320,-410.520422,-0.462943,-19.735052,-20.197996,-0.000000,-0.252475,-0.252048,-1592,-147
0.264000,-50.792689,-502.116500,501.303785,-1.968750,-109.863281,-48.823939,-392.253219,-0.468947,-19.628188,-20.097134,-0.000000,-0.251214,-0.249912,-1792,-164
0.266000,-51.771809,-476.761250,510.967313,-2.212646,-121.948242,-49.559163,-354.813008,-0.474465,-19.167214,-19.641679,-0.000000,-0.245521,-0.249912,-2014,-182
0.268000,-52.699734,-450.934500,520.125568,-2.455444,-121.398926,-50.244290,-329.535574,-0.479519,-18.905405,-19.384925,-0.000000,-0.242312,-0.247776,-2235,-198
0.270000,-53.575547,-424.661750,528.769493,-2.678467,-111.511230,-50.897080,-313.150520,-0.484131,-18.790332,-19.274463,-0.000000,-0.240931,-0.244572,-2438,-181
0.272000,-54.398381,-397.969000,536.890542,-2.916870,-119.201660,-51.481511,-278.767340,-0.488322,-18.343236,-18.831558,-0.000000,-0.235394,-0.246708,-2655,-182
0.274000,-55.167423,-370.883000,544.480683,-3.159668,-121.398926,-52.007755,-249.484074,-0.492113,-17.969917,-18.462030,-0.000000,-0.230775,-0.234960,-2876,-179
0.276000,-55.881913,-343.430000,551.532412,-3.382690,-111.511230,-52.499223,-231.918770,-0.495526,-17.792010,-18.287536,-0.000000,-0.228594,-0.231756,-3079,-173
0.278000,-56.541143,-315.637250,558.038754,-3.578247,-97.778320,-52.962896,-217.858930,-0.498580,-17.668009,-18.166589,-0.000000,-0.227082,-0.223212,-3257,-134
0.280000,-57.144462,-287.532750,563.993277,-3.777100,-99.426270,-53.367362,-188.106480,-0.501295,-17.254620,-17.755915,-0.000000,-0.221949,-0.230688,-3438,-159
0.282000,-57.691274,-259.143750,569.390091,-3.993530,-108.215332,-53.697744,-150.928418,-0.503688,-16.692234,-17.195923,-0.000000,-0.214949,-0.217872,-3635,-145
0.284000,-58.181037,-230.498500,574.223861,-4.202271,-104.370117,-53.978766,-126.128383,-0.505778,-16.332964,-16.838742,-0.000000,-0.210484,-0.213600,-3825,-124
0.286000,-58.613268,-201.625250,578.489806,-4.384644,-91.186523,-54.228624,-110.438727,-0.507580,-16.124540,-16.632120,-0.000000,-0.207901,-0.208260,-3991,-110
0.288000,-58.987538,-172.552500,582.183708,-4.540649,-78.002930,-54.446889,-94.549570,-0.509107,-15.904363,-16.413471,-0.000000,-0.205168,-0.209328,-4133,-133
0.290000,-59.303478,-143.309500,585.301915,-4.721924,-90.637207,-54.581554,-52.672293,-0.510373,-15.208722,-15.719096,-0.000000,-0.196489,-0.205056,-4298,-140
0.292000,-59.560776,-113.924750,587.841342,-4.895508,-86.791992,-54.665268,-27.132758,-0.511388,-14.784890,-15.296278,-0.000000,-0.191203,-0.197580,-4456,-135
0.294000,-59.759177,-84.427000,589.799479,-5.073486,-88.989258,-54.685691,4.562258,-0.512161,-14.237054,-14.749215,-0.000000,-0.184365,-0.193308,-4618,-99
0.296000,-59.898484,-54.846000,591.174389,-5.213013,-69.763184,-54.685471,14.917184,-0.512698,-14.056269,-14.568967,-0.000000,-0.182112,-0.183696,-4745,-100
0.298000,-59.978561,-25.210750,591.964713,-5.347046,-67.016602,-54.631515,41.805852,-0.513005,-13.572847,-14.085853,-0.000000,-0.176073,-0.184764,-4867,-103
0.300000,-59.999327,4.449500,592.169669,-5.478882,-65.917969,-54.520445,70.367469,-0.513085,-13.045275,-13.558360,0.000000,-0.169479,-0.178356,-4987,-81
0.302000,-59.960763,34.105250,591.789055,-5.606323,-63.720703,-54.354440,97.825953,-0.512937,-12.522574,-13.035511,0.000000,-0.162944,-0.169812,-5103,-79
0.304000,-59.862906,63.727250,590.823247,-5.720581,-57.128906,-54.142325,120.856156,-0.512561,-12.065090,-12.577651,0.000000,-0.157221,-0.162336,-5207,-71
0.306000,-59.705854,93.286250,589.273200,-5.823853,-51.635742,-53.882001,144.921992,-0.511954,-11.576909,-12.088863,0.000000,-0.151111,-0.156996,-5301,-79
0.308000,-59.489761,122.753250,587.140446,-5.924927,-50.537109,-53.564834,173.290359,-0.511109,-10.998753,-11.509863,0.000000,-0.143873,-0.149520,-5393,-64
0.310000,-59.214841,152.098750,584.427095,-6.010620,-42.846680,-53.204221,194.945430,-0.510020,-10.526393,-11.036413,0.000000,-0.137955,-0.146316,-5471,-69
0.312000,-58.881366,181.293750,581.135831,-6.085327,-37.353516,-52.796039,218.647266,-0.508677,-10.005856,-10.514533,0.000000,-0.131432,-0.136704,-5539,-65
0.314000,-58.489666,210.309500,577.269906,-6.154541,-34.606934,-52.335125,244.916434,-0.507069,-9.426706,-9.933774,0.000000,-0.124172,-0.133500,-5602,-56
0.316000,-58.040128,239.117250,572.833145,-6.223755,-34.606934,-51.816373,273.724184,-0.505182,-8.788107,-9.293289,0.000000,-0.116166,-0.124956,-5665,-56
0.318000,-57.533197,267.688500,567.829934,-6.284180,-30.212402,-51.249017,297.900902,-0.503003,-8.217610,-8.720613,0.000000,-0.109008,-0.118548,-5720,-42
0.320000,-56.969374,295.995250,562.265222,-6.341309,-28.564453,-50.628065,324.559703,-0.500515,-7.589761,-8.090276,0.000000,-0.101128,-0.100392,-5772,-31
0.322000,-56.349216,324.009250,556.144510,-6.389648,-24.169922,-49.959568,348.179172,-0.497700,-7.002511,-7.500211,0.000000,-0.093753,-0.100392,-5816,-33
0.324000,-55.673337,351.702750,549.473852,-6.433594,-21.972656,-49.239743,373.675406,-0.494541,-6.369068,-6.863609,0.000000,-0.085795,-0.095052,-5856,-21
0.326000,-54.942405,379.048500,542.259843,-6.472046,-19.226074,-48.470359,398.274574,-0.491017,-5.738308,-6.229324,0.000000,-0.077867,-0.083304,-5891,-17
0.328000,-54.157143,406.019250,534.509617,-6.499512,-13.732910,-47.657631,419.752160,-0.487108,-5.150681,-5.637789,0.000000,-0.070472,-0.079032,-5916,-16
0.330000,-53.318328,432.588750,526.230838,-6.518188,-9.338379,-46.800140,441.927129,-0.482793,-4.539164,-5.021957,0.000000,-0.062774,-0.073692,-5933,-11
0.332000,-52.426788,458.730500,517.431693,-6.532471,-7.141113,-45.894317,465.871613,-0.478051,-3.884111,-4.362161,0.000000,-0.054527,-0.063012,-5946,-8
0.334000,-51.483406,484.418500,508.120883,-6.543457,-5.493164,-44.939949,489.911664,-0.472859,-3.214680,-3.687539,0.000000,-0.046094,-0.052332,-5956,-5
0.336000,-50.489114,509.627750,498.307614,-6.548950,-2.746582,-43.940164,512.374332,-0.467198,-2.560889,-3.028087,0.000000,-0.037851,-0.044856,-5961,-3
0.338000,-49.444895,534.332750,488.001591,-6.552246,-1.647949,-42.892649,535.980699,-0.461045,-1.874641,-2.335686,0.000000,-0.029196,-0.033108,-5964,-2
0.340000,-48.351783,558.509250,477.213005,-6.552246,0.000000,-41.799537,558.509250,-0.454379,-1.195268,-1.649647,0.000000,-0.020621,-0.028836,-5964,0
0.342000,-47.210858,582.133750,465.952524,-6.552246,0.000000,-40.658612,582.133750,-0.447182,-0.484249,-0.931431,0.000000,-0.011643,-0.022428,-5964,0
0.344000,-46.023248,605.182500,454.231283,-6.551147,0.549316,-39.472101,604.633184,-0.439434,0.219068,-0.220366,0.000000,-0.002755,-0.011748,-5963,0
0.346000,-44.790128,627.633000,442.060872,-6.550049,0.549316,-38.240079,627.083684,-0.431118,0.933446,0.502328,0.000000,0.006279,-0.004272,-5962,1
0.348000,-43.512716,649.462750,429.453327,-6.548950,0.549316,-36.963766,648.913434,-0.422218,1.648585,1.226367,0.000000,0.015330,0.009612,-5961,1
0.350000,-42.192277,670.650000,416.421115,-6.546753,1.098633,-35.645524,669.551367,-0.412720,2.353899,1.941179,0.000000,0.024265,0.022428,-5959,1
0.352000,-40.830116,691.174250,402.977123,-6.544556,1.098633,-34.285560,690.075617,-0.402613,3.068153,2.665540,0.000000,0.033319,0.026700,-5957,2
0.354000,-39.427580,711.015250,389.134644,-6.539062,2.746582,-32.888517,708.268668,-0.391885,3.751426,3.359541,0.000000,0.041994,0.035244,-5952,5
0.356000,-37.986055,730.153000,374.907367,-6.532471,3.295898,-31.453584,726.857102,-0.380531,4.451521,4.070989,0.000000,0.050887,0.043788,-5946,7
0.358000,-36.506968,748.568500,360.309360,-6.519287,6.591797,-29.987681,741.976703,-0.368546,5.099180,4.730634,0.000000,0.059133,0.053400,-5934,11
0.360000,-34.991781,766.244000,345.355060,-6.500610,9.338379,-28.491171,756.905621,-0.355927,5.751524,5.395597,0.000000,0.067445,0.059808,-5917,14
0.362000,-33.441992,783.162000,330.059253,-6.474243,13.183594,-26.967749,769.978406,-0.342677,6.378518,6.035842,0.000000,0.075448,0.066216,-5893,20
0.364000,-31.859133,799.305250,314.437066,-6.445679,14.282227,-25.413454,785.023023,-0.328798,7.048010,6.719211,0.000000,0.083990,0.074760,-5867,16
0.366000,-30.244771,814.658000,298.503945,-6.420410,12.634277,-23.824361,802.023723,-0.314300,7.760752,7.446452,0.000000,0.093081,0.082236,-5844,20
0.368000,-28.600501,829.205500,282.275647,-6.387451,16.479492,-22.213050,812.726008,-0.299192,8.369382,8.070189,0.000000,0.100877,0.089712,-5814,31
0.370000,-26.927949,842.933000,265.768219,-6.347900,19.775391,-20.580049,823.157609,-0.283490,8.978966,8.695477,0.000000,0.108693,0.100392,-5778,23
0.372000,-25.228769,855.827000,248.997985,-6.303955,21.972656,-18.924814,833.854344,-0.267210,9.598999,9.331789,0.000000,0.116647,0.112140,-5738,38
0.374000,-23.504641,867.874500,231.981527,-6.253418,25.268555,-17.251223,842.605945,-0.250373,10.189888,9.939515,0.000000,0.124244,0.115344,-5692,41
0.376000,-21.757271,879.063750,214.735673,-6.198486,27.465820,-15.558785,851.597930,-0.233005,10.789907,10.556903,0.000000,0.131961,0.122820,-5642,42
0.378000,-19.988386,889.384000,197.277477,-6.145752,26.367188,-13.842634,863.016812,-0.215131,11.438492,11.223361,0.000000,0.140292,0.134568,-5594,40
0.380000,-18.199735,898.824500,179.624202,-6.084229,30.761719,-12.115506,868.062781,-0.196783,11.978721,11.781938,0.000000,0.147274,0.140976,-5538,49
0.382000,-16.393088,907.376250,161.793304,-6.015015,34.606934,-10.378073,872.769316,-0.177994,12.515725,12.337730,0.000000,0.154222,0.149520,-5475,54
0.384000,-14.570230,915.031000,143.802416,-5.934814,40.100098,-8.635416,874.930902,-0.158802,13.009678,12.850877,0.000000,0.160636,0.151656,-5402,52
0.386000,-12.732964,921.780750,125.669328,-5.850220,42.297363,-6.882744,879.483387,-0.139244,13.547983,13.408739,0.000000,0.167609,0.158064,-5325,52
0.388000,-10.883107,927.618750,107.411971,-5.756836,46.691895,-5.126271,880.926855,-0.119362,14.033019,13.913657,0.000000,0.173921,0.166608,-5240,74
0.390000,-9.022489,932.539750,89.048399,-5.659058,48.889160,-3.363431,883.650590,-0.099200,14.542068,14.442868,0.000000,0.180536,0.173016,-5151,80
0.392000,-7.152948,936.538750,70.596771,-5.564575,47.241211,-1.588373,889.297539,-0.078804,15.105335,15.026532,0.000000,0.187832,0.177288,-5065,92
0.394000,-5.276334,939.611250,52.075334,-5.463501,50.537109,0.187167,889.074141,-0.058219,15.566271,15.508052,0.000000,0.193851,0.187968,-4973,74
0.396000,-3.394503,941.754750,33.502401,-5.361328,51.086426,1.966825,890.668324,-0.037496,16.060008,16.022513,0.000000,0.200281,0.193308,-4880,76
0.398000,-1.509315,942.967250,14.896339,-5.243774,58.776855,3.734459,884.190395,-0.016682,16.409713,16.393031,0.000000,0.204913,0.200784,-4773,88
0.400000,0.377366,943.247000,-3.724453,-5.106445,68.664551,5.483811,874.582449,0.004172,16.700002,16.704173,0.000000,0.208802,0.206124,-4648,115
0.402000,2.263673,942.594000,-22.341562,-4.982300,62.072754,7.245973,880.521246,0.025015,17.264986,17.290001,0.000000,0.216125,0.209328,-4535,96
0.404000,4.147742,941.009250,-40.936579,-4.851562,65.368652,8.999305,875.640598,0.045799,17.638824,17.684623,0.000000,0.221058,0.213600,-4416,114
0.406000,6.027710,938.493750,-59.491115,-4.698853,76.354980,10.726563,862.138770,0.066472,17.855368,17.921840,0.000000,0.224023,0.220008,-4277,108
0.408000,7.901717,935.050000,-77.986823,-4.545044,76.904297,12.446761,858.145703,0.086987,18.236022,18.323010,0.000000,0.229038,0.221076,-4137,131
0.410000,9.767910,930.681750,-96.405414,-4.389038,78.002930,14.156948,852.678820,0.107296,18.588333,18.695629,0.000000,0.233695,0.223212,-3995,108
0.412000,11.624444,925.393250,-114.728673,-4.223145,82.946777,15.847589,842.446473,0.127351,18.852354,18.979704,0.000000,0.237246,0.230688,-3844,148
0.414000,13.469483,919.189750,-132.938482,-4.061646,80.749512,17.531129,838.440238,0.147108,19.223181,19.370290,0.000000,0.242129,0.238164,-3697,150
0.416000,15.301203,912.077500,-151.016834,-3.886963,87.341309,19.188166,824.736191,0.166525,19.417812,19.584337,0.000000,0.244804,0.241368,-3538,146
0.418000,17.117793,904.063000,-168.945853,-3.714478,86.242676,20.832271,817.820324,0.185560,19.727533,19.913094,0.000000,0.248914,0.240300,-3381,164
0.420000,18.917455,895.154250,-186.707808,-3.536499,88.989258,22.453954,806.164992,0.204177,19.948665,20.152842,0.000000,0.251911,0.252048,-3219,164
0.422000,20.698410,885.360750,-204.285136,-3.314575,110.961914,24.012985,774.398836,0.222339,19.802394,20.024733,0.000000,0.250309,0.252048,-3017,169
0.424000,22.458898,874.691750,-221.660456,-3.125610,94.482422,25.584508,780.209328,0.240014,20.315230,20.555245,0.000000,0.256941,0.246708,-2845,154
0.426000,24.197177,863.157750,-238.816585,-2.910278,107.666016,27.107455,755.491734,0.257173,20.282533,20.539707,0.000000,0.256746,0.257388,-2649,188
0.428000,25.911529,850.770250,-255.736559,-2.713623,98.327637,28.625152,752.442613,0.273790,20.626648,20.900438,0.000000,0.261255,0.256320,-2470,144
0.430000,27.600258,837.541250,-272.403647,-2.502686,105.468750,30.102944,732.072500,0.289841,20.658008,20.947849,0.000000,0.261848,0.260592,-2278,142
0.432000,29.261694,823.484250,-288.801367,-2.298340,102.172852,31.560034,721.311398,0.305308,20.851656,21.156964,0.000000,0.264462,0.271272,-2092,193
0.434000,30.894195,808.613000,-304.913503,-2.076416,110.961914,32.970611,697.651086,0.320173,20.807994,21.128167,0.000000,0.264102,0.264864,-1890,180
0.436000,32.496146,792.941750,-320.724125,-1.864380,106.018066,34.360526,686.923684,0.334424,20.984645,21.319069,0.000000,0.266488,0.259524,-1697,198
0.438000,34.065962,776.486750,-336.217596,-1.647949,108.215332,35.713911,668.271418,0.348052,21.013417,21.361469,0.000000,0.267018,0.267000,-1500,205
0.440000,35.602093,759.264000,-351.378597,-1.418335,114.807129,37.020428,644.456871,0.361051,20.939820,21.300870,0.000000,0.266261,0.262728,-1291,186
0.442000,37.103018,741.290000,-366.192135,-1.182129,118.103027,38.285147,623.186973,0.373416,20.899693,21.273109,0.000000,0.265914,0.262728,-1076,185
0.444000,38.567253,722.583250,-380.643561,-0.960205,110.961914,39.527458,611.621336,0.385148,21.023070,21.408219,0.000000,0.267603,0.268068,-874,156
0.446000,39.993351,703.162250,-394.718586,-0.732788,113.708496,40.726139,589.453754,0.396251,20.949987,21.346238,0.000000,0.266828,0.270204,-667,168
0.448000,41.379902,683.045750,-408.403291,-0.486694,123.046875,41.866596,559.998875,0.406729,20.734473,21.141203,0.000000,0.264265,0.271272,-443,176
0.450000,42.725534,662.253500,-421.684145,-0.253784,116.455078,42.979318,545.798422,0.416592,20.777939,21.194531,0.000000,0.264932,0.263796,-231,167
0.452000,44.028916,640.806500,-434.548013,-0.016479,118.652344,44.045395,522.154156,0.425849,20.644367,21.070216,0.000000,0.263378,0.268068,-15,205
0.454000,45.288760,618.726000,-446.982176,0.229614,123.046875,45.059146,495.679125,0.434513,20.447690,20.882203,0.000000,0.261028,0.261660,209,199
0.456000,46.503820,596.033500,-458.974338,0.452637,111.511230,46.051183,484.522270,0.442600,20.512680,20.955281,0.000000,0.261941,0.260592,412,173
0.458000,47.672894,572.751750,-470.512641,0.692139,119.750977,46.980755,453.000773,0.450126,20.205888,20.656014,0.000000,0.258200,0.258456,630,158
0.460000,48.794827,548.903750,-481.585675,0.919556,113.708496,47.875271,435.195254,0.457108,20.129307,20.586415,0.000000,0.257330,0.259524,837,159
0.462000,49.868509,524.512750,-492.182489,1.151367,115.905762,48.717142,408.606988,0.463566,19.885655,20.349221,0.000000,0.254365,0.254184,1048,154
0.464000,50.892878,499.603000,-502.292607,1.365601,107.116699,49.527277,392.486301,0.469520,19.816389,20.285909,0.000000,0.253574,0.255252,1243,159
0.466000,51.866921,474.199250,-511.906029,1.584229,109.313965,50.282692,364.885285,0.474991,19.532428,20.007419,0.000000,0.250093,0.248844,1442,160
0.468000,52.789675,448.326750,-521.013250,1.788574,102.172852,51.001101,346.153898,0.480000,19.393582,19.873582,0.000000,0.248420,0.248844,1628,159
0.470000,53.660228,422.011000,-529.605264,2.000610,106.018066,51.659618,315.992934,0.484569,19.039573,19.524142,0.000000,0.244052,0.250980,1821,197
0.472000,54.477719,395.277750,-537.673575,2.207153,103.271484,52.270566,292.006266,0.488719,18.780873,19.269592,0.000000,0.240870,0.243504,2009,142
0.474000,55.241339,368.153750,-545.210204,2.403809,98.327637,52.837530,269.826113,0.492471,18.542187,19.034659,0.000000,0.237933,0.241368,2188,139
0.476000,55.950334,340.665500,-552.207699,2.597168,96.679688,53.353166,243.985812,0.495847,18.226182,18.722029,0.000000,0.234025,0.244572,2364,138
0.478000,56.604001,312.840500,-558.659140,2.790527,96.679688,53.813474,216.160813,0.498866,17.861052,18.359919,0.000000,0.229499,0.233892,2540,145
0.480000,57.201696,284.706250,-564.558147,2.975098,92.285156,54.226598,192.421094,0.501548,17.554872,18.056420,0.000000,0.225705,0.226416,2708,143
0.482000,57.742826,256.290250,-569.898888,3.154175,89.538574,54.588651,166.751676,0.503911,17.201641,17.705552,0.000000,0.221319,0.226416,2871,159
0.484000,58.226857,227.620750,-574.676082,3.328857,87.341309,54.898000,140.279441,0.505971,16.820601,17.326572,0.000000,0.216582,0.222144,3030,138
0.486000,58.653309,198.726500,-578.885003,3.498047,84.594727,55.155262,114.131773,0.507745,16.431589,16.939334,0.000000,0.211742,0.216804,3184,129
0.488000,59.021763,169.635750,-582.521491,3.663940,82.946777,55.357823,86.688973,0.509245,16.005652,16.514898,0.000000,0.206436,0.211464,3335,118
0.490000,59.331852,140.376750,-585.581948,3.823242,79.650879,55.508610,60.725871,0.510486,15.591986,16.102472,0.000000,0.201281,0.205056,3480,119
0.492000,59.583270,110.979500,-588.063350,3.996826,86.791992,55.586444,24.187508,0.511476,14.974649,15.486125,0.000000,0.193577,0.201852,3638,107
0.494000,59.775770,81.472250,-589.963242,4.144043,73.608398,55.631727,7.863852,0.512225,14.701602,15.213827,0.000000,0.190173,0.192240,3772,114
0.496000,59.909159,51.884250,-591.279745,4.293457,74.707031,55.615702,-22.822781,0.512739,14.161824,14.674563,0.000000,0.183432,0.191172,3908,93
0.498000,59.983307,22.245500,-592.011558,4.439575,73.059082,55.543732,-50.813582,0.513023,13.654451,14.167474,0.000000,0.177093,0.185832,4041,96
0.500000,59.998141,-7.415500,-592.157957,4.569214,64.819336,55.428927,-72.234836,0.513080,13.250523,13.763604,-0.000000,0.172045,0.179424,4159,106
0.502000,59.953645,-37.069500,-591.718797,4.695557,63.171387,55.258088,-100.240887,0.512910,12.717000,13.229910,-0.000000,0.165374,0.176220,4274,107
0.504000,59.849863,-66.686750,-590.694512,4.821899,63.171387,55.027964,-129.858137,0.512511,12.139835,12.652346,-0.000000,0.158154,0.162336,4389,88
0.506000,59.686898,-96.237750,-589.086116,4.925171,51.635742,54.761727,-147.873492,0.511880,11.755707,12.267588,-0.000000,0.153345,0.160200,4483,76
0.508000,59.464912,-125.693750,-586.895198,5.021851,48.339844,54.443061,-174.033594,0.511012,11.215701,11.726713,-0.000000,0.146584,0.150588,4571,87
0.510000,59.184123,-155.025500,-584.123926,5.113037,45.593262,54.071086,-200.618762,0.509897,10.654319,11.164217,-0.000000,0.139553,0.145248,4654,72
0.512000,58.844810,-184.203750,-580.775039,5.197632,42.297363,53.647178,-226.501113,0.508528,10.091608,10.600137,-0.000000,0.132502,0.138840,4731,73
0.514000,58.447308,-213.200000,-576.851850,5.289917,46.142578,53.157391,-259.342578,0.506893,9.390191,9.897083,-0.000000,0.123714,0.132432,4815,68
0.516000,57.992010,-241.985500,-572.358237,5.365723,37.902832,52.626287,-279.888332,0.504978,8.892557,9.397535,-0.000000,0.117469,0.122820,4884,56
0.518000,57.479366,-270.531750,-567.298644,5.427246,30.761719,52.052120,-301.293469,0.502768,8.368650,8.871418,-0.000000,0.110893,0.116412,4940,49
0.520000,56.909883,-298.810250,-561.678075,5.489868,31.311035,51.420015,-330.121285,0.500248,7.700025,8.200273,-0.000000,0.102503,0.108936,4997,48
0.522000,56.284125,-326.793250,-555.502087,5.548096,29.113770,50.736029,-355.907020,0.497400,7.070912,7.568312,-0.000000,0.094604,0.105732,5050,28
0.524000,55.602710,-354.453500,-548.776788,5.592041,21.972656,50.010669,-376.426156,0.494205,6.522887,7.017092,-0.000000,0.087714,0.093984,5090,28
0.526000,54.866311,-381.763000,-541.508828,5.628296,18.127441,49.238015,-399.890441,0.490644,5.911077,6.401721,-0.000000,0.080022,0.087576,5123,20
0.528000,54.075658,-408.694750,-533.705393,5.654663,13.183594,48.420995,-421.878344,0.486695,5.313421,5.800116,-0.000000,0.072501,0.081168,5147,21
0.530000,53.231532,-435.222750,-525.374201,5.674438,9.887695,47.557094,-445.110445,0.482338,4.681775,5.164113,-0.000000,0.064551,0.070488,5165,15
0.532000,52.334767,-461.320250,-516.523489,5.689819,7.690430,46.644948,-469.010680,0.477552,4.025838,4.503390,-0.000000,0.056292,0.060876,5179,10
0.534000,51.386251,-486.961250,-507.162010,5.700806,5.493164,45.685445,-492.454414,0.472315,3.365471,3.837785,-0.000000,0.047972,0.056604,5189,5
0.536000,50.386922,-512.121000,-497.299021,5.706299,2.746582,44.680623,-514.867582,0.466605,2.711225,3.177830,-0.000000,0.039723,0.048060,5194,4
0.538000,49.337767,-536.774500,-486.944275,5.709595,1.647949,43.628172,-538.422449,0.460401,2.024584,2.484986,-0.000000,0.031062,0.042720,5197,2
0.540000,48.239824,-560.897000,-476.108012,5.709595,0.000000,42.530229,-560.897000,0.453684,1.344889,1.798572,-0.000000,0.022482,0.033108,5197,0
0.542000,47.094179,-584.465000,-464.800946,5.709595,0.000000,41.384584,-584.465000,0.446432,0.633620,1.080052,-0.000000,0.013501,0.021360,5197,0
0.544000,45.901964,-607.455000,-453.034259,5.708496,-0.549316,40.193468,-606.905684,0.438628,-0.069877,0.368751,-0.000000,0.004609,0.012816,5196,0
0.546000,44.664359,-629.844250,-440.819586,5.706299,-1.098633,38.958060,-628.745617,0.430254,-0.774485,-0.344231,-0.000000,-0.004303,0.003204,5194,-1
0.548000,43.382587,-651.610500,-428.169007,5.705200,-0.549316,37.677387,-651.061184,0.421295,-1.499244,-1.077949,-0.000000,-0.013474,-0.002136,5193,-1
0.550000,42.057917,-672.732500,-415.095030,5.704102,-0.549316,36.353815,-672.183184,0.411737,-2.214403,-1.802666,-0.000000,-0.022533,-0.013884,5192,-1
0.552000,40.691657,-693.189500,-401.610584,5.701904,-1.098633,34.989753,-692.090867,0.401568,-2.918969,-2.517401,-0.000000,-0.031468,-0.024564,5190,-2
0.554000,39.285159,-712.961000,-387.729003,5.696411,-2.746582,33.588748,-710.214418,0.390778,-3.602066,-3.211288,-0.000000,-0.040141,-0.028836,5185,-6
0.556000,37.839813,-732.027250,-373.464013,5.687622,-4.394531,32.152191,-727.632719,0.379361,-4.282163,-3.902802,-0.000000,-0.048785,-0.038448,5177,-8
0.558000,36.357050,-750.369750,-358.829722,5.675537,-6.042480,30.681513,-744.327270,0.367312,-4.958560,-4.591248,-0.000000,-0.057391,-0.053400,5166,-12
0.560000,34.838334,-767.970500,-343.840600,5.661255,-7.141113,29.177079,-760.829387,0.354630,-5.640436,-5.285806,-0.000000,-0.066073,-0.056604,5153,-15
0.562000,33.285168,-784.811250,-328.511469,5.640381,-10.437012,27.644787,-774.374238,0.341317,-6.277992,-5.936675,-0.000000,-0.074208,-0.067284,5134,-15
0.564000,31.699089,-800.876250,-312.857488,5.616211,-12.084961,26.082878,-788.791289,0.327376,-6.938524,-6.611147,-0.000000,-0.082639,-0.071556,5112,-22
0.566000,30.081663,-816.149500,-296.894136,5.594238,-10.986328,24.487425,-805.163172,0.312816,-7.641956,-7.329139,-0.000000,-0.091614,-0.081168,5092,-22
0.568000,28.434491,-830.615500,-280.637198,5.565674,-14.282227,22.868817,-816.333273,0.297649,-8.260661,-7.963012,-0.000000,-0.099538,-0.093984,5066,-25
0.570000,26.759201,-844.260000,-264.102750,5.532715,-16.479492,21.226486,-827.780508,0.281888,-8.890414,-8.608527,-0.000000,-0.107607,-0.104664,5036,-28
0.572000,25.057451,-857.069750,-247.307143,5.494263,-19.226074,19.563188,-837.843676,0.265551,-9.501500,-9.235949,-0.000000,-0.115449,-0.110004,5001,-36
0.574000,23.330922,-869.032250,-230.266985,5.455811,-19.226074,17.875111,-849.806176,0.248660,-10.152223,-9.903563,-0.000000,-0.123795,-0.116412,4966,-39
0.576000,21.581322,-880.135250,-212.999126,5.411865,-21.972656,16.169457,-858.162594,0.231239,-10.744609,-10.513369,-0.000000,-0.131417,-0.122820,4926,-40
0.578000,19.810381,-890.367750,-195.520641,5.363525,-24.169922,14.446856,-866.197828,0.213317,-11.335826,-11.122509,-0.000000,-0.139031,-0.130296,4882,-37
0.580000,18.019851,-899.719750,-177.848815,5.308594,-27.465820,12.711257,-872.253930,0.194923,-11.895904,-11.700980,-0.000000,-0.146262,-0.140976,4832,-51
0.582000,16.211502,-908.182250,-160.001122,5.242676,-32.958984,10.968826,-875.223266,0.176093,-12.403896,-12.227803,-0.000000,-0.152848,-0.145248,4772,-52
0.584000,14.387122,-915.746750,-141.995211,5.176758,-32.958984,9.210364,-882.787766,0.156862,-12.996285,-12.839424,-0.000000,-0.160493,-0.152724,4712,-54
0.586000,12.548515,-922.405750,-123.848887,5.103149,-36.804199,7.445366,-885.601551,0.137269,-13.507471,-13.370201,-0.000000,-0.167128,-0.160200,4645,-66
0.588000,10.697499,-928.152250,-105.580095,5.025146,-39.001465,5.672353,-889.150785,0.117358,-14.033590,-13.916233,-0.000000,-0.173953,-0.165540,4574,-66
0.590000,8.835906,-932.981250,-87.206899,4.944946,-40.100098,3.890960,-892.881152,0.097170,-14.565065,-14.467895,-0.000000,-0.180849,-0.170880,4501,-77
0.592000,6.965574,-936.887750,-68.747467,4.857056,-43.945312,2.108518,-892.942437,0.076753,-15.032777,-14.956024,-0.000000,-0.186950,-0.179424,4421,-91
0.594000,5.088355,-939.867500,-50.220055,4.759277,-48.889160,0.329078,-890.978340,0.056152,-15.464353,-15.408201,-0.000000,-0.192603,-0.186900,4332,-74
0.596000,3.206104,-941.918000,-31.642982,4.658203,-50.537109,-1.452099,-891.380891,0.035418,-15.937690,-15.902272,-0.000000,-0.198778,-0.190104,4240,-79
0.598000,1.320683,-943.037000,-13.034619,4.535156,-61.523438,-3.214473,-881.513562,0.014598,-16.226861,-16.212263,-0.000000,-0.202653,-0.197580,4128,-80
0.600000,-0.566044,-943.223750,5.586634,4.416504,-59.326172,-4.982548,-883.897578,-0.006257,-16.731351,-16.737608,-0.000000,-0.209220,-0.197580,4020,-121
0.602000,-2.452212,-942.477500,24.202362,4.264893,-75.805664,-6.717105,-866.671836,-0.027097,-16.884811,-16.911908,-0.000000,-0.211399,-0.210396,3882,-96
0.604000,-4.335954,-940.799250,42.794157,4.118774,-73.059082,-8.454728,-867.740168,-0.047872,-17.358366,-17.406238,-0.000000,-0.217578,-0.214668,3749,-115
0.606000,-6.215409,-938.191000,61.343636,3.964966,-76.904297,-10.180375,-861.286703,-0.068532,-17.697505,-17.766037,-0.000000,-0.222075,-0.217872,3609,-143
0.608000,-8.088718,-934.654750,79.832454,3.779297,-92.834473,-11.868015,-841.820277,-0.089028,-17.799575,-17.888603,-0.000000,-0.223608,-0.220008,3440,-146
0.610000,-9.954028,-930.194250,98.242329,3.626587,-76.354980,-13.580615,-853.839270,-0.109313,-18.457703,-18.567016,-0.000000,-0.232088,-0.222144,3301,-132
0.612000,-11.809495,-924.814250,116.555057,3.469482,-78.552246,-15.278977,-846.262004,-0.129341,-18.770085,-18.899426,-0.000000,-0.236243,-0.233892,3158,-135
0.614000,-13.653285,-918.519500,134.752529,3.310181,-79.650879,-16.963466,-838.868621,-0.149066,-19.082044,-19.231110,-0.000000,-0.240389,-0.236028,3013,-155
0.616000,-15.483573,-911.316250,152.816750,3.138794,-85.693359,-18.622367,-825.622891,-0.168446,-19.285162,-19.453608,-0.000000,-0.243170,-0.234960,2857,-150
0.618000,-17.298550,-903.212000,170.729857,2.939941,-99.426270,-20.238491,-803.785730,-0.187442,-19.327132,-19.514574,-0.000000,-0.243932,-0.237096,2676,-122
0.620000,-19.096421,-894.214750,188.474137,2.732300,-103.820801,-21.828721,-790.393949,-0.206014,-19.509723,-19.715737,-0.000000,-0.246447,-0.244572,2487,-176
0.622000,-20.875409,-884.333250,206.032044,2.552124,-90.087891,-23.427533,-794.245359,-0.224129,-19.995510,-20.219639,-0.000000,-0.252745,-0.242436,2323,-156
0.624000,-22.633754,-873.577000,223.386214,2.367554,-92.285156,-25.001308,-781.291844,-0.241754,-20.181442,-20.423196,-0.000000,-0.255290,-0.254184,2155,-157
0.626000,-24.369717,-861.957250,240.519488,2.163208,-102.172852,-26.532925,-759.784398,-0.258860,-20.207043,-20.465903,-0.000000,-0.255824,-0.249912,1969,-183
0.628000,-26.081583,-849.485000,257.414922,1.942383,-110.412598,-28.023966,-739.072402,-0.275421,-20.235904,-20.511325,-0.000000,-0.256392,-0.254184,1768,-200
0.630000,-27.767657,-836.172500,274.055810,1.691895,-125.244141,-29.459552,-710.928359,-0.291415,-20.120533,-20.411948,-0.000000,-0.255149,-0.257388,1540,-188
0.632000,-29.426273,-822.033500,290.425697,1.476562,-107.666016,-30.902835,-714.367484,-0.306822,-20.558408,-20.865230,-0.000000,-0.260815,-0.257388,1344,-165
0.634000,-31.055791,-807.081500,306.508394,1.232666,-121.948242,-32.288457,-685.133258,-0.321626,-20.410929,-20.732555,-0.000000,-0.259157,-0.261660,1122,-173
0.636000,-32.654599,-791.331500,322.287999,0.974487,-129.089355,-33.629086,-662.242145,-0.335815,-20.362380,-20.698196,-0.000000,-0.258727,-0.257388,887,-156
0.638000,-34.221117,-774.798750,337.748907,0.765747,-104.370117,-34.986864,-670.428633,-0.349381,-20.860727,-21.210107,-0.000000,-0.265126,-0.257388,697,-178
0.640000,-35.753794,-757.500000,352.875831,0.529541,-118.103027,-36.283335,-639.396973,-0.362316,-20.658537,-21.020853,-0.000000,-0.262761,-0.270204,482,-157
0.642000,-37.251117,-739.452250,367.653811,0.276855,-126.342773,-37.527972,-613.109477,-0.374618,-20.525579,-20.900197,-0.000000,-0.261252,-0.263796,252,-159
0.644000,-38.711603,-720.673000,382.068234,0.027466,-124.694824,-38.739069,-595.978176,-0.386287,-20.543646,-20.929933,-0.000000,-0.261624,-0.261660,25,-200
0.646000,-40.133809,-701.181500,396.104847,-0.241699,-134.582520,-39.892110,-566.598980,-0.397327,-20.332748,-20.730075,-0.000000,-0.259126,-0.264864,-220,-158
0.648000,-41.516329,-680.996500,409.749770,-0.518555,-138.427734,-40.997774,-542.568766,-0.407743,-20.202804,-20.610547,-0.000000,-0.257632,-0.257388,-472,-167
0.650000,-42.857795,-660.137750,422.989509,-0.794312,-137.878418,-42.063483,-522.259332,-0.417545,-20.127339,-20.544884,-0.000000,-0.256811,-0.257388,-723,-212
0.652000,-44.156880,-638.626500,435.810972,-1.070068,-137.878418,-43.086812,-500.748082,-0.426742,-20.019804,-20.446545,-0.000000,-0.255582,-0.258456,-974,-173
0.654000,-45.412301,-616.484000,448.201482,-1.320557,-125.244141,-44.091744,-491.239859,-0.435348,-20.116945,-20.552293,-0.000000,-0.256904,-0.250980,-1202,-195
0.656000,-46.622816,-593.731750,460.148784,-1.556763,-118.103027,-45.066053,-475.628723,-0.443378,-20.099552,-20.542930,-0.000000,-0.256787,-0.254184,-1417,-155
0.658000,-47.787228,-570.392000,471.641066,-1.792969,-118.103027,-45.994259,-452.288973,-0.450848,-19.935201,-20.386049,-0.000000,-0.254826,-0.257388,-1632,-156
0.660000,-48.904384,-546.488500,482.666963,-2.053345,-130.187988,-46.851039,-416.300512,-0.457777,-19.531388,-19.989165,-0.000000,-0.249865,-0.258456,-1869,-154
0.662000,-49.973182,-522.044750,493.215571,-2.306030,-126.342773,-47.667152,-395.701977,-0.464184,-19.385533,-19.849717,-0.000000,-0.248121,-0.246708,-2099,-152
0.664000,-50.992563,-497.084500,503.276461,-2.564209,-129.089355,-48.428354,-367.995145,-0.470089,-19.101240,-19.571329,-0.000000,-0.244642,-0.249912,-2334,-166
0.666000,-51.961520,-471.632750,512.839683,-2.809204,-122.497559,-49.152316,-349.135191,-0.475512,-18.961605,-19.437117,-0.000000,-0.242964,-0.243504,-2557,-145
0.668000,-52.879094,-445.714750,521.895780,-3.065186,-127.990723,-49.813908,-317.724027,-0.480477,-18.586581,-19.067058,-0.000000,-0.238338,-0.242436,-2790,-167
0.670000,-53.744379,-419.356000,530.435797,-3.314575,-124.694824,-50.429804,-294.661176,-0.485002,-18.345299,-18.830302,-0.000000,-0.235379,-0.237096,-3017,-170
0.672000,-54.556518,-392.582500,538.451290,-3.534302,-109.863281,-51.022216,-282.719219,-0.489112,-18.291966,-18.781078,-0.000000,-0.234763,-0.233892,-3217,-137
0.674000,-55.314709,-365.420750,545.934333,-3.736450,-101.074219,-51.578259,-264.346531,-0.492826,-18.116874,-18.609699,-0.000000,-0.232621,-0.230688,-3401,-133
0.676000,-56.018201,-337.897750,552.877525,-3.953979,-108.764648,-52.064222,-229.133102,-0.496165,-17.629508,-18.125673,-0.000000,-0.226571,-0.226416,-3599,-163
0.678000,-56.666300,-310.040500,559.274000,-4.150635,-98.327637,-52.515665,-211.712863,-0.499149,-17.443656,-17.942805,-0.000000,-0.224285,-0.225348,-3778,-170
0.680000,-57.258363,-281.876750,565.117435,-4.359375,-104.370117,-52.898988,-177.506633,-0.501798,-16.946998,-17.448796,-0.000000,-0.218110,-0.224280,-3968,-135
0.682000,-57.793807,-253.434250,570.402050,-4.547241,-93.933105,-53.246566,-159.501145,-0.504130,-16.723738,-17.227869,-0.000000,-0.215348,-0.220008,-4139,-167
0.684000,-58.272100,-224.741000,575.122619,-4.746094,-99.426270,-53.526006,-125.314730,-0.506161,-16.200230,-16.706391,-0.000000,-0.208830,-0.214668,-4320,-143
0.686000,-58.692771,-195.825750,579.274475,-4.924072,-88.989258,-53.768699,-106.836492,-0.507907,-15.941261,-16.449168,-0.000000,-0.205615,-0.209328,-4482,-136
0.688000,-59.055403,-166.716750,582.853512,-5.107544,-91.735840,-53.947859,-74.980910,-0.509381,-15.432180,-15.941561,-0.000000,-0.199270,-0.205056,-4649,-141
0.690000,-59.359638,-137.443000,585.856191,-5.292114,-92.285156,-54.067524,-45.157844,-0.510596,-14.942998,-15.453594,-0.000000,-0.193170,-0.198648,-4817,-103
0.692000,-59.605175,-108.033250,588.279543,-5.455811,-81.848145,-54.149364,-26.185105,-0.511562,-14.633287,-15.144848,-0.000000,-0.189311,-0.195444,-4966,-107
0.694000,-59.791771,-78.516750,590.121171,-5.603027,-73.608398,-54.188744,-4.908352,-0.512287,-14.272247,-14.784534,-0.000000,-0.184807,-0.189036,-5100,-96
0.696000,-59.919242,-48.922500,591.379254,-5.745850,-71.411133,-54.173392,22.488633,-0.512778,-13.790060,-14.302838,-0.000000,-0.178785,-0.184764,-5230,-88
0.698000,-59.987461,-19.279750,592.052549,-5.882080,-68.115234,-54.105381,48.835484,-0.513039,-13.312416,-13.825455,-0.000000,-0.172818,-0.177288,-5354,-101
0.700000,-59.996361,10.382000,592.140388,-6.011719,-64.819336,-53.984642,75.201336,-0.513073,-12.820635,-13.333709,0.000000,-0.166671,-0.170880,-5472,-88
0.702000,-59.945933,40.033500,591.642687,-6.147949,-68.115234,-53.797984,108.148734,-0.512880,-12.196728,-12.709608,0.000000,-0.158870,-0.167676,-5596,-85
0.704000,-59.836227,69.645250,590.559936,-6.273193,-62.622070,-53.563034,132.267320,-0.512459,-11.714269,-12.226728,0.000000,-0.152834,-0.162336,-5710,-86
0.706000,-59.667352,99.188000,588.893206,-6.380859,-53.833008,-53.286493,153.021008,-0.511804,-11.279651,-11.791455,0.000000,-0.147393,-0.151656,-5808,-79
0.708000,-59.439475,128.633000,586.644146,-6.470947,-45.043945,-52.968528,173.676945,-0.510911,-10.835894,-11.346805,0.000000,-0.141835,-0.149520,-5890,-72
0.710000,-59.152820,157.950750,583.814980,-6.553345,-41.198730,-52.599475,199.149480,-0.509772,-10.294696,-10.804469,0.000000,-0.135056,-0.140976,-5965,-72
0.712000,-58.807672,187.112000,580.408504,-6.632446,-39.550781,-52.175226,226.662781,-0.508377,-9.703430,-10.211807,0.000000,-0.127648,-0.133500,-6037,-62
0.714000,-58.404372,216.088500,576.428088,-6.704956,-36.254883,-51.699416,252.343383,-0.506714,-9.130653,-9.637367,0.000000,-0.120467,-0.129228,-6103,-47
0.716000,-57.943318,244.851250,571.877668,-6.787354,-41.198730,-51.155964,286.049980,-0.504770,-8.400086,-8.904856,0.000000,-0.111311,-0.118548,-6178,-56
0.718000,-57.424967,273.372000,566.761744,-6.851074,-31.860352,-50.573893,305.232352,-0.502530,-7.912905,-8.415435,0.000000,-0.105193,-0.110004,-6236,-39
0.720000,-56.849830,301.622500,561.085374,-6.906006,-27.465820,-49.943824,329.088320,-0.499978,-7.331588,-7.831566,0.000000,-0.097895,-0.106800,-6286,-32
0.722000,-56.218477,329.574500,554.854171,-6.952148,-23.071289,-49.266329,352.645789,-0.497096,-6.743065,-7.240161,0.000000,-0.090502,-0.098256,-6328,-35
0.724000,-55.531532,357.200500,548.074297,-6.996094,-21.972656,-48.535438,379.173156,-0.493866,-6.088728,-6.582594,0.000000,-0.082282,-0.089712,-6368,-22
0.726000,-54.789675,384.473250,540.752457,-7.034546,-19.226074,-47.755129,403.699324,-0.490266,-5.456381,-5.946648,0.000000,-0.074333,-0.082236,-6403,-21
0.728000,-53.993639,411.366250,532.895891,-7.060913,-13.183594,-46.932726,424.549844,-0.486278,-4.877166,-5.363444,0.000000,-0.067043,-0.074760,-6427,-20
0.730000,-53.144210,437.852250,524.512368,-7.087280,-13.183594,-46.056930,451.035844,-0.481879,-4.185615,-4.667495,0.000000,-0.058344,-0.068352,-6451,-13
0.732000,-52.242230,463.905250,515.610177,-7.104858,-8.789062,-45.137372,472.694312,-0.477049,-3.566864,-4.043913,0.000000,-0.050549,-0.059808,-6467,-11
0.734000,-51.288589,489.499500,506.198122,-7.119141,-7.141113,-44.169448,496.640613,-0.471765,-2.895521,-3.367286,0.000000,-0.042091,-0.048060,-6480,-7
0.736000,-50.284232,514.609750,496.285511,-7.126831,-3.845215,-43.157401,518.454965,-0.466007,-2.249835,-2.715842,0.000000,-0.033948,-0.035244,-6487,-3
0.738000,-49.230150,539.211000,485.882144,-7.130127,-1.647949,-42.100023,540.858949,-0.459753,-1.581991,-2.041744,0.000000,-0.025522,-0.034176,-6490,-2
0.740000,-48.127388,563.279000,474.998310,-7.130127,0.000000,-40.997261,563.279000,-0.452983,-0.901985,-1.354968,0.000000,-0.016937,-0.022428,-6490,0
0.742000,-46.977034,586.790500,463.644772,-7.130127,0.000000,-39.846907,586.790500,-0.445677,-0.190470,-0.636147,0.000000,-0.007952,-0.017088,-6490,0
0.744000,-45.780226,609.721250,451.832755,-7.130127,0.000000,-38.650099,609.721250,-0.437817,0.523071,0.085254,0.000000,0.001066,-0.004272,-6490,0
0.746000,-44.538149,632.049000,439.573941,-7.129028,0.549316,-37.409121,631.499684,-0.429385,1.228064,0.798679,0.000000,0.009983,0.004272,-6489,0
0.748000,-43.252030,653.752250,426.880452,-7.126831,1.098633,-36.125199,652.653617,-0.420367,1.933400,1.513033,0.000000,0.018913,0.011748,-6487,1
0.750000,-41.923140,674.808750,413.764839,-7.125732,0.549316,-34.797408,674.259434,-0.410748,2.658107,2.247359,0.000000,0.028092,0.018156,-6486,2
0.752000,-40.552795,695.197750,400.240073,-7.122437,1.647949,-33.430358,693.549801,-0.400517,3.352680,2.952163,0.000000,0.036902,0.025632,-6483,3
0.754000,-39.142349,714.899500,386.319527,-7.118042,2.197266,-32.024307,712.702234,-0.389665,4.055057,3.665392,0.000000,0.045817,0.037380,-6479,4
0.756000,-37.693197,733.894500,372.016967,-7.112549,2.746582,-30.580648,731.147918,-0.378185,4.754944,4.376759,0.000000,0.054709,0.043788,-6474,4
0.758000,-36.206771,752.163500,357.346536,-7.104858,3.845215,-29.101913,748.318285,-0.366073,5.441755,5.075682,0.000000,0.063446,0.052332,-6467,10
0.760000,-34.684543,769.688750,342.322740,-7.092773,6.042480,-27.591770,763.646270,-0.353327,6.104633,5.751306,0.000000,0.071891,0.064080,-6456,13
0.762000,-33.128016,786.453000,326.960436,-7.074097,9.338379,-26.053919,777.114621,-0.339951,6.742309,6.402358,0.000000,0.080029,0.073692,-6439,15
0.764000,-31.538731,802.439500,311.274816,-7.052124,10.986328,-24.486607,791.453172,-0.325948,7.402885,7.076937,0.000000,0.088462,0.081168,-6419,19
0.766000,-29.918258,817.632750,295.281390,-7.029053,11.535645,-22.889205,806.097105,-0.311327,8.076669,7.765342,0.000000,0.097067,0.090780,-6398,18
0.768000,-28.268200,832.017250,278.995973,-6.997192,15.930176,-21.271008,816.087074,-0.296099,8.674670,8.378571,0.000000,0.104732,0.097188,-6369,22
0.770000,-26.590189,845.578750,262.434670,-6.958740,19.226074,-19.631449,826.352676,-0.280279,9.283074,9.002794,0.000000,0.112535,0.102528,-6334,27
0.772000,-24.885885,858.304250,245.613856,-6.919189,19.775391,-17.966696,838.528859,-0.263886,9.931420,9.667533,0.000000,0.120844,0.111072,-6298,42
0.774000,-23.156972,870.181250,228.550165,-6.873047,23.071289,-16.283925,847.109961,-0.246941,10.521736,10.274795,0.000000,0.128435,0.120684,-6256,37
0.776000,-21.405160,881.197750,211.260472,-6.824707,24.169922,-14.580453,857.027828,-0.229469,11.140804,10.911334,0.000000,0.136392,0.128160,-6212,40
0.778000,-19.632181,891.342750,193.761872,-6.766479,29.113770,-12.865702,862.228980,-0.211498,11.680502,11.469004,0.000000,0.143363,0.138840,-6159,49
0.780000,-17.839789,900.606250,176.071670,-6.702759,31.860352,-11.137030,868.745898,-0.193059,12.246809,12.053749,0.000000,0.150672,0.143112,-6101,46
0.782000,-16.029756,908.979500,158.207358,-6.632446,35.156250,-9.397310,873.823250,-0.174187,12.790883,12.616696,0.000000,0.157709,0.146316,-6037,46
0.784000,-14.203871,916.453500,140.186602,-6.558838,36.804199,-7.645033,879.649301,-0.154918,13.351312,13.196394,0.000000,0.164955,0.152724,-5970,65
0.786000,-12.363942,923.021250,122.027222,-6.487427,35.705566,-5.876515,887.315684,-0.135292,13.948112,13.812820,0.000000,0.172660,0.164472,-5905,74
0.788000,-10.511786,928.676750,103.747174,-6.401733,42.846680,-4.110053,885.830070,-0.115351,14.384642,14.269291,0.000000,0.178366,0.174084,-5827,70
0.790000,-8.649235,933.413500,85.364535,-6.308350,46.691895,-2.340885,886.721605,-0.095138,14.863369,14.768231,0.000000,0.184603,0.178356,-5742,73
0.792000,-6.778132,937.227250,66.897484,-6.213867,47.241211,-0.564265,889.986039,-0.074700,15.385462,15.310762,0.000000,0.191385,0.184764,-5656,85
0.794000,-4.900326,940.114500,48.364280,-6.107300,53.283691,1.206974,886.830809,-0.054084,15.794103,15.740018,0.000000,0.196750,0.190104,-5559,98
0.796000,-3.017674,942.072000,29.783250,-5.995239,56.030273,2.977565,886.041727,-0.033339,16.243870,16.210532,0.000000,0.202632,0.196512,-5457,103
0.798000,-1.132038,943.097750,11.172770,-5.875488,59.875488,4.743450,883.222262,-0.012513,16.656969,16.644456,0.000000,0.208056,0.202920,-5348,89
0.800000,0.754717,943.191000,-7.448759,-5.748047,63.720703,6.502764,879.470297,0.008343,17.052072,17.060415,0.000000,0.213255,0.203988,-5232,124
0.802000,2.640726,942.351500,-26.062922,-5.598633,74.707031,8.239359,867.644469,0.029178,17.300312,17.329490,0.000000,0.216619,0.214668,-5096,117
0.804000,4.524123,940.580250,-44.651312,-5.440430,79.101562,9.964553,861.478687,0.049944,17.644353,17.694297,0.000000,0.221179,0.220008,-4952,101
0.806000,6.403047,937.879250,-63.195549,-5.277832,81.298828,11.680879,856.580422,0.070590,18.008196,18.078785,0.000000,0.225985,0.217872,-4804,125
0.808000,8.275640,934.250250,-81.677295,-5.117432,80.200195,13.393072,854.050055,0.091067,18.412283,18.503350,0.000000,0.231292,0.225348,-4658,117
0.810000,10.140048,929.697500,-100.078273,-4.943848,86.791992,15.083896,842.905508,0.111328,18.660431,18.771759,0.000000,0.234647,0.230688,-4500,153
0.812000,11.994430,924.225750,-118.380289,-4.781250,81.298828,16.775680,842.926922,0.131327,19.103713,19.235040,0.000000,0.240438,0.238164,-4352,140
0.814000,13.836951,917.839750,-136.565243,-4.581299,99.975586,18.418250,817.864164,0.151020,19.096309,19.247329,0.000000,0.240592,0.237096,-4170,146
0.816000,15.665789,910.546250,-154.615154,-4.386841,97.229004,20.052630,813.317246,0.170364,19.444830,19.615194,0.000000,0.245190,0.236028,-3993,141
0.818000,17.479136,902.352500,-172.512173,-4.191284,97.778320,21.670420,804.574180,0.189318,19.715771,19.905090,0.000000,0.248814,0.243504,-3815,168
0.820000,19.275199,893.266250,-190.238603,-3.989136,101.074219,23.264335,792.192031,0.207847,19.916948,20.124795,0.000000,0.251560,0.250980,-3631,159
0.822000,21.052201,883.296750,-207.776914,-3.751831,118.652344,24.804032,764.644406,0.225914,19.839243,20.065157,0.000000,0.250814,0.254184,-3415,167
0.824000,22.808386,872.453750,-225.109763,-3.513428,119.201660,26.321814,753.252090,0.243488,20.037764,20.281252,0.000000,0.253516,0.248844,-3198,191
0.826000,24.542016,860.748000,-242.220011,-3.293701,109.863281,27.835717,750.884719,0.260541,20.392784,20.653325,0.000000,0.258167,0.252048,-2998,155
0.828000,26.251378,848.191500,-259.090739,-3.054199,119.750977,29.305577,728.440523,0.277046,20.385868,20.662914,0.000000,0.258286,0.259524,-2780,173
0.830000,27.934782,834.795750,-275.705263,-2.802612,125.793457,30.737394,709.002293,0.292982,20.421455,20.714437,0.000000,0.258930,0.260592,-2551,162
0.832000,29.590561,820.574500,-292.047155,-2.543335,129.638672,32.133896,690.935828,0.308329,20.471739,20.780069,0.000000,0.259751,0.260592,-2315,171
0.834000,31.217080,805.542250,-308.100254,-2.310425,116.455078,33.527505,689.087172,0.323073,20.804320,21.127393,0.000000,0.264092,0.261660,-2103,195
0.836000,32.812730,789.713000,-323.848686,-2.059937,125.244141,34.872667,664.468859,0.337200,20.726812,21.064012,0.000000,0.263300,0.263796,-1875,155
0.838000,34.375932,773.103000,-339.276878,-1.809448,125.244141,36.185380,647.858859,0.350703,20.780581,21.131283,0.000000,0.264141,0.265932,-1647,197
0.840000,35.905142,755.728750,-354.369575,-1.550171,129.638672,37.455313,626.090078,0.363574,20.733111,21.096686,0.000000,0.263709,0.263796,-1411,164
0.842000,37.398847,737.607000,-369.111851,-1.272217,138.977051,38.671064,598.629949,0.375813,20.572124,20.947937,0.000000,0.261849,0.264864,-1158,207
0.844000,38.855570,718.755750,-383.489129,-1.018433,126.892090,39.874003,591.863660,0.387419,20.768959,21.156378,0.000000,0.264455,0.261660,-927,174
0.846000,40.273870,699.193750,-397.487191,-0.783325,117.553711,41.057195,581.640039,0.398396,20.900282,21.298679,0.000000,0.266233,0.270204,-713,215
0.848000,41.652345,678.940500,-411.092196,-0.552612,115.356445,42.204957,563.584055,0.408751,20.885629,21.294380,0.000000,0.266180,0.264864,-503,182
0.850000,42.989632,658.015750,-424.290690,-0.315308,118.652344,43.304940,539.363406,0.418491,20.750874,21.169365,0.000000,0.264617,0.264864,-287,174
0.852000,44.284408,636.440500,-437.069622,-0.068115,123.596191,44.352523,512.844309,0.427629,20.562285,20.989914,0.000000,0.262374,0.265932,-62,170
0.854000,45.535394,614.235750,-449.416355,0.175781,121.948242,45.359613,492.287508,0.436177,20.467157,20.903333,0.000000,0.261292,0.260592,160,164
0.856000,46.741351,591.423500,-461.318679,0.429565,126.892090,46.311786,464.531410,0.444150,20.232000,20.676149,0.000000,0.258452,0.259524,391,167
0.858000,47.901088,568.026750,-472.764826,0.673462,121.948242,47.227626,446.078508,0.451565,20.149702,20.601267,0.000000,0.257516,0.259524,613,191
0.860000,49.013458,544.068250,-483.743477,0.915161,120.849609,48.098297,423.218641,0.458441,19.978663,20.437104,0.000000,0.255464,0.262728,833,199
0.862000,50.077361,519.571500,-494.243776,1.154663,119.750977,48.922698,399.820523,0.464797,19.786117,20.250914,0.000000,0.253136,0.253116,1051,157
0.864000,51.091744,494.561000,-504.255338,1.383179,114.257812,49.708565,380.303187,0.470652,19.651215,20.121867,0.000000,0.251523,0.255252,1259,188
0.866000,52.055605,469.061500,-513.768265,1.621582,119.201660,50.434023,349.859840,0.476029,19.309802,19.785832,0.000000,0.247323,0.253116,1476,192
0.868000,52.967990,443.098250,-522.773149,1.870972,124.694824,51.097018,318.403426,0.480948,18.934356,19.415305,0.000000,0.242691,0.246708,1703,176
0.870000,53.827998,416.697000,-531.261085,2.096191,112.609863,51.731807,304.087137,0.485432,18.850677,19.336109,0.000000,0.241701,0.244572,1908,185
0.872000,54.634778,389.883250,-539.223681,2.292847,98.327637,52.341931,291.555613,0.489501,18.791691,19.281192,0.000000,0.241015,0.241368,2087,192
0.874000,55.387531,362.684250,-546.653063,2.486206,96.679688,52.901325,266.004563,0.493176,18.492190,18.985366,0.000000,0.237317,0.240300,2263,177
0.876000,56.085515,335.126750,-553.541883,2.701538,107.666016,53.383977,227.460734,0.496479,17.945831,18.442310,0.000000,0.230529,0.237096,2459,190
0.878000,56.728038,307.237500,-559.883330,2.911377,104.919434,53.816661,202.318066,0.499429,17.620285,18.119714,0.000000,0.226496,0.229620,2650,156
0.880000,57.314465,279.044500,-565.671134,3.131104,109.863281,54.183361,169.181219,0.502046,17.137940,17.639986,0.000000,0.220500,0.228552,2850,125
0.882000,57.844216,250.575750,-570.899570,3.328857,98.876953,54.515359,151.698797,0.504346,16.919731,17.424077,0.000000,0.217801,0.224280,3030,145
0.884000,58.316768,221.859250,-575.563469,3.517822,94.482422,54.798946,127.376828,0.506348,16.569475,17.075824,0.000000,0.213448,0.217872,3202,129
0.886000,58.731653,192.923000,-579.658219,3.688110,85.144043,55.043543,107.778957,0.508066,16.291463,16.799530,0.000000,0.209994,0.213600,3357,152
0.888000,59.088460,163.796250,-583.179770,3.849609,80.749512,55.238851,83.046738,0.509514,15.910936,16.420450,0.000000,0.205256,0.209328,3504,122
0.890000,59.386838,134.507750,-586.124640,4.026489,88.439941,55.360349,46.067809,0.510704,15.297340,15.808044,0.000000,0.197601,0.205056,3665,137
0.892000,59.626491,105.085750,-588.489918,4.195679,84.594727,55.430812,20.491023,0.511645,14.869389,15.381033,0.000000,0.192263,0.199716,3819,121
0.894000,59.807181,75.560000,-590.273264,4.358276,81.298828,55.448905,-5.738828,0.512346,14.416328,14.928674,0.000000,0.186608,0.191172,3967,126
0.896000,59.928731,45.960000,-591.472915,4.501099,71.411133,55.427632,-25.451133,0.512814,14.066714,14.579528,0.000000,0.182244,0.189036,4097,118
0.898000,59.991021,16.314000,-592.087684,4.640625,69.763184,55.350396,-53.449184,0.513053,13.557836,14.070888,0.000000,0.175886,0.183696,4224,121
0.900000,59.993987,-13.348000,-592.116964,4.779053,69.213867,55.214934,-82.561867,0.513064,13.014260,13.527324,-0.000000,0.169092,0.179424,4350,108
0.902000,59.937629,-42.996750,-591.560726,4.914185,67.565918,55.023444,-110.562668,0.512848,12.475421,12.988270,-0.000000,0.162353,0.168744,4473,88
0.904000,59.822000,-72.603250,-590.419519,5.039429,62.622070,54.782571,-135.225320,0.512404,11.981917,12.494320,-0.000000,0.156179,0.161268,4587,78
0.906000,59.647216,-102.137500,-588.694473,5.151489,56.030273,54.495727,-158.167773,0.511726,11.506399,12.018125,-0.000000,0.150227,0.154860,4689,70
0.908000,59.413450,-131.570750,-586.387293,5.248169,48.339844,54.165281,-179.910594,0.510809,11.040405,11.551214,-0.000000,0.144390,0.153792,4777,84
0.910000,59.120933,-160.874250,-583.500260,5.343750,47.790527,53.777183,-208.664777,0.509644,10.436946,10.946591,-0.000000,0.136832,0.144180,4864,79
0.912000,58.769953,-190.018750,-580.036229,5.436035,46.142578,53.333918,-236.161328,0.508223,9.840994,10.349217,-0.000000,0.129365,0.135636,4948,57
0.914000,58.360858,-218.975000,-575.998627,5.516235,40.100098,52.844623,-259.075098,0.506533,9.312976,9.819509,-0.000000,0.122744,0.128160,5021,68
0.916000,57.894053,-247.714750,-571.391445,5.592041,37.902832,52.302012,-285.617582,0.504560,8.707668,9.212227,-0.000000,0.115153,0.120684,5090,56
0.918000,57.369999,-276.209500,-566.219239,5.659058,33.508301,51.710941,-309.717801,0.502290,8.132297,8.634587,-0.000000,0.107932,0.111072,5151,41
0.920000,56.789215,-304.431250,-560.487123,5.709595,25.268555,51.079620,-329.699805,0.499705,7.618266,8.117972,-0.000000,0.101475,0.110004,5197,38
0.922000,56.152274,-332.352250,-554.200767,5.754639,22.521973,50.397635,-354.874223,0.496789,7.000346,7.497136,-0.000000,0.093714,0.101460,5238,39
0.924000,55.459806,-359.944250,-547.366387,5.799683,22.521973,49.660123,-382.466223,0.493523,6.325695,6.819218,-0.000000,0.085240,0.096120,5279,24
0.926000,54.712497,-387.180250,-539.990739,5.831543,15.930176,48.880954,-403.110426,0.489885,5.761400,6.251285,-0.000000,0.078141,0.086508,5308,25
0.928000,53.911085,-414.033500,-532.081119,5.860107,14.282227,48.050978,-428.315727,0.485857,5.104197,5.590054,-0.000000,0.069876,0.073692,5334,19
0.930000,53.056363,-440.477500,-523.645347,5.882080,10.986328,47.174283,-451.463828,0.481416,4.470668,4.952084,-0.000000,0.061901,0.066216,5354,13
0.932000,52.149175,-466.485750,-514.691766,5.896362,7.141113,46.252813,-473.626863,0.476541,3.842610,4.319151,-0.000000,0.053989,0.067284,5367,8
0.934000,51.190420,-492.032750,-505.229228,5.905151,4.394531,45.285269,-496.427281,0.471211,3.191365,3.662576,-0.000000,0.045782,0.055536,5375,5
0.936000,50.181044,-517.093250,-495.267092,5.910645,2.746582,44.270399,-519.839832,0.465404,2.517047,2.982451,-0.000000,0.037281,0.044856,5380,3
0.938000,49.122047,-541.642250,-484.815208,5.912842,1.098633,43.209205,-542.740883,0.459100,1.839528,2.298628,-0.000000,0.028733,0.034176,5382,1
0.940000,48.014475,-565.655750,-473.883912,5.912842,0.000000,42.101633,-565.655750,0.452277,1.149627,1.601903,-0.000000,0.020024,0.025632,5382,0
0.942000,46.859424,-589.109750,-462.484012,5.912842,0.000000,40.946582,-589.109750,0.444916,0.437885,0.882801,-0.000000,0.011035,0.012816,5382,0
0.944000,45.658036,-611.981500,-450.626783,5.911743,-0.549316,39.746293,-611.432184,0.436999,-0.265950,0.171050,-0.000000,0.002138,0.009612,5381,-1
0.946000,44.411498,-634.248000,-438.323949,5.909546,-1.098633,38.501952,-633.149367,0.428510,-0.970754,-0.542244,-0.000000,-0.006778,0.002136,5379,-1
0.948000,43.121044,-655.887250,-425.587675,5.907349,-1.098633,37.213695,-654.788617,0.419432,-1.685695,-1.266263,-0.000000,-0.015828,-0.007476,5377,-2
0.950000,41.787949,-676.878000,-412.430557,5.905151,-1.098633,35.882798,-675.779367,0.409752,-2.400481,-1.990728,-0.000000,-0.024884,-0.012816,5375,-2
0.952000,40.413532,-697.199250,-398.865605,5.899658,-2.746582,34.513874,-694.452668,0.399460,-3.084775,-2.685315,-0.000000,-0.033566,-0.024564,5370,-4
0.954000,38.999152,-716.831250,-384.906231,5.895264,-2.197266,33.103888,-714.633984,0.388545,-3.806138,-3.417593,-0.000000,-0.042720,-0.037380,5366,-6
0.956000,37.546207,-735.754250,-370.566241,5.886475,-4.394531,31.659732,-731.359719,0.377002,-4.476137,-4.099134,-0.000000,-0.051239,-0.042720,5358,-10
0.958000,36.056135,-753.949750,-355.859815,5.873291,-6.591797,30.182844,-747.357953,0.364827,-5.142007,-4.777180,-0.000000,-0.059715,-0.050196,5346,-12
0.960000,34.530408,-771.399750,-340.801494,5.859009,-7.141113,28.671399,-764.258637,0.352018,-5.832675,-5.480657,-0.000000,-0.068508,-0.060876,5333,-15
0.962000,32.970536,-788.087000,-325.406170,5.841431,-8.789062,27.129105,-779.297937,0.338579,-6.498932,-6.160353,-0.000000,-0.077004,-0.067284,5317,-16
0.964000,31.378060,-803.994750,-309.689066,5.821655,-9.887695,25.556405,-794.107055,0.324513,-7.169132,-6.844618,-0.000000,-0.085558,-0.076896,5299,-19
0.966000,29.754557,-819.107500,-293.665724,5.797485,-12.084961,23.957072,-807.022539,0.309831,-7.813254,-7.503423,-0.000000,-0.093793,-0.084372,5277,-21
0.968000,28.101630,-833.410500,-277.351990,5.763428,-17.028809,22.338202,-816.381691,0.294543,-8.400421,-8.105877,-0.000000,-0.101323,-0.097188,5246,-26
0.970000,26.420915,-846.889250,-260.763994,5.724976,-19.226074,20.695939,-827.663176,0.278666,-9.027263,-8.748598,-0.000000,-0.109357,-0.107868,5211,-32
0.972000,24.714073,-859.530750,-243.918140,5.683228,-20.874023,19.030845,-838.656727,0.262216,-9.655057,-9.392841,-0.000000,-0.117411,-0.107868,5173,-35
0.974000,22.982792,-871.322000,-226.831086,5.633789,-24.719238,17.349003,-846.602762,0.245217,-10.234047,-9.988830,-0.000000,-0.124860,-0.115344,5128,-43
0.976000,21.228785,-882.251500,-209.519729,5.587646,-23.071289,15.641139,-859.180211,0.227694,-10.900683,-10.672989,-0.000000,-0.133412,-0.126024,5086,-38
0.978000,19.453786,-892.308750,-192.001187,5.539307,-24.169922,13.914479,-868.138828,0.209675,-11.509079,-11.299404,-0.000000,-0.141243,-0.138840,5042,-35
0.980000,17.659550,-901.483750,-174.292784,5.479980,-29.663086,12.179570,-871.820664,0.191191,-12.027537,-11.836346,-0.000000,-0.147954,-0.140976,4988,-52
0.982000,15.847851,-909.767250,-156.412030,5.422852,-28.564453,10.424999,-881.202797,0.172277,-12.650632,-12.478354,-0.000000,-0.155979,-0.148452,4936,-53
0.984000,14.020481,-917.151250,-138.376607,5.358032,-32.409668,8.662449,-884.741582,0.152971,-13.173830,-13.020859,-0.000000,-0.162761,-0.159132,4877,-64
0.986000,12.179246,-923.628250,-120.204350,5.278931,-39.550781,6.900315,-884.077469,0.133311,-13.623564,-13.490253,-0.000000,-0.168628,-0.161268,4805,-62
0.988000,10.325968,-929.191750,-101.913228,5.199829,-39.550781,5.126139,-889.640969,0.113341,-14.185144,-14.071803,-0.000000,-0.175898,-0.167676,4733,-70
0.990000,8.462479,-933.836500,-83.521328,5.114136,-42.846680,3.348343,-890.989820,0.093104,-14.674112,-14.581008,-0.000000,-0.182263,-0.179424,4655,-77
0.992000,6.590622,-937.557750,-65.046838,5.020752,-46.691895,1.569870,-890.865855,0.072646,-15.137551,-15.064906,-0.000000,-0.188311,-0.178356,4570,-74
0.994000,4.712248,-940.352000,-46.508026,4.921875,-49.438477,-0.209627,-890.913523,0.052015,-15.604255,-15.552240,-0.000000,-0.194403,-0.187968,4480,-78
0.996000,2.829214,-942.216500,-27.923224,4.815308,-53.283691,-1.986094,-888.932809,0.031259,-16.034762,-16.003504,-0.000000,-0.200044,-0.197580,4383,-80
0.998000,0.943382,-943.149000,-9.310810,4.701050,-57.128906,-3.757668,-886.020094,0.010428,-16.447723,-16.437295,-0.000000,-0.205466,-0.201852,4279,-111
1.000000,-0.943382,-943.149000,9.310810,4.564819,-68.115234,-5.508201,-875.033766,-0.010428,-16.714264,-16.724692,-0.000000,-0.209059,-0.201852,4155,-117
1.002000,-2.829214,-942.216500,27.923224,4.436279,-64.270020,-7.265493,-877.946480,-0.031259,-17.225158,-17.256417,-0.000000,-0.215705,-0.207192,4038,-127
1.004000,-4.712248,-940.352000,46.508026,4.282471,-76.904297,-8.994719,-863.447703,-0.052015,-17.424817,-17.476832,-0.000000,-0.218460,-0.217872,3898,-120
1.006000,-6.590622,-937.557750,65.046838,4.139648,-71.411133,-10.730270,-866.146617,-0.072646,-17.926289,-17.998934,-0.000000,-0.224987,-0.221076,3768,-110
1.008000,-8.462479,-933.836500,83.521328,3.988037,-75.805664,-12.450516,-858.030836,-0.093104,-18.235001,-18.328104,-0.000000,-0.229101,-0.227484,3630,-139
1.010000,-10.325968,-929.191750,101.913228,3.818848,-84.594727,-14.144816,-844.597023,-0.113341,-18.444103,-18.557444,-0.000000,-0.231968,-0.231756,3476,-158
1.012000,-12.179246,-923.628250,120.204350,3.655151,-81.848145,-15.834397,-841.780105,-0.133311,-18.837270,-18.970581,-0.000000,-0.237132,-0.228552,3327,-156
1.014000,-14.020481,-917.151250,138.376607,3.487061,-84.045410,-17.507542,-833.105840,-0.152971,-19.123904,-19.276874,-0.000000,-0.240961,-0.237096,3174,-147
1.016000,-15.847851,-909.767250,156.412030,3.316772,-85.144043,-19.164623,-824.623207,-0.172277,-19.409677,-19.581954,-0.000000,-0.244774,-0.240300,3019,-121
1.018000,-17.659550,-901.483750,174.292784,3.142090,-87.341309,-20.801640,-814.142441,-0.191191,-19.655323,-19.846514,-0.000000,-0.248081,-0.244572,2860,-126
1.020000,-19.453786,-892.308750,192.001187,2.961914,-90.087891,-22.415700,-802.220859,-0.209675,-19.869812,-20.079487,-0.000000,-0.250994,-0.245640,2696,-166
1.022000,-21.228785,-882.251500,209.519729,2.768555,-96.679688,-23.997340,-785.571812,-0.227694,-19.993303,-20.220998,-0.000000,-0.252762,-0.254184,2520,-167
1.024000,-22.982792,-871.322000,226.831086,2.554321,-107.116699,-25.537113,-764.205301,-0.245217,-20.023499,-20.268717,-0.000000,-0.253359,-0.256320,2325,-173
1.026000,-24.714073,-859.530750,243.918140,2.332397,-110.961914,-27.046470,-748.568836,-0.262216,-20.145740,-20.407957,-0.000000,-0.255099,-0.248844,2123,-172
1.028000,-26.420915,-846.889250,260.763994,2.117065,-107.666016,-28.537980,-739.223234,-0.278666,-20.373105,-20.651771,-0.000000,-0.258147,-0.253116,1927,-172
1.030000,-28.101630,-833.410500,277.351990,1.911621,-102.722168,-30.013251,-730.688332,-0.294543,-20.610368,-20.904911,-0.000000,-0.261311,-0.252048,1740,-155
1.032000,-29.754557,-819.107500,293.665724,1.692993,-109.313965,-31.447550,-709.793535,-0.309831,-20.621184,-20.931015,-0.000000,-0.261638,-0.262728,1541,-190
1.034000,-31.378060,-803.994750,309.689066,1.462280,-115.356445,-32.840340,-688.638305,-0.324513,-20.616587,-20.941100,-0.000000,-0.261764,-0.261660,1331,-165
1.036000,-32.970536,-788.087000,325.406170,1.223877,-119.201660,-34.194413,-668.885340,-0.338579,-20.626328,-20.964907,-0.000000,-0.262061,-0.261660,1114,-179
1.038000,-34.530408,-771.399750,340.801494,1.000854,-111.511230,-35.531262,-659.888520,-0.352018,-20.819290,-21.171308,-0.000000,-0.264641,-0.263796,911,-200
1.040000,-36.056135,-753.949750,355.859815,0.782227,-109.313965,-36.838362,-644.635785,-0.364827,-20.895277,-21.260104,-0.000000,-0.265751,-0.267000,712,-169
1.042000,-37.546207,-735.754250,370.566241,0.560303,-110.961914,-38.106510,-624.792336,-0.377002,-20.880944,-21.257946,-0.000000,-0.265724,-0.261660,510,-202
1.044000,-38.999152,-716.831250,384.906231,0.336182,-112.060547,-39.335334,-604.770703,-0.388545,-20.853206,-21.241751,-0.000000,-0.265522,-0.268068,306,-207
1.046000,-40.413532,-697.199250,398.865605,0.109863,-113.159180,-40.523395,-584.040070,-0.399460,-20.802422,-21.201882,-0.000000,-0.265024,-0.267000,100,-203
1.048000,-41.787949,-676.878000,412.430557,-0.148315,-129.089355,-41.639634,-547.788645,-0.409752,-20.461946,-20.871698,-0.000000,-0.260896,-0.268068,-135,-166
1.050000,-43.121044,-655.887250,425.587675,-0.388916,-120.300293,-42.732128,-535.586957,-0.419432,-20.535001,-20.954433,-0.000000,-0.261930,-0.260592,-354,-205
1.052000,-44.411498,-634.248000,438.323949,-0.618530,-114.807129,-43.792968,-519.440871,-0.428510,-20.530926,-20.959435,-0.000000,-0.261993,-0.262728,-563,-193
1.054000,-45.658036,-611.981500,450.626783,-0.844849,-113.159180,-44.813187,-498.822320,-0.436999,-20.438157,-20.875156,-0.000000,-0.260939,-0.262728,-769,-217
1.056000,-46.859424,-589.109750,462.484012,-1.067871,-111.511230,-45.791553,-477.598520,-0.444916,-20.323867,-20.768783,-0.000000,-0.259610,-0.258456,-972,-182
1.058000,-48.014475,-565.655750,473.883912,-1.289795,-110.961914,-46.724680,-454.693836,-0.452277,-20.168397,-20.620674,-0.000000,-0.257758,-0.257388,-1174,-187
1.060000,-49.122047,-541.642250,484.815208,-1.512817,-111.511230,-47.609230,-430.131020,-0.459100,-19.971270,-20.430369,-0.000000,-0.255380,-0.255252,-1377,-161
1.062000,-50.181044,-517.093250,495.267092,-1.723755,-105.468750,-48.457289,-411.624500,-0.465404,-19.870291,-20.335696,-0.000000,-0.254196,-0.248844,-1569,-209
1.064000,-51.190420,-492.032750,505.229228,-1.939087,-107.666016,-49.251333,-384.366734,-0.471211,-19.602434,-20.073645,-0.000000,-0.250921,-0.256320,-1765,-204
1.066000,-52.149175,-466.485750,514.691766,-2.152222,-106.567383,-49.996953,-359.918367,-0.476541,-19.370932,-19.847474,-0.000000,-0.248093,-0.254184,-1959,-186
1.068000,-53.056363,-440.477500,523.645347,-2.368652,-108.215332,-50.687711,-332.262168,-0.481416,-19.069080,-19.550497,-0.000000,-0.244381,-0.252048,-2156,-164
1.070000,-53.911085,-414.033500,532.081119,-2.575195,-103.271484,-51.335890,-310.762016,-0.485857,-18.863525,-19.349382,-0.000000,-0.241867,-0.244572,-2344,-164
1.072000,-54.712497,-387.180250,539.990739,-2.786133,-105.468750,-51.926364,-281.711500,-0.489885,-18.511084,-19.000969,-0.000000,-0.237512,-0.240300,-2536,-167
1.074000,-55.459806,-359.944250,547.366387,-2.991577,-102.722168,-52.468229,-257.222082,-0.493523,-18.225522,-18.719045,-0.000000,-0.233988,-0.237096,-2723,-190
1.076000,-56.152274,-332.352250,554.200767,-3.192627,-100.524902,-52.959647,-231.827348,-0.496789,-17.910954,-18.407743,-0.000000,-0.230097,-0.237096,-2906,-161
1.078000,-56.789215,-304.431250,560.487123,-3.387085,-97.229004,-53.402130,-207.202246,-0.499705,-17.597006,-18.096712,-0.000000,-0.226209,-0.232824,-3083,-161
1.080000,-57.369999,-276.209500,566.219239,-3.574951,-93.933105,-53.795048,-182.276395,-0.502290,-17.264834,-17.767123,-0.000000,-0.222089,-0.226416,-3254,-151
1.082000,-57.894053,-247.714750,571.391445,-3.755127,-90.087891,-54.138926,-157.626859,-0.504560,-16.924645,-17.429205,-0.000000,-0.217865,-0.223212,-3418,-133
1.084000,-58.360858,-218.975000,575.998627,-3.956177,-100.524902,-54.404681,-118.450098,-0.506533,-16.310456,-16.816989,-0.000000,-0.210212,-0.221076,-3601,-134
1.086000,-58.769953,-190.018750,580.036229,-4.123169,-83.496094,-54.646784,-106.522656,-0.508223,-16.165666,-16.673889,-0.000000,-0.208424,-0.209328,-3753,-147
1.088000,-59.120933,-160.874250,583.500260,-4.284668,-80.749512,-54.836265,-80.124738,-0.509644,-15.754541,-16.264186,-0.000000,-0.203302,-0.206124,-3900,-129
1.090000,-59.413450,-131.570750,586.387293,-4.451660,-83.496094,-54.961790,-48.074656,-0.510809,-15.228024,-15.738833,-0.000000,-0.196735,-0.202920,-4052,-114
1.092000,-59.647216,-102.137500,588.694473,-4.619751,-84.045410,-55.027465,-18.092090,-0.511726,-14.721923,-15.233649,-0.000000,-0.190421,-0.196512,-4205,-107
1.094000,-59.822000,-72.603250,590.419519,-4.764771,-72.509766,-55.057229,-0.093484,-0.512404,-14.415581,-14.927984,-0.000000,-0.186600,-0.193308,-4337,-113
1.096000,-59.937629,-42.996750,591.560726,-4.910889,-73.059082,-55.026740,30.062332,-0.512848,-13.881280,-14.394129,-0.000000,-0.179927,-0.185832,-4470,-122
1.098000,-59.993987,-13.348000,592.116964,-5.043823,-66.467285,-54.950164,53.119285,-0.513064,-13.458813,-13.971877,-0.000000,-0.174648,-0.181560,-4591,-96
1.100000,-59.991021,16.314000,592.087684,-5.170166,-63.171387,-54.820855,79.485387,-0.513053,-12.964785,-13.477837,0.000000,-0.168473,-0.174084,-4706,-92
1.102000,-59.928731,45.960000,591.472915,-5.286621,-58.227539,-54.642110,104.187539,-0.512814,-12.486855,-12.999670,0.000000,-0.162496,-0.169812,-4812,-94
1.104000,-59.807181,75.560000,590.273264,-5.396484,-54.931641,-54.410697,130.491641,-0.512346,-11.967178,-12.479525,0.000000,-0.155994,-0.162336,-4912,-78
1.106000,-59.626491,105.085750,588.489918,-5.515137,-59.326172,-54.111354,164.411922,-0.511645,-11.296790,-11.808435,0.000000,-0.147605,-0.152724,-5020,-86
1.108000,-59.386838,134.507750,586.124640,-5.614014,-49.438477,-53.772824,183.946227,-0.510704,-10.867225,-11.377929,0.000000,-0.142224,-0.149520,-5110,-72
1.110000,-59.088460,163.796250,583.179770,-5.711792,-48.889160,-53.376668,212.685410,-0.509514,-10.261918,-10.771432,0.000000,-0.134643,-0.144180,-5199,-66
1.112000,-58.731653,192.923000,579.658219,-5.800781,-44.494629,-52.930872,237.417629,-0.508066,-9.713550,-10.221617,0.000000,-0.127770,-0.133500,-5280,-62
1.114000,-58.316768,221.859250,575.563469,-5.875488,-37.353516,-52.441280,259.212766,-0.506348,-9.204979,-9.711327,0.000000,-0.121392,-0.120684,-5348,-61
1.116000,-57.844216,250.575750,570.899570,-5.944702,-34.606934,-51.899514,285.182684,-0.504346,-8.609884,-9.114231,0.000000,-0.113928,-0.123888,-5411,-59
1.118000,-57.314465,279.044500,565.671134,-6.000732,-28.015137,-51.313733,307.059637,-0.502046,-8.074702,-8.576748,0.000000,-0.107209,-0.114276,-5462,-42
1.120000,-56.728038,307.237500,559.883330,-6.052368,-25.817871,-50.675670,333.055371,-0.499429,-7.453947,-7.953376,0.000000,-0.099417,-0.107868,-5509,-44
1.122000,-56.085515,335.126750,553.541883,-6.094116,-20.874023,-49.991399,356.000773,-0.496479,-6.874332,-7.370811,0.000000,-0.092135,-0.098256,-5547,-32
1.124000,-55.387531,362.684250,546.653063,-6.131470,-18.676758,-49.256061,381.361008,-0.493176,-6.239201,-6.732377,0.000000,-0.084155,-0.091848,-5581,-27
1.126000,-54.634778,389.883250,539.223681,-6.162231,-15.380859,-48.472547,405.264109,-0.489501,-5.616890,-6.106390,0.000000,-0.076330,-0.086508,-5609,-25
1.128000,-53.827998,416.697000,531.261085,-6.186401,-12.084961,-47.641597,428.781961,-0.485432,-4.988884,-5.474316,0.000000,-0.068429,-0.077964,-5631,-19
1.130000,-52.967990,443.098250,522.773149,-6.208374,-10.986328,-46.759616,454.084578,-0.480948,-4.316368,-4.797316,0.000000,-0.059966,-0.069420,-5651,-15
1.132000,-52.055605,469.061500,513.768265,-6.224854,-8.239746,-45.830751,477.301246,-0.476029,-3.667984,-4.144014,0.000000,-0.051800,-0.059808,-5666,-10
1.134000,-51.091744,494.561000,504.255338,-6.233643,-4.394531,-44.858101,498.955531,-0.470652,-3.035407,-3.506059,0.000000,-0.043826,-0.053400,-5674,-5
1.136000,-50.077361,519.571500,494.243776,-6.239136,-2.746582,-43.838225,522.318082,-0.464797,-2.360650,-2.825447,0.000000,-0.035318,-0.044856,-5679,-3
1.138000,-49.013458,544.068250,483.743477,-6.240234,-0.549316,-42.773224,544.617566,-0.458441,-1.692634,-2.151075,0.000000,-0.026888,-0.036312,-5680,-1
1.140000,-47.901088,568.026750,472.764826,-6.239136,0.549316,-41.661952,567.477434,-0.451565,-1.002724,-1.454289,0.000000,-0.018179,-0.025632,-5679,1
1.142000,-46.741351,591.423500,461.318679,-6.238037,0.549316,-40.503314,590.874184,-0.444150,-0.291043,-0.735193,0.000000,-0.009190,-0.019224,-5678,1
1.144000,-45.535394,614.235750,449.416355,-6.235840,1.098633,-39.299554,613.137117,-0.436177,0.412662,-0.023514,0.000000,-0.000294,-0.012816,-5676,1
1.146000,-44.284408,636.440500,437.069622,-6.234741,0.549316,-38.049667,635.891184,-0.427629,1.137015,0.709387,0.000000,0.008867,0.001068,-5675,1
1.148000,-42.989632,658.015750,424.290690,-6.233643,0.549316,-36.755989,657.466434,-0.418491,1.852258,1.433767,0.000000,0.017922,0.009612,-5674,1
1.150000,-41.652345,678.940500,411.092196,-6.231445,1.098633,-35.420900,677.841867,-0.408751,2.557403,2.148652,0.000000,0.026858,0.020292,-5672,2
1.152000,-40.273870,699.193750,397.487191,-6.227051,2.197266,-34.046819,696.996484,-0.398396,3.251447,2.853051,0.000000,0.035663,0.026700,-5668,5
1.154000,-38.855570,718.755750,383.489129,-6.220459,3.295898,-32.635111,715.459852,-0.387419,3.943278,3.555859,0.000000,0.044448,0.036312,-5662,6
1.156000,-37.398847,737.607000,369.111851,-6.213867,3.295898,-31.184980,734.311102,-0.375813,4.651938,4.276125,0.000000,0.053452,0.046992,-5656,6
1.158000,-35.905142,755.728750,354.369575,-6.205078,4.394531,-29.700064,751.334219,-0.363574,5.337797,4.974223,0.000000,0.062178,0.052332,-5648,9
1.160000,-34.375932,773.103000,339.276878,-6.195190,4.943848,-28.180742,768.159152,-0.350703,6.029205,5.678503,0.000000,0.070981,0.063012,-5639,12
1.162000,-32.812730,789.713000,323.848686,-6.180908,7.141113,-26.631822,782.571887,-0.337200,6.686261,6.349061,0.000000,0.079363,0.067284,-5626,12
1.164000,-31.217080,805.542250,308.100254,-6.162231,9.338379,-25.054849,796.203871,-0.323073,7.337035,7.013962,0.000000,0.087675,0.077964,-5609,18
1.166000,-29.590561,820.574500,292.047155,-6.136963,12.634277,-23.453598,807.940223,-0.308329,7.961079,7.652750,0.000000,0.095659,0.091848,-5586,24
1.168000,-27.934782,834.795750,275.705263,-6.107300,14.831543,-21.827482,819.964207,-0.292982,8.596654,8.303672,0.000000,0.103796,0.092916,-5559,30
1.170000,-26.251378,848.191500,259.090739,-6.071045,18.127441,-20.180333,830.064059,-0.277046,9.204152,8.927106,0.000000,0.111589,0.102528,-5526,32
1.172000,-24.542016,860.748000,242.220011,-6.028198,21.423340,-18.513818,839.324660,-0.260541,9.802073,9.541532,0.000000,0.119269,0.114276,-5487,35
1.174000,-22.808386,872.453750,225.109763,-5.977661,25.268555,-16.830725,847.185195,-0.243488,10.379898,10.136409,0.000000,0.126705,0.119616,-5441,38
1.176000,-21.052201,883.296750,207.776914,-5.921631,28.015137,-15.130570,855.281613,-0.225914,10.966306,10.740392,0.000000,0.134255,0.126024,-5390,47
1.178000,-19.275199,893.266250,190.238603,-5.857910,31.860352,-13.417289,861.405898,-0.207847,11.521731,11.313884,0.000000,0.141424,0.133500,-5332,48
1.180000,-17.479136,902.352500,172.512173,-5.789795,34.057617,-11.689341,868.294883,-0.189318,12.094342,11.905024,0.000000,0.148813,0.142044,-5270,43
1.182000,-15.665789,910.546250,154.615154,-5.724976,32.409668,-9.940813,878.136582,-0.170364,12.723876,12.553512,0.000000,0.156919,0.152724,-5211,62
1.184000,-13.836951,917.839750,136.565243,-5.660156,32.409668,-8.176795,885.430082,-0.151020,13.312990,13.161970,0.000000,0.164525,0.158064,-5152,66
1.186000,-11.994430,924.225750,118.380289,-5.589844,35.156250,-6.404586,889.069500,-0.131327,13.840473,13.709146,0.000000,0.171364,0.161268,-5088,56
1.188000,-10.140048,929.697500,100.078273,-5.496460,46.691895,-4.643588,883.005605,-0.111328,14.195667,14.084338,0.000000,0.176054,0.169812,-5003,60
1.190000,-8.275640,934.250250,81.677295,-5.408569,43.945312,-2.867071,890.304938,-0.091067,14.788155,14.697088,0.000000,0.183714,0.178356,-4923,74
1.192000,-6.403047,937.879250,63.195549,-5.308594,49.987793,-1.094453,887.891457,-0.070590,15.210102,15.139512,0.000000,0.189244,0.184764,-4832,72
1.194000,-4.524123,940.580250,44.651312,-5.195435,56.579590,0.671312,884.000660,-0.049944,15.604471,15.554527,0.000000,0.194432,0.187968,-4729,88
1.196000,-2.640726,942.351500,26.062922,-5.082275,56.579590,2.441549,885.771910,-0.029178,16.098832,16.069654,0.000000,0.200871,0.193308,-4626,79
1.198000,-0.754717,943.191000,7.448759,-4.964722,58.776855,4.210005,884.414145,-0.008343,16.538115,16.529773,0.000000,0.206622,0.202920,-4519,89
1.200000,1.132038,943.097750,-11.172770,-4.827393,68.664551,5.959431,874.433199,0.012513,16.821914,16.834427,0.000000,0.210430,0.208260,-4394,94
1.202000,3.017674,942.072000,-29.783250,-4.673584,76.904297,7.691258,865.167703,0.033339,17.113592,17.146930,0.000000,0.214337,0.211464,-4254,101
1.204000,4.900326,940.114500,-48.364280,-4.526367,73.608398,9.426693,866.506102,0.054084,17.591287,17.645371,0.000000,0.220567,0.218940,-4120,100
1.206000,6.778132,937.227250,-66.897484,-4.374756,75.805664,11.152888,861.421586,0.074700,17.954462,18.029162,0.000000,0.225365,0.224280,-3982,109
1.208000,8.649235,933.413500,-85.364535,-4.219849,77.453613,12.869084,855.959887,0.095138,18.308437,18.403575,0.000000,0.230045,0.227484,-3841,141
1.210000,10.511786,928.676750,-103.747174,-4.064941,77.453613,14.576727,851.223137,0.115351,18.672825,18.788175,0.000000,0.234852,0.229620,-3700,125
1.212000,12.363942,923.021250,-122.027222,-3.869385,97.778320,16.233327,825.242930,0.135292,18.653081,18.788373,0.000000,0.234855,0.233892,-3522,126
1.214000,14.203871,916.453500,-140.186602,-3.679321,95.031738,17.883192,821.421762,0.154918,19.018323,19.173241,0.000000,0.239666,0.236028,-3349,130
1.216000,16.029756,908.979500,-158.207358,-3.474976,102.172852,19.504732,806.806648,0.174187,19.187759,19.361946,0.000000,0.242024,0.240300,-3163,146
1.218000,17.839789,900.606250,-176.071670,-3.283813,95.581055,21.123602,805.025195,0.193059,19.580486,19.773546,0.000000,0.247169,0.242436,-2989,156
1.220000,19.632181,891.342750,-193.761872,-3.087158,98.327637,22.719339,793.015113,0.211498,19.788634,20.000132,0.000000,0.250002,0.244572,-2810,133
1.222000,21.405160,881.197750,-211.260472,-2.876221,105.468750,24.281381,775.729000,0.229469,19.895876,20.125345,0.000000,0.251567,0.248844,-2618,140
1.224000,23.156972,870.181250,-228.550165,-2.637817,119.201660,25.794789,750.979590,0.246941,19.860127,20.107068,0.000000,0.251338,0.249912,-2401,182
1.226000,24.885885,858.304250,-245.613856,-2.421387,108.215332,27.307272,750.088918,0.263886,20.240548,20.504435,0.000000,0.256305,0.252048,-2204,183
1.228000,26.590189,845.578750,-262.434670,-2.185181,118.103027,28.775370,727.475723,0.280279,20.230221,20.510500,0.000000,0.256381,0.261660,-1989,170
1.230000,28.268200,832.017250,-278.995973,-1.932495,126.342773,30.200695,705.674477,0.296099,20.222867,20.518966,0.000000,0.256487,0.258456,-1759,165
1.232000,29.918258,817.632750,-295.281390,-1.690796,120.849609,31.609054,696.783141,0.311327,20.436391,20.747718,0.000000,0.259346,0.250980,-1539,164
1.234000,31.538731,802.439500,-311.274816,-1.450195,120.300293,32.988926,682.139207,0.325948,20.542056,20.868004,0.000000,0.260850,0.260592,-1320,207
1.236000,33.128016,786.453000,-326.960436,-1.199707,125.244141,34.327723,661.208859,0.339951,20.527249,20.867199,0.000000,0.260840,0.256320,-1092,159
1.238000,34.684543,769.688750,-342.322740,-0.929443,135.131836,35.613986,634.556914,0.353327,20.398827,20.752155,0.000000,0.259402,0.264864,-846,202
1.240000,36.206771,752.163500,-357.346536,-0.684448,122.497559,36.891219,629.665941,0.366073,20.647842,21.013915,0.000000,0.262674,0.260592,-623,199
1.242000,37.693197,733.894500,-372.016967,-0.465820,109.313965,38.159017,624.580535,0.378185,20.890994,21.269179,0.000000,0.265865,0.264864,-424,155
1.244000,39.142349,714.899500,-386.319527,-0.218628,123.596191,39.360977,591.303309,0.389665,20.624869,21.014534,0.000000,0.262682,0.265932,-199,164
1.246000,40.552795,695.197750,-400.240073,0.058228,138.427734,40.494567,556.770016,0.400517,20.318923,20.719440,0.000000,0.258993,0.269136,53,201
1.248000,41.923140,674.808750,-413.764839,0.306519,124.145508,41.616621,550.663242,0.410748,20.506093,20.916840,0.000000,0.261461,0.261660,279,169
1.250000,43.252030,653.752250,-426.880452,0.582275,137.878418,42.669755,515.873832,0.420367,20.174613,20.594979,0.000000,0.257437,0.262728,530,207
1.252000,44.538149,632.049000,-439.573941,0.855835,136.779785,43.682314,495.269215,0.429385,20.080082,20.509467,0.000000,0.256368,0.255252,779,160
1.254000,45.780226,609.721250,-451.832755,1.117310,130.737305,44.662916,478.983945,0.437817,20.052571,20.490388,0.000000,0.256130,0.259524,1017,204
1.256000,46.977034,586.790500,-463.644772,1.344727,113.708496,45.632307,473.082004,0.445677,20.203349,20.649026,0.000000,0.258113,0.256320,1224,158
1.258000,48.127388,563.279000,-474.998310,1.561157,108.215332,46.566231,455.063668,0.452983,20.133370,20.586353,0.000000,0.257329,0.261660,1421,179
1.260000,49.230150,539.211000,-485.882144,1.778687,108.764648,47.451463,430.446352,0.459753,19.935470,20.395223,0.000000,0.254940,0.260592,1619,196
1.262000,50.284232,514.609750,-496.285511,2.010498,115.905762,48.273734,398.703988,0.466007,19.596731,20.062738,0.000000,0.250784,0.253116,1830,189
1.264000,51.288589,489.499500,-506.198122,2.259888,124.694824,49.028701,364.804676,0.471765,19.202727,19.674492,0.000000,0.245931,0.250980,2057,148
1.266000,52.242230,463.905250,-515.610177,2.496094,118.103027,49.746136,345.802223,0.477049,19.058895,19.535944,0.000000,0.244199,0.248844,2272,154
1.268000,53.144210,437.852250,-524.512368,2.727905,115.905762,50.416305,321.946488,0.481879,18.817984,19.299863,0.000000,0.241248,0.252048,2483,175
1.270000,53.993639,411.366250,-532.895891,2.954224,113.159180,51.039415,298.207070,0.486278,18.566783,19.053061,0.000000,0.238163,0.237096,2689,165
1.272000,54.789675,384.473250,-540.752457,3.151978,98.876953,51.637697,285.596297,0.490266,18.503313,18.993580,0.000000,0.237420,0.239232,2869,185
1.274000,55.531532,357.200500,-548.074297,3.346436,97.229004,52.185096,259.971496,0.493866,18.199385,18.693251,0.000000,0.233666,0.234960,3046,169
1.276000,56.218477,329.574500,-554.854171,3.585938,119.750977,52.632540,209.823523,0.497096,17.441278,17.938374,0.000000,0.224230,0.238164,3264,138
1.278000,56.849830,301.622500,-561.085374,3.821045,117.553711,53.028785,184.068789,0.499978,17.095510,17.595488,0.000000,0.219944,0.223212,3478,165
1.280000,57.424967,273.372000,-566.761744,4.025391,102.172852,53.399576,171.199148,0.502530,16.967965,17.470496,0.000000,0.218381,0.215736,3664,154
1.282000,57.943318,244.851250,-571.877668,4.222046,98.327637,53.721272,146.523613,0.504770,16.621516,17.126286,0.000000,0.214079,0.216804,3843,119
1.284000,58.404372,216.088500,-576.428088,4.390137,84.045410,54.014235,132.043090,0.506714,16.445480,16.952195,0.000000,0.211902,0.208260,3996,151
1.286000,58.807672,187.112000,-580.408504,4.553833,81.848145,54.253839,105.263855,0.508377,16.040823,16.549200,0.000000,0.206865,0.214668,4145,133
1.288000,59.152820,157.950750,-583.814980,4.713135,79.650879,54.439685,78.299871,0.509772,15.618867,16.128639,0.000000,0.201608,0.207192,4290,127
1.290000,59.439475,128.633000,-586.644146,4.879028,82.946777,54.560447,45.686223,0.510911,15.081267,15.592178,0.000000,0.194902,0.200784,4441,137
1.292000,59.667352,99.188000,-588.893206,5.036133,78.552246,54.631219,20.635754,0.511804,14.662582,15.174386,0.000000,0.189680,0.192240,4584,104
1.294000,59.836227,69.645250,-590.559936,5.188843,76.354980,54.647384,-6.709730,0.512459,14.189545,14.702003,0.000000,0.183775,0.198648,4723,136
1.296000,59.945933,40.033500,-591.642687,5.331665,71.411133,54.614268,-31.377633,0.512880,13.750339,14.263219,0.000000,0.178290,0.184764,4853,126
1.298000,59.996361,10.382000,-592.140388,5.475586,71.960449,54.520775,-61.578449,0.513073,13.198759,13.711832,0.000000,0.171398,0.179424,4984,107
1.300000,59.987461,-19.279750,-592.052549,5.597534,60.974121,54.389927,-80.253871,0.513039,12.838555,13.351595,-0.000000,0.166895,0.175152,5095,105
1.302000,59.919242,-48.922500,-591.379254,5.734863,68.664551,54.184379,-117.587051,0.512778,12.133156,12.645934,-0.000000,0.158074,0.165540,5220,96
1.304000,59.791771,-78.516750,-590.121171,5.866699,65.917969,53.925072,-144.434719,0.512287,11.596689,12.108976,-0.000000,0.151362,0.158064,5340,76
1.306000,59.605175,-108.033250,-588.279543,5.985352,59.326172,53.619823,-167.359422,0.511562,11.116664,11.628226,-0.000000,0.145353,0.152724,5448,86
1.308000,59.359638,-137.443000,-585.856191,6.095215,54.931641,53.264423,-192.374641,0.510596,10.587022,11.097618,-0.000000,0.138720,0.149520,5548,75
1.310000,59.055403,-166.716750,-582.853512,6.178711,41.748047,52.876692,-208.464797,0.509381,10.204689,10.714070,-0.000000,0.133926,0.139908,5624,55
1.312000,58.692771,-195.825750,-579.274475,6.261108,41.198730,52.431663,-237.024480,0.507907,9.589720,10.097626,-0.000000,0.126220,0.136704,5699,52
1.314000,58.272100,-224.741000,-575.122619,6.332520,35.705566,51.939580,-260.446566,0.506161,9.052100,9.558261,-0.000000,0.119478,0.128160,5764,58
