khanfazel/E-wera--maxon_motor/PD_control/pd_feedforward_log_filtered.csv
t_s,q_ref_deg,qd_ref_deg_s,qdd_ref_deg_s2,q_link_deg,qd_link_raw_deg_s,qd_link_filt_deg_s,pos_error_deg,vel_error_deg_s,tau_joint_ff_Nm,tau_pd_joint_raw_Nm,tau_pd_joint_limited_Nm,tau_joint_total_Nm,tau_dead_motor_Nm,tau_motor_cmd_before_clamp_Nm,tau_motor_cmd_Nm,tau_motor_actual_Nm,motor_pos_counts,motor_vel_native
0.000000,0.000000,943.265500,0.000000,-0.003296,0.000000,0.000000,0.003296,943.265500,0.000000,16.465102,16.465102,16.465102,0.160200,0.366014,0.366014,0.000000,-3,0
0.002000,1.886531,942.799250,0.000000,0.003296,3.295898,0.329590,1.883235,942.469660,0.027289,17.599602,17.599602,17.626891,0.160200,0.380536,0.380536,0.364188,3,68
0.004000,3.771197,941.400750,-37.220226,0.134033,65.368652,6.833496,3.637164,934.567254,0.041649,18.533093,18.533093,18.574742,0.160200,0.392384,0.392384,0.383412,122,178
0.006000,5.652134,939.071000,-55.784328,0.362549,114.257812,17.575928,5.289585,921.495072,0.062349,19.314347,19.314347,19.376696,0.160200,0.402409,0.402409,0.393024,330,231
0.008000,7.527481,935.812750,-74.293267,0.689941,163.696289,32.187964,6.837540,903.624786,0.082899,19.948043,19.948043,20.030942,0.160200,0.410587,0.410587,0.405840,628,266
0.010000,9.395385,931.629250,-92.728741,1.109619,209.838867,49.953054,8.285766,881.676196,0.103253,20.449639,20.449639,20.552892,0.160200,0.417111,0.417111,0.409044,1010,304
0.012000,11.253998,926.524500,-111.072519,1.550171,220.275879,66.985337,9.703827,859.539163,0.123362,20.929519,20.929519,21.052881,0.160200,0.423361,0.423361,0.415452,1411,390
0.014000,13.101483,920.503500,-129.306462,2.021484,235.656738,83.852477,11.079999,836.651023,0.143183,21.370701,21.370701,21.513884,0.160200,0.429124,0.429124,0.420792,1840,411
0.016000,14.936012,913.572250,-147.412541,2.538940,258.728027,101.340032,12.397072,812.232218,0.162671,21.749067,21.749067,21.911737,0.160200,0.434097,0.434097,0.425064,2311,459
0.018000,16.755772,905.737500,-165.372849,3.046509,253.784180,116.584447,13.709263,789.153053,0.181786,22.147831,22.147831,22.329617,0.160200,0.439320,0.439320,0.431472,2773,436
0.020000,18.558962,897.007250,-183.169628,3.644165,298.828125,134.808814,14.914797,762.198436,0.200489,22.413803,22.413803,22.614292,0.160200,0.442879,0.442879,0.438948,3317,438
0.022000,20.343801,887.390000,-200.785278,4.200073,277.954102,149.123343,16.143728,738.266657,0.218745,22.746826,22.746826,22.965571,0.160200,0.447270,0.447270,0.440016,3823,450
0.024000,22.108522,876.895000,-218.202380,4.775757,287.841797,162.995189,17.332765,713.899811,0.236520,23.047886,23.047886,23.284406,0.160200,0.451255,0.451255,0.446424,4347,486
0.026000,23.851381,865.533250,-235.403712,5.369019,296.630859,176.358756,18.482362,689.174494,0.253784,23.318597,23.318597,23.572381,0.160200,0.454855,0.454855,0.453900,4887,512
0.028000,25.570655,853.315500,-252.372264,6.023804,327.392578,191.462138,19.546851,661.853362,0.270511,23.492012,23.492012,23.762523,0.160200,0.457232,0.457232,0.456036,5483,514
0.030000,27.264643,840.253750,-269.091255,6.724731,350.463867,207.362311,20.539912,632.891439,0.286677,23.593157,23.593157,23.879835,0.160200,0.458698,0.458698,0.457104,6121,529
0.032000,28.931670,826.361000,-285.544154,7.467407,371.337891,223.759869,21.464263,602.601131,0.302262,23.629146,23.629146,23.931408,0.160200,0.459343,0.459343,0.457104,6797,542
0.034000,30.570087,811.651500,-301.714692,8.239746,386.169434,240.000825,22.330341,571.650675,0.317249,23.618015,23.618015,23.935264,0.160200,0.459391,0.459391,0.468852,7500,548
0.036000,32.178276,796.139500,-317.586877,8.978027,369.140625,252.914805,23.200249,543.224695,0.331624,23.653285,23.653285,23.984909,0.160200,0.460011,0.460011,0.461376,8172,529
0.038000,33.754645,779.839750,-333.145014,9.807495,414.733887,269.096713,23.947150,510.743037,0.345377,23.542629,23.542629,23.888006,0.160200,0.458800,0.458800,0.458172,8927,563
0.040000,35.297635,762.769000,-348.373719,10.598511,395.507812,281.737823,24.699124,481.031177,0.358502,23.483414,23.483414,23.841916,0.160200,0.458224,0.458224,0.461376,9647,566
0.042000,36.805721,744.944000,-363.257932,11.328003,364.746094,290.038650,25.477718,454.905350,0.370994,23.503048,23.503048,23.874042,0.160200,0.458626,0.458626,0.460308,10311,575
0.044000,38.277411,726.382500,-377.782936,12.037720,354.858398,296.520625,26.239691,429.861875,0.382852,23.531420,23.531420,23.914273,0.160200,0.459128,0.459128,0.459240,10957,557
0.046000,39.711251,707.102750,-391.934367,12.768311,365.295410,303.398104,26.942940,403.704646,0.394081,23.504481,23.504481,23.898562,0.160200,0.458932,0.458932,0.453900,11622,579
0.048000,41.105822,687.123500,-405.698231,13.486816,359.252930,308.983586,27.619006,378.139914,0.404683,23.471277,23.471277,23.875960,0.160200,0.458650,0.458650,0.460308,12276,589
0.050000,42.459745,666.465000,-419.060918,14.226196,369.689941,315.054222,28.233549,351.410778,0.414668,23.380169,23.380169,23.794837,0.160200,0.457635,0.457635,0.460308,12949,560
0.052000,43.771682,645.147500,-432.009215,15.004028,388.916016,322.440401,28.767654,322.707099,0.424045,23.205461,23.205461,23.629506,0.160200,0.455569,0.455569,0.458172,13657,572
0.054000,45.040335,623.191750,-444.530316,15.864258,430.114746,333.207836,29.176077,289.983914,0.432827,22.883825,22.883825,23.316653,0.160200,0.451658,0.451658,0.450696,14440,565
0.056000,46.264449,600.619750,-456.611842,16.720093,427.917480,342.678800,29.544356,257.940950,0.441028,22.549539,22.549539,22.990567,0.160200,0.447582,0.447582,0.452832,15219,590
0.058000,47.442814,577.454250,-468.241844,17.575928,427.917480,351.202668,29.866886,226.251582,0.448665,22.193478,22.193478,22.642142,0.160200,0.443227,0.443227,0.450696,15998,568
0.060000,48.574266,553.717500,-479.408822,18.394409,409.240723,357.006474,30.179857,196.711026,0.455754,21.869081,21.869081,22.324835,0.160200,0.439260,0.439260,0.442152,16743,586
0.062000,49.657684,529.433000,-490.101734,19.226074,415.832520,362.889078,30.431610,166.543922,0.462316,21.496352,21.496352,21.958668,0.160200,0.434683,0.434683,0.431472,17500,569
0.064000,50.691998,504.625250,-500.310006,19.951172,362.548828,362.855053,30.740826,141.770197,0.468369,21.252859,21.252859,21.721228,0.160200,0.431715,0.431715,0.433608,18160,549
0.066000,51.676185,479.318500,-510.023544,20.646606,347.717285,361.341276,31.029579,117.977224,0.473935,21.013982,21.013982,21.487916,0.160200,0.428799,0.428799,0.429336,18793,549
0.068000,52.609272,453.537750,-519.232741,21.349731,351.562500,360.363399,31.259541,93.174351,0.479034,20.721566,20.721566,21.200600,0.160200,0.425208,0.425208,0.430404,19433,540
0.070000,53.490336,427.308250,-527.928493,22.159424,404.846191,364.811678,31.330912,62.496572,0.483689,20.229736,20.229736,20.713425,0.160200,0.419118,0.419118,0.427200,20170,549
0.072000,54.318505,400.656500,-536.102199,22.880127,360.351562,364.365666,31.438378,36.290834,0.487921,19.838007,19.838007,20.325928,0.160200,0.414274,0.414274,0.416520,20826,527
0.074000,55.092962,373.608500,-543.745778,23.622803,371.337891,365.062889,31.470159,8.545611,0.491752,19.373175,19.373175,19.864927,0.160200,0.408512,0.408512,0.413316,21502,515
0.076000,55.812939,346.191000,-550.851670,24.322632,349.914551,363.548055,31.490307,-17.357055,0.495201,18.933396,18.933396,19.428597,0.160200,0.403057,0.403057,0.405840,22139,505
0.078000,56.477726,318.431250,-557.412850,25.008179,342.773438,361.470593,31.469547,-43.039343,0.498290,18.472474,18.472474,18.970764,0.160200,0.397335,0.397335,0.396228,22763,486
0.080000,57.086664,290.356250,-563.422828,25.650879,321.350098,357.458544,31.435785,-67.102294,0.501038,18.031872,18.031872,18.532910,0.160200,0.391861,0.391861,0.394092,23348,470
0.082000,57.639151,261.994500,-568.875663,26.381470,365.295410,358.242230,31.257681,-96.247730,0.503463,17.414391,17.414391,17.917854,0.160200,0.384173,0.384173,0.393024,24013,501
0.084000,58.134642,233.373750,-573.765962,27.026367,322.448730,354.662880,31.108275,-121.289130,0.505582,16.886069,16.886069,17.391651,0.160200,0.377596,0.377596,0.384480,24600,500
0.086000,58.572646,204.522000,-578.088888,27.627319,300.476074,349.244200,30.945327,-144.722200,0.507412,16.377545,16.377545,16.884958,0.160200,0.371262,0.371262,0.381276,25147,441
0.088000,58.952730,175.468250,-581.840169,28.272217,322.448730,346.564653,30.680513,-171.096403,0.508967,15.755463,15.755463,16.264430,0.160200,0.363505,0.363505,0.370596,25734,434
0.090000,59.274519,146.240750,-585.016093,28.872070,299.926758,341.900863,30.402449,-195.660113,0.510258,15.156886,15.156886,15.667144,0.160200,0.356039,0.356039,0.364188,26280,401
0.092000,59.537693,116.868500,-587.613520,29.452148,290.039062,336.714683,30.085545,-219.846183,0.511298,14.541174,14.541174,15.052471,0.160200,0.348356,0.348356,0.354576,26808,389
0.094000,59.741993,87.381000,-589.629883,30.072876,310.363770,334.079592,29.669117,-246.698592,0.512094,13.818130,13.818130,14.330224,0.160200,0.339328,0.339328,0.348168,27373,379
0.096000,59.887217,57.807000,-591.063187,30.614502,270.812988,327.752932,29.272715,-269.945932,0.512655,13.170239,13.170239,13.682894,0.160200,0.331236,0.331236,0.338556,27866,419
0.098000,59.973221,28.176000,-591.912014,31.081421,233.459473,318.323586,28.891800,-290.147586,0.512985,12.584966,12.584966,13.097950,0.160200,0.323924,0.323924,0.331080,28291,377
0.100000,59.999921,-1.483000,-592.175526,31.586792,252.685547,311.759782,28.413129,-313.242782,0.513087,11.889475,11.889475,12.402562,-0.160200,-0.005168,-0.005168,0.323604,28751,379
0.102000,59.967289,-31.140750,-591.853461,32.025146,219.177246,302.501528,27.942143,-333.642278,0.512962,11.245727,11.245727,11.758689,-0.160200,-0.013216,-0.013216,-0.004272,29150,261
0.104000,59.875358,-60.767500,-590.946139,32.354736,164.794922,288.730868,27.520622,-349.498368,0.512609,10.711494,10.711494,11.224103,-0.160200,-0.019899,-0.019899,-0.013884,29450,120
0.106000,59.724219,-90.334250,-589.454456,32.501953,73.608398,267.218621,27.222266,-357.552871,0.512025,10.388661,10.388661,10.900686,-0.160200,-0.023941,-0.023941,-0.016020,29584,43
0.108000,59.514021,-119.811500,-587.379888,32.534912,16.479492,242.144708,26.979109,-361.956208,0.511205,10.163272,10.163272,10.674477,-0.160200,-0.026769,-0.026769,-0.021360,29614,-9
0.110000,59.244973,-149.170500,-584.724485,32.520630,-7.141113,217.216126,26.724343,-366.386626,0.510140,9.930319,9.930319,10.440460,-0.160200,-0.029694,-0.029694,-0.022428,29601,-15
0.112000,58.917339,-178.382000,-581.490875,32.505249,-7.690430,194.725470,26.412090,-373.107470,0.508823,9.622274,9.622274,10.131097,-0.160200,-0.033561,-0.033561,-0.034176,29587,-13
0.114000,58.531445,-207.416750,-577.682254,32.493164,-6.042480,174.648675,26.038281,-382.065425,0.507242,9.237581,9.237581,9.744823,-0.160200,-0.038390,-0.038390,-0.033108,29576,-6
0.116000,58.087672,-236.246500,-573.302388,32.485474,-3.845215,156.799286,25.602198,-393.045786,0.505384,8.779550,8.779550,9.284934,-0.160200,-0.044138,-0.044138,-0.038448,29569,-7
0.118000,57.586459,-264.842750,-568.355609,32.476685,-4.394531,140.679904,25.109774,-405.522654,0.503234,8.260983,8.260983,8.764217,-0.160200,-0.050647,-0.050647,-0.042720,29561,-6
0.120000,57.028301,-293.177250,-562.846808,32.466797,-4.943848,126.117529,24.561504,-419.294779,0.500778,7.685695,7.685695,8.186472,-0.160200,-0.057869,-0.057869,-0.052332,29552,-10
0.122000,56.413750,-321.221750,-556.781433,32.455811,-5.493164,112.956460,23.957939,-434.178210,0.497997,7.057233,7.057233,7.555230,-0.160200,-0.065760,-0.065760,-0.060876,29542,-12
0.124000,55.743414,-348.948750,-550.165481,32.439331,-8.239746,100.836839,23.304083,-449.785589,0.494873,6.385415,6.385415,6.880287,-0.160200,-0.074196,-0.074196,-0.066216,29527,-14
0.126000,55.017955,-376.330500,-543.005495,32.421753,-8.789062,89.874249,22.596202,-466.204749,0.491386,5.666427,5.666427,6.157813,-0.160200,-0.083227,-0.083227,-0.075828,29511,-17
0.128000,54.238092,-403.339750,-535.308555,32.401978,-9.887695,79.898055,21.836114,-483.237805,0.487517,4.904833,4.904833,5.392349,-0.160200,-0.092796,-0.092796,-0.082236,29493,-21
0.130000,53.404596,-429.950500,-527.082272,32.376709,-12.634277,70.644821,21.027887,-500.595321,0.483243,4.108169,4.108169,4.591412,-0.160200,-0.102807,-0.102807,-0.089712,29470,-24
0.132000,52.518290,-456.136500,-518.334780,32.345947,-15.380859,62.042253,20.172343,-518.178753,0.478545,3.278658,3.278658,3.757202,-0.160200,-0.113235,-0.113235,-0.101460,29442,-29
0.134000,51.580050,-481.871000,-509.074730,32.307495,-19.226074,53.915421,19.272555,-535.786421,0.473399,2.421697,2.421697,2.895096,-0.160200,-0.124011,-0.124011,-0.112140,29407,-37
0.136000,50.590806,-507.128750,-499.311279,32.258057,-24.719238,46.051955,18.332749,-553.180705,0.467786,1.544015,1.544015,2.011800,-0.160200,-0.135052,-0.135052,-0.123888,29362,-33
0.138000,49.551535,-531.885500,-489.054081,32.198730,-29.663086,38.480451,17.352805,-570.365951,0.461683,0.645461,0.645461,1.107144,-0.160200,-0.146361,-0.146361,-0.133500,29308,-56
0.140000,48.463264,-556.116250,-478.313278,32.122925,-37.902832,30.842122,16.340339,-586.958372,0.455069,-0.262611,-0.262611,0.192458,-0.160200,-0.157794,-0.157794,-0.143112,29239,-56
0.142000,47.327070,-579.796750,-467.099493,32.039429,-41.748047,23.583105,15.287641,-603.379855,0.447926,-1.192276,-1.192276,-0.744350,-0.160200,-0.169504,-0.169504,-0.156996,29163,-66
0.144000,46.144077,-602.904250,-455.423814,31.958130,-40.649414,17.159854,14.185947,-620.064104,0.440234,-2.156458,-2.156458,-1.716224,-0.160200,-0.181653,-0.181653,-0.166608,29089,-80
0.146000,44.915453,-625.415500,-443.297786,31.865845,-46.142578,10.829610,13.049608,-636.245110,0.431975,-3.133020,-3.133020,-2.701045,-0.160200,-0.193963,-0.193963,-0.182628,29005,-95
0.148000,43.642415,-647.308250,-430.733401,31.746094,-59.875488,3.759100,11.896321,-651.067350,0.423135,-4.096220,-4.096220,-3.673085,-0.160200,-0.206114,-0.206114,-0.197580,28896,-81
0.150000,42.326220,-668.560750,-417.743082,31.618652,-63.720703,-2.988880,10.707568,-665.571870,0.413697,-5.075540,-5.075540,-4.661842,-0.160200,-0.218473,-0.218473,-0.206124,28780,-101
0.152000,40.968172,-689.152250,-404.339676,31.456055,-81.298828,-10.819875,9.512117,-678.332375,0.403651,-6.028512,-6.028512,-5.624861,-0.160200,-0.230511,-0.230511,-0.220008,28632,-113
0.154000,39.569611,-709.062500,-390.536436,31.302246,-76.904297,-17.428317,8.267365,-691.634183,0.392986,-7.021048,-7.021048,-6.628062,-0.160200,-0.243051,-0.243051,-0.232824,28492,-129
0.156000,38.131922,-728.271250,-376.347012,31.136353,-82.946777,-23.980163,6.995569,-704.291087,0.381695,-8.018848,-8.018848,-7.637153,-0.160200,-0.255664,-0.255664,-0.241368,28341,-175
0.158000,36.656526,-746.760000,-361.785435,30.950684,-92.834473,-30.865594,5.705842,-715.894406,0.369773,-9.009214,-9.009214,-8.639441,-0.160200,-0.268193,-0.268193,-0.257388,28172,-169
0.160000,35.144882,-764.510500,-346.866104,30.749634,-100.524902,-37.831525,4.395248,-726.678975,0.357218,-9.998036,-9.998036,-9.640819,-0.160200,-0.280710,-0.280710,-0.262728,27989,-151
0.162000,33.598484,-781.504750,-331.603773,30.512329,-118.652344,-45.913607,3.086155,-735.591143,0.344030,-10.953263,-10.953263,-10.609233,-0.160200,-0.292815,-0.292815,-0.279816,27773,-189
0.164000,32.018863,-797.726250,-316.013534,30.215698,-148.315430,-56.153789,1.803165,-741.572461,0.330214,-11.841390,-11.841390,-11.511176,-0.160200,-0.304090,-0.304090,-0.295836,27503,-251
0.166000,30.407579,-813.159000,-300.110802,29.889404,-163.146973,-66.853107,0.518175,-746.305893,0.315777,-12.708960,-12.708960,-12.393183,-0.160200,-0.315115,-0.315115,-0.302244,27206,-230
0.168000,28.766227,-827.787250,-283.911305,29.564209,-162.597656,-76.427562,-0.797982,-751.359688,0.300730,-13.601160,-13.601160,-13.300430,-0.160200,-0.326455,-0.326455,-0.313992,26910,-274
0.170000,27.096430,-841.597500,-267.431059,29.241211,-161.499023,-84.934708,-2.144781,-756.662792,0.285086,-14.516429,-14.516429,-14.231343,-0.160200,-0.338092,-0.338092,-0.321468,26616,-269
0.172000,25.399837,-854.575500,-250.686364,28.881958,-179.626465,-94.403884,-3.482121,-760.171616,0.268863,-15.394604,-15.394604,-15.125741,-0.160200,-0.349272,-0.349272,-0.340692,26289,-330
0.174000,23.678128,-866.708000,-233.693775,28.518311,-181.823730,-103.145869,-4.840183,-763.562131,0.252081,-16.283373,-16.283373,-16.031291,-0.160200,-0.360591,-0.360591,-0.349236,25958,-288
0.176000,21.933005,-877.983750,-216.470097,28.137085,-190.612793,-111.892561,-6.204080,-766.091189,0.234765,-17.160670,-17.160670,-16.925906,-0.160200,-0.371774,-0.371774,-0.363120,25611,-306
0.178000,20.166193,-888.391250,-199.032362,27.725098,-205.993652,-121.302670,-7.558905,-767.088580,0.216940,-18.005693,-18.005693,-17.788753,-0.160200,-0.382559,-0.382559,-0.368460,25236,-310
0.180000,18.379440,-897.920250,-181.397812,27.277954,-223.571777,-131.529581,-8.898514,-766.390669,0.198638,-18.811833,-18.811833,-18.613195,-0.160200,-0.392865,-0.392865,-0.380208,24829,-391
0.182000,16.574512,-906.561500,-163.583885,26.831909,-223.022461,-140.678869,-10.257397,-765.882631,0.179892,-19.633061,-19.633061,-19.453169,-0.160200,-0.403365,-0.403365,-0.391956,24423,-353
0.184000,14.753194,-914.306250,-145.608198,26.364990,-233.459473,-149.956929,-11.611796,-764.349321,0.160738,-20.433655,-20.433655,-20.272917,-0.160200,-0.413611,-0.413611,-0.404772,23998,-388
0.186000,12.917287,-921.146750,-127.488525,25.872803,-246.093750,-159.570611,-12.955516,-761.576139,0.141215,-21.206085,-21.206085,-21.064871,-0.160200,-0.423511,-0.423511,-0.417588,23550,-395
0.188000,11.068607,-927.076250,-109.242785,25.316895,-277.954102,-171.408960,-14.248288,-755.667290,0.121364,-21.892666,-21.892666,-21.771302,-0.160200,-0.432341,-0.432341,-0.425064,23044,-478
0.190000,9.208982,-932.089000,-90.889019,24.706055,-305.419922,-184.810057,-15.497073,-747.278943,0.101228,-22.509101,-22.509101,-22.407873,-0.160200,-0.440298,-0.440298,-0.429336,22488,-484
0.192000,7.340251,-936.180250,-72.445377,24.142456,-281.799316,-194.508983,-16.802205,-741.671267,0.080852,-23.208489,-23.208489,-23.127636,-0.160200,-0.449295,-0.449295,-0.442152,21975,-473
0.194000,5.464261,-939.345750,-53.930097,23.554688,-293.884277,-204.446512,-18.090426,-734.899238,0.060285,-23.877224,-23.877224,-23.816939,-0.160200,-0.457912,-0.457912,-0.448560,21440,-514
0.196000,3.582868,-941.582500,-35.361488,22.955933,-299.377441,-213.939605,-19.373065,-727.642895,0.039573,-24.534096,-24.534096,-24.494523,-0.160200,-0.466382,-0.466382,-0.460308,20895,-515
0.198000,1.697931,-942.888000,-16.757912,22.304443,-325.744629,-225.120107,-20.606512,-717.767893,0.018766,-25.115215,-25.115215,-25.096449,-0.160200,-0.473906,-0.473906,-0.465648,20302,-531
0.200000,-0.188684,-943.261000,1.862236,21.649658,-327.392578,-235.347354,-21.838342,-707.913646,-0.002086,-25.695708,-25.695708,-25.697794,-0.160200,-0.481422,-0.481422,-0.474192,19706,-565
0.202000,-2.075113,-942.701250,20.480542,20.869629,-390.014648,-250.814084,-22.944742,-691.887166,-0.022933,-26.091854,-26.091854,-26.114787,-0.160200,-0.486635,-0.486635,-0.479532,18996,-572
0.204000,-3.959489,-941.209500,39.078596,20.098389,-385.620117,-264.294687,-24.057878,-676.914813,-0.043725,-26.510513,-26.510513,-26.554238,-0.160200,-0.492128,-0.492128,-0.487008,18294,-606
0.206000,-5.839951,-938.787000,57.638006,19.281006,-408.691406,-278.734359,-25.120957,-660.052641,-0.064411,-26.865611,-26.865611,-26.930023,-0.160200,-0.496825,-0.496825,-0.488076,17550,-631
0.208000,-7.714637,-935.436000,76.140422,18.531738,-374.633789,-288.324302,-26.246375,-647.111698,-0.084944,-27.327228,-27.327228,-27.412172,-0.160200,-0.502852,-0.500000,-0.494484,16868,-620
0.210000,-9.581695,-931.160250,94.567545,17.763794,-383.972168,-297.889089,-27.345489,-633.271161,-0.105275,-27.757075,-27.757075,-27.862351,-0.160200,-0.508479,-0.500000,-0.496620,16169,-638
0.212000,-11.439278,-925.963500,112.901154,16.982666,-390.563965,-307.156576,-28.421944,-618.806924,-0.125358,-28.162196,-28.162196,-28.287554,-0.160200,-0.513794,-0.500000,-0.500892,15458,-676
0.214000,-13.285549,-919.851000,131.123121,16.183960,-399.353027,-316.376221,-29.469509,-603.474779,-0.145147,-28.534520,-28.534520,-28.679667,-0.160200,-0.518696,-0.500000,-0.497688,14731,-654
0.216000,-15.118682,-912.829250,149.215425,15.310547,-436.706543,-328.409254,-30.429229,-584.419996,-0.164600,-28.788211,-28.788211,-28.952811,-0.160200,-0.522110,-0.500000,-0.504096,13936,-677
0.218000,-16.936866,-904.904750,167.160178,14.442627,-433.959961,-338.964324,-31.379493,-565.940426,-0.183675,-29.046165,-29.046165,-29.229840,-0.160200,-0.525573,-0.500000,-0.501960,13146,-687
0.220000,-18.738301,-896.085250,184.939632,13.607666,-417.480469,-346.815939,-32.345967,-549.269311,-0.202335,-29.345585,-29.345585,-29.547920,-0.160200,-0.529549,-0.500000,-0.496620,12386,-698
0.222000,-20.521207,-886.379750,202.536209,12.768311,-419.677734,-354.102118,-33.289518,-532.277632,-0.220544,-29.625406,-29.625406,-29.845950,-0.160200,-0.533274,-0.500000,-0.500892,11622,-714
0.224000,-22.283820,-875.797750,219.932506,11.798218,-485.046387,-367.196545,-34.082038,-508.601205,-0.238269,-29.696298,-29.696298,-29.934567,-0.160200,-0.534382,-0.500000,-0.497688,10739,-720
0.226000,-24.024398,-864.349750,237.111321,10.905029,-446.594238,-375.136314,-34.929427,-489.213436,-0.255481,-29.875558,-29.875558,-30.131039,-0.160200,-0.536838,-0.500000,-0.508368,9926,-709
0.228000,-25.741219,-852.047000,254.055668,9.986572,-459.228516,-383.545535,-35.727791,-468.501465,-0.272153,-30.001759,-30.000000,-30.272153,-0.160200,-0.538602,-0.500000,-0.501960,9090,-701
0.230000,-27.432586,-838.901750,270.748790,9.083496,-451.538086,-390.344790,-36.516082,-448.556960,-0.288262,-30.135201,-30.000000,-30.288262,-0.160200,-0.538803,-0.500000,-0.498756,8268,-748
0.232000,-29.096826,-824.926750,287.174181,8.222168,-430.664062,-394.376717,-37.318994,-430.550033,-0.303788,-30.311392,-30.000000,-30.303788,-0.160200,-0.538997,-0.500000,-0.489144,7484,-714
0.234000,-30.732293,-810.136250,303.315597,7.357544,-432.312012,-398.170246,-38.089837,-411.966004,-0.318714,-30.457920,-30.000000,-30.318714,-0.160200,-0.539184,-0.500000,-0.500892,6697,-717
0.236000,-32.337371,-794.544500,319.157079,6.487427,-435.058594,-401.859081,-38.824798,-392.685419,-0.333027,-30.570373,-30.000000,-30.333027,-0.160200,-0.539363,-0.500000,-0.500892,5905,-746
0.238000,-33.910471,-778.167000,334.682960,5.612915,-437.255859,-405.398759,-39.523386,-372.768241,-0.346718,-30.649496,-30.000000,-30.346718,-0.160200,-0.539534,-0.500000,-0.506232,5109,-747
0.240000,-35.450039,-761.020250,349.877888,4.735107,-438.903809,-408.749264,-40.185146,-352.270986,-0.359779,-30.695998,-30.000000,-30.359779,-0.160200,-0.539697,-0.500000,-0.501960,4310,-734
0.242000,-36.954552,-743.120750,364.726837,3.856201,-439.453125,-411.819650,-40.810753,-331.301100,-0.372208,-30.712165,-30.000000,-30.372208,-0.160200,-0.539853,-0.500000,-0.498756,3510,-734
0.244000,-38.422522,-724.486500,379.215124,2.995972,-430.114746,-413.649160,-41.418494,-310.837340,-0.384004,-30.726253,-30.000000,-30.384004,-0.160200,-0.540000,-0.500000,-0.498756,2727,-730
0.246000,-39.852498,-705.136000,393.328421,2.091797,-452.087402,-417.492984,-41.944295,-287.643016,-0.395169,-30.642629,-30.000000,-30.395169,-0.160200,-0.540140,-0.500000,-0.503028,1904,-745
0.248000,-41.243066,-685.088000,407.052774,1.205200,-443.298340,-420.073520,-42.448266,-265.014480,-0.405709,-30.555545,-30.000000,-30.405709,-0.160200,-0.540271,-0.500000,-0.500892,1097,-736
0.250000,-42.592850,-664.362500,420.374610,0.272461,-466.369629,-424.703130,-42.865311,-239.659370,-0.415633,-30.367773,-30.000000,-30.415633,-0.160200,-0.540395,-0.500000,-0.494484,248,-735
0.252000,-43.900516,-642.980250,433.280756,-0.616333,-444.396973,-426.672515,-43.284183,-216.307735,-0.424950,-30.216085,-30.000000,-30.424950,-0.160200,-0.540512,-0.500000,-0.494484,-561,-742
0.254000,-45.164771,-620.962000,445.758450,-1.506226,-444.946289,-428.499892,-43.658545,-192.462108,-0.433673,-30.028585,-30.000000,-30.433673,-0.160200,-0.540621,-0.500000,-0.497688,-1371,-747
0.256000,-46.384364,-598.329500,457.795354,-2.399414,-446.594238,-430.309327,-43.984950,-168.020173,-0.441817,-29.801382,-29.801382,-30.243199,-0.160200,-0.538240,-0.500000,-0.501960,-2184,-732
0.258000,-47.558089,-575.105750,469.379563,-3.409058,-504.821777,-437.760572,-44.149031,-137.345178,-0.449398,-29.366234,-29.366234,-29.815632,-0.160200,-0.532895,-0.500000,-0.504096,-3103,-729
0.260000,-48.684787,-551.313500,480.499624,-4.311035,-450.988770,-439.083392,-44.373752,-112.230108,-0.456434,-29.065167,-29.065167,-29.521601,-0.160200,-0.529220,-0.500000,-0.498756,-3924,-745
0.262000,-49.763343,-526.975500,491.144540,-5.348145,-518.554688,-447.030521,-44.415198,-79.944979,-0.462943,-28.527004,-28.527004,-28.989947,-0.160200,-0.522574,-0.500000,-0.494484,-4868,-730
0.264000,-50.792689,-502.116500,501.303785,-6.476440,-564.147949,-458.742264,-44.316249,-43.374236,-0.468947,-27.828279,-27.828279,-28.297226,-0.160200,-0.513915,-0.500000,-0.504096,-5895,-750
0.266000,-51.771809,-476.761250,510.967313,-7.608032,-565.795898,-469.447627,-44.163777,-7.313623,-0.474465,-27.105763,-27.105763,-27.580228,-0.160200,-0.504953,-0.500000,-0.497688,-6925,-759
0.268000,-52.699734,-450.934500,520.125568,-8.561646,-476.806641,-470.183529,-44.138088,19.249029,-0.479519,-26.626465,-26.626465,-27.105984,-0.160200,-0.499025,-0.499025,-0.503028,-7793,-747
0.270000,-53.575547,-424.661750,528.769493,-9.469116,-453.735352,-468.538711,-44.106431,43.876961,-0.484131,-26.177288,-26.177288,-26.661419,-0.160200,-0.493468,-0.493468,-0.495552,-8619,-779
0.272000,-54.398381,-397.969000,536.890542,-10.605103,-567.993164,-478.484156,-43.793278,80.515156,-0.488322,-25.346537,-25.346537,-25.834859,-0.160200,-0.483136,-0.483136,-0.495552,-9653,-763
0.274000,-55.167423,-370.883000,544.480683,-11.697144,-546.020508,-485.237791,-43.470279,114.354791,-0.492113,-24.558615,-24.558615,-25.050728,-0.160200,-0.473334,-0.473334,-0.483804,-10647,-762
0.276000,-55.881913,-343.430000,551.532412,-12.604614,-453.735352,-482.087547,-43.277299,138.657547,-0.495526,-24.016567,-24.016567,-24.512093,-0.160200,-0.466601,-0.466601,-0.474192,-11473,-743
0.278000,-56.541143,-315.637250,558.038754,-13.680176,-537.780762,-487.656869,-42.860967,172.019619,-0.498580,-23.179966,-23.179966,-23.678546,-0.160200,-0.456182,-0.456182,-0.465648,-12452,-764
0.280000,-57.144462,-287.532750,563.993277,-14.718384,-519.104004,-490.801582,-42.426078,203.268832,-0.501295,-22.368906,-22.368906,-22.870201,-0.160200,-0.446078,-0.446078,-0.456036,-13397,-732
0.282000,-57.691274,-259.143750,569.390091,-15.648926,-465.270996,-488.248524,-42.042348,229.104774,-0.503688,-21.683576,-21.683576,-22.187265,-0.160200,-0.437541,-0.437541,-0.458172,-14244,-693
0.284000,-58.181037,-230.498500,574.223861,-16.647583,-499.328613,-489.356533,-41.533454,258.858033,-0.505778,-20.853418,-20.853418,-21.359196,-0.160200,-0.427190,-0.427190,-0.442152,-15153,-688
0.286000,-58.613268,-201.625250,578.489806,-17.478149,-415.283203,-481.949200,-41.135119,280.323950,-0.507580,-20.235438,-20.235438,-20.743018,-0.160200,-0.419488,-0.419488,-0.422928,-15909,-697
0.288000,-58.987538,-172.552500,582.183708,-18.386719,-454.284668,-479.182747,-40.600819,306.630247,-0.509107,-19.449922,-19.449922,-19.959029,-0.160200,-0.409688,-0.409688,-0.418656,-16736,-675
0.290000,-59.303478,-143.309500,585.301915,-19.171143,-392.211914,-470.485663,-40.132335,327.176163,-0.510373,-18.805147,-18.805147,-19.315521,-0.160200,-0.401644,-0.401644,-0.412248,-17450,-643
0.292000,-59.560776,-113.924750,587.841342,-19.967651,-398.254395,-463.262536,-39.593125,349.337786,-0.511388,-18.088969,-18.088969,-18.600357,-0.160200,-0.392704,-0.392704,-0.401568,-18175,-605
0.294000,-59.759177,-84.427000,589.799479,-20.705933,-369.140625,-453.850345,-39.053244,369.423345,-0.512161,-17.408616,-17.408616,-17.920776,-0.160200,-0.384210,-0.384210,-0.402636,-18847,-591
0.296000,-59.898484,-54.846000,591.174389,-21.423340,-358.703613,-444.335672,-38.475144,389.489672,-0.512698,-16.705251,-16.705251,-17.217949,-0.160200,-0.375424,-0.375424,-0.384480,-19500,-577
0.298000,-59.978561,-25.210750,591.964713,-22.114380,-345.520020,-434.454107,-37.864181,409.243357,-0.513005,-15.987268,-15.987268,-16.500273,-0.160200,-0.366453,-0.366453,-0.379140,-20129,-567
0.300000,-59.999327,4.449500,592.169669,-22.782349,-333.984375,-424.407134,-37.216978,428.856634,-0.513085,-15.249598,-15.249598,-15.762683,0.160200,-0.036834,-0.036834,-0.365256,-20737,-551
0.302000,-59.960763,34.105250,591.789055,-23.437134,-327.392578,-414.705678,-36.523629,448.810928,-0.512937,-14.477787,-14.477787,-14.990724,0.160200,-0.027184,-0.027184,-0.037380,-21333,-443
0.304000,-59.862906,63.727250,590.823247,-23.951294,-257.080078,-398.943118,-35.911612,462.670368,-0.512561,-13.862034,-13.862034,-14.374596,0.160200,-0.019482,-0.019482,-0.026700,-21801,-260
0.306000,-59.705854,93.286250,589.273200,-24.274292,-161.499023,-375.198709,-35.431562,468.484959,-0.511954,-13.467305,-13.467305,-13.979258,0.160200,-0.014541,-0.014541,-0.016020,-22095,-204
0.308000,-59.489761,122.753250,587.140446,-24.469849,-97.778320,-347.456670,-35.019912,470.209920,-0.511109,-13.185736,-13.185736,-13.696845,0.160200,-0.011011,-0.011011,-0.016020,-22273,-105
0.310000,-59.214841,152.098750,584.427095,-24.572021,-51.086426,-317.819645,-34.642820,469.918395,-0.510020,-12.960471,-12.960471,-13.470491,0.160200,-0.008181,-0.008181,-0.010680,-22366,-40
0.312000,-58.881366,181.293750,581.135831,-24.612671,-20.324707,-288.070152,-34.268695,469.363902,-0.508677,-12.741609,-12.741609,-13.250286,0.160200,-0.005429,-0.005429,-0.008544,-22403,-11
0.314000,-58.489666,210.309500,577.269906,-24.619263,-3.295898,-259.592726,-33.870403,469.902226,-0.507069,-12.488911,-12.488911,-12.995980,0.160200,-0.002250,-0.002250,-0.008544,-22409,0
0.316000,-58.040128,239.117250,572.833145,-24.614868,2.197266,-233.413727,-33.425260,472.530977,-0.505182,-12.171108,-12.171108,-12.676290,0.160200,0.001746,0.001746,-0.003204,-22405,5
0.318000,-57.533197,267.688500,567.829934,-24.612671,1.098633,-209.962491,-32.920526,477.650991,-0.503003,-11.773423,-11.773423,-12.276425,0.160200,0.006745,0.006745,0.001068,-22403,0
0.320000,-56.969374,295.995250,562.265222,-24.612671,0.000000,-188.966242,-32.356703,484.961492,-0.500515,-11.301410,-11.301410,-11.801925,0.160200,0.012676,0.012676,0.007476,-22403,0
0.322000,-56.349216,324.009250,556.144510,-24.611572,0.549316,-170.014686,-31.737644,494.023936,-0.497700,-10.765079,-10.765079,-11.262779,0.160200,0.019415,0.019415,0.011748,-22402,0
0.324000,-55.673337,351.702750,549.473852,-24.609375,1.098633,-152.903354,-31.063962,504.606104,-0.494541,-10.168857,-10.168857,-10.663397,0.160200,0.026908,0.026908,0.020292,-22400,2
0.326000,-54.942405,379.048500,542.259843,-24.606079,1.647949,-137.448224,-30.336326,516.496724,-0.491017,-9.516839,-9.516839,-10.007855,0.160200,0.035102,0.035102,0.024564,-22397,3
0.328000,-54.157143,406.019250,534.509617,-24.602783,1.647949,-123.538607,-29.554360,529.557857,-0.487108,-8.811203,-8.811203,-9.298311,0.160200,0.043971,0.043971,0.034176,-22394,3
0.330000,-53.318328,432.588750,526.230838,-24.596191,3.295898,-110.855156,-28.722137,543.443906,-0.482793,-8.060469,-8.060469,-8.543262,0.160200,0.053409,0.053409,0.044856,-22388,7
0.332000,-52.426788,458.730500,517.431693,-24.587402,4.394531,-99.330187,-27.839386,558.060687,-0.478051,-7.266117,-7.266117,-7.744167,0.160200,0.063398,0.063398,0.054468,-22380,8
0.334000,-51.483406,484.418500,508.120883,-24.573120,7.141113,-88.683057,-26.910286,573.101557,-0.472859,-6.436049,-6.436049,-6.908908,0.160200,0.073839,0.073839,0.064080,-22367,13
0.336000,-50.489114,509.627750,498.307614,-24.556641,8.239746,-78.990777,-25.932473,588.618527,-0.467198,-5.567915,-5.567915,-6.035113,0.160200,0.084761,0.084761,0.074760,-22352,18
0.338000,-49.444895,534.332750,488.001591,-24.532471,12.084961,-69.883203,-24.912424,604.215953,-0.461045,-4.672576,-4.672576,-5.133621,0.160200,0.096030,0.096030,0.089712,-22330,21
0.340000,-48.351783,558.509250,477.213005,-24.503906,14.282227,-61.466660,-23.847877,619.975910,-0.454379,-3.747218,-3.747218,-4.201597,0.160200,0.107680,0.107680,0.093984,-22304,27
0.342000,-47.210858,582.133750,465.952524,-24.464355,19.775391,-53.342455,-22.746503,635.476205,-0.447182,-2.803896,-2.803896,-3.251077,0.160200,0.119562,0.119562,0.107868,-22268,41
0.344000,-46.023248,605.182500,454.231283,-24.411621,26.367188,-45.371491,-21.611627,650.553991,-0.439434,-1.847483,-1.847483,-2.286916,0.160200,0.131614,0.131614,0.117480,-22220,56
0.346000,-44.790128,627.633000,442.060872,-24.356689,27.465820,-38.087760,-20.433439,665.720760,-0.431118,-0.863058,-0.863058,-1.294176,0.160200,0.144023,0.144023,0.137772,-22170,55
0.348000,-43.512716,649.462750,429.453327,-24.292969,31.860352,-31.092949,-19.219747,680.555699,-0.422218,0.137262,0.137262,-0.284956,0.160200,0.156638,0.156638,0.145248,-22112,62
0.350000,-42.192277,670.650000,416.421115,-24.220459,36.254883,-24.358165,-17.971818,695.008165,-0.412720,1.151822,1.151822,0.739102,0.160200,0.169439,0.169439,0.158064,-22046,78
0.352000,-40.830116,691.174250,402.977123,-24.136963,41.748047,-17.747544,-16.693153,708.921794,-0.402613,2.175752,2.175752,1.773140,0.160200,0.182364,0.182364,0.175152,-21970,80
0.354000,-39.427580,711.015250,389.134644,-24.040283,48.339844,-11.138805,-15.387297,722.154055,-0.391885,3.204401,3.204401,2.812516,0.160200,0.195356,0.195356,0.180492,-21882,95
0.356000,-37.986055,730.153000,374.907367,-23.928223,56.030273,-4.421898,-14.057832,734.574898,-0.380531,4.233309,4.233309,3.852778,0.160200,0.208360,0.208360,0.198648,-21780,89
0.358000,-36.506968,748.568500,360.309360,-23.797485,65.368652,2.557157,-12.709483,746.011343,-0.368546,5.256573,5.256573,4.888027,0.160200,0.221300,0.221300,0.210396,-21661,136
0.360000,-34.991781,766.244000,345.355060,-23.651367,73.059082,9.607350,-11.340414,756.636650,-0.355927,6.278336,6.278336,5.922409,0.160200,0.234230,0.234230,0.224280,-21528,125
0.362000,-33.441992,783.162000,330.059253,-23.485474,82.946777,16.941293,-9.956518,766.220707,-0.342677,7.290983,7.290983,6.948307,0.160200,0.247054,0.247054,0.233892,-21377,132
0.364000,-31.859133,799.305250,314.437066,-23.303101,91.186523,24.365816,-8.556032,774.939434,-0.328798,8.298662,8.298662,7.969864,0.160200,0.259823,0.259823,0.246708,-21211,189
0.366000,-30.244771,814.658000,298.503945,-23.091064,106.018066,32.531041,-7.153707,782.126959,-0.314300,9.280740,9.280740,8.966440,0.160200,0.272280,0.272280,0.264864,-21018,182
0.368000,-28.600501,829.205500,282.275647,-22.819702,135.681152,42.846052,-5.780799,786.359448,-0.299192,10.193272,10.193272,9.894080,0.160200,0.283876,0.283876,0.270204,-20771,232
0.370000,-26.927949,842.933000,265.768219,-22.568115,125.793457,51.140792,-4.359834,791.792208,-0.283490,11.156110,11.156110,10.872620,0.160200,0.296108,0.296108,0.280884,-20542,205
0.372000,-25.228769,855.827000,248.997985,-22.296753,135.681152,59.594828,-2.932016,796.232172,-0.267210,12.105806,12.105806,11.838596,0.160200,0.308182,0.308182,0.294768,-20295,219
0.374000,-23.504641,867.874500,231.981527,-22.000122,148.315430,68.466889,-1.504519,799.407611,-0.250373,13.033237,13.033237,12.782863,0.160200,0.319986,0.319986,0.308652,-20025,230
0.376000,-21.757271,879.063750,214.735673,-21.681519,159.301758,77.550375,-0.075752,801.513375,-0.233005,13.942773,13.942773,13.709768,0.160200,0.331572,0.331572,0.315060,-19735,322
0.378000,-19.988386,889.384000,197.277477,-21.336548,172.485352,87.043873,1.348162,802.340127,-0.215131,14.827022,14.827022,14.611891,0.160200,0.342849,0.342849,0.330012,-19421,338
0.380000,-18.199735,898.824500,179.624202,-20.894897,220.825195,100.422005,2.695162,798.402495,-0.196783,15.581133,15.581133,15.384350,0.160200,0.352504,0.352504,0.348168,-19019,290
0.382000,-16.393088,907.376250,161.793304,-20.451050,221.923828,112.572188,4.057962,794.804062,-0.177994,16.350816,16.350816,16.172821,0.160200,0.362360,0.362360,0.354576,-18615,369
0.384000,-14.570230,915.031000,143.802416,-19.957764,246.643066,125.979275,5.387534,789.051725,-0.158802,17.062608,17.062608,16.903806,0.160200,0.371498,0.371498,0.365256,-18166,336
0.386000,-12.732964,921.780750,125.669328,-19.456787,250.488281,138.430176,6.723823,783.350574,-0.139244,17.779397,17.779397,17.640153,0.160200,0.380702,0.380702,0.368460,-17710,403
0.388000,-10.883107,927.618750,107.411971,-18.892090,282.348633,152.822022,8.008983,774.796728,-0.119362,18.415163,18.415163,18.295801,0.160200,0.388898,0.388898,0.382344,-17196,436
0.390000,-9.022489,932.539750,89.048399,-18.270264,310.913086,168.631128,9.247775,763.908622,-0.099200,18.981865,18.981865,18.882665,0.160200,0.396233,0.396233,0.380208,-16630,425
0.392000,-7.152948,936.538750,70.596771,-17.656128,307.067871,182.474802,10.503180,754.063948,-0.078804,19.576926,19.576926,19.498123,0.160200,0.403927,0.403927,0.396228,-16071,439
0.394000,-5.276334,939.611250,52.075334,-17.003540,326.293945,196.856717,11.727206,742.754533,-0.058219,20.127255,20.127255,20.069035,0.160200,0.411063,0.411063,0.400500,-15477,462
0.396000,-3.394503,941.754750,33.502401,-16.298218,352.661133,212.437158,12.903715,729.317592,-0.037496,20.611424,20.611424,20.573928,0.160200,0.417374,0.417374,0.412248,-14835,480
0.398000,-1.509315,942.967250,14.896339,-15.641235,328.491211,224.042564,14.131920,718.924686,-0.016682,21.180302,21.180302,21.163620,0.160200,0.424745,0.424745,0.418656,-14237,501
0.400000,0.377366,943.247000,-3.724453,-14.887573,376.831055,239.321413,15.264939,703.925587,0.004172,21.610640,21.610640,21.614811,0.160200,0.430385,0.430385,0.423996,-13551,535
0.402000,2.263673,942.594000,-22.341562,-14.186646,350.463867,250.435658,16.450319,692.158342,0.025015,22.129370,22.129370,22.154385,0.160200,0.437130,0.437130,0.432540,-12913,542
0.404000,4.147742,941.009250,-40.936579,-13.463745,361.450195,261.537112,17.611487,679.472138,0.045799,22.617271,22.617271,22.663070,0.160200,0.443488,0.443488,0.433608,-12255,535
0.406000,6.027710,938.493750,-59.491115,-12.669434,397.155762,275.098977,18.697144,663.394773,0.066472,22.999858,22.999858,23.066331,0.160200,0.448529,0.448529,0.446424,-11532,547
0.408000,7.901717,935.050000,-77.986823,-11.835571,416.931152,289.282194,19.737288,645.767806,0.086987,23.327598,23.327598,23.414585,0.160200,0.452882,0.452882,0.450696,-10773,569
0.410000,9.767910,930.681750,-96.405414,-11.136841,349.365234,295.290498,20.904751,635.391252,0.107296,23.859655,23.859655,23.966951,0.160200,0.459787,0.459787,0.449628,-10137,585
0.412000,11.624444,925.393250,-114.728673,-10.369995,383.422852,304.103734,21.994439,621.289516,0.127351,24.279186,24.279186,24.406537,0.160200,0.465282,0.465282,0.460308,-9439,596
0.414000,13.469483,919.189750,-132.938482,-9.548218,410.888672,314.782228,23.017701,604.407522,0.147108,24.609615,24.609615,24.756723,0.160200,0.469659,0.469659,0.464580,-8691,628
0.416000,15.301203,912.077500,-151.016834,-8.703369,422.424316,325.546436,24.004572,586.531064,0.166525,24.900457,24.900457,25.066982,0.160200,0.473537,0.473537,0.467784,-7922,647
0.418000,17.117793,904.063000,-168.945853,-7.935425,383.972168,331.389010,25.053218,572.673990,0.185560,25.299187,25.299187,25.484747,0.160200,0.478759,0.478759,0.468852,-7223,634
0.420000,18.917455,895.154250,-186.707808,-7.055420,440.002441,342.250353,25.972875,552.903897,0.204177,25.515920,25.515920,25.720097,0.160200,0.481701,0.481701,0.478464,-6422,666
0.422000,20.698410,885.360750,-204.285136,-6.258911,398.254395,347.850757,26.957321,537.509993,0.222339,25.848610,25.848610,26.070949,0.160200,0.486087,0.486087,0.475260,-5697,682
0.424000,22.458898,874.691750,-221.660456,-5.348145,455.383301,358.604011,27.807043,516.087739,0.240014,25.993786,25.993786,26.233800,0.160200,0.488123,0.488123,0.488076,-4868,688
0.426000,24.197177,863.157750,-238.816585,-4.524170,411.987305,363.942341,28.721347,499.215409,0.257173,26.257825,26.257825,26.514998,0.160200,0.491637,0.491637,0.513708,-4118,703
0.428000,25.911529,850.770250,-255.736559,-3.578247,472.961426,374.844249,29.489776,475.926001,0.273790,26.320755,26.320755,26.594545,0.160200,0.492632,0.492632,0.488076,-3257,718
0.430000,27.600258,837.541250,-272.403647,-2.723511,427.368164,380.096641,30.323769,457.444609,0.289841,26.507651,26.507651,26.797492,0.160200,0.495169,0.495169,0.494484,-2479,727
0.432000,29.261694,823.484250,-288.801367,-1.856689,433.410645,385.428041,31.118383,438.056209,0.305308,26.654662,26.654662,26.959970,0.160200,0.497200,0.497200,0.494484,-1690,709
0.434000,30.894195,808.613000,-304.913503,-0.983276,436.706543,390.555891,31.877471,418.057109,0.320173,26.769312,26.769312,27.089485,0.160200,0.498819,0.498819,0.493416,-895,729
0.436000,32.496146,792.941750,-320.724125,0.015381,499.328613,401.433163,32.480765,391.508587,0.334424,26.674484,26.674484,27.008909,0.160200,0.497811,0.497811,0.499824,14,769
0.438000,34.065962,776.486750,-336.217596,1.030518,507.568359,412.046683,33.035444,364.440067,0.348052,26.540884,26.540884,26.888936,0.160200,0.496312,0.496312,0.497688,938,761
0.440000,35.602093,759.264000,-351.378597,1.942383,455.932617,416.435276,33.659710,342.828724,0.361051,26.545037,26.545037,26.906087,0.160200,0.496526,0.496526,0.505164,1768,770
0.442000,37.103018,741.290000,-366.192135,2.858643,458.129883,420.604737,34.244375,320.685263,0.373416,26.515712,26.515712,26.889128,0.160200,0.496314,0.496314,0.493416,2602,760
0.444000,38.567253,722.583250,-380.643561,3.778198,459.777832,424.522047,34.789055,298.061203,0.385148,26.453574,26.453574,26.838722,0.160200,0.495684,0.495684,0.497688,3439,776
0.446000,39.993351,703.162250,-394.718586,4.707642,464.721680,428.542010,35.285709,274.620240,0.396251,26.347841,26.347841,26.744092,0.160200,0.494501,0.494501,0.499824,4285,762
0.448000,41.379902,683.045750,-408.403291,5.760132,526.245117,438.312321,35.619770,244.733429,0.406729,26.030284,26.030284,26.437013,0.160200,0.490663,0.490663,0.496620,5243,762
0.450000,42.725534,662.253500,-421.684145,6.814819,527.343750,447.215464,35.910715,215.038036,0.416592,25.689729,25.689729,26.106321,0.160200,0.486529,0.486529,0.474192,6203,766
0.452000,44.028916,640.806500,-434.548013,7.984863,585.021973,460.996114,36.044053,179.810386,0.425849,25.156342,25.156342,25.582191,0.160200,0.479977,0.479977,0.484872,7268,792
0.454000,45.288760,618.726000,-446.982176,8.992310,503.723145,465.268817,36.296450,153.457183,0.434513,24.850573,24.850573,25.285086,0.160200,0.476264,0.476264,0.479532,8185,777
0.456000,46.503820,596.033500,-458.974338,10.094238,550.964355,473.838371,36.409582,122.195129,0.442600,24.374055,24.374055,24.816655,0.160200,0.470408,0.470408,0.474192,9188,782
0.458000,47.672894,572.751750,-470.512641,11.164307,535.034180,479.957952,36.508587,92.793798,0.450126,23.921384,23.921384,24.371510,0.160200,0.464844,0.464844,0.470988,10162,748
0.460000,48.794827,548.903750,-481.585675,12.222290,528.991699,484.861327,36.572537,64.042423,0.457108,23.458643,23.458643,23.915751,0.160200,0.459147,0.459147,0.463512,11125,749
0.462000,49.868509,524.512750,-492.182489,13.200073,488.891602,485.264354,36.668436,39.248396,0.463566,23.084486,23.084486,23.548053,0.160200,0.454551,0.454551,0.454968,12015,744
0.464000,50.892878,499.603000,-502.292607,14.148193,474.060059,484.143925,36.744685,15.459075,0.469520,22.715862,22.715862,23.185383,0.160200,0.450017,0.450017,0.454968,12878,742
0.466000,51.866921,474.199250,-511.906029,15.043579,447.692871,480.498819,36.823342,-6.299569,0.474991,22.384151,22.384151,22.859142,0.160200,0.445939,0.445939,0.449628,13693,747
0.468000,52.789675,448.326750,-521.013250,15.946655,451.538086,477.602746,36.843020,-29.275996,0.480000,21.995157,21.995157,22.475158,0.160200,0.441139,0.441139,0.444288,14515,739
0.470000,53.660228,422.011000,-529.605264,16.899170,476.257324,477.468204,36.761058,-55.457204,0.484569,21.488142,21.488142,21.972711,0.160200,0.434859,0.434859,0.442152,15382,717
0.472000,54.477719,395.277750,-537.673575,17.752808,426.818848,472.403268,36.724911,-77.125518,0.488719,21.087878,21.087878,21.576596,0.160200,0.429907,0.429907,0.429336,16159,711
0.474000,55.241339,368.153750,-545.210204,18.596558,421.875000,467.350441,36.644781,-99.196691,0.492471,20.653714,20.653714,21.146186,0.160200,0.424527,0.424527,0.426132,16927,692
0.476000,55.950334,340.665500,-552.207699,19.447998,425.720215,463.187419,36.502336,-122.521919,0.495847,20.159597,20.159597,20.655444,0.160200,0.418393,0.418393,0.429336,17702,669
0.478000,56.604001,312.840500,-558.659140,20.244507,398.254395,456.694116,36.359494,-143.853616,0.498866,19.700032,19.700032,20.198898,0.160200,0.412686,0.412686,0.419724,18427,679
0.480000,57.201696,284.706250,-564.558147,21.043213,399.353027,450.960007,36.158483,-166.253757,0.501548,19.186285,19.186285,19.687833,0.160200,0.406298,0.406298,0.411180,19154,662
0.482000,57.742826,256.290250,-569.898888,21.845215,401.000977,445.964104,35.897611,-189.673854,0.503911,18.618170,18.618170,19.122080,0.160200,0.399226,0.399226,0.402636,19884,626
0.484000,58.226857,227.620750,-574.676082,22.613159,383.972168,439.764911,35.613698,-212.144161,0.505971,18.052556,18.052556,18.558527,0.160200,0.392182,0.392182,0.400500,20583,621
0.486000,58.653309,198.726500,-578.885003,23.363525,375.183105,433.306730,35.289784,-234.580230,0.507745,17.463105,17.463105,17.970849,0.160200,0.384836,0.384836,0.390888,21266,621
0.488000,59.021763,169.635750,-582.521491,24.098511,367.492676,426.725325,34.923252,-257.089575,0.509245,16.846341,16.846341,17.355587,0.160200,0.377145,0.377145,0.381276,21935,601
0.490000,59.331852,140.376750,-585.581948,24.812622,357.055664,419.758359,34.519230,-279.381609,0.510486,16.210469,16.210469,16.720954,0.160200,0.369212,0.369212,0.379140,22585,589
0.492000,59.583270,110.979500,-588.063350,25.501465,344.421387,412.224661,34.081805,-301.245161,0.511476,15.561670,15.561670,16.073146,0.160200,0.361114,0.361114,0.369528,23212,553
0.494000,59.775770,81.472250,-589.963242,26.169434,333.984375,404.400633,33.606336,-322.928383,0.512225,14.892779,14.892779,15.405004,0.160200,0.352763,0.352763,0.359916,23820,547
0.496000,59.909159,51.884250,-591.279745,26.815430,322.998047,396.260374,33.093729,-344.376124,0.512739,14.205312,14.205312,14.718051,0.160200,0.344176,0.344176,0.350304,24408,527
0.498000,59.983307,22.245500,-592.011558,27.438354,311.462402,387.780577,32.544953,-365.535077,0.513023,13.500790,13.500790,14.013813,0.160200,0.335373,0.335373,0.342828,24975,539
0.500000,59.998141,-7.415500,-592.157957,28.044800,303.222656,379.324785,31.953341,-386.740285,0.513080,12.769294,12.769294,13.282374,-0.160200,0.005830,0.005830,0.335352,25527,507
0.502000,59.953645,-37.069500,-591.718797,28.679810,317.504883,373.142795,31.273835,-410.212295,0.512910,11.944544,11.944544,12.457454,-0.160200,-0.004482,-0.004482,0.007476,26105,414
0.504000,59.849863,-66.686750,-590.694512,29.115967,218.078613,357.636377,30.733896,-424.323127,0.512511,11.368433,11.368433,11.880944,-0.160200,-0.011688,-0.011688,-0.002136,26502,288
0.506000,59.686898,-96.237750,-589.086116,29.415894,149.963379,336.869077,30.271004,-433.106827,0.511880,10.932364,10.932364,11.444244,-0.160200,-0.017147,-0.017147,-0.006408,26775,109
0.508000,59.464912,-125.693750,-586.895198,29.532349,58.227539,309.004923,29.932563,-434.698673,0.511012,10.697839,10.697839,11.208851,-0.160200,-0.020089,-0.020089,-0.014952,26881,53
0.510000,59.184123,-155.025500,-584.123926,29.572998,20.324707,280.136901,29.611125,-435.162401,0.509897,10.493390,10.493390,11.003288,-0.160200,-0.022659,-0.022659,-0.019224,26918,6
0.512000,58.844810,-184.203750,-580.775039,29.569702,-1.647949,251.958416,29.275108,-436.162166,0.508528,10.270680,10.270680,10.779208,-0.160200,-0.025460,-0.025460,-0.023496,26915,-15
0.514000,58.447308,-213.200000,-576.851850,29.555420,-7.141113,226.048463,28.891888,-439.248463,0.506893,9.982718,9.982718,10.489611,-0.160200,-0.029080,-0.029080,-0.025632,26902,-15
0.516000,57.992010,-241.985500,-572.358237,29.540039,-7.690430,202.674574,28.451971,-444.660074,0.504978,9.619538,9.619538,10.124515,-0.160200,-0.033644,-0.033644,-0.028836,26888,-8
0.518000,57.479366,-270.531750,-567.298644,29.529053,-5.493164,181.857800,27.950313,-452.389550,0.502768,9.178188,9.178188,9.680956,-0.160200,-0.039188,-0.039188,-0.036312,26878,-8
0.520000,56.909883,-298.810250,-561.678075,29.521362,-3.845215,163.287499,27.388521,-462.097749,0.500248,8.665568,8.665568,9.165816,-0.160200,-0.045627,-0.045627,-0.041652,26871,-6
0.522000,56.284125,-326.793250,-555.502087,29.514771,-3.295898,146.629159,26.769354,-473.422409,0.497400,8.089688,8.089688,8.587088,-0.160200,-0.052861,-0.052861,-0.042720,26865,-7
0.524000,55.602710,-354.453500,-548.776788,29.507080,-3.845215,131.581722,26.095630,-486.035222,0.494205,7.457998,7.457998,7.952203,-0.160200,-0.060797,-0.060797,-0.051264,26858,-6
0.526000,54.866311,-381.763000,-541.508828,29.500488,-3.295898,118.093960,25.365823,-499.856960,0.490644,6.770950,6.770950,7.261593,-0.160200,-0.069430,-0.069430,-0.064080,26852,-8
0.528000,54.075658,-408.694750,-533.705393,29.490601,-4.943848,105.790179,24.585057,-514.484929,0.486695,6.038701,6.038701,6.525396,-0.160200,-0.078633,-0.078633,-0.067284,26843,-9
0.530000,53.231532,-435.222750,-525.374201,29.477417,-6.591797,94.551981,23.754115,-529.774731,0.482338,5.264250,5.264250,5.746588,-0.160200,-0.088368,-0.088368,-0.081168,26831,-16
0.532000,52.334767,-461.320250,-516.523489,29.457642,-9.887695,84.108014,22.877125,-545.428264,0.477552,4.455322,4.455322,4.932874,-0.160200,-0.098539,-0.098539,-0.096120,26813,-17
0.534000,51.386251,-486.961250,-507.162010,29.429077,-14.282227,74.268990,21.957174,-561.230240,0.472315,3.617559,3.617559,4.089873,-0.160200,-0.109077,-0.109077,-0.096120,26787,-28
0.536000,50.386922,-512.121000,-497.299021,29.391724,-18.676758,64.974415,20.995198,-577.095415,0.466605,2.753022,2.753022,3.219627,-0.160200,-0.119955,-0.119955,-0.107868,26753,-32
0.538000,49.337767,-536.774500,-486.944275,29.345581,-23.071289,56.169845,19.992186,-592.944345,0.460401,1.863700,1.863700,2.324102,-0.160200,-0.131149,-0.131149,-0.118548,26711,-38
0.540000,48.239824,-560.897000,-476.108012,29.284058,-30.761719,47.476688,18.955766,-608.373688,0.453684,0.961295,0.961295,1.414978,-0.160200,-0.142513,-0.142513,-0.132432,26655,-59
0.542000,47.094179,-584.465000,-464.800946,29.220337,-31.860352,39.542984,17.873842,-624.007984,0.446432,0.027515,0.027515,0.473947,-0.160200,-0.154276,-0.154276,-0.138840,26597,-53
0.544000,45.901964,-607.455000,-453.034259,29.148926,-35.705566,32.018129,16.753038,-639.473129,0.438628,-0.927063,-0.927063,-0.488435,-0.160200,-0.166305,-0.166305,-0.151656,26532,-59
0.546000,44.664359,-629.844250,-440.819586,29.066528,-41.198730,24.696443,15.597831,-654.540693,0.430254,-1.895718,-1.895718,-1.465463,-0.160200,-0.178518,-0.178518,-0.170880,26457,-67
0.548000,43.382587,-651.610500,-428.169007,28.972046,-47.241211,17.502678,14.410541,-669.113178,0.421295,-2.875329,-2.875329,-2.454034,-0.160200,-0.190875,-0.190875,-0.178356,26371,-92
0.550000,42.057917,-672.732500,-415.095030,28.858887,-56.579590,10.094451,13.199030,-682.826951,0.411737,-3.854750,-3.854750,-3.443013,-0.160200,-0.203238,-0.203238,-0.190104,26268,-109
0.552000,40.691657,-693.189500,-401.610584,28.730347,-64.270020,2.658004,11.961310,-695.847504,0.401568,-4.838081,-4.838081,-4.436514,-0.160200,-0.215656,-0.215656,-0.199716,26151,-103
0.554000,39.285159,-712.961000,-387.729003,28.583130,-73.608398,-4.968636,10.702029,-707.992364,0.390778,-5.819300,-5.819300,-5.428522,-0.160200,-0.228057,-0.228057,-0.215736,26017,-150
0.556000,37.839813,-732.027250,-373.464013,28.413940,-84.594727,-12.931245,9.425873,-719.096005,0.379361,-6.792655,-6.792655,-6.413294,-0.160200,-0.240366,-0.240366,-0.228552,25863,-173
0.558000,36.357050,-750.369750,-358.829722,28.222778,-95.581055,-21.196226,8.134272,-729.173524,0.367312,-7.757535,-7.757535,-7.390223,-0.160200,-0.252578,-0.252578,-0.240300,25689,-184
0.560000,34.838334,-767.970500,-343.840600,28.009644,-106.567383,-29.733342,6.828690,-738.237158,0.354630,-8.713259,-8.713259,-8.358629,-0.160200,-0.264683,-0.264683,-0.250980,25495,-167
0.562000,33.285168,-784.811250,-328.511469,27.774536,-117.553711,-38.515379,5.510632,-746.295871,0.341317,-9.659067,-9.659067,-9.317750,-0.160200,-0.276672,-0.276672,-0.263796,25281,-209
0.564000,31.699089,-800.876250,-312.857488,27.517456,-128.540039,-47.517845,4.181633,-753.358405,0.327376,-10.594170,-10.594170,-10.266794,-0.160200,-0.288535,-0.288535,-0.278748,25047,-246
0.566000,30.081663,-816.149500,-296.894136,27.239502,-138.977051,-56.663765,2.842161,-759.485735,0.312816,-11.519349,-11.519349,-11.206533,-0.160200,-0.300282,-0.300282,-0.287292,24794,-243
0.568000,28.434491,-830.615500,-280.637198,26.938477,-150.512695,-66.048658,1.496014,-764.566842,0.297649,-12.430346,-12.430346,-12.132697,-0.160200,-0.311859,-0.311859,-0.302244,24520,-224
0.570000,26.759201,-844.260000,-264.102750,26.617676,-160.400391,-75.483832,0.141525,-768.776168,0.281888,-13.331223,-13.331223,-13.049335,-0.160200,-0.323317,-0.323317,-0.312924,24228,-282
0.572000,25.057451,-857.069750,-247.307143,26.270508,-173.583984,-85.293847,-1.213057,-771.775903,0.265551,-14.211045,-14.211045,-13.945494,-0.160200,-0.334519,-0.334519,-0.323604,23912,-301
0.574000,23.330922,-869.032250,-230.266985,25.888184,-191.162109,-95.880673,-2.557262,-773.151577,0.248660,-15.056183,-15.056183,-14.807523,-0.160200,-0.345294,-0.345294,-0.333216,23564,-272
0.576000,21.581322,-880.135250,-212.999126,25.467407,-210.388184,-107.331424,-3.886085,-772.803826,0.231239,-15.861846,-15.861846,-15.630606,-0.160200,-0.355583,-0.355583,-0.344964,23181,-340
0.578000,19.810381,-890.367750,-195.520641,25.041138,-213.134766,-117.911758,-5.230757,-772.455992,0.213317,-16.677188,-16.677188,-16.463871,-0.160200,-0.365998,-0.365998,-0.356712,22793,-369
0.580000,18.019851,-899.719750,-177.848815,24.592896,-224.121094,-128.532692,-6.573045,-771.187058,0.194923,-17.474998,-17.474998,-17.280074,-0.160200,-0.376201,-0.376201,-0.368460,22385,-435
0.582000,16.211502,-908.182250,-160.001122,24.120483,-236.206055,-139.300028,-7.908981,-768.882222,0.176093,-18.250848,-18.250848,-18.074755,-0.160200,-0.386134,-0.386134,-0.375936,21955,-407
0.584000,14.387122,-915.746750,-141.995211,23.619507,-250.488281,-150.418853,-9.232385,-765.327897,0.156862,-18.997235,-18.997235,-18.840373,-0.160200,-0.395705,-0.395705,-0.385548,21499,-446
0.586000,12.548515,-922.405750,-123.848887,23.091064,-264.221191,-161.799087,-10.542549,-760.606663,0.137269,-19.715168,-19.715168,-19.577898,-0.160200,-0.404924,-0.404924,-0.396228,21018,-417
0.588000,10.697499,-928.152250,-105.580095,22.538452,-276.306152,-173.249794,-11.840953,-754.902456,0.117358,-20.408760,-20.408760,-20.291402,-0.160200,-0.413843,-0.413843,-0.404772,20515,-460
0.590000,8.835906,-932.981250,-87.206899,21.963867,-287.292480,-184.654062,-13.127961,-748.327188,0.097170,-21.080188,-21.080188,-20.983018,-0.160200,-0.422488,-0.422488,-0.415452,19992,-493
0.592000,6.965574,-936.887750,-68.747467,21.367310,-298.278809,-196.016537,-14.401736,-740.871213,0.076753,-21.728162,-21.728162,-21.651409,-0.160200,-0.430843,-0.430843,-0.426132,19449,-509
0.594000,5.088355,-939.867500,-50.220055,20.746582,-310.363770,-207.451260,-15.658227,-732.416240,0.056152,-22.348141,-22.348141,-22.291989,-0.160200,-0.438850,-0.438850,-0.431472,18884,-533
0.596000,3.206104,-941.918000,-31.642982,20.018188,-364.196777,-223.125812,-16.812084,-718.792188,0.035418,-22.815208,-22.815208,-22.779791,-0.160200,-0.444947,-0.444947,-0.437880,18221,-553
0.598000,1.320683,-943.037000,-13.034619,19.257935,-380.126953,-238.825926,-17.937252,-704.211074,0.014598,-23.248045,-23.248045,-23.233448,-0.160200,-0.450618,-0.450618,-0.446424,17529,-590
0.600000,-0.566044,-943.223750,5.586634,18.468018,-394.958496,-254.439183,-19.034062,-688.784567,-0.006257,-23.648805,-23.648805,-23.655062,-0.160200,-0.455888,-0.455888,-0.444288,16810,-585
0.602000,-2.452212,-942.477500,24.202362,17.655029,-406.494141,-269.644679,-20.107241,-672.832821,-0.027097,-24.025963,-24.025963,-24.053060,-0.160200,-0.460863,-0.460863,-0.452832,16070,-631
0.604000,-4.335954,-940.799250,42.794157,16.758545,-448.242188,-287.504430,-21.094499,-653.294820,-0.047872,-24.288042,-24.288042,-24.335914,-0.160200,-0.464399,-0.464399,-0.463512,15254,-644
0.606000,-6.215409,-938.191000,61.343636,15.948853,-404.846191,-299.238606,-22.164262,-638.952394,-0.068532,-24.691200,-24.691200,-24.759732,-0.160200,-0.469697,-0.469697,-0.469920,14517,-651
0.608000,-8.088718,-934.654750,79.832454,15.156738,-396.057129,-308.920458,-23.245456,-625.734292,-0.089028,-25.120965,-25.120965,-25.209993,-0.160200,-0.475325,-0.475325,-0.467784,13796,-674
0.610000,-9.954028,-930.194250,98.242329,14.345947,-405.395508,-318.567963,-24.299975,-611.626287,-0.109313,-25.518903,-25.518903,-25.628216,-0.160200,-0.480553,-0.480553,-0.467784,13058,-703
0.612000,-11.809495,-924.814250,116.555057,13.516479,-414.733887,-328.184556,-25.325974,-596.629694,-0.129341,-25.883910,-25.883910,-26.013251,-0.160200,-0.485366,-0.485366,-0.477396,12303,-692
0.614000,-13.653285,-918.519500,134.752529,12.672729,-421.875000,-337.553600,-26.326014,-580.965900,-0.149066,-26.221415,-26.221415,-26.370481,-0.160200,-0.489831,-0.489831,-0.484872,11535,-729
0.616000,-15.483573,-911.316250,152.816750,11.745483,-463.623047,-350.160545,-27.229056,-561.155705,-0.168446,-26.427299,-26.427299,-26.595745,-0.160200,-0.492647,-0.492647,-0.487008,10691,-706
0.618000,-17.298550,-903.212000,170.729857,10.819336,-463.073730,-361.451863,-28.117886,-541.760137,-0.187442,-26.631737,-26.631737,-26.819179,-0.160200,-0.495440,-0.495440,-0.492348,9848,-731
0.620000,-19.096421,-894.214750,188.474137,9.851440,-483.947754,-373.701452,-28.947861,-520.513298,-0.206014,-26.767913,-26.767913,-26.973927,-0.160200,-0.497374,-0.497374,-0.491280,8967,-757
0.622000,-20.875409,-884.333250,206.032044,8.868164,-491.638184,-385.495125,-29.743573,-498.838125,-0.224129,-26.875683,-26.875683,-27.099812,-0.160200,-0.498948,-0.498948,-0.500892,8072,-786
0.624000,-22.633754,-873.577000,223.386214,7.891479,-488.342285,-395.779841,-30.525233,-477.797159,-0.241754,-26.985938,-26.985938,-27.227691,-0.160200,-0.500546,-0.500000,-0.500892,7183,-795
0.626000,-24.369717,-861.957250,240.519488,6.945557,-472.961426,-403.498000,-31.315274,-458.459250,-0.258860,-27.131035,-27.131035,-27.389895,-0.160200,-0.502574,-0.500000,-0.499824,6322,-797
0.628000,-26.081583,-849.485000,257.414922,5.790894,-577.331543,-420.881354,-31.872477,-428.603646,-0.275421,-26.950333,-26.950333,-27.225754,-0.160200,-0.500522,-0.500000,-0.496620,5271,-814
0.630000,-27.767657,-836.172500,274.055810,4.693359,-548.767090,-433.669928,-32.461016,-402.502572,-0.291415,-26.854302,-26.854302,-27.145716,-0.160200,-0.499521,-0.499521,-0.497688,4272,-828
0.632000,-29.426273,-822.033500,290.425697,3.535400,-578.979492,-448.200884,-32.961673,-373.832616,-0.306822,-26.659750,-26.659750,-26.966572,-0.160200,-0.497282,-0.497282,-0.499824,3218,-803
0.634000,-31.055791,-807.081500,306.508394,2.416992,-559.204102,-459.301206,-33.472783,-347.780294,-0.321626,-26.517271,-26.517271,-26.838897,-0.160200,-0.495686,-0.495686,-0.497688,2200,-839
0.636000,-32.654599,-791.331500,322.287999,1.290894,-563.049316,-469.676017,-33.945493,-321.655483,-0.335815,-26.350069,-26.350069,-26.685884,-0.160200,-0.493774,-0.493774,-0.496620,1175,-837
0.638000,-34.221117,-774.798750,337.748907,0.107666,-591.613770,-481.869792,-34.328783,-292.928958,-0.349381,-26.082835,-26.082835,-26.432216,-0.160200,-0.490603,-0.490603,-0.493416,98,-858
0.640000,-35.753794,-757.500000,352.875831,-1.026123,-566.894531,-490.372266,-34.727671,-267.127734,-0.362316,-25.876185,-25.876185,-26.238501,-0.160200,-0.488181,-0.488181,-0.483804,-934,-831
0.642000,-37.251117,-739.452250,367.653811,-2.182983,-578.430176,-499.178057,-35.068134,-240.274193,-0.374618,-25.615480,-25.615480,-25.990097,-0.160200,-0.485076,-0.485076,-0.485940,-1987,-859
0.644000,-38.711603,-720.673000,382.068234,-3.370605,-593.811035,-508.641355,-35.340998,-212.031645,-0.386287,-25.289237,-25.289237,-25.675524,-0.160200,-0.481144,-0.481144,-0.479532,-3068,-840
0.646000,-40.133809,-701.181500,396.104847,-4.583496,-606.445312,-518.421751,-35.550313,-182.759749,-0.397327,-24.906210,-24.906210,-25.303537,-0.160200,-0.476494,-0.476494,-0.480600,-4172,-830
0.648000,-41.516329,-680.996500,409.749770,-5.818359,-617.431641,-528.322740,-35.697970,-152.673760,-0.407743,-24.471309,-24.471309,-24.879052,-0.160200,-0.471188,-0.471188,-0.459240,-5296,-852
0.650000,-42.857795,-660.137750,422.989509,-7.098267,-639.953613,-539.485827,-35.759528,-120.651923,-0.417545,-23.950026,-23.950026,-24.367571,-0.160200,-0.464795,-0.464795,-0.473124,-6461,-808
0.652000,-44.156880,-638.626500,435.810972,-8.271606,-586.669922,-544.204237,-35.885274,-94.422263,-0.426742,-23.569046,-23.569046,-23.995787,-0.160200,-0.460147,-0.460147,-0.464580,-7529,-807
0.654000,-45.412301,-616.484000,448.201482,-9.457031,-592.712402,-549.055053,-35.955270,-67.428947,-0.435348,-23.140682,-23.140682,-23.576029,-0.160200,-0.454900,-0.454900,-0.456036,-8608,-809
0.656000,-46.622816,-593.731750,460.148784,-10.672119,-607.543945,-554.903942,-35.950697,-38.827808,-0.443378,-22.638704,-22.638704,-23.082082,-0.160200,-0.448726,-0.448726,-0.457104,-9714,-815
0.658000,-47.787228,-570.392000,471.641066,-11.875122,-601.501465,-559.563695,-35.912106,-10.828305,-0.450848,-22.126447,-22.126447,-22.577295,-0.160200,-0.442416,-0.442416,-0.456036,-10809,-790
0.660000,-48.904384,-546.488500,482.666963,-12.991333,-558.105469,-559.417872,-35.913051,12.929372,-0.457777,-21.712374,-21.712374,-22.170151,-0.160200,-0.437327,-0.437327,-0.442152,-11825,-787
0.662000,-49.973182,-522.044750,493.215571,-13.997681,-503.173828,-553.793468,-35.975501,31.748718,-0.464184,-21.422064,-21.422064,-21.886247,-0.160200,-0.433778,-0.433778,-0.430404,-12741,-787
0.664000,-50.992563,-497.084500,503.276461,-15.144653,-573.486328,-555.762754,-35.847910,58.678254,-0.470089,-20.874113,-20.874113,-21.344202,-0.160200,-0.427003,-0.427003,-0.430404,-13785,-764
0.666000,-51.961520,-471.632750,512.839683,-16.274048,-564.697266,-556.656205,-35.687472,85.023455,-0.475512,-20.316297,-20.316297,-20.791809,-0.160200,-0.420098,-0.420098,-0.426132,-14813,-735
0.668000,-52.879094,-445.714750,521.895780,-17.341919,-533.935547,-554.384139,-35.537175,108.669389,-0.480477,-19.811786,-19.811786,-20.292263,-0.160200,-0.413853,-0.413853,-0.421860,-15785,-754
0.670000,-53.744379,-419.356000,530.435797,-18.319702,-488.891602,-547.834885,-35.424677,128.478885,-0.485002,-19.397324,-19.397324,-19.882327,-0.160200,-0.408729,-0.408729,-0.416520,-16675,-692
0.672000,-54.556518,-392.582500,538.451290,-19.317261,-498.779297,-542.929326,-35.239257,150.346826,-0.489112,-18.902390,-18.902390,-19.391502,-0.160200,-0.402594,-0.402594,-0.412248,-17583,-699
0.674000,-55.314709,-365.420750,545.934333,-20.354370,-518.554688,-540.491863,-34.960339,175.071113,-0.492826,-18.300488,-18.300488,-18.793314,-0.160200,-0.395116,-0.395116,-0.402636,-18527,-685
0.676000,-56.018201,-337.897750,552.877525,-21.311279,-478.454590,-534.288135,-34.706922,196.390385,-0.496165,-17.773593,-17.773593,-18.269758,-0.160200,-0.388572,-0.388572,-0.398364,-19398,-659
0.678000,-56.666300,-310.040500,559.274000,-22.262695,-475.708008,-528.430123,-34.403605,218.389623,-0.499149,-17.204348,-17.204348,-17.703498,-0.160200,-0.381494,-0.381494,-0.379140,-20264,-649
0.680000,-57.258363,-281.876750,565.117435,-23.225098,-481.201172,-523.707227,-34.033265,241.830477,-0.501798,-16.569001,-16.569001,-17.070799,-0.160200,-0.373585,-0.373585,-0.377004,-21140,-640
0.682000,-57.793807,-253.434250,570.402050,-24.123779,-449.340820,-516.270587,-33.670028,262.836337,-0.504130,-15.980490,-15.980490,-16.484620,-0.160200,-0.366258,-0.366258,-0.370596,-21958,-602
0.684000,-58.272100,-224.741000,575.122619,-24.981812,-429.016113,-507.545139,-33.290288,282.804139,-0.506161,-15.400017,-15.400017,-15.906178,-0.160200,-0.359027,-0.359027,-0.366324,-22739,-593
0.686000,-58.692771,-195.825750,579.274475,-25.869507,-443.847656,-501.175391,-32.823264,305.349641,-0.507907,-14.721234,-14.721234,-15.229141,-0.160200,-0.350564,-0.350564,-0.359916,-23547,-589
0.688000,-59.055403,-166.716750,582.853512,-26.692383,-411.437988,-492.201651,-32.363020,325.484901,-0.509381,-14.088661,-14.088661,-14.598042,-0.160200,-0.342676,-0.342676,-0.347100,-24296,-557
0.690000,-59.359638,-137.443000,585.856191,-27.469116,-388.366699,-481.818156,-31.890522,344.375156,-0.510596,-13.470331,-13.470331,-13.980927,-0.160200,-0.334962,-0.334962,-0.342828,-25003,-533
0.692000,-59.605175,-108.033250,588.279543,-28.266724,-398.803711,-473.516711,-31.338451,365.483461,-0.511562,-12.764681,-12.764681,-13.276243,-0.160200,-0.326153,-0.326153,-0.340692,-25729,-526
0.694000,-59.791771,-78.516750,590.121171,-28.956665,-344.970703,-460.662110,-30.835106,382.145360,-0.512287,-12.166400,-12.166400,-12.678686,-0.160200,-0.318684,-0.318684,-0.327876,-26357,-480
0.696000,-59.919242,-48.922500,591.379254,-29.696045,-369.689941,-451.564893,-30.223197,402.642393,-0.512778,-11.434865,-11.434865,-11.947643,-0.160200,-0.309546,-0.309546,-0.311856,-27030,-459
0.698000,-59.987461,-19.279750,592.052549,-30.372803,-338.378906,-440.246295,-29.614658,420.966545,-0.513039,-10.743313,-10.743313,-11.256352,-0.160200,-0.300904,-0.300904,-0.310788,-27646,-458
0.700000,-59.996361,10.382000,592.140388,-31.005615,-316.406250,-427.862290,-28.990746,438.244290,-0.513073,-10.060633,-10.060633,-10.573706,0.160200,0.028029,0.028029,-0.302244,-28222,-454
0.702000,-59.945933,40.033500,591.642687,-31.583496,-288.940430,-413.970104,-28.362437,454.003604,-0.512880,-9.401769,-9.401769,-9.914649,0.160200,0.036267,0.036267,0.021360,-28748,-344
0.704000,-59.836227,69.645250,590.559936,-32.016357,-216.430664,-394.216160,-27.819870,463.861410,-0.512459,-8.898282,-8.898282,-9.410741,0.160200,0.042566,0.042566,0.034176,-29142,-191
0.706000,-59.667352,99.188000,588.893206,-32.211914,-97.778320,-364.572376,-27.455438,463.760376,-0.511804,-8.677427,-8.677427,-9.189231,0.160200,0.045335,0.045335,0.039516,-29320,-84
0.708000,-59.439475,128.633000,586.644146,-32.283325,-35.705566,-331.685695,-27.156150,460.318695,-0.510911,-8.554671,-8.554671,-9.065582,0.160200,0.046880,0.046880,0.045924,-29385,-8
0.710000,-59.152820,157.950750,583.814980,-32.275635,3.845215,-298.132604,-26.877185,456.083354,-0.509772,-8.458182,-8.458182,-8.967954,0.160200,0.048101,0.048101,0.045924,-29378,20
0.712000,-58.807672,187.112000,580.408504,-32.242676,16.479492,-266.671395,-26.564996,453.783395,-0.508377,-8.307618,-8.307618,-8.815995,0.160200,0.050000,0.050000,0.045924,-29348,22
0.714000,-58.404372,216.088500,576.428088,-32.203125,19.775391,-238.026716,-26.201247,454.115216,-0.506714,-8.079625,-8.079625,-8.586339,0.160200,0.052871,0.052871,0.050196,-29312,14
0.716000,-57.943318,244.851250,571.877668,-32.181152,10.986328,-213.125412,-25.762166,457.976662,-0.504770,-7.744011,-7.744011,-8.248781,0.160200,0.057090,0.057090,0.053400,-29292,10
0.718000,-57.424967,273.372000,566.761744,-32.164673,8.239746,-190.988896,-25.260294,464.360896,-0.502530,-7.326009,-7.326009,-7.828540,0.160200,0.062343,0.062343,0.052332,-29277,10
0.720000,-56.849830,301.622500,561.085374,-32.148193,8.239746,-171.066032,-24.701637,472.688532,-0.499978,-6.839400,-6.839400,-7.339378,0.160200,0.068458,0.068458,0.059808,-29262,13
0.722000,-56.218477,329.574500,554.854171,-32.131714,8.239746,-153.135454,-24.086763,482.709954,-0.497096,-6.288888,-6.288888,-6.785985,0.160200,0.075375,0.075375,0.068352,-29247,14
0.724000,-55.531532,357.200500,548.074297,-32.110840,10.437012,-136.778207,-23.420692,493.978707,-0.493866,-5.685332,-5.685332,-6.179198,0.160200,0.082960,0.082960,0.073692,-29228,15
0.726000,-54.789675,384.473250,540.752457,-32.088867,10.986328,-122.001754,-22.700808,506.475004,-0.490266,-5.027478,-5.027478,-5.517744,0.160200,0.091228,0.091228,0.080100,-29208,23
0.728000,-53.993639,411.366250,532.895891,-32.058105,15.380859,-108.263492,-21.935534,519.629742,-0.486278,-4.330405,-4.330405,-4.816683,0.160200,0.099991,0.099991,0.088644,-29180,23
0.730000,-53.144210,437.852250,524.512368,-32.026245,15.930176,-95.844126,-21.117965,533.696376,-0.481879,-3.585472,-3.585472,-4.067351,0.160200,0.109358,0.109358,0.101460,-29151,28
0.732000,-52.242230,463.905250,515.610177,-31.986694,19.775391,-84.282174,-20.255536,548.187424,-0.477049,-2.805727,-2.805727,-3.282776,0.160200,0.119165,0.119165,0.112140,-29115,42
0.734000,-51.288589,489.499500,506.198122,-31.932861,26.916504,-73.162306,-19.355728,562.661806,-0.471765,-2.003440,-2.003440,-2.475205,0.160200,0.129260,0.129260,0.122820,-29066,42
0.736000,-50.284232,514.609750,496.285511,-31.870239,31.311035,-62.714972,-18.413993,577.324722,-0.466007,-1.172251,-1.172251,-1.638258,0.160200,0.139722,0.139722,0.126024,-29009,54
0.738000,-49.230150,539.211000,485.882144,-31.798828,35.705566,-52.872918,-17.431322,592.083918,-0.459753,-0.314375,-0.314375,-0.774128,0.160200,0.150523,0.150523,0.140976,-28944,62
0.740000,-48.127388,563.279000,474.998310,-31.714233,42.297363,-43.355890,-16.413155,606.634890,-0.452983,0.561551,0.561551,0.108568,0.160200,0.161557,0.161557,0.151656,-28867,68
0.742000,-46.977034,586.790500,463.644772,-31.616455,48.889160,-34.131385,-15.360579,620.921885,-0.445677,1.453888,1.453888,1.008211,0.160200,0.172803,0.172803,0.158064,-28778,94
0.744000,-45.780226,609.721250,451.832755,-31.508789,53.833008,-25.334946,-14.271437,635.056196,-0.437817,2.365897,2.365897,1.928080,0.160200,0.184301,0.184301,0.169812,-28680,114
0.746000,-44.538149,632.049000,439.573941,-31.391235,58.776855,-16.923766,-13.146914,648.972766,-0.429385,3.295719,3.295719,2.866334,0.160200,0.196029,0.196029,0.180492,-28573,99
0.748000,-43.252030,653.752250,426.880452,-31.239624,75.805664,-7.650823,-12.012406,661.403073,-0.420367,4.205700,4.205700,3.785333,0.160200,0.207517,0.207517,0.195444,-28435,144
0.750000,-41.923140,674.808750,413.764839,-31.053955,92.834473,2.397707,-10.869185,672.411043,-0.410748,5.096179,5.096179,4.685432,0.160200,0.218768,0.218768,0.206124,-28266,151
0.752000,-40.552795,695.197750,400.240073,-30.857300,98.327637,11.990700,-9.695495,683.207050,-0.400517,6.001572,6.001572,5.601055,0.160200,0.230213,0.230213,0.220008,-28087,156
0.754000,-39.142349,714.899500,386.319527,-30.638672,109.313965,21.723026,-8.503677,693.176474,-0.389665,6.903611,6.903611,6.513946,0.160200,0.241624,0.241624,0.232824,-27888,186
0.756000,-37.693197,733.894500,372.016967,-30.424438,107.116699,30.262394,-7.268759,703.632106,-0.378185,7.840465,7.840465,7.462280,0.160200,0.253479,0.253479,0.238164,-27693,208
0.758000,-36.206771,752.163500,357.346536,-30.162964,130.737305,40.309885,-6.043807,711.853615,-0.366073,8.732238,8.732238,8.366165,0.160200,0.264777,0.264777,0.250980,-27455,224
0.760000,-34.684543,769.688750,342.322740,-29.877319,142.822266,50.561123,-4.807224,719.127627,-0.353327,9.614579,9.614579,9.261252,0.160200,0.275966,0.275966,0.265932,-27195,218
0.762000,-33.128016,786.453000,326.960436,-29.549927,163.696289,61.874639,-3.578089,724.578361,-0.339951,10.460548,10.460548,10.120597,0.160200,0.286707,0.286707,0.276612,-26897,288
0.764000,-31.538731,802.439500,311.274816,-29.245605,152.160645,70.903240,-2.293126,731.536260,-0.325948,11.366926,11.366926,11.040978,0.160200,0.298212,0.298212,0.284088,-26620,221
0.766000,-29.918258,817.632750,295.281390,-28.921509,162.048340,80.017750,-0.996749,737.615000,-0.311327,12.264931,12.264931,11.953604,0.160200,0.309620,0.309620,0.294768,-26325,284
0.768000,-28.268200,832.017250,278.995973,-28.528198,196.655273,91.681502,0.259998,740.335748,-0.296099,13.080120,13.080120,12.784021,0.160200,0.320000,0.320000,0.309720,-25967,337
0.770000,-26.590189,845.578750,262.434670,-28.127197,200.500488,102.563401,1.537008,743.015349,-0.280279,13.906969,13.906969,13.626690,0.160200,0.330534,0.330534,0.319332,-25602,304
0.772000,-24.885885,858.304250,245.613856,-27.680054,223.571777,114.664239,2.794169,743.640011,-0.263886,14.685827,14.685827,14.421941,0.160200,0.340474,0.340474,0.335352,-25195,354
0.774000,-23.156972,870.181250,228.550165,-27.204346,237.854004,126.983215,4.047374,743.198035,-0.246941,15.443653,15.443653,15.196711,0.160200,0.350159,0.350159,0.337488,-24762,385
0.776000,-21.405160,881.197750,211.260472,-26.733032,235.656738,137.850567,5.327872,743.347183,-0.229469,16.228468,16.228468,15.998998,0.160200,0.360187,0.360187,0.352440,-24333,376
0.778000,-19.632181,891.342750,193.761872,-26.258423,237.304688,147.795979,6.626242,743.546771,-0.211498,17.025080,17.025080,16.813582,0.160200,0.370370,0.370370,0.358848,-23901,407
0.780000,-17.839789,900.606250,176.071670,-25.687134,285.644531,161.580835,7.847345,739.025415,-0.193059,17.692097,17.692097,17.499037,0.160200,0.378938,0.378938,0.370596,-23381,461
0.782000,-16.029756,908.979500,158.207358,-25.126831,280.151367,173.437888,9.097075,735.541612,-0.174187,18.394710,18.394710,18.220523,0.160200,0.387957,0.387957,0.377004,-22871,458
0.784000,-14.203871,916.453500,140.186602,-24.513794,306.518555,186.745955,10.309923,729.707545,-0.154918,19.033773,19.033773,18.878855,0.160200,0.396186,0.396186,0.385548,-22313,461
0.786000,-12.363942,923.021250,122.027222,-23.915039,299.377441,198.009103,11.551097,725.012147,-0.135292,19.710013,19.710013,19.574721,0.160200,0.404884,0.404884,0.398364,-21768,507
0.788000,-10.511786,928.676750,103.747174,-23.200928,357.055664,213.913759,12.689142,714.762991,-0.115351,20.226323,20.226323,20.110973,0.160200,0.411587,0.411587,0.405840,-21118,517
0.790000,-8.649235,933.413500,85.364535,-22.576904,312.011719,223.723555,13.927669,709.689945,-0.095138,20.894355,20.894355,20.799217,0.160200,0.420190,0.420190,0.402636,-20550,545
0.792000,-6.778132,937.227250,66.897484,-21.914429,331.237793,234.474979,15.136297,702.752271,-0.074700,21.511578,21.511578,21.436878,0.160200,0.428161,0.428161,0.421860,-19947,564
0.794000,-4.900326,940.114500,48.364280,-21.228882,342.773438,245.304825,16.328556,694.809675,-0.054084,22.101264,22.101264,22.047179,0.160200,0.435790,0.435790,0.427200,-19323,557
0.796000,-3.017674,942.072000,29.783250,-20.481812,373.535156,258.127858,17.464138,683.944142,-0.033339,22.605312,22.605312,22.571973,0.160200,0.442350,0.442350,0.435744,-18643,610
0.798000,-1.132038,943.097750,11.172770,-19.723755,379.028320,270.217904,18.591717,672.879846,-0.012513,23.101002,23.101002,23.088489,0.160200,0.448806,0.448806,0.440016,-17953,605
0.800000,0.754717,943.191000,-7.448759,-18.976685,373.535156,280.549629,19.731402,662.641371,0.008343,23.618501,23.618501,23.626844,0.160200,0.455536,0.455536,0.445356,-17273,641
0.802000,2.640726,942.351500,-26.062922,-18.187866,394.409180,291.935584,20.828592,650.415916,0.029178,24.075362,24.075362,24.104541,0.160200,0.461507,0.461507,0.460308,-16555,644
0.804000,4.524123,940.580250,-44.651312,-17.351807,418.029785,304.545005,21.875930,636.035245,0.049944,24.464154,24.464154,24.514098,0.160200,0.466626,0.466626,0.454968,-15794,697
0.806000,6.403047,937.879250,-63.195549,-16.426758,462.524414,320.342945,22.829805,617.536305,0.070590,24.723976,24.723976,24.794566,0.160200,0.470132,0.470132,0.475260,-14952,697
0.808000,8.275640,934.250250,-81.677295,-15.479736,473.510742,335.659725,23.755376,598.590525,0.091067,24.958709,24.958709,25.049776,0.160200,0.473322,0.473322,0.464580,-14090,735
0.810000,10.140048,929.697500,-100.078273,-14.620605,429.565430,345.050296,24.760653,584.647204,0.111328,25.329441,25.329441,25.440770,0.160200,0.478210,0.478210,0.476328,-13308,739
0.812000,11.994430,924.225750,-118.380289,-13.523071,548.767090,365.421975,25.517501,558.803775,0.131327,25.340720,25.340720,25.472048,0.160200,0.478601,0.478601,0.477396,-12309,747
0.814000,13.836951,917.839750,-136.565243,-12.509033,507.019043,379.581682,26.345984,538.258068,0.151020,25.488221,25.488221,25.639241,0.160200,0.480691,0.480691,0.478464,-11386,763
0.816000,15.665789,910.546250,-154.615154,-11.427979,540.527344,395.676248,27.093768,514.870002,0.170364,25.536818,25.536818,25.707181,0.160200,0.481540,0.481540,0.479532,-10402,764
0.818000,17.479136,902.352500,-172.512173,-10.374390,526.794434,408.788067,27.853526,493.564433,0.189318,25.629075,25.629075,25.818393,0.160200,0.482930,0.482930,0.473124,-9443,795
0.820000,19.275199,893.266250,-190.238603,-9.352661,510.864258,418.995686,28.627860,474.270564,0.207847,25.765347,25.765347,25.973194,0.160200,0.484865,0.484865,0.483804,-8513,798
0.822000,21.052201,883.296750,-207.776914,-8.337524,507.568359,427.852953,29.389725,455.443797,0.225914,25.902155,25.902155,26.128069,0.160200,0.486801,0.486801,0.483804,-7589,812
0.824000,22.808386,872.453750,-225.109763,-7.285034,526.245117,437.692169,30.093420,434.761581,0.243488,25.971045,25.971045,26.214534,0.160200,0.487882,0.487882,0.487008,-6631,816
0.826000,24.542016,860.748000,-242.220011,-6.121582,581.726074,452.095560,30.663598,408.652440,0.260541,25.863657,25.863657,26.124197,0.160200,0.486752,0.486752,0.493416,-5572,835
0.828000,26.251378,848.191500,-259.090739,-4.924072,598.754883,466.761492,31.175450,381.430008,0.277046,25.701208,25.701208,25.978254,0.160200,0.484928,0.484928,0.485940,-4482,817
0.830000,27.934782,834.795750,-275.705263,-3.659546,632.263184,483.311661,31.594328,351.484089,0.292982,25.434431,25.434431,25.727413,0.160200,0.481793,0.481793,0.485940,-3331,839
0.832000,29.590561,820.574500,-292.047155,-2.510376,574.584961,492.438991,32.100937,328.135509,0.308329,25.336392,25.336392,25.644721,0.160200,0.480759,0.480759,0.481668,-2285,851
0.834000,31.217080,805.542250,-308.100254,-1.232666,638.854980,507.080590,32.449746,298.461660,0.323073,25.031560,25.031560,25.354633,0.160200,0.477133,0.477133,0.483804,-1122,882
0.836000,32.812730,789.713000,-323.848686,-0.080200,576.232910,513.995822,32.892930,275.717178,0.337200,24.905320,24.905320,25.242520,0.160200,0.475732,0.475732,0.480600,-73,837
0.838000,34.375932,773.103000,-339.276878,1.079956,580.078125,520.604053,33.295976,252.498947,0.350703,24.746292,24.746292,25.096995,0.160200,0.473912,0.473912,0.475260,983,860
0.840000,35.905142,755.728750,-354.369575,2.319214,619.628906,530.506538,33.585928,225.222212,0.363574,24.447345,24.447345,24.810919,0.160200,0.470336,0.470336,0.473124,2111,867
0.842000,37.398847,737.607000,-369.111851,3.399170,539.978027,531.453687,33.999677,206.153313,0.375813,24.367275,24.367275,24.743088,0.160200,0.469489,0.469489,0.469920,3094,841
0.844000,38.855570,718.755750,-383.489129,4.425293,513.061523,529.614470,34.430277,189.141280,0.387419,24.333397,24.333397,24.720817,0.160200,0.469210,0.469210,0.470988,4028,882
0.846000,40.273870,699.193750,-397.487191,5.581055,577.880859,534.441109,34.692815,164.752641,0.398396,24.068111,24.068111,24.466507,0.160200,0.466031,0.466031,0.467784,5080,829
0.848000,41.652345,678.940500,-411.092196,6.679688,549.316406,535.928639,34.972657,143.011861,0.408751,23.859609,23.859609,24.268359,0.160200,0.463554,0.463554,0.464580,6080,823
0.850000,42.989632,658.015750,-424.290690,7.820068,570.190430,539.354818,35.169564,118.660932,0.418491,23.554888,23.554888,23.973379,0.160200,0.459867,0.459867,0.454968,7118,851
0.852000,44.284408,636.440500,-437.069622,8.883545,531.738281,538.593164,35.400863,97.847336,0.427629,23.332915,23.332915,23.760544,0.160200,0.457207,0.457207,0.460308,8086,834
0.854000,45.535394,614.235750,-449.416355,9.892090,504.272461,535.161094,35.643304,79.074656,0.436177,23.153369,23.153369,23.589545,0.160200,0.455069,0.455069,0.460308,9004,846
0.856000,46.741351,591.423500,-461.318679,11.023682,565.795898,538.224575,35.717669,53.198925,0.444150,22.747179,22.747179,23.191329,0.160200,0.450092,0.450092,0.452832,10034,836
0.858000,47.901088,568.026750,-472.764826,12.220093,598.205566,544.222674,35.680995,23.804076,0.451565,22.211739,22.211739,22.663304,0.160200,0.443491,0.443491,0.451764,11123,819
0.860000,49.013458,544.068250,-483.743477,13.380249,580.078125,547.808219,35.633209,-3.739969,0.458441,21.701814,21.701814,22.160255,0.160200,0.437203,0.437203,0.443220,12179,821
0.862000,50.077361,519.571500,-494.243776,14.559082,589.416504,551.969047,35.518279,-32.397547,0.464797,21.131438,21.131438,21.596235,0.160200,0.430153,0.430153,0.438948,13252,792
0.864000,51.091744,494.561000,-504.255338,15.647827,544.372559,551.209398,35.443917,-56.648398,0.470652,20.662756,20.662756,21.133408,0.160200,0.424368,0.424368,0.436812,14243,811
0.866000,52.055605,469.061500,-513.768265,16.715698,533.935547,549.482013,35.339907,-80.420513,0.476029,20.184318,20.184318,20.660347,0.160200,0.418454,0.418454,0.423996,15215,755
0.868000,52.967990,443.098250,-522.773149,17.881348,582.824707,552.816283,35.086642,-109.718033,0.480948,19.518269,19.518269,19.999218,0.160200,0.410190,0.410190,0.418656,16276,797
0.870000,53.827998,416.697000,-531.261085,19.027222,572.937012,554.828356,34.800776,-138.131356,0.485432,18.847738,18.847738,19.333169,0.160200,0.401865,0.401865,0.414384,17319,747
0.872000,54.634778,389.883250,-539.223681,20.150024,561.401367,555.485657,34.484754,-165.602407,0.489501,18.175230,18.175230,18.664730,0.160200,0.393509,0.393509,0.405840,18341,745
0.874000,55.387531,362.684250,-546.653063,21.243164,546.569824,554.594073,34.144367,-191.909823,0.493176,17.508149,17.508149,18.001325,0.160200,0.385217,0.385217,0.395160,19336,708
0.876000,56.085515,335.126750,-553.541883,22.309937,533.386230,552.473289,33.775578,-217.346539,0.496479,16.838914,16.838914,17.335393,0.160200,0.376892,0.376892,0.380208,20307,698
0.878000,56.728038,307.237500,-559.883330,23.349243,519.653320,549.191292,33.378795,-241.953792,0.499429,16.167055,16.167055,16.666484,0.160200,0.368531,0.368531,0.375936,21253,699
0.880000,57.314465,279.044500,-565.671134,24.298462,474.609375,541.733101,33.016003,-262.688601,0.502046,15.583548,15.583548,16.085593,0.160200,0.361270,0.361270,0.370596,22117,649
0.882000,57.844216,250.575750,-570.899570,25.234497,468.017578,534.361548,32.609719,-283.785798,0.504346,14.967147,14.967147,15.471494,0.160200,0.353594,0.353594,0.358848,22969,621
0.884000,58.316768,221.859250,-575.563469,26.079346,422.424316,523.167825,32.237422,-301.308575,0.506348,14.433894,14.433894,14.940242,0.160200,0.346953,0.346953,0.351372,23738,621
0.886000,58.731653,192.923000,-579.658219,26.807739,364.196777,507.270720,31.923914,-314.347720,0.508066,14.014806,14.014806,14.522873,0.160200,0.341736,0.341736,0.349236,24401,596
0.888000,59.088460,163.796250,-583.179770,27.514160,353.210449,491.864693,31.574300,-328.068443,0.509514,13.561768,13.561768,14.071282,0.160200,0.336091,0.336091,0.343896,25044,568
0.890000,59.386838,134.507750,-586.124640,28.254639,370.239258,479.702150,31.132199,-345.194400,0.510704,12.992800,12.992800,13.503503,0.160200,0.328994,0.328994,0.334284,25718,545
0.892000,59.626491,105.085750,-588.489918,29.035767,390.563965,470.788331,30.590724,-365.702581,0.511645,12.304096,12.304096,12.815741,0.160200,0.320397,0.320397,0.330012,26429,520
0.894000,59.807181,75.560000,-590.273264,29.676270,320.251465,455.734645,30.130911,-380.174645,0.512346,11.770627,11.770627,12.282974,0.160200,0.313737,0.313737,0.320400,27012,510
0.896000,59.928731,45.960000,-591.472915,30.294800,309.265137,441.087694,29.633931,-395.127694,0.512814,11.206059,11.206059,11.718874,0.160200,0.306686,0.306686,0.313992,27575,508
0.898000,59.991021,16.314000,-592.087684,30.892456,298.828125,426.861737,29.098565,-410.547737,0.513053,10.609892,10.609892,11.122945,0.160200,0.299237,0.299237,0.309720,28119,500
0.900000,59.993987,-13.348000,-592.116964,31.468140,287.841797,412.959743,28.525847,-426.307743,0.513064,9.984975,9.984975,10.498039,-0.160200,-0.028975,-0.028975,0.304380,28643,456
0.902000,59.937629,-42.996750,-591.560726,32.031738,281.799316,399.843700,27.905891,-442.840450,0.512848,9.317715,9.317715,9.830563,-0.160200,-0.037318,-0.037318,-0.025632,29156,395
0.904000,59.822000,-72.603250,-590.419519,32.493164,230.712891,382.930619,27.328836,-455.533869,0.512404,8.743670,8.743670,9.256074,-0.160200,-0.044499,-0.044499,-0.036312,29576,239
0.906000,59.647216,-102.137500,-588.694473,32.734863,120.849609,356.722518,26.912353,-458.860018,0.511726,8.431203,8.431203,8.942928,-0.160200,-0.048413,-0.048413,-0.046992,29796,87
0.908000,59.413450,-131.570750,-586.387293,32.822754,43.945312,325.444798,26.590696,-457.015548,0.510809,8.266906,8.266906,8.777715,-0.160200,-0.050479,-0.050479,-0.044856,29876,14
0.910000,59.120933,-160.874250,-583.500260,32.826050,1.647949,293.065113,26.294883,-453.939363,0.509644,8.139894,8.139894,8.649538,-0.160200,-0.052081,-0.052081,-0.050196,29879,-25
0.912000,58.769953,-190.018750,-580.036229,32.793091,-16.479492,262.110652,25.976862,-452.129402,0.508223,7.977215,7.977215,8.485438,-0.160200,-0.054132,-0.054132,-0.054468,29849,-34
0.914000,58.360858,-218.975000,-575.998627,32.752441,-20.324707,233.867116,25.608417,-452.842116,0.506533,7.739706,7.739706,8.246238,-0.160200,-0.057122,-0.057122,-0.052332,29812,-25
0.916000,57.894053,-247.714750,-571.391445,32.717285,-17.578125,208.722592,25.176768,-456.437342,0.504560,7.413278,7.413278,7.917838,-0.160200,-0.061227,-0.061227,-0.057672,29780,-26
0.918000,57.369999,-276.209500,-566.219239,32.685425,-15.930176,186.257315,24.684574,-462.466815,0.502290,7.007380,7.007380,7.509669,-0.160200,-0.066329,-0.066329,-0.058740,29751,-24
0.920000,56.789215,-304.431250,-560.487123,32.653564,-15.930176,166.038566,24.135651,-470.469816,0.499705,6.532383,6.532383,7.032088,-0.160200,-0.072299,-0.072299,-0.066216,29722,-24
0.922000,56.152274,-332.352250,-554.200767,32.620605,-16.479492,147.786760,23.531669,-480.139010,0.496789,5.994672,5.994672,6.491461,-0.160200,-0.079057,-0.079057,-0.072624,29692,-22
0.924000,55.459806,-359.944250,-547.366387,32.592041,-14.282227,131.579862,22.867765,-491.524112,0.493523,5.390409,5.390409,5.883931,-0.160200,-0.086651,-0.086651,-0.075828,29666,-23
0.926000,54.712497,-387.180250,-539.990739,32.556885,-17.578125,116.664063,22.155612,-503.844313,0.489885,4.740351,4.740351,5.230237,-0.160200,-0.094822,-0.094822,-0.090780,29634,-26
0.928000,53.911085,-414.033500,-532.081119,32.514038,-21.423340,102.855323,21.397047,-516.888823,0.485857,4.049300,4.049300,4.535157,-0.160200,-0.103511,-0.103511,-0.091848,29595,-35
0.930000,53.056363,-440.477500,-523.645347,32.470093,-21.972656,90.372525,20.586270,-530.850025,0.481416,3.310356,3.310356,3.791772,-0.160200,-0.112803,-0.112803,-0.104664,29555,-31
0.932000,52.149175,-466.485750,-514.691766,32.421753,-24.169922,78.918280,19.727422,-545.404030,0.476541,2.531700,2.531700,3.008242,-0.160200,-0.122597,-0.122597,-0.108936,29511,-42
0.934000,51.190420,-492.032750,-505.229228,32.370117,-25.817871,68.444665,18.820303,-560.477415,0.471211,1.714492,1.714492,2.185704,-0.160200,-0.132879,-0.132879,-0.118548,29464,-47
0.936000,50.181044,-517.093250,-495.267092,32.305298,-32.409668,58.359232,17.875746,-575.452482,0.465404,0.876131,0.876131,1.341536,-0.160200,-0.143431,-0.143431,-0.130296,29405,-53
0.938000,49.122047,-541.642250,-484.815208,32.213013,-46.142578,47.909051,16.909034,-589.551301,0.459100,0.039530,0.039530,0.498630,-0.160200,-0.153967,-0.153967,-0.145248,29321,-83
0.940000,48.014475,-565.655750,-473.883912,32.104248,-54.382324,37.679913,15.910227,-603.335663,0.452277,-0.811189,-0.811189,-0.358913,-0.160200,-0.164686,-0.164686,-0.151656,29222,-74
0.942000,46.859424,-589.109750,-462.484012,31.980103,-62.072754,27.704647,14.879321,-616.814397,0.444916,-1.676182,-1.676182,-1.231266,-0.160200,-0.175591,-0.175591,-0.165540,29109,-82
0.944000,45.658036,-611.981500,-450.626783,31.833984,-73.059082,17.628274,13.824052,-629.609774,0.436999,-2.544131,-2.544131,-2.107132,-0.160200,-0.186539,-0.186539,-0.177288,28976,-125
0.946000,44.411498,-634.248000,-438.323949,31.679077,-77.453613,8.120085,12.732421,-642.368085,0.428510,-3.433645,-3.433645,-3.005135,-0.160200,-0.197764,-0.197764,-0.186900,28835,-134
0.948000,43.121044,-655.887250,-425.587675,31.505493,-86.791992,-1.371123,11.615551,-654.516127,0.419432,-4.327925,-4.327925,-3.908493,-0.160200,-0.209056,-0.209056,-0.199716,28677,-118
0.950000,41.787949,-676.878000,-412.430557,31.295654,-104.919434,-11.725954,10.492295,-665.152046,0.409752,-5.199715,-5.199715,-4.789963,-0.160200,-0.220075,-0.220075,-0.208260,28486,-131
0.952000,40.413532,-697.199250,-398.865605,31.068237,-113.708496,-21.924208,9.345295,-675.275042,0.399460,-6.077057,-6.077057,-5.677597,-0.160200,-0.231170,-0.231170,-0.215736,28279,-169
0.954000,38.999152,-716.831250,-384.906231,30.827637,-120.300293,-31.761817,8.171515,-685.069433,0.388545,-6.965023,-6.965023,-6.576477,-0.160200,-0.242406,-0.242406,-0.230688,28060,-167
0.956000,37.546207,-735.754250,-370.566241,30.576050,-125.793457,-41.164981,6.970157,-694.589269,0.377002,-7.865043,-7.865043,-7.488041,-0.160200,-0.253801,-0.253801,-0.244572,27831,-182
0.958000,36.056135,-753.949750,-355.859815,30.283813,-146.118164,-51.660299,5.772322,-702.289451,0.364827,-8.731153,-8.731153,-8.366326,-0.160200,-0.264779,-0.264779,-0.249912,27565,-218
0.960000,34.530408,-771.399750,-340.801494,29.959717,-162.048340,-62.699103,4.570691,-708.700647,0.352018,-9.577083,-9.577083,-9.225065,-0.160200,-0.275513,-0.275513,-0.261660,27270,-199
0.962000,32.970536,-788.087000,-325.406170,29.627930,-165.893555,-73.018548,3.342606,-715.068452,0.338579,-10.438417,-10.438417,-10.099838,-0.160200,-0.286448,-0.286448,-0.279816,26968,-222
0.964000,31.378060,-803.994750,-309.689066,29.230225,-198.852539,-85.601947,2.147835,-718.392803,0.324513,-11.226282,-11.226282,-10.901768,-0.160200,-0.296472,-0.296472,-0.290496,26606,-322
0.966000,29.754557,-819.107500,-293.665724,28.847900,-191.162109,-96.157963,0.906657,-722.949537,0.309831,-12.064005,-12.064005,-11.754174,-0.160200,-0.307127,-0.307127,-0.294768,26258,-332
0.968000,28.101630,-833.410500,-277.351990,28.437012,-205.444336,-107.086601,-0.335382,-726.323899,0.294543,-12.881617,-12.881617,-12.587073,-0.160200,-0.317538,-0.317538,-0.309720,25884,-303
0.970000,26.420915,-846.889250,-260.763994,27.997559,-219.726562,-118.350597,-1.576644,-728.538653,0.278666,-13.678515,-13.678515,-13.399849,-0.160200,-0.327698,-0.327698,-0.316128,25484,-325
0.972000,24.714073,-859.530750,-243.918140,27.584473,-206.542969,-127.169834,-2.870400,-732.360916,0.262216,-14.535537,-14.535537,-14.273320,-0.160200,-0.338617,-0.338617,-0.326808,25108,-364
0.974000,22.982792,-871.322000,-226.831086,27.035156,-274.658203,-141.918671,-4.052364,-729.403329,0.245217,-15.205938,-15.205938,-14.960721,-0.160200,-0.347209,-0.347209,-0.336420,24608,-402
0.976000,21.228785,-882.251500,-209.519729,26.511108,-262.023926,-153.929196,-5.282323,-728.322304,0.227694,-15.938410,-15.938410,-15.710716,-0.160200,-0.356584,-0.356584,-0.347100,24131,-413
0.978000,19.453786,-892.308750,-192.001187,26.021118,-244.995117,-163.035789,-6.567332,-729.272961,0.209675,-16.739969,-16.739969,-16.530294,-0.160200,-0.366829,-0.366829,-0.360984,23685,-399
0.980000,17.659550,-901.483750,-174.292784,25.491577,-264.770508,-173.209260,-7.832027,-728.274490,0.191191,-17.495101,-17.495101,-17.303910,-0.160200,-0.376499,-0.376499,-0.364188,23203,-413
0.982000,15.847851,-909.767250,-156.412030,24.895020,-298.278809,-185.716215,-9.047169,-724.051035,0.172277,-18.163675,-18.163675,-17.991398,-0.160200,-0.385092,-0.385092,-0.379140,22660,-497
0.984000,14.020481,-917.151250,-138.376607,24.284180,-305.419922,-197.686586,-10.263699,-719.464664,0.152971,-18.826764,-18.826764,-18.673793,-0.160200,-0.393622,-0.393622,-0.386616,22104,-490
0.986000,12.179246,-923.628250,-120.204350,23.581055,-351.562500,-213.074177,-11.401809,-710.554073,0.133311,-19.366477,-19.366477,-19.233165,-0.160200,-0.400615,-0.400615,-0.394092,21464,-529
0.988000,10.325968,-929.191750,-101.913228,22.872437,-354.309082,-227.197668,-12.546469,-701.994082,0.113341,-19.916310,-19.916310,-19.802969,-0.160200,-0.407737,-0.407737,-0.399432,20819,-526
0.990000,8.462479,-933.836500,-83.521328,22.168213,-352.111816,-239.689083,-13.705734,-694.147417,0.093104,-20.487514,-20.487514,-20.394411,-0.160200,-0.415130,-0.415130,-0.410112,20178,-550
0.992000,6.590622,-937.557750,-65.046838,21.457397,-355.407715,-251.260946,-14.866775,-686.296804,0.072646,-21.059735,-21.059735,-20.987089,-0.160200,-0.422539,-0.422539,-0.417588,19531,-583
0.994000,4.712248,-940.352000,-46.508026,20.758667,-349.365234,-261.071375,-16.046419,-679.280625,0.052015,-21.657883,-21.657883,-21.605868,-0.160200,-0.430273,-0.430273,-0.426132,18895,-600
0.996000,2.829214,-942.216500,-27.923224,19.980835,-388.916016,-273.855839,-17.151621,-668.360661,0.031259,-22.142423,-22.142423,-22.111164,-0.160200,-0.436590,-0.436590,-0.432540,18187,-621
0.998000,0.943382,-943.149000,-9.310810,19.194214,-393.310547,-285.801310,-18.250832,-657.347690,0.010428,-22.621680,-22.621680,-22.611252,-0.160200,-0.442841,-0.442841,-0.442152,17471,-637
1.000000,-0.943382,-943.149000,9.310810,18.419678,-387.268066,-295.947985,-19.363060,-647.201015,-0.010428,-23.124009,-23.124009,-23.134437,-0.160200,-0.449380,-0.449380,-0.436812,16766,-680
1.002000,-2.829214,-942.216500,27.923224,17.624268,-397.705078,-306.123695,-20.453482,-636.092805,-0.031259,-23.596235,-23.596235,-23.627494,-0.160200,-0.455544,-0.455544,-0.450696,16042,-689
1.004000,-4.712248,-940.352000,46.508026,16.643188,-490.539551,-324.565280,-21.355436,-615.786720,-0.052015,-23.792800,-23.792800,-23.844814,-0.160200,-0.458260,-0.458260,-0.457104,15149,-717
1.006000,-6.590622,-937.557750,65.046838,15.564331,-539.428711,-346.051623,-22.154953,-591.506127,-0.072646,-23.857420,-23.857420,-23.930066,-0.160200,-0.459326,-0.459326,-0.460308,14167,-723
1.008000,-8.462479,-933.836500,83.521328,14.582153,-491.088867,-360.555348,-23.044632,-573.281152,-0.093104,-24.082808,-24.082808,-24.175912,-0.160200,-0.462399,-0.462399,-0.465648,13273,-736
1.010000,-10.325968,-929.191750,101.913228,13.598877,-491.638184,-373.663631,-23.924845,-555.528119,-0.113341,-24.310651,-24.310651,-24.423992,-0.160200,-0.465500,-0.465500,-0.460308,12378,-755
1.012000,-12.179246,-923.628250,120.204350,12.646362,-476.257324,-383.923001,-24.825608,-539.705249,-0.133311,-24.584735,-24.584735,-24.718046,-0.160200,-0.469176,-0.469176,-0.466716,11511,-782
1.014000,-14.020481,-917.151250,138.376607,11.724609,-460.876465,-391.618347,-25.745090,-525.532903,-0.152971,-24.899060,-24.899060,-25.052031,-0.160200,-0.473350,-0.473350,-0.465648,10672,-774
1.016000,-15.847851,-909.767250,156.412030,10.551270,-586.669922,-411.123504,-26.399121,-498.643746,-0.172277,-24.829280,-24.829280,-25.001558,-0.160200,-0.472719,-0.472719,-0.478464,9604,-814
1.018000,-17.659550,-901.483750,174.292784,9.474609,-538.330078,-423.844162,-27.134159,-477.639588,-0.191191,-24.911698,-24.911698,-25.102889,-0.160200,-0.473986,-0.473986,-0.474192,8624,-783
1.020000,-19.453786,-892.308750,192.001187,8.260620,-606.994629,-442.159209,-27.714406,-450.149541,-0.209675,-24.786359,-24.786359,-24.996034,-0.160200,-0.472650,-0.472650,-0.476328,7519,-815
1.022000,-21.228785,-882.251500,209.519729,7.079590,-590.515137,-456.994801,-28.308375,-425.256699,-0.227694,-24.714732,-24.714732,-24.942426,-0.160200,-0.471980,-0.471980,-0.478464,6444,-841
1.024000,-22.982792,-871.322000,226.831086,6.032593,-523.498535,-463.645175,-29.015385,-407.676825,-0.245217,-24.839793,-24.839793,-25.085010,-0.160200,-0.473763,-0.473763,-0.473124,5491,-859
1.026000,-24.714073,-859.530750,243.918140,4.821899,-605.346680,-477.815325,-29.535972,-381.715425,-0.262216,-24.704690,-24.704690,-24.966906,-0.160200,-0.472286,-0.472286,-0.470988,4389,-837
1.028000,-26.420915,-846.889250,260.763994,3.755127,-533.386230,-483.372416,-30.176042,-363.516834,-0.278666,-24.778061,-24.778061,-25.056726,-0.160200,-0.473409,-0.473409,-0.468852,3418,-835
1.030000,-28.101630,-833.410500,277.351990,2.607056,-574.035645,-492.438739,-30.708686,-340.971761,-0.294543,-24.709948,-24.709948,-25.004492,-0.160200,-0.472756,-0.472756,-0.475260,2373,-855
1.032000,-29.754557,-819.107500,293.665724,1.500732,-553.161621,-498.511027,-31.255289,-320.596473,-0.309831,-24.688234,-24.688234,-24.998065,-0.160200,-0.472676,-0.472676,-0.467784,1366,-877
1.034000,-31.378060,-803.994750,309.689066,0.464722,-518.005371,-500.460461,-31.842782,-303.534289,-0.324513,-24.749321,-24.749321,-25.073835,-0.160200,-0.473623,-0.473623,-0.468852,423,-864
1.036000,-32.970536,-788.087000,325.406170,-0.729492,-597.106934,-510.125109,-32.241044,-277.961891,-0.338579,-24.546283,-24.546283,-24.884862,-0.160200,-0.471261,-0.471261,-0.469920,-664,-877
1.038000,-34.530408,-771.399750,340.801494,-1.873169,-571.838379,-516.296436,-32.657239,-255.103314,-0.352018,-24.401565,-24.401565,-24.753583,-0.160200,-0.469620,-0.469620,-0.475260,-1705,-873
1.040000,-36.056135,-753.949750,355.859815,-3.128906,-627.868652,-527.453657,-32.927229,-226.496093,-0.364827,-24.067202,-24.067202,-24.432029,-0.160200,-0.465600,-0.465600,-0.467784,-2848,-889
1.042000,-37.546207,-735.754250,370.566241,-4.445068,-658.081055,-540.516397,-33.101139,-195.237853,-0.377002,-23.627878,-23.627878,-24.004880,-0.160200,-0.460261,-0.460261,-0.464580,-4046,-883
1.044000,-38.999152,-716.831250,384.906231,-5.760132,-657.531738,-552.217931,-33.239020,-164.613319,-0.388545,-23.177606,-23.177606,-23.566152,-0.160200,-0.454777,-0.454777,-0.463512,-5243,-857
1.046000,-40.413532,-697.199250,398.865605,-6.991699,-615.783691,-558.574507,-33.421833,-138.624743,-0.399460,-22.835694,-22.835694,-23.235154,-0.160200,-0.450639,-0.450639,-0.453900,-6364,-879
1.048000,-41.787949,-676.878000,412.430557,-8.092529,-550.415039,-557.758560,-33.695420,-119.119440,-0.409752,-22.662387,-22.662387,-23.072139,-0.160200,-0.448602,-0.448602,-0.449628,-7366,-861
1.050000,-43.121044,-655.887250,425.587675,-9.261475,-584.472656,-560.429970,-33.859569,-95.457280,-0.419432,-22.349678,-22.349678,-22.769110,-0.160200,-0.444814,-0.444814,-0.448560,-8430,-840
1.052000,-44.411498,-634.248000,438.323949,-10.443604,-591.064453,-563.493418,-33.967894,-70.754582,-0.428510,-21.984706,-21.984706,-22.413216,-0.160200,-0.440365,-0.440365,-0.446424,-9506,-848
1.054000,-45.658036,-611.981500,450.626783,-11.437866,-497.131348,-556.857211,-34.220170,-55.124289,-0.436999,-21.866013,-21.866013,-22.303012,-0.160200,-0.438988,-0.438988,-0.441084,-10411,-851
1.056000,-46.859424,-589.109750,462.484012,-12.453003,-507.568359,-551.928326,-34.406421,-37.181424,-0.444916,-21.666625,-21.666625,-22.111541,-0.160200,-0.436594,-0.436594,-0.438948,-11335,-839
1.058000,-48.014475,-565.655750,473.883912,-13.606567,-576.782227,-554.413716,-34.407908,-11.242034,-0.452277,-21.214805,-21.214805,-21.667082,-0.160200,-0.431039,-0.431039,-0.431472,-12385,-837
1.060000,-49.122047,-541.642250,484.815208,-14.575562,-484.497070,-547.422051,-34.546485,5.779801,-0.459100,-21.002371,-21.002371,-21.461470,-0.160200,-0.428468,-0.428468,-0.435744,-13267,-816
1.062000,-50.181044,-517.093250,495.267092,-15.704956,-564.697266,-549.149573,-34.476088,32.056323,-0.465404,-20.500755,-20.500755,-20.966160,-0.160200,-0.422277,-0.422277,-0.430404,-14295,-825
1.064000,-51.190420,-492.032750,505.229228,-16.657471,-476.257324,-541.860348,-34.532949,49.827598,-0.471211,-20.225323,-20.225323,-20.696534,-0.160200,-0.418907,-0.418907,-0.419724,-15162,-787
1.066000,-52.149175,-466.485750,514.691766,-17.622070,-482.299805,-535.904294,-34.527105,69.418544,-0.476541,-19.879826,-19.879826,-20.356367,-0.160200,-0.414655,-0.414655,-0.417588,-16040,-815
1.068000,-53.056363,-440.477500,523.645347,-18.572388,-475.158691,-529.829733,-34.483975,89.352233,-0.481416,-19.505571,-19.505571,-19.986987,-0.160200,-0.410037,-0.410037,-0.403704,-16905,-789
1.070000,-53.911085,-414.033500,532.081119,-19.529297,-478.454590,-524.692219,-34.381788,110.658719,-0.485857,-19.071280,-19.071280,-19.557137,-0.160200,-0.404664,-0.404664,-0.407976,-17776,-792
1.072000,-54.712497,-387.180250,539.990739,-20.566406,-518.554688,-524.078466,-34.146091,136.898216,-0.489885,-18.469335,-18.469335,-18.959221,-0.160200,-0.397190,-0.397190,-0.406908,-18720,-745
