khanfazel/E-wera--maxon_motor/PD_control/pd_feedforward_log_filtered.csv
t_s,q_ref_deg,qd_ref_deg_s,qdd_ref_deg_s2,q_link_deg,qd_link_raw_deg_s,qd_link_filt_deg_s,pos_error_deg,vel_error_deg_s,tau_joint_ff_Nm,tau_pd_joint_raw_Nm,tau_pd_joint_limited_Nm,tau_joint_total_Nm,tau_dead_motor_Nm,tau_motor_cmd_before_clamp_Nm,tau_motor_cmd_Nm,tau_motor_actual_Nm,motor_pos_counts,motor_vel_native
0.000000,0.000000,943.265500,0.000000,-0.009888,0.000000,0.000000,0.009888,943.265500,0.000000,16.469129,16.469129,16.469129,0.160200,0.366064,0.366064,-0.001068,-9,0
0.002000,1.886531,942.799250,0.000000,-0.005493,2.197266,0.219727,1.892024,942.579523,0.027289,17.606888,17.606888,17.634177,0.160200,0.380627,0.380627,0.360984,-5,72
0.004000,3.771197,941.400750,-37.220226,0.108765,57.128906,5.910645,3.662432,935.490105,0.041649,18.564635,18.564635,18.606284,0.160200,0.392779,0.392779,0.380208,99,138
0.006000,5.652134,939.071000,-55.784328,0.319702,105.468750,15.866455,5.332432,923.204545,0.062349,19.370356,19.370356,19.432705,0.160200,0.403109,0.403109,0.390888,291,233
0.008000,7.527481,935.812750,-74.293267,0.593262,136.779785,27.957788,6.934219,907.854962,0.082899,20.080932,20.080932,20.163831,0.160200,0.412248,0.412248,0.405840,540,231
0.010000,9.395385,931.629250,-92.728741,0.923950,165.344238,41.696433,8.471435,889.932817,0.103253,20.707163,20.707163,20.810416,0.160200,0.420330,0.420330,0.411180,841,346
0.012000,11.253998,926.524500,-111.072519,1.302979,189.514160,56.478206,9.951019,870.046294,0.123362,21.263904,21.263904,21.387267,0.160200,0.427541,0.427541,0.415452,1186,373
0.014000,13.101483,920.503500,-129.306462,1.723755,210.388184,71.869204,11.377728,848.634296,0.143183,21.761721,21.761721,21.904904,0.160200,0.434011,0.434011,0.423996,1569,329
0.016000,14.936012,913.572250,-147.412541,2.180786,228.515625,87.533846,12.755226,826.038404,0.162671,22.208814,22.208814,22.371485,0.160200,0.439844,0.439844,0.434676,1985,433
0.018000,16.755772,905.737500,-165.372849,2.669678,244.445801,103.225041,14.086094,802.512459,0.181786,22.611190,22.611190,22.792976,0.160200,0.445112,0.445112,0.441084,2430,464
0.020000,18.558962,897.007250,-183.169628,3.198120,264.221191,119.324656,15.360842,777.682594,0.200489,22.956526,22.956526,23.157015,0.160200,0.449663,0.449663,0.442152,2911,474
0.022000,20.343801,887.390000,-200.785278,3.762817,282.348633,135.627054,16.580984,751.762946,0.218745,23.249485,23.249485,23.468230,0.160200,0.453553,0.453553,0.449628,3425,457
0.024000,22.108522,876.895000,-218.202380,4.351685,294.433594,151.507708,17.756837,725.387292,0.236520,23.507431,23.507431,23.743951,0.160200,0.456999,0.456999,0.449628,3961,479
0.026000,23.851381,865.533250,-235.403712,4.932861,290.588379,165.415775,18.918520,700.117475,0.253784,23.776021,23.776021,24.029805,0.160200,0.460573,0.460573,0.459240,4490,521
0.028000,25.570655,853.315500,-252.372264,5.532715,299.926758,178.866873,20.037940,674.448627,0.270511,24.011830,24.011830,24.282341,0.160200,0.463729,0.463729,0.462444,5036,512
0.030000,27.264643,840.253750,-269.091255,6.146851,307.067871,191.686973,21.117792,648.566777,0.286677,24.219751,24.219751,24.506428,0.160200,0.466530,0.466530,0.467784,5595,500
0.032000,28.931670,826.361000,-285.544154,6.774170,313.659668,203.884243,22.157500,622.476757,0.302262,24.399515,24.399515,24.701778,0.160200,0.468972,0.468972,0.466716,6166,519
0.034000,30.570087,811.651500,-301.714692,7.416870,321.350098,215.630828,23.153217,596.020672,0.317249,24.546018,24.546018,24.863267,0.160200,0.470991,0.470991,0.468852,6751,553
0.036000,32.178276,796.139500,-317.586877,8.070557,326.843262,226.752071,24.107719,569.387429,0.331624,24.664253,24.664253,24.995877,0.160200,0.472648,0.472648,0.470988,7346,534
0.038000,33.754645,779.839750,-333.145014,8.784668,357.055664,239.782431,24.969977,540.057319,0.345377,24.679069,24.679069,25.024446,0.160200,0.473006,0.473006,0.475260,7996,580
0.040000,35.297635,762.769000,-348.373719,9.459229,337.280273,249.532215,25.838406,513.236785,0.358502,24.741456,24.741456,25.099958,0.160200,0.473949,0.473949,0.472056,8610,570
0.042000,36.805721,744.944000,-363.257932,10.141479,341.125488,258.691542,26.664242,486.252458,0.370994,24.774965,24.774965,25.145958,0.160200,0.474524,0.474524,0.475260,9231,568
0.044000,38.277411,726.382500,-377.782936,10.828125,343.322754,267.154663,27.449286,459.227837,0.382852,24.782852,24.782852,25.165705,0.160200,0.474771,0.474771,0.475260,9856,579
0.046000,39.711251,707.102750,-391.934367,11.518066,344.970703,274.936267,28.193185,432.166483,0.394081,24.764964,24.764964,25.159045,0.160200,0.474688,0.474688,0.473124,10484,586
0.048000,41.105822,687.123500,-405.698231,12.215698,348.815918,282.324232,28.890124,404.799268,0.404683,24.713052,24.713052,25.117736,0.160200,0.474172,0.474172,0.473124,11119,585
0.050000,42.459745,666.465000,-419.060918,12.915527,349.914551,289.083264,29.544218,377.381736,0.414668,24.634089,24.634089,25.048758,0.160200,0.473309,0.473309,0.477396,11756,579
0.052000,43.771682,645.147500,-432.009215,13.623047,353.759766,295.550914,30.148635,349.596586,0.424045,24.518365,24.518365,24.942410,0.160200,0.471980,0.471980,0.480600,12400,602
0.054000,45.040335,623.191750,-444.530316,14.460205,418.579102,307.853733,30.580130,315.338017,0.432827,24.184025,24.184025,24.616852,0.160200,0.467911,0.467911,0.469920,13162,596
0.056000,46.264449,600.619750,-456.611842,15.225952,382.873535,315.355713,31.038497,285.264037,0.441028,23.939135,23.939135,24.380164,0.160200,0.464952,0.464952,0.469920,13859,571
0.058000,47.442814,577.454250,-468.241844,15.988403,381.225586,321.942701,31.454411,255.511549,0.448665,23.673924,23.673924,24.122589,0.160200,0.461732,0.461732,0.459240,14553,595
0.060000,48.574266,553.717500,-479.408822,16.734375,372.985840,327.047015,31.839891,226.670485,0.455754,23.406029,23.406029,23.861783,0.160200,0.458472,0.458472,0.462444,15232,584
0.062000,49.657684,529.433000,-490.101734,17.442993,354.309082,329.773221,32.214691,199.659779,0.462316,23.163555,23.163555,23.625871,0.160200,0.455523,0.455523,0.458172,15877,573
0.064000,50.691998,504.625250,-500.310006,18.149414,353.210449,332.116944,32.542584,172.508306,0.468369,22.889971,22.889971,23.358340,0.160200,0.452179,0.452179,0.459240,16520,577
0.066000,51.676185,479.318500,-510.023544,18.854736,352.661133,334.171363,32.821449,145.147137,0.473935,22.582778,22.582778,23.056712,0.160200,0.448409,0.448409,0.452832,17162,573
0.068000,52.609272,453.537750,-519.232741,19.550171,347.717285,335.525955,33.059101,118.011795,0.479034,22.254350,22.254350,22.733384,0.160200,0.444367,0.444367,0.447492,17795,566
0.070000,53.490336,427.308250,-527.928493,20.237915,343.872070,336.360567,33.252421,90.947683,0.483689,21.900085,21.900085,22.383774,0.160200,0.439997,0.439997,0.444288,18421,579
0.072000,54.318505,400.656500,-536.102199,20.921265,341.674805,336.891990,33.397240,63.764510,0.487921,21.514114,21.514114,22.002035,0.160200,0.435225,0.435225,0.440016,19043,564
0.074000,55.092962,373.608500,-543.745778,21.596924,337.829590,336.985750,33.496038,36.622750,0.491752,21.100753,21.100753,21.592505,0.160200,0.430106,0.430106,0.435744,19658,548
0.076000,55.812939,346.191000,-550.851670,22.265991,334.533691,336.740545,33.546948,9.450455,0.495201,20.657606,20.657606,21.152807,0.160200,0.424610,0.424610,0.432540,20267,547
0.078000,56.477726,318.431250,-557.412850,22.927368,330.688477,336.135338,33.550358,-17.704088,0.498290,20.185753,20.185753,20.684043,0.160200,0.418751,0.418751,0.425064,20869,543
0.080000,57.086664,290.356250,-563.422828,23.578857,325.744629,335.096267,33.507807,-44.740017,0.501038,19.687894,19.687894,20.188931,0.160200,0.412562,0.412562,0.415452,21462,540
0.082000,57.639151,261.994500,-568.875663,24.295166,358.154297,337.402070,33.343985,-75.407570,0.503463,19.052571,19.052571,19.556034,0.160200,0.404650,0.404650,0.409044,22114,537
0.084000,58.134642,233.373750,-573.765962,24.918091,311.462402,334.808103,33.216551,-101.434353,0.505582,18.520473,18.520473,19.026055,0.160200,0.398026,0.398026,0.406908,22681,510
0.086000,58.572646,204.522000,-578.088888,25.576172,329.040527,334.231346,32.996474,-129.709346,0.507412,17.892544,17.892544,18.399956,0.160200,0.390199,0.390199,0.399432,23280,525
0.088000,58.952730,175.468250,-581.840169,26.247437,335.632324,334.371443,32.705293,-158.903193,0.508967,17.205143,17.205143,17.714109,0.160200,0.381626,0.381626,0.388752,23891,487
0.090000,59.274519,146.240750,-585.016093,26.858276,305.419922,331.476291,32.416243,-185.235541,0.510258,16.568986,16.568986,17.079244,0.160200,0.373691,0.373691,0.382344,24447,477
0.092000,59.537693,116.868500,-587.613520,27.452637,297.180176,328.046680,32.085056,-211.178180,0.511298,15.913891,15.913891,16.425189,0.160200,0.365515,0.365515,0.372732,24988,437
0.094000,59.741993,87.381000,-589.629883,28.014038,280.700684,323.312080,31.727955,-235.931080,0.512094,15.263731,15.263731,15.775825,0.160200,0.357398,0.357398,0.368460,25499,410
0.096000,59.887217,57.807000,-591.063187,28.528198,257.080078,316.688880,31.359019,-258.881880,0.512655,14.637793,14.637793,15.150448,0.160200,0.349581,0.349581,0.354576,25967,471
0.098000,59.973221,28.176000,-591.912014,29.037964,254.882812,310.508273,30.935257,-282.332273,0.512985,13.969645,13.969645,14.482630,0.160200,0.341233,0.341233,0.351372,26431,452
0.100000,59.999921,-1.483000,-592.175526,29.529053,245.544434,304.011889,30.470868,-305.494889,0.513087,13.281703,13.281703,13.794789,-0.160200,0.012235,0.012235,0.340692,26878,371
0.102000,59.967289,-31.140750,-591.853461,30.032227,251.586914,298.769392,29.935062,-329.910142,0.512962,12.528271,12.528271,13.041233,-0.160200,0.002815,0.002815,0.012816,27336,338
0.104000,59.875358,-60.767500,-590.946139,30.385986,176.879883,286.580441,29.489372,-347.347941,0.512609,11.951667,11.951667,12.464276,-0.160200,-0.004397,-0.004397,0.003204,27658,184
0.106000,59.724219,-90.334250,-589.454456,30.565063,89.538574,266.876254,29.159156,-357.210504,0.512025,11.577815,11.577815,12.089840,-0.160200,-0.009077,-0.009077,-0.005340,27821,86
0.108000,59.514021,-119.811500,-587.379888,30.645264,40.100098,244.198638,28.868757,-364.010138,0.511205,11.281745,11.281745,11.792950,-0.160200,-0.012788,-0.012788,-0.007476,27894,22
0.110000,59.244973,-149.170500,-584.724485,30.661743,8.239746,220.602749,28.583230,-369.773249,0.510140,11.006741,11.006741,11.516881,-0.160200,-0.016239,-0.016239,-0.012816,27909,0
0.112000,58.917339,-178.382000,-581.490875,30.654053,-3.845215,198.157953,28.263286,-376.539953,0.508823,10.693197,10.693197,11.202020,-0.160200,-0.020175,-0.020175,-0.017088,27902,-11
0.114000,58.531445,-207.416750,-577.682254,30.641968,-6.042480,177.737910,27.889477,-385.154660,0.507242,10.314495,10.314495,10.821737,-0.160200,-0.024928,-0.024928,-0.020292,27891,-7
0.116000,58.087672,-236.246500,-573.302388,30.636475,-2.746582,159.689460,27.451197,-395.935960,0.505384,9.858596,9.858596,10.363980,-0.160200,-0.030650,-0.030650,-0.027768,27886,-4
0.118000,57.586459,-264.842750,-568.355609,30.630981,-2.746582,143.445856,26.955478,-408.288606,0.503234,9.340184,9.340184,9.843418,-0.160200,-0.037157,-0.037157,-0.024564,27881,-4
0.120000,57.028301,-293.177250,-562.846808,30.626587,-2.197266,128.881544,26.401714,-422.058794,0.500778,8.761574,8.761574,9.262352,-0.160200,-0.044421,-0.044421,-0.038448,27877,-3
0.122000,56.413750,-321.221750,-556.781433,30.623291,-1.647949,115.828595,25.790459,-437.050345,0.497997,8.126527,8.126527,8.624524,-0.160200,-0.052393,-0.052393,-0.044856,27874,-3
0.124000,55.743414,-348.948750,-550.165481,30.618896,-2.197266,104.026009,25.124518,-452.974759,0.494873,7.441793,7.441793,7.936666,-0.160200,-0.060992,-0.060992,-0.056604,27870,-4
0.126000,55.017955,-376.330500,-543.005495,30.611206,-3.845215,93.238886,24.406749,-469.569386,0.491386,6.713703,6.713703,7.205089,-0.160200,-0.070136,-0.070136,-0.059808,27863,-8
0.128000,54.238092,-403.339750,-535.308555,30.600220,-5.493164,83.365681,23.637872,-486.705431,0.487517,5.944942,5.944942,6.432459,-0.160200,-0.079794,-0.079794,-0.073692,27853,-13
0.130000,53.404596,-429.950500,-527.082272,30.585938,-7.141113,74.315002,22.818658,-504.265502,0.483243,5.138032,5.138032,5.621275,-0.160200,-0.089934,-0.089934,-0.082236,27840,-13
0.132000,52.518290,-456.136500,-518.334780,30.566162,-9.887695,65.894732,21.952128,-522.031232,0.478545,4.298628,4.298628,4.777173,-0.160200,-0.100485,-0.100485,-0.086508,27822,-23
0.134000,51.580050,-481.871000,-509.074730,30.539795,-13.183594,57.986899,21.040255,-539.857899,0.473399,3.430463,3.430463,3.903862,-0.160200,-0.111402,-0.111402,-0.100392,27798,-22
0.136000,50.590806,-507.128750,-499.311279,30.505737,-17.028809,50.485329,20.085069,-557.614079,0.467786,2.537069,2.537069,3.004854,-0.160200,-0.122639,-0.122639,-0.112140,27767,-29
0.138000,49.551535,-531.885500,-489.054081,30.462891,-21.423340,43.294462,19.088644,-575.179962,0.461683,1.621805,1.621805,2.083488,-0.160200,-0.134156,-0.134156,-0.124956,27728,-52
0.140000,48.463264,-556.116250,-478.313278,30.413452,-24.719238,36.493092,18.049812,-592.609342,0.455069,0.683018,0.683018,1.138088,-0.160200,-0.145974,-0.145974,-0.135636,27683,-54
0.142000,47.327070,-579.796750,-467.099493,30.356323,-28.564453,29.987337,16.970747,-609.784087,0.447926,-0.275901,-0.275901,0.172025,-0.160200,-0.158050,-0.158050,-0.145248,27631,-45
0.144000,46.144077,-602.904250,-455.423814,30.290405,-32.958984,23.692705,15.853672,-626.596955,0.440234,-1.251723,-1.251723,-0.811489,-0.160200,-0.170344,-0.170344,-0.154860,27571,-59
0.146000,44.915453,-625.415500,-443.297786,30.215698,-37.353516,17.588083,14.699755,-643.003583,0.431975,-2.242960,-2.242960,-1.810985,-0.160200,-0.182837,-0.182837,-0.166608,27503,-62
0.148000,43.642415,-647.308250,-430.733401,30.130005,-42.846680,11.544607,13.512410,-658.852857,0.423135,-3.244890,-3.244890,-2.821755,-0.160200,-0.195472,-0.195472,-0.182628,27425,-90
0.150000,42.326220,-668.560750,-417.743082,30.019043,-55.480957,4.842050,12.307177,-673.402800,0.413697,-4.235069,-4.235069,-3.821372,-0.160200,-0.207967,-0.207967,-0.201852,27324,-96
0.152000,40.968172,-689.152250,-404.339676,29.893799,-62.622070,-1.904362,11.074373,-687.247888,0.403651,-5.229789,-5.229789,-4.826138,-0.160200,-0.220527,-0.220527,-0.208260,27210,-125
0.154000,39.569611,-709.062500,-390.536436,29.753174,-70.312500,-8.745175,9.816437,-700.317325,0.392986,-6.226323,-6.226323,-5.833337,-0.160200,-0.233117,-0.233117,-0.220008,27082,-108
0.156000,38.131922,-728.271250,-376.347012,29.589478,-81.848145,-16.055472,8.542444,-712.215778,0.381695,-7.212228,-7.212228,-6.830533,-0.160200,-0.245582,-0.245582,-0.231756,26933,-130
0.158000,36.656526,-746.760000,-361.785435,29.410400,-89.538574,-23.403783,7.246126,-723.356217,0.369773,-8.198541,-8.198541,-7.828769,-0.160200,-0.258060,-0.258060,-0.243504,26770,-159
0.160000,35.144882,-764.510500,-346.866104,29.222534,-93.933105,-30.456715,5.922348,-734.053785,0.357218,-9.193899,-9.193899,-8.836682,-0.160200,-0.270659,-0.270659,-0.256320,26599,-159
0.162000,33.598484,-781.504750,-331.603773,28.996216,-113.159180,-38.726961,4.602268,-742.777789,0.344030,-10.152552,-10.152552,-9.808522,-0.160200,-0.282807,-0.282807,-0.272340,26393,-189
0.164000,32.018863,-797.726250,-316.013534,28.763306,-116.455078,-46.499773,3.255557,-751.226477,0.330214,-11.122669,-11.122669,-10.792454,-0.160200,-0.295106,-0.295106,-0.280884,26181,-199
0.166000,30.407579,-813.159000,-300.110802,28.519409,-121.948242,-54.044620,1.888170,-759.114380,0.315777,-12.095628,-12.095628,-11.779851,-0.160200,-0.307448,-0.307448,-0.293700,25959,-187
0.168000,28.766227,-827.787250,-283.911305,28.233765,-142.822266,-62.922385,0.532462,-764.864865,0.300730,-13.024147,-13.024147,-12.723417,-0.160200,-0.319243,-0.319243,-0.306516,25699,-266
0.170000,27.096430,-841.597500,-267.431059,27.949219,-142.272949,-70.857441,-0.852789,-770.740059,0.285086,-13.972891,-13.972891,-13.687804,-0.160200,-0.331298,-0.331298,-0.320400,25440,-226
0.172000,25.399837,-854.575500,-250.686364,27.644897,-152.160645,-78.987761,-2.245060,-775.587739,0.268863,-14.907989,-14.907989,-14.639126,-0.160200,-0.343189,-0.343189,-0.334284,25163,-305
0.174000,23.678128,-866.708000,-233.693775,27.316406,-164.245605,-87.513546,-3.638278,-779.194454,0.252081,-15.822006,-15.822006,-15.569925,-0.160200,-0.354824,-0.354824,-0.341760,24864,-317
0.176000,21.933005,-877.983750,-216.470097,26.962646,-176.879883,-96.450179,-5.029641,-781.533571,0.234765,-16.712767,-16.712767,-16.478003,-0.160200,-0.366175,-0.366175,-0.350304,24542,-290
0.178000,20.166193,-888.391250,-199.032362,26.583618,-189.514160,-105.756578,-6.417425,-782.634672,0.216940,-17.579734,-17.579734,-17.362794,-0.160200,-0.377235,-0.377235,-0.366324,24197,-320
0.180000,18.379440,-897.920250,-181.397812,26.182617,-200.500488,-115.230969,-7.803177,-782.689281,0.198638,-18.427195,-18.427195,-18.228556,-0.160200,-0.388057,-0.388057,-0.375936,23832,-298
0.182000,16.574512,-906.561500,-163.583885,25.760742,-210.937500,-124.801622,-9.186230,-781.759878,0.179892,-19.255833,-19.255833,-19.075940,-0.160200,-0.398649,-0.398649,-0.387684,23448,-348
0.184000,14.753194,-914.306250,-145.608198,25.317993,-221.374512,-134.458911,-10.564799,-779.847339,0.160738,-20.064572,-20.064572,-19.903834,-0.160200,-0.408998,-0.408998,-0.400500,23045,-396
0.186000,12.917287,-921.146750,-127.488525,24.853271,-232.360840,-144.249104,-11.935984,-776.897646,0.141215,-20.850700,-20.850700,-20.709485,-0.160200,-0.419069,-0.419069,-0.406908,22622,-425
0.188000,11.068607,-927.076250,-109.242785,24.302856,-275.207520,-157.344945,-13.234249,-769.731305,0.121364,-21.518689,-21.518689,-21.397325,-0.160200,-0.427667,-0.427667,-0.419724,22121,-387
0.190000,9.208982,-932.089000,-90.889019,23.723877,-289.489746,-170.559425,-14.514895,-761.529575,0.101228,-22.157843,-22.157843,-22.056616,-0.160200,-0.435908,-0.435908,-0.432540,21594,-464
0.192000,7.340251,-936.180250,-72.445377,23.117432,-303.222656,-183.825748,-15.777181,-752.354502,0.080852,-22.768794,-22.768794,-22.687942,-0.160200,-0.443799,-0.443799,-0.436812,21042,-441
0.194000,5.464261,-939.345750,-53.930097,22.512085,-302.673340,-195.710508,-17.047824,-743.635242,0.060285,-23.392806,-23.392806,-23.332522,-0.160200,-0.451857,-0.451857,-0.444288,20491,-510
0.196000,3.582868,-941.582500,-35.361488,21.863892,-324.096680,-208.549125,-18.281024,-733.033375,0.039573,-23.961088,-23.961088,-23.921515,-0.160200,-0.459219,-0.459219,-0.452832,19901,-512
0.198000,1.697931,-942.888000,-16.757912,21.179443,-342.224121,-221.916624,-19.481512,-720.971376,0.018766,-24.483903,-24.483903,-24.465137,-0.160200,-0.466014,-0.466014,-0.462444,19278,-507
0.200000,-0.188684,-943.261000,1.862236,20.470825,-354.309082,-235.155870,-20.659509,-708.105130,-0.002086,-24.978942,-24.978942,-24.981028,-0.160200,-0.472463,-0.472463,-0.468852,18633,-518
0.202000,-2.075113,-942.701250,20.480542,19.819336,-325.744629,-244.214746,-21.894449,-698.486504,-0.022933,-25.565447,-25.565447,-25.588380,-0.160200,-0.480055,-0.480055,-0.470988,18040,-565
0.204000,-3.959489,-941.209500,39.078596,19.098633,-360.351562,-255.828428,-23.058122,-685.381072,-0.043725,-26.047561,-26.047561,-26.091286,-0.160200,-0.486341,-0.486341,-0.480600,17384,-565
0.206000,-5.839951,-938.787000,57.638006,18.391113,-353.759766,-265.621561,-24.231064,-673.165439,-0.064411,-26.550868,-26.550868,-26.615280,-0.160200,-0.492891,-0.492891,-0.488076,16740,-583
0.208000,-7.714637,-935.436000,76.140422,17.589111,-401.000977,-279.159503,-25.303748,-656.276497,-0.084944,-26.911366,-26.911366,-26.996310,-0.160200,-0.497654,-0.497654,-0.497688,16010,-631
0.210000,-9.581695,-931.160250,94.567545,16.746460,-421.325684,-293.376121,-26.328155,-637.784129,-0.105275,-27.214388,-27.214388,-27.319663,-0.160200,-0.501696,-0.500000,-0.497688,15243,-631
0.212000,-11.439278,-925.963500,112.901154,15.997192,-374.633789,-301.501888,-27.436470,-624.461612,-0.125358,-27.658897,-27.658897,-27.784255,-0.160200,-0.507503,-0.500000,-0.498756,14561,-624
0.214000,-13.285549,-919.851000,131.123121,15.160034,-418.579102,-313.209609,-28.445583,-606.641391,-0.145147,-27.964308,-27.964308,-28.109455,-0.160200,-0.511568,-0.500000,-0.505164,13799,-651
0.216000,-15.118682,-912.829250,149.215425,14.362427,-398.803711,-321.769019,-29.481109,-591.060231,-0.164600,-28.324932,-28.324932,-28.489531,-0.160200,-0.516319,-0.500000,-0.498756,13073,-656
0.218000,-16.936866,-904.904750,167.160178,13.570312,-396.057129,-329.197830,-30.507178,-575.706920,-0.183675,-28.683756,-28.683756,-28.867431,-0.160200,-0.521043,-0.500000,-0.498756,12352,-652
0.220000,-18.738301,-896.085250,184.939632,12.766113,-402.099609,-336.488008,-31.504414,-559.597242,-0.202335,-29.011766,-29.011766,-29.214101,-0.160200,-0.525376,-0.500000,-0.505164,11620,-657
0.222000,-20.521207,-886.379750,202.536209,11.955322,-405.395508,-343.378758,-32.476529,-543.000992,-0.220544,-29.315938,-29.315938,-29.536482,-0.160200,-0.529406,-0.500000,-0.503028,10882,-662
0.224000,-22.283820,-875.797750,219.932506,11.139038,-408.142090,-349.855091,-33.422858,-525.942659,-0.238269,-29.596293,-29.596293,-29.834563,-0.160200,-0.533132,-0.500000,-0.505164,10139,-696
0.226000,-24.024398,-864.349750,237.111321,10.316162,-411.437988,-356.013381,-34.340560,-508.336369,-0.255481,-29.849598,-29.849598,-30.105079,-0.160200,-0.536513,-0.500000,-0.500892,9390,-694
0.228000,-25.741219,-852.047000,254.055668,9.464722,-425.720215,-362.984064,-35.205941,-489.062936,-0.272153,-30.041844,-30.000000,-30.272153,-0.160200,-0.538602,-0.500000,-0.500892,8615,-676
0.230000,-27.432586,-838.901750,270.748790,8.647339,-408.691406,-367.554799,-36.079925,-471.346951,-0.288262,-30.266528,-30.000000,-30.288262,-0.160200,-0.538803,-0.500000,-0.498756,7871,-727
0.232000,-29.096826,-824.926750,287.174181,7.806885,-420.227051,-372.822024,-36.903711,-452.104726,-0.303788,-30.433910,-30.000000,-30.303788,-0.160200,-0.538997,-0.500000,-0.504096,7106,-707
0.234000,-30.732293,-810.136250,303.315597,6.945557,-430.664062,-378.606228,-37.677850,-431.530022,-0.318714,-30.547708,-30.000000,-30.318714,-0.160200,-0.539184,-0.500000,-0.501960,6322,-701
0.236000,-32.337371,-794.544500,319.157079,6.125977,-409.790039,-381.724609,-38.463348,-412.819891,-0.333027,-30.700988,-30.000000,-30.333027,-0.160200,-0.539363,-0.500000,-0.496620,5576,-691
0.238000,-33.910471,-778.167000,334.682960,5.281128,-422.424316,-385.794580,-39.191599,-392.372420,-0.346718,-30.788976,-30.000000,-30.346718,-0.160200,-0.539534,-0.500000,-0.507300,4807,-707
0.240000,-35.450039,-761.020250,349.877888,4.409912,-435.607910,-390.775913,-39.859951,-370.244337,-0.359779,-30.811041,-30.000000,-30.359779,-0.160200,-0.539697,-0.500000,-0.498756,4014,-694
0.242000,-36.954552,-743.120750,364.726837,3.579346,-415.283203,-393.226642,-40.533898,-349.894108,-0.372208,-30.867553,-30.000000,-30.372208,-0.160200,-0.539853,-0.500000,-0.503028,3258,-707
0.244000,-38.422522,-724.486500,379.215124,2.725708,-426.818848,-396.585862,-41.148230,-327.900638,-0.384004,-30.858969,-30.000000,-30.384004,-0.160200,-0.540000,-0.500000,-0.495552,2481,-698
0.246000,-39.852498,-705.136000,393.328421,1.872070,-426.818848,-399.609161,-41.724568,-305.526839,-0.395169,-30.820538,-30.000000,-30.395169,-0.160200,-0.540140,-0.500000,-0.500892,1704,-719
0.248000,-41.243066,-685.088000,407.052774,1.015137,-428.466797,-402.494924,-42.258203,-282.593076,-0.405709,-30.746247,-30.000000,-30.405709,-0.160200,-0.540271,-0.500000,-0.496620,924,-716
0.250000,-42.592850,-664.362500,420.374610,0.152710,-431.213379,-405.366770,-42.745560,-258.995730,-0.415633,-30.632105,-30.000000,-30.415633,-0.160200,-0.540395,-0.500000,-0.500892,139,-721
0.252000,-43.900516,-642.980250,433.280756,-0.710815,-431.762695,-408.006362,-43.189701,-234.973888,-0.424950,-30.484155,-30.000000,-30.424950,-0.160200,-0.540512,-0.500000,-0.492348,-647,-737
0.254000,-45.164771,-620.962000,445.758450,-1.724854,-507.019043,-417.907630,-43.439917,-203.054370,-0.433673,-30.079903,-30.000000,-30.433673,-0.160200,-0.540621,-0.500000,-0.493416,-1570,-713
0.256000,-46.384364,-598.329500,457.795354,-2.670776,-472.961426,-423.413010,-43.713588,-174.916490,-0.441817,-29.755980,-29.755980,-30.197797,-0.160200,-0.537672,-0.500000,-0.501960,-2431,-728
0.258000,-47.558089,-575.105750,469.379563,-3.532104,-430.664062,-424.138115,-44.025985,-150.967635,-0.449398,-29.528826,-29.528826,-29.978224,-0.160200,-0.534928,-0.500000,-0.500892,-3215,-742
0.260000,-48.684787,-551.313500,480.499624,-4.374756,-421.325684,-423.856872,-44.310031,-127.456628,-0.456434,-29.291996,-29.291996,-29.748429,-0.160200,-0.532055,-0.500000,-0.504096,-3982,-705
0.262000,-49.763343,-526.975500,491.144540,-5.240479,-432.861328,-424.757318,-44.522864,-102.218182,-0.462943,-28.981514,-28.981514,-29.444457,-0.160200,-0.528256,-0.500000,-0.496620,-4770,-716
0.264000,-50.792689,-502.116500,501.303785,-6.102905,-431.213379,-425.402924,-44.689784,-76.713576,-0.468947,-28.638340,-28.638340,-29.107287,-0.160200,-0.524041,-0.500000,-0.497688,-5555,-709
0.266000,-51.771809,-476.761250,510.967313,-6.968628,-432.861328,-426.148764,-44.803181,-50.612486,-0.474465,-28.252060,-28.252060,-28.726526,-0.160200,-0.519282,-0.500000,-0.505164,-6343,-733
0.268000,-52.699734,-450.934500,520.125568,-7.858521,-444.946289,-428.028517,-44.841213,-22.905983,-0.479519,-27.791723,-27.791723,-28.271243,-0.160200,-0.513591,-0.500000,-0.506232,-7153,-706
0.270000,-53.575547,-424.661750,528.769493,-8.729736,-435.607910,-428.786456,-44.845811,4.124706,-0.484131,-27.322757,-27.322757,-27.806888,-0.160200,-0.507786,-0.500000,-0.498756,-7946,-714
0.272000,-54.398381,-397.969000,536.890542,-9.602051,-436.157227,-429.523533,-44.796330,31.554533,-0.488322,-26.813790,-26.813790,-27.302113,-0.160200,-0.501476,-0.500000,-0.497688,-8740,-724
0.274000,-55.167423,-370.883000,544.480683,-10.474365,-436.157227,-430.186902,-44.693058,59.303902,-0.492113,-26.266387,-26.266387,-26.758500,-0.160200,-0.494681,-0.494681,-0.504096,-9534,-734
0.276000,-55.881913,-343.430000,551.532412,-11.346680,-436.157227,-430.783935,-44.535233,87.353935,-0.495526,-25.680412,-25.680412,-26.175938,-0.160200,-0.487399,-0.487399,-0.495552,-10328,-736
0.278000,-56.541143,-315.637250,558.038754,-12.281616,-467.468262,-434.452368,-44.259527,118.815118,-0.498580,-24.962891,-24.962891,-25.461471,-0.160200,-0.478468,-0.478468,-0.487008,-11179,-723
0.280000,-57.144462,-287.532750,563.993277,-13.148438,-433.410645,-434.348195,-43.996024,146.815445,-0.501295,-24.313229,-24.313229,-24.814524,-0.160200,-0.470382,-0.470382,-0.481668,-11968,-719
0.282000,-57.691274,-259.143750,569.390091,-14.005371,-428.466797,-433.760055,-43.685903,174.616305,-0.503688,-23.638570,-23.638570,-24.142258,-0.160200,-0.461978,-0.461978,-0.469920,-12748,-697
0.284000,-58.181037,-230.498500,574.223861,-14.851318,-422.973633,-432.681413,-43.329719,202.182913,-0.505778,-22.939861,-22.939861,-23.445640,-0.160200,-0.453270,-0.453270,-0.464580,-13518,-696
0.286000,-58.613268,-201.625250,578.489806,-15.685181,-416.931152,-431.106387,-42.928087,229.481137,-0.507580,-22.218075,-22.218075,-22.725655,-0.160200,-0.444271,-0.444271,-0.453900,-14277,-698
0.288000,-58.987538,-172.552500,582.183708,-16.501465,-408.142090,-428.809957,-42.486073,256.257457,-0.509107,-21.480729,-21.480729,-21.989836,-0.160200,-0.435073,-0.435073,-0.432540,-15020,-678
0.290000,-59.303478,-143.309500,585.301915,-17.301270,-399.902344,-425.919196,-42.002208,282.609696,-0.510373,-20.725219,-20.725219,-21.235593,-0.160200,-0.425645,-0.425645,-0.432540,-15748,-659
0.292000,-59.560776,-113.924750,587.841342,-18.085693,-392.211914,-422.548468,-41.475083,308.623718,-0.511388,-19.949186,-19.949186,-20.460574,-0.160200,-0.415957,-0.415957,-0.431472,-16462,-667
0.294000,-59.759177,-84.427000,589.799479,-18.848145,-381.225586,-418.416180,-40.911032,333.989180,-0.512161,-19.161917,-19.161917,-19.674078,-0.160200,-0.406126,-0.406126,-0.416520,-17156,-608
0.296000,-59.898484,-54.846000,591.174389,-19.589722,-370.788574,-413.653419,-40.308762,358.807419,-0.512698,-18.360851,-18.360851,-18.873549,-0.160200,-0.396119,-0.396119,-0.405840,-17831,-606
0.298000,-59.978561,-25.210750,591.964713,-20.307129,-358.703613,-408.158438,-39.671432,382.947688,-0.513005,-17.550201,-17.550201,-18.063206,-0.160200,-0.385990,-0.385990,-0.398364,-18484,-575
0.300000,-59.999327,4.449500,592.169669,-20.995972,-344.421387,-401.784733,-39.003355,406.234233,-0.513085,-16.735669,-16.735669,-17.248754,0.160200,-0.055409,-0.055409,-0.389820,-19111,-570
0.302000,-59.960763,34.105250,591.789055,-21.657349,-330.688477,-394.675108,-38.303414,428.780358,-0.512937,-15.914595,-15.914595,-16.427532,0.160200,-0.045144,-0.045144,-0.060876,-19713,-470
0.304000,-59.862906,63.727250,590.823247,-22.175903,-259.277344,-381.135331,-37.687003,444.862581,-0.512561,-15.257363,-15.257363,-15.769924,0.160200,-0.036924,-0.036924,-0.041652,-20185,-293
0.306000,-59.705854,93.286250,589.273200,-22.527466,-175.781250,-360.599923,-37.178388,453.886173,-0.511954,-14.789177,-14.789177,-15.301131,0.160200,-0.031064,-0.031064,-0.038448,-20505,-175
0.308000,-59.489761,122.753250,587.140446,-22.766968,-119.750977,-336.515028,-36.722793,459.268278,-0.511109,-14.416934,-14.416934,-14.928044,0.160200,-0.026401,-0.026401,-0.032040,-20723,-107
0.310000,-59.214841,152.098750,584.427095,-22.885620,-59.326172,-308.796143,-36.329221,460.894893,-0.510020,-14.148125,-14.148125,-14.658145,0.160200,-0.023027,-0.023027,-0.027768,-20831,-50
0.312000,-58.881366,181.293750,581.135831,-22.933960,-24.169922,-280.333521,-35.947406,461.627271,-0.508677,-13.902105,-13.902105,-14.410782,0.160200,-0.019935,-0.019935,-0.022428,-20875,-15
0.314000,-58.489666,210.309500,577.269906,-22.947144,-6.591797,-252.959348,-35.542522,463.268848,-0.507069,-13.626125,-13.626125,-14.133193,0.160200,-0.016465,-0.016465,-0.022428,-20887,-4
0.316000,-58.040128,239.117250,572.833145,-22.948242,-0.549316,-227.718345,-35.091886,466.835595,-0.505182,-13.288595,-13.288595,-13.793777,0.160200,-0.012222,-0.012222,-0.014952,-20888,1
0.318000,-57.533197,267.688500,567.829934,-22.942749,2.746582,-204.671852,-34.590448,472.360352,-0.503003,-12.885859,-12.885859,-13.388862,0.160200,-0.007161,-0.007161,-0.013884,-20883,3
0.320000,-56.969374,295.995250,562.265222,-22.941650,0.549316,-184.149736,-34.027724,480.144986,-0.500515,-12.406243,-12.406243,-12.906757,0.160200,-0.001134,-0.001134,-0.008544,-20882,1
0.322000,-56.349216,324.009250,556.144510,-22.941650,0.000000,-165.734762,-33.407566,489.744012,-0.497700,-11.859875,-11.859875,-12.357575,0.160200,0.005730,0.005730,0.000000,-20882,0
0.324000,-55.673337,351.702750,549.473852,-22.941650,0.000000,-149.161286,-32.731687,500.864036,-0.494541,-11.252923,-11.252923,-11.747464,0.160200,0.013357,0.013357,0.005340,-20882,0
0.326000,-54.942405,379.048500,542.259843,-22.939453,1.098633,-134.135294,-32.002952,513.183794,-0.491017,-10.592744,-10.592744,-11.083761,0.160200,0.021653,0.021653,0.012816,-20880,2
0.328000,-54.157143,406.019250,534.509617,-22.935059,2.197266,-120.502038,-31.222084,526.521288,-0.487108,-9.882956,-9.882956,-10.370064,0.160200,0.030574,0.030574,0.020292,-20876,4
0.330000,-53.318328,432.588750,526.230838,-22.930664,2.197266,-108.232108,-30.387664,540.820858,-0.482793,-9.123663,-9.123663,-9.606456,0.160200,0.040119,0.040119,0.028836,-20872,6
0.332000,-52.426788,458.730500,517.431693,-22.924072,3.295898,-97.079307,-29.502716,555.809807,-0.478051,-8.321472,-8.321472,-8.799523,0.160200,0.050206,0.050206,0.039516,-20866,7
0.334000,-51.483406,484.418500,508.120883,-22.911987,6.042480,-86.767128,-28.571419,571.185628,-0.472859,-7.484217,-7.484217,-7.957076,0.160200,0.060737,0.060737,0.050196,-20855,14
0.336000,-50.489114,509.627750,498.307614,-22.894409,8.789062,-77.211509,-27.594705,586.839259,-0.467198,-6.614369,-6.614369,-7.081566,0.160200,0.071680,0.071680,0.059808,-20839,15
0.338000,-49.444895,534.332750,488.001591,-22.872437,10.986328,-68.391725,-26.572458,602.724475,-0.461045,-5.712665,-5.712665,-6.173709,0.160200,0.083029,0.083029,0.076896,-20819,22
0.340000,-48.351783,558.509250,477.213005,-22.844971,13.732910,-60.179262,-25.506812,618.688512,-0.454379,-4.783073,-4.783073,-5.237453,0.160200,0.094732,0.094732,0.083304,-20794,25
0.342000,-47.210858,582.133750,465.952524,-22.816406,14.282227,-52.733113,-24.394452,634.866863,-0.447182,-3.821206,-3.821206,-4.268387,0.160200,0.106845,0.106845,0.098256,-20768,30
0.344000,-46.023248,605.182500,454.231283,-22.782349,17.028809,-45.756921,-23.240899,650.939421,-0.439434,-2.836021,-2.836021,-3.275455,0.160200,0.119257,0.119257,0.112140,-20737,46
0.346000,-44.790128,627.633000,442.060872,-22.739502,21.423340,-39.038895,-22.050626,666.671895,-0.431118,-1.834341,-1.834341,-2.265459,0.160200,0.131882,0.131882,0.118548,-20698,38
0.348000,-43.512716,649.462750,429.453327,-22.687866,25.817871,-32.553218,-20.824850,682.015968,-0.422218,-0.817753,-0.817753,-1.239971,0.160200,0.144700,0.144700,0.132432,-20651,44
0.350000,-42.192277,670.650000,416.421115,-22.627441,30.212402,-26.276656,-19.564836,696.926656,-0.412720,0.212187,0.212187,-0.200533,0.160200,0.157693,0.157693,0.147384,-20596,58
0.352000,-40.830116,691.174250,402.977123,-22.557129,35.156250,-20.133366,-18.272987,711.307616,-0.402613,1.252327,1.252327,0.849715,0.160200,0.170821,0.170821,0.156996,-20532,61
0.354000,-39.427580,711.015250,389.134644,-22.476929,40.100098,-14.110019,-16.950651,725.125269,-0.391885,2.301260,2.301260,1.909374,0.160200,0.184067,0.184067,0.176220,-20459,88
0.356000,-37.986055,730.153000,374.907367,-22.375854,50.537109,-7.645306,-15.610201,737.798306,-0.380531,3.341281,3.341281,2.960750,0.160200,0.197209,0.197209,0.184764,-20367,104
0.358000,-36.506968,748.568500,360.309360,-22.267090,54.382324,-1.442543,-14.239878,750.011043,-0.368546,4.391516,4.391516,4.022970,0.160200,0.210487,0.210487,0.196512,-20268,94
0.360000,-34.991781,766.244000,345.355060,-22.144043,61.523438,4.854055,-12.847738,761.389945,-0.355927,5.440525,5.440525,5.084598,0.160200,0.223757,0.223757,0.209328,-20156,107
0.362000,-33.441992,783.162000,330.059253,-22.002319,70.861816,11.454831,-11.439673,771.707169,-0.342677,6.480733,6.480733,6.138056,0.160200,0.236926,0.236926,0.223212,-20027,143
0.364000,-31.859133,799.305250,314.437066,-21.840820,80.749512,18.384299,-10.018313,780.920951,-0.328798,7.509803,7.509803,7.181005,0.160200,0.249963,0.249963,0.240300,-19880,133
0.366000,-30.244771,814.658000,298.503945,-21.659546,90.637207,25.609590,-8.585225,789.048410,-0.314300,8.527077,8.527077,8.212777,0.160200,0.262860,0.262860,0.245640,-19715,192
0.368000,-28.600501,829.205500,282.275647,-21.457397,101.074219,33.156053,-7.143104,796.049447,-0.299192,9.530210,9.530210,9.231018,0.160200,0.275588,0.275588,0.264864,-19531,182
0.370000,-26.927949,842.933000,265.768219,-21.233276,112.060547,41.046502,-5.694673,801.886498,-0.283490,10.516882,10.516882,10.233392,0.160200,0.288117,0.288117,0.273408,-19327,215
0.372000,-25.228769,855.827000,248.997985,-20.986084,123.596191,49.301471,-4.242685,806.525529,-0.267210,11.484817,11.484817,11.217607,0.160200,0.300420,0.300420,0.288360,-19102,230
0.374000,-23.504641,867.874500,231.981527,-20.714722,135.681152,57.939439,-2.789919,809.935061,-0.250373,12.431769,12.431769,12.181395,0.160200,0.312467,0.312467,0.302244,-18855,266
0.376000,-21.757271,879.063750,214.735673,-20.420288,147.216797,66.867175,-1.336983,812.196575,-0.233005,13.358788,13.358788,13.125783,0.160200,0.324272,0.324272,0.317196,-18587,305
0.378000,-19.988386,889.384000,197.277477,-20.101685,159.301758,76.110633,0.113299,813.273367,-0.215131,14.263508,14.263508,14.048377,0.160200,0.335805,0.335805,0.324672,-18297,257
0.380000,-18.199735,898.824500,179.624202,-19.761108,170.288086,85.528379,1.561373,813.296121,-0.196783,15.148484,15.148484,14.951701,0.160200,0.347096,0.347096,0.340692,-17987,342
0.382000,-16.393088,907.376250,161.793304,-19.398560,181.274414,95.102982,3.005472,812.273268,-0.177994,16.012781,16.012781,15.834787,0.160200,0.358135,0.358135,0.351372,-17657,306
0.384000,-14.570230,915.031000,143.802416,-18.911865,243.347168,109.927401,4.341635,805.103599,-0.158802,16.703863,16.703863,16.545061,0.160200,0.367013,0.367013,0.360984,-17214,326
0.386000,-12.732964,921.780750,125.669328,-18.442749,234.558105,122.390471,5.709785,799.390279,-0.139244,17.439902,17.439902,17.300658,0.160200,0.376458,0.376458,0.368460,-16787,400
0.388000,-10.883107,927.618750,107.411971,-17.971436,235.656738,133.717098,7.088329,793.901652,-0.119362,18.186211,18.186211,18.066849,0.160200,0.386036,0.386036,0.372732,-16358,398
0.390000,-9.022489,932.539750,89.048399,-17.490234,240.600586,144.405447,8.467745,788.134303,-0.099200,18.928190,18.928190,18.828990,0.160200,0.395562,0.395562,0.386616,-15920,369
0.392000,-7.152948,936.538750,70.596771,-16.977173,256.530762,155.617978,9.824225,780.920772,-0.078804,19.630916,19.630916,19.552113,0.160200,0.404601,0.404601,0.399432,-15453,397
0.394000,-5.276334,939.611250,52.075334,-16.414673,281.250000,168.181180,11.138339,771.430070,-0.058219,20.268019,20.268019,20.209799,0.160200,0.412822,0.412822,0.404772,-14941,407
0.396000,-3.394503,941.754750,33.502401,-15.823608,295.532227,180.916285,12.429105,760.838465,-0.037496,20.871645,20.871645,20.834149,0.160200,0.420627,0.420627,0.415452,-14403,483
0.398000,-1.509315,942.967250,14.896339,-15.205078,309.265137,193.751170,13.695763,749.216080,-0.016682,21.442553,21.442553,21.425871,0.160200,0.428023,0.428023,0.421860,-13840,502
0.400000,0.377366,943.247000,-3.724453,-14.586548,309.265137,205.302567,14.963914,737.944433,0.004172,22.020495,22.020495,22.024666,0.160200,0.435508,0.435508,0.432540,-13277,479
0.402000,2.263673,942.594000,-22.341562,-13.913086,336.730957,218.445406,16.176759,724.148594,0.025015,22.520597,22.520597,22.545612,0.160200,0.442020,0.442020,0.438948,-12664,529
0.404000,4.147742,941.009250,-40.936579,-13.214355,349.365234,231.537389,17.362097,709.471861,0.045799,22.988522,22.988522,23.034320,0.160200,0.448129,0.448129,0.442152,-12028,543
0.406000,6.027710,938.493750,-59.491115,-12.410156,402.099609,248.593611,18.437866,689.900139,0.066472,23.304080,23.304080,23.370553,0.160200,0.452332,0.452332,0.444288,-11296,563
0.408000,7.901717,935.050000,-77.986823,-11.632324,388.916016,262.625851,19.534041,672.424149,0.086987,23.668682,23.668682,23.755669,0.160200,0.457146,0.457146,0.454968,-10588,561
0.410000,9.767910,930.681750,-96.405414,-10.866577,382.873535,274.650620,20.634487,656.031130,0.107296,24.054794,24.054794,24.162090,0.160200,0.462226,0.462226,0.460308,-9891,591
0.412000,11.624444,925.393250,-114.728673,-10.168945,348.815918,282.067149,21.793389,643.326101,0.127351,24.540983,24.540983,24.668333,0.160200,0.468554,0.468554,0.462444,-9256,610
0.414000,13.469483,919.189750,-132.938482,-9.363647,402.648926,294.125327,22.833130,625.064423,0.147108,24.857398,24.857398,25.004506,0.160200,0.472756,0.472756,0.467784,-8523,626
0.416000,15.301203,912.077500,-151.016834,-8.629761,366.943359,301.407130,23.930964,610.670370,0.166525,25.276802,25.276802,25.443327,0.160200,0.478242,0.478242,0.476328,-7855,627
0.418000,17.117793,904.063000,-168.945853,-7.883789,372.985840,308.565001,25.001582,595.497999,0.185560,25.665998,25.665998,25.851559,0.160200,0.483344,0.483344,0.480600,-7176,617
0.420000,18.917455,895.154250,-186.707808,-7.124634,379.577637,315.666265,26.042089,579.487985,0.204177,26.022180,26.022180,26.226357,0.160200,0.488029,0.488029,0.493416,-6485,650
0.422000,20.698410,885.360750,-204.285136,-6.151245,486.694336,332.769072,26.849655,552.591678,0.222339,26.046065,26.046065,26.268404,0.160200,0.488555,0.488555,0.491280,-5599,671
0.424000,22.458898,874.691750,-221.660456,-5.148193,501.525879,349.644753,27.607091,525.046997,0.240014,26.028011,26.028011,26.268026,0.160200,0.488550,0.488550,0.488076,-4686,671
0.426000,24.197177,863.157750,-238.816585,-4.331909,408.142090,355.494486,28.529086,507.663264,0.257173,26.287822,26.287822,26.544996,0.160200,0.492012,0.492012,0.490212,-3943,686
0.428000,25.911529,850.770250,-255.736559,-3.503540,414.184570,361.363495,29.415069,489.406755,0.273790,26.510402,26.510402,26.784192,0.160200,0.495002,0.495002,0.494484,-3189,686
0.430000,27.600258,837.541250,-272.403647,-2.667480,418.029785,367.030124,30.267738,470.511126,0.289841,26.701478,26.701478,26.991319,0.160200,0.497591,0.497591,0.490212,-2428,688
0.432000,29.261694,823.484250,-288.801367,-1.757812,454.833984,375.810510,31.019506,447.673740,0.305308,26.762119,26.762119,27.067427,0.160200,0.498543,0.498543,0.498756,-1600,713
0.434000,30.894195,808.613000,-304.913503,-0.854736,451.538086,383.383267,31.748931,425.229733,0.320173,26.815977,26.815977,27.136150,0.160200,0.499402,0.499402,0.499824,-778,748
0.436000,32.496146,792.941750,-320.724125,0.082397,468.566895,391.901630,32.413749,401.040120,0.334424,26.799903,26.799903,27.134327,0.160200,0.499379,0.499379,0.497688,75,748
0.438000,34.065962,776.486750,-336.217596,1.007446,462.524414,398.963909,33.058516,377.522841,0.348052,26.783315,26.783315,27.131367,0.160200,0.499342,0.499342,0.499824,917,753
0.440000,35.602093,759.264000,-351.378597,1.959961,476.257324,406.693250,33.642132,352.570750,0.361051,26.704329,26.704329,27.065380,0.160200,0.498517,0.498517,0.497688,1784,747
0.442000,37.103018,741.290000,-366.192135,3.011353,525.695801,418.593505,34.091665,322.696495,0.373416,26.457530,26.457530,26.830946,0.160200,0.495587,0.495587,0.498756,2741,744
0.444000,38.567253,722.583250,-380.643561,3.915527,452.087402,421.942895,34.651726,300.640355,0.385148,26.414699,26.414699,26.799847,0.160200,0.495198,0.495198,0.493416,3564,771
0.446000,39.993351,703.162250,-394.718586,4.824097,454.284668,425.177072,35.169254,277.985178,0.396251,26.335432,26.335432,26.731683,0.160200,0.494346,0.494346,0.497688,4391,756
0.448000,41.379902,683.045750,-408.403291,5.805176,490.539551,431.713320,35.574726,251.332430,0.406729,26.117942,26.117942,26.524671,0.160200,0.491758,0.491758,0.495552,5284,788
0.450000,42.725534,662.253500,-421.684145,6.877441,536.132812,442.155269,35.848093,220.098231,0.416592,25.739792,25.739792,26.156384,0.160200,0.487155,0.487155,0.494484,6260,760
0.452000,44.028916,640.806500,-434.548013,7.973877,548.217773,452.761520,36.055039,188.044980,0.425849,25.306774,25.306774,25.732623,0.160200,0.481858,0.481858,0.484872,7258,750
0.454000,45.288760,618.726000,-446.982176,9.001099,513.610840,458.846452,36.287661,159.879548,0.434513,24.957295,24.957295,25.391809,0.160200,0.477598,0.477598,0.481668,8193,766
0.456000,46.503820,596.033500,-458.974338,10.045898,522.399902,465.201797,36.457922,130.831703,0.442600,24.554321,24.554321,24.996921,0.160200,0.472662,0.472662,0.473124,9144,758
0.458000,47.672894,572.751750,-470.512641,11.145630,549.865723,473.668189,36.527264,99.083561,0.450126,24.042570,24.042570,24.492696,0.160200,0.466359,0.466359,0.475260,10145,734
0.460000,48.794827,548.903750,-481.585675,12.256348,555.358887,481.837259,36.538479,67.066491,0.457108,23.490618,23.490618,23.947726,0.160200,0.459547,0.459547,0.463512,11156,758
0.462000,49.868509,524.512750,-492.182489,13.136353,440.002441,477.653777,36.732156,46.858973,0.463566,23.256241,23.256241,23.719807,0.160200,0.456698,0.456698,0.456036,11957,760
0.464000,50.892878,499.603000,-502.292607,14.009766,436.706543,473.559054,36.883112,26.043946,0.469520,22.985164,22.985164,23.454684,0.160200,0.453384,0.453384,0.458172,12752,720
0.466000,51.866921,474.199250,-511.906029,14.869995,430.114746,469.214623,36.996926,4.984627,0.474991,22.687134,22.687134,23.162125,0.160200,0.449727,0.449727,0.451764,13535,711
0.468000,52.789675,448.326750,-521.013250,15.718140,424.072266,464.700387,37.071535,-16.373637,0.480000,22.359938,22.359938,22.839939,0.160200,0.445699,0.445699,0.449628,14307,695
0.470000,53.660228,422.011000,-529.605264,16.657471,469.665527,465.196901,37.002757,-43.185901,0.484569,21.849962,21.849962,22.334531,0.160200,0.439382,0.439382,0.443220,15162,687
0.472000,54.477719,395.277750,-537.673575,17.584717,463.623047,465.039516,36.893002,-69.761766,0.488719,21.319080,21.319080,21.807799,0.160200,0.432797,0.432797,0.433608,16006,685
0.474000,55.241339,368.153750,-545.210204,18.498779,457.031250,464.238689,36.742560,-96.084939,0.492471,20.767754,20.767754,21.260225,0.160200,0.425953,0.425953,0.432540,16838,681
0.476000,55.950334,340.665500,-552.207699,19.298584,399.902344,457.805055,36.651750,-117.139555,0.495847,20.344809,20.344809,20.840656,0.160200,0.420708,0.420708,0.435744,17566,655
0.478000,56.604001,312.840500,-558.659140,20.078613,390.014648,451.026014,36.525388,-138.185514,0.498866,19.900297,19.900297,20.399164,0.160200,0.415190,0.415190,0.418656,18276,648
0.480000,57.201696,284.706250,-564.558147,20.845459,383.422852,444.265698,36.356237,-159.559448,0.501548,19.423924,19.423924,19.925472,0.160200,0.409268,0.409268,0.412248,18974,624
0.482000,57.742826,256.290250,-569.898888,21.594727,374.633789,437.302507,36.148099,-181.012257,0.503911,18.922358,18.922358,19.426268,0.160200,0.403028,0.403028,0.401568,19656,622
0.484000,58.226857,227.620750,-574.676082,22.330811,368.041992,430.376456,35.896046,-202.755706,0.505971,18.388892,18.388892,18.894863,0.160200,0.396386,0.396386,0.404772,20326,597
0.486000,58.653309,198.726500,-578.885003,23.054810,361.999512,423.538761,35.598499,-224.812261,0.507745,17.822172,17.822172,18.329916,0.160200,0.389324,0.389324,0.397296,20985,600
0.488000,59.021763,169.635750,-582.521491,23.757935,351.562500,416.341135,35.263828,-246.705385,0.509245,17.235626,17.235626,17.744871,0.160200,0.382011,0.382011,0.388752,21625,578
0.490000,59.331852,140.376750,-585.581948,24.525879,383.972168,413.104238,34.805973,-272.727488,0.510486,16.501766,16.501766,17.012252,0.160200,0.372853,0.372853,0.371664,22324,549
0.492000,59.583270,110.979500,-588.063350,25.271851,372.985840,409.092398,34.311419,-298.112898,0.511476,15.756602,15.756602,16.268078,0.160200,0.363551,0.363551,0.379140,23003,549
0.494000,59.775770,81.472250,-589.963242,25.947510,337.829590,401.966118,33.828260,-320.493868,0.512225,15.070835,15.070835,15.583060,0.160200,0.354988,0.354988,0.365256,23618,524
0.496000,59.909159,51.884250,-591.279745,26.618774,335.632324,395.332738,33.290385,-343.448488,0.512739,14.341632,14.341632,14.854371,0.160200,0.345880,0.345880,0.353508,24229,536
0.498000,59.983307,22.245500,-592.011558,27.225220,303.222656,386.121730,32.758087,-363.876230,0.513023,13.659939,13.659939,14.172962,0.160200,0.337362,0.337362,0.343896,24781,492
0.500000,59.998141,-7.415500,-592.157957,27.878906,326.843262,380.193883,32.119235,-387.609383,0.513080,12.855464,12.855464,13.368544,-0.160200,0.006907,0.006907,0.340692,25376,478
0.502000,59.953645,-37.069500,-591.718797,28.442505,281.799316,370.354427,31.511140,-407.423927,0.512910,12.138171,12.138171,12.651081,-0.160200,-0.002061,-0.002061,0.009612,25889,370
0.504000,59.849863,-66.686750,-590.694512,28.888550,223.022461,355.621230,30.961313,-422.307980,0.512511,11.542525,11.542525,12.055036,-0.160200,-0.009512,-0.009512,0.000000,26295,224
0.506000,59.686898,-96.237750,-589.086116,29.136841,124.145508,332.473658,30.550057,-428.711408,0.511880,11.179542,11.179542,11.691423,-0.160200,-0.014057,-0.014057,-0.007476,26521,110
0.508000,59.464912,-125.693750,-586.895198,29.251099,57.128906,304.939183,30.213813,-430.632933,0.511012,10.940606,10.940606,11.451617,-0.160200,-0.017055,-0.017055,-0.012816,26625,28
0.510000,59.184123,-155.025500,-584.123926,29.279663,14.282227,275.873487,29.904460,-430.898987,0.509897,10.746989,10.746989,11.256886,-0.160200,-0.019489,-0.019489,-0.014952,26651,3
0.512000,58.844810,-184.203750,-580.775039,29.270874,-4.394531,247.846685,29.573936,-432.050435,0.508528,10.524987,10.524987,11.033515,-0.160200,-0.022281,-0.022281,-0.019224,26643,-10
0.514000,58.447308,-213.200000,-576.851850,29.257690,-6.591797,222.402837,29.189618,-435.602837,0.506893,10.228219,10.228219,10.735112,-0.160200,-0.026011,-0.026011,-0.022428,26631,-10
0.516000,57.992010,-241.985500,-572.358237,29.247803,-4.943848,199.668169,28.744207,-441.653669,0.504978,9.850526,9.850526,10.355504,-0.160200,-0.030756,-0.030756,-0.023496,26622,-7
0.518000,57.479366,-270.531750,-567.298644,29.239014,-4.394531,179.261899,28.240352,-449.793649,0.502768,9.400669,9.400669,9.903438,-0.160200,-0.036407,-0.036407,-0.028836,26614,-7
0.520000,56.909883,-298.810250,-561.678075,29.232422,-3.295898,161.006119,27.677461,-459.816369,0.500248,8.881889,8.881889,9.382137,-0.160200,-0.042923,-0.042923,-0.037380,26608,-4
0.522000,56.284125,-326.793250,-555.502087,29.224731,-3.845215,144.520985,27.059394,-471.314235,0.497400,8.303658,8.303658,8.801058,-0.160200,-0.050187,-0.050187,-0.043788,26601,-7
0.524000,55.602710,-354.453500,-548.776788,29.217041,-3.845215,129.684365,26.385669,-484.137865,0.494205,7.668288,7.668288,8.162493,-0.160200,-0.058169,-0.058169,-0.049128,26594,-7
0.526000,54.866311,-381.763000,-541.508828,29.209351,-3.845215,116.331407,25.656960,-498.094407,0.490644,6.979558,6.979558,7.470201,-0.160200,-0.066822,-0.066822,-0.061944,26587,-9
0.528000,54.075658,-408.694750,-533.705393,29.197266,-6.042480,104.094019,24.878392,-512.788769,0.486695,6.247493,6.247493,6.734188,-0.160200,-0.076023,-0.076023,-0.065148,26576,-9
0.530000,53.231532,-435.222750,-525.374201,29.181885,-7.690430,92.915574,24.049647,-528.138324,0.482338,5.473341,5.473341,5.955679,-0.160200,-0.085754,-0.085754,-0.073692,26562,-12
0.532000,52.334767,-461.320250,-516.523489,29.159912,-10.986328,82.525384,23.174855,-543.845634,0.477552,4.664816,4.664816,5.142368,-0.160200,-0.095920,-0.095920,-0.090780,26542,-28
0.534000,51.386251,-486.961250,-507.162010,29.128052,-15.930176,72.679828,22.258199,-559.641078,0.472315,3.829181,3.829181,4.301496,-0.160200,-0.106431,-0.106431,-0.100392,26513,-32
0.536000,50.386922,-512.121000,-497.299021,29.091797,-18.127441,63.599101,21.295125,-575.720101,0.466605,2.960240,2.960240,3.426845,-0.160200,-0.117364,-0.117364,-0.106800,26480,-37
0.538000,49.337767,-536.774500,-486.944275,29.048950,-21.423340,55.096857,20.288817,-591.871357,0.460401,2.063629,2.063629,2.524030,-0.160200,-0.128650,-0.128650,-0.118548,26441,-31
0.540000,48.239824,-560.897000,-476.108012,28.998413,-25.268555,47.060316,19.241411,-607.957316,0.453684,1.143052,1.143052,1.596736,-0.160200,-0.140241,-0.140241,-0.128160,26395,-44
0.542000,47.094179,-584.465000,-464.800946,28.939087,-29.663086,39.387975,18.155092,-623.852975,0.446432,0.202026,0.202026,0.648458,-0.160200,-0.152094,-0.152094,-0.144180,26341,-61
0.544000,45.901964,-607.455000,-453.034259,28.869873,-34.606934,31.988485,17.032091,-639.443485,0.438628,-0.756082,-0.756082,-0.317454,-0.160200,-0.164168,-0.164168,-0.153792,26278,-67
0.546000,44.664359,-629.844250,-440.819586,28.792969,-38.452148,24.944421,15.871390,-654.788671,0.430254,-1.732938,-1.732938,-1.302683,-0.160200,-0.176484,-0.176484,-0.161268,26208,-69
0.548000,43.382587,-651.610500,-428.169007,28.702881,-45.043945,17.945585,14.679706,-669.556085,0.421295,-2.718636,-2.718636,-2.297341,-0.160200,-0.188917,-0.188917,-0.175152,26126,-99
0.550000,42.057917,-672.732500,-415.095030,28.597412,-52.734375,10.877589,13.460505,-683.610089,0.411737,-3.708692,-3.708692,-3.296955,-0.160200,-0.201412,-0.201412,-0.184764,26030,-115
0.552000,40.691657,-693.189500,-401.610584,28.476562,-60.424805,3.747349,12.215094,-696.936849,0.401568,-4.702066,-4.702066,-4.300498,-0.160200,-0.213956,-0.213956,-0.202920,25920,-120
0.554000,39.285159,-712.961000,-387.729003,28.338135,-69.213867,-3.548772,10.947024,-709.412228,0.390778,-5.694423,-5.694423,-5.303644,-0.160200,-0.226496,-0.226496,-0.211464,25794,-116
0.556000,37.839813,-732.027250,-373.464013,28.182129,-78.002930,-10.994188,9.657684,-721.033062,0.379361,-6.684857,-6.684857,-6.305496,-0.160200,-0.239019,-0.239019,-0.225348,25652,-124
0.558000,36.357050,-750.369750,-358.829722,28.007446,-87.341309,-18.628900,8.349604,-731.740850,0.367312,-7.670804,-7.670804,-7.303492,-0.160200,-0.251494,-0.251494,-0.238164,25493,-138
0.560000,34.838334,-767.970500,-343.840600,27.816284,-95.581055,-26.324116,7.022050,-741.646384,0.354630,-8.654645,-8.654645,-8.300015,-0.160200,-0.263950,-0.263950,-0.255252,25319,-181
0.562000,33.285168,-784.811250,-328.511469,27.600952,-107.666016,-34.458306,5.684216,-750.352944,0.341317,-9.623840,-9.623840,-9.282523,-0.160200,-0.276232,-0.276232,-0.268068,25123,-188
0.564000,31.699089,-800.876250,-312.857488,27.357056,-121.948242,-43.207299,4.342033,-757.668951,0.327376,-10.571421,-10.571421,-10.244044,-0.160200,-0.288251,-0.288251,-0.278748,24901,-215
0.566000,30.081663,-816.149500,-296.894136,26.807739,-274.658203,-66.352390,3.273924,-749.797110,0.312816,-11.086502,-11.086502,-10.773686,-0.160200,-0.294871,-0.294871,-0.286224,24401,-263
0.568000,28.434491,-830.615500,-280.637198,26.489136,-159.301758,-75.647326,1.945355,-754.968174,0.297649,-11.988330,-11.988330,-11.690682,-0.160200,-0.306334,-0.306334,-0.300108,24111,-269
0.570000,26.759201,-844.260000,-264.102750,26.168335,-160.400391,-84.122633,0.590866,-760.137367,0.281888,-12.905960,-12.905960,-12.624073,-0.160200,-0.318001,-0.318001,-0.307584,23819,-285
0.572000,25.057451,-857.069750,-247.307143,25.812378,-177.978516,-93.508221,-0.754927,-763.561529,0.265551,-13.787821,-13.787821,-13.522270,-0.160200,-0.329228,-0.329228,-0.319332,23495,-266
0.574000,23.330922,-869.032250,-230.266985,25.455322,-178.527832,-102.010182,-2.124400,-767.022068,0.248660,-14.684783,-14.684783,-14.436123,-0.160200,-0.340652,-0.340652,-0.334284,23170,-322
0.576000,21.581322,-880.135250,-212.999126,25.080688,-187.316895,-110.540853,-3.499366,-769.594397,0.231239,-15.569597,-15.569597,-15.338358,-0.160200,-0.351929,-0.351929,-0.341760,22829,-344
0.578000,19.810381,-890.367750,-195.520641,24.673096,-203.796387,-119.866407,-4.862715,-770.501343,0.213317,-16.418249,-16.418249,-16.204932,-0.160200,-0.362762,-0.362762,-0.346032,22458,-319
0.580000,18.019851,-899.719750,-177.848815,24.173218,-249.938965,-132.873663,-6.153367,-766.846087,0.194923,-17.142867,-17.142867,-16.947944,-0.160200,-0.372049,-0.372049,-0.364188,22003,-401
0.582000,16.211502,-908.182250,-160.001122,23.724976,-224.121094,-141.998406,-7.513474,-766.183844,0.176093,-17.962151,-17.962151,-17.786058,-0.160200,-0.382526,-0.382526,-0.371664,21595,-412
0.584000,14.387122,-915.746750,-141.995211,23.252563,-236.206055,-151.419171,-8.865441,-764.327579,0.156862,-18.755623,-18.755623,-18.598761,-0.160200,-0.392685,-0.392685,-0.382344,21165,-444
0.586000,12.548515,-922.405750,-123.848887,22.754883,-248.840332,-161.161287,-10.206368,-761.244463,0.137269,-19.520938,-19.520938,-19.383668,-0.160200,-0.402496,-0.402496,-0.390888,20712,-429
0.588000,10.697499,-928.152250,-105.580095,22.229736,-262.573242,-171.302482,-11.532237,-756.849768,0.117358,-20.254163,-20.254163,-20.136806,-0.160200,-0.411910,-0.411910,-0.406908,20234,-469
0.590000,8.835906,-932.981250,-87.206899,21.680420,-274.658203,-181.638054,-12.844514,-751.343196,0.097170,-20.959680,-20.959680,-20.862509,-0.160200,-0.420981,-0.420981,-0.410112,19734,-441
0.592000,6.965574,-936.887750,-68.747467,21.109131,-285.644531,-192.038702,-14.143557,-744.849048,0.076753,-21.639876,-21.639876,-21.563123,-0.160200,-0.429739,-0.429739,-0.426132,19214,-484
0.594000,5.088355,-939.867500,-50.220055,20.516968,-296.081543,-202.442986,-15.428613,-737.424514,0.056152,-22.295289,-22.295289,-22.239137,-0.160200,-0.438189,-0.438189,-0.431472,18675,-509
0.596000,3.206104,-941.918000,-31.642982,19.897339,-309.814453,-213.180133,-16.691235,-728.737867,0.035418,-22.914970,-22.914970,-22.879553,-0.160200,-0.446194,-0.446194,-0.438948,18111,-527
0.598000,1.320683,-943.037000,-13.034619,19.254639,-321.350098,-223.997129,-17.933956,-719.039871,0.014598,-23.504843,-23.504843,-23.490246,-0.160200,-0.453828,-0.453828,-0.440016,17526,-566
0.600000,-0.566044,-943.223750,5.586634,18.586670,-333.984375,-234.995854,-19.152714,-708.227896,-0.006257,-24.060636,-24.060636,-24.066893,-0.160200,-0.461036,-0.461036,-0.449628,16918,-572
0.602000,-2.452212,-942.477500,24.202362,17.874756,-355.957031,-247.091972,-20.326968,-695.385528,-0.027097,-24.553805,-24.553805,-24.580902,-0.160200,-0.467461,-0.467461,-0.465648,16270,-591
0.604000,-4.335954,-940.799250,42.794157,17.117798,-378.479004,-260.230675,-21.453752,-680.568575,-0.047872,-24.983514,-24.983514,-25.031386,-0.160200,-0.473092,-0.473092,-0.467784,15581,-628
0.606000,-6.215409,-938.191000,61.343636,16.225708,-446.044922,-278.812100,-22.441117,-659.378900,-0.068532,-25.216831,-25.216831,-25.285363,-0.160200,-0.476267,-0.476267,-0.466716,14769,-650
0.608000,-8.088718,-934.654750,79.832454,15.384155,-420.776367,-293.008526,-23.472873,-641.646224,-0.089028,-25.537602,-25.537602,-25.626630,-0.160200,-0.480533,-0.480533,-0.473124,14003,-674
0.610000,-9.954028,-930.194250,98.242329,14.597534,-393.310547,-303.038728,-24.551562,-627.155522,-0.109313,-25.943625,-25.943625,-26.052938,-0.160200,-0.485862,-0.485862,-0.483804,13287,-659
0.612000,-11.809495,-924.814250,116.555057,13.790039,-403.747559,-313.109611,-25.599534,-611.704639,-0.129341,-26.314125,-26.314125,-26.443466,-0.160200,-0.490743,-0.490743,-0.488076,12552,-667
0.614000,-13.653285,-918.519500,134.752529,12.961670,-414.184570,-323.217107,-26.614955,-595.302393,-0.149066,-26.648138,-26.648138,-26.797203,-0.160200,-0.495165,-0.495165,-0.484872,11798,-693
0.616000,-15.483573,-911.316250,152.816750,12.116821,-422.424316,-333.137828,-27.600394,-578.178422,-0.168446,-26.951239,-26.951239,-27.119685,-0.160200,-0.499196,-0.499196,-0.498756,11029,-718
0.618000,-17.298550,-903.212000,170.729857,11.188477,-464.172363,-346.241282,-28.487027,-556.970718,-0.187442,-27.122707,-27.122707,-27.310149,-0.160200,-0.501577,-0.500000,-0.490212,10184,-748
0.620000,-19.096421,-894.214750,188.474137,10.308472,-440.002441,-355.617398,-29.404893,-538.597352,-0.206014,-27.362724,-27.362724,-27.568738,-0.160200,-0.504809,-0.500000,-0.491280,9383,-749
0.622000,-20.875409,-884.333250,206.032044,9.411987,-448.242188,-364.879877,-30.287396,-519.453373,-0.224129,-27.567689,-27.567689,-27.791818,-0.160200,-0.507598,-0.500000,-0.501960,8567,-744
0.624000,-22.633754,-873.577000,223.386214,8.499023,-456.481934,-374.040082,-31.132777,-499.536918,-0.241754,-27.736495,-27.736495,-27.978249,-0.160200,-0.509928,-0.500000,-0.501960,7736,-765
0.626000,-24.369717,-861.957250,240.519488,7.576172,-461.425781,-382.778652,-31.945889,-479.178598,-0.258860,-27.877877,-27.877877,-28.136737,-0.160200,-0.511909,-0.500000,-0.504096,6896,-782
0.628000,-26.081583,-849.485000,257.414922,6.599487,-488.342285,-393.335016,-32.681070,-456.149984,-0.275421,-27.925049,-27.925049,-28.200470,-0.160200,-0.512706,-0.500000,-0.494484,6007,-792
0.630000,-27.767657,-836.172500,274.055810,5.661255,-469.116211,-400.913135,-33.428912,-435.259365,-0.291415,-28.017269,-28.017269,-28.308684,-0.160200,-0.514059,-0.500000,-0.503028,5153,-766
0.632000,-29.426273,-822.033500,290.425697,4.714233,-473.510742,-408.172896,-34.140506,-413.860604,-0.306822,-28.078479,-28.078479,-28.385300,-0.160200,-0.515016,-0.500000,-0.498756,4291,-773
0.634000,-31.055791,-807.081500,306.508394,3.758423,-477.905273,-415.146134,-34.814214,-391.935366,-0.321626,-28.107356,-28.107356,-28.428982,-0.160200,-0.515562,-0.500000,-0.501960,3421,-810
0.636000,-32.654599,-791.331500,322.287999,2.775146,-491.638184,-422.795339,-35.429745,-368.536161,-0.335815,-28.074969,-28.074969,-28.410785,-0.160200,-0.515335,-0.500000,-0.501960,2526,-802
0.638000,-34.221117,-774.798750,337.748907,1.764404,-505.371094,-431.052914,-35.985521,-343.745836,-0.349381,-27.981801,-27.981801,-28.331181,-0.160200,-0.514340,-0.500000,-0.482736,1606,-780
0.640000,-35.753794,-757.500000,352.875831,0.795410,-484.497070,-436.397330,-36.549204,-321.102670,-0.362316,-27.930937,-27.930937,-28.293253,-0.160200,-0.513866,-0.500000,-0.500892,724,-805
0.642000,-37.251117,-739.452250,367.653811,-0.180176,-487.792969,-441.536894,-37.070941,-297.915356,-0.374618,-27.844953,-27.844953,-28.219571,-0.160200,-0.512945,-0.500000,-0.508368,-164,-836
0.644000,-38.711603,-720.673000,382.068234,-1.159058,-489.440918,-446.327296,-37.552545,-274.345704,-0.386287,-27.727780,-27.727780,-28.114067,-0.160200,-0.511626,-0.500000,-0.496620,-1055,-821
0.646000,-40.133809,-701.181500,396.104847,-2.135742,-488.342285,-450.528795,-37.998067,-250.652705,-0.397327,-27.586413,-27.586413,-27.983740,-0.160200,-0.509997,-0.500000,-0.498756,-1944,-790
0.648000,-41.516329,-680.996500,409.749770,-3.114624,-489.440918,-454.420007,-38.401705,-226.576493,-0.407743,-27.412772,-27.412772,-27.820516,-0.160200,-0.507956,-0.500000,-0.505164,-2835,-818
0.650000,-42.857795,-660.137750,422.989509,-4.097900,-491.638184,-458.141825,-38.759895,-201.995925,-0.417545,-27.202566,-27.202566,-27.620111,-0.160200,-0.505451,-0.500000,-0.499824,-3730,-818
0.652000,-44.156880,-638.626500,435.810972,-5.083374,-492.736816,-461.601324,-39.073506,-177.025176,-0.426742,-26.958319,-26.958319,-27.385061,-0.160200,-0.502513,-0.500000,-0.504096,-4627,-809
0.654000,-45.412301,-616.484000,448.201482,-6.069946,-493.286133,-464.769805,-39.342355,-151.714195,-0.435348,-26.680789,-26.680789,-27.116137,-0.160200,-0.499152,-0.499152,-0.495552,-5525,-810
0.656000,-46.622816,-593.731750,460.148784,-7.180664,-555.358887,-473.828713,-39.442152,-119.903037,-0.443378,-26.186542,-26.186542,-26.629920,-0.160200,-0.493074,-0.493074,-0.504096,-6536,-819
0.658000,-47.787228,-570.392000,471.641066,-8.171631,-495.483398,-475.994182,-39.615597,-94.397818,-0.450848,-25.847344,-25.847344,-26.298192,-0.160200,-0.488927,-0.488927,-0.489144,-7438,-838
0.660000,-48.904384,-546.488500,482.666963,-9.290039,-559.204102,-484.315174,-39.614345,-62.173326,-0.457777,-25.284156,-25.284156,-25.741933,-0.160200,-0.481974,-0.481974,-0.490212,-8456,-829
0.662000,-49.973182,-522.044750,493.215571,-10.426025,-567.993164,-492.682973,-39.547157,-29.361777,-0.464184,-24.670443,-24.670443,-25.134627,-0.160200,-0.474383,-0.474383,-0.508368,-9490,-839
0.664000,-50.992563,-497.084500,503.276461,-11.455444,-514.709473,-494.885623,-39.537119,-2.198877,-0.470089,-24.190229,-24.190229,-24.660318,-0.160200,-0.468454,-0.468454,-0.476328,-10427,-789
0.666000,-51.961520,-471.632750,512.839683,-12.425537,-485.046387,-493.901699,-39.535983,22.268949,-0.475512,-23.762491,-23.762491,-24.238004,-0.160200,-0.463175,-0.463175,-0.466716,-11310,-793
0.668000,-52.879094,-445.714750,521.895780,-13.386841,-480.651855,-492.576715,-39.492253,46.861965,-0.480477,-23.306549,-23.306549,-23.787026,-0.160200,-0.457538,-0.457538,-0.460308,-12185,-785
0.670000,-53.744379,-419.356000,530.435797,-14.405273,-509.216309,-494.240674,-39.339106,74.884674,-0.485002,-22.723908,-22.723908,-23.208910,-0.160200,-0.450311,-0.450311,-0.463512,-13112,-764
0.672000,-54.556518,-392.582500,538.451290,-15.432495,-513.610840,-496.177691,-39.124023,103.595191,-0.489112,-22.091428,-22.091428,-22.580540,-0.160200,-0.442457,-0.442457,-0.452832,-14047,-775
0.674000,-55.314709,-365.420750,545.934333,-16.415771,-491.638184,-495.723740,-38.898938,130.302990,-0.492826,-21.487793,-21.487793,-21.980618,-0.160200,-0.434958,-0.434958,-0.432540,-14942,-757
0.676000,-56.018201,-337.897750,552.877525,-17.360596,-472.412109,-493.392577,-38.657605,155.494827,-0.496165,-20.900691,-20.900691,-21.396855,-0.160200,-0.427661,-0.427661,-0.433608,-15802,-737
0.678000,-56.666300,-310.040500,559.274000,-18.312012,-475.708008,-491.624120,-38.354288,181.583620,-0.499149,-20.260069,-20.260069,-20.759219,-0.160200,-0.419690,-0.419690,-0.430404,-16668,-742
0.680000,-57.258363,-281.876750,565.117435,-19.175537,-431.762695,-485.637978,-38.082826,203.761228,-0.501798,-19.707170,-19.707170,-20.208969,-0.160200,-0.412812,-0.412812,-0.418656,-17454,-708
0.682000,-57.793807,-253.434250,570.402050,-20.019287,-421.875000,-479.261680,-37.774520,225.827430,-0.504130,-19.133709,-19.133709,-19.637839,-0.160200,-0.405673,-0.405673,-0.414384,-18222,-691
0.684000,-58.272100,-224.741000,575.122619,-20.841064,-410.888672,-472.424379,-37.431036,247.683379,-0.506161,-18.542428,-18.542428,-19.048589,-0.160200,-0.398307,-0.398307,-0.402636,-18970,-652
0.686000,-58.692771,-195.825750,579.274475,-21.680420,-419.677734,-467.149715,-37.012351,271.323965,-0.507907,-17.874062,-17.874062,-18.381969,-0.160200,-0.389975,-0.389975,-0.400500,-19734,-669
0.688000,-59.055403,-166.716750,582.853512,-22.517578,-418.579102,-462.292653,-36.537825,295.575903,-0.509381,-17.160914,-17.160914,-17.670295,-0.160200,-0.381079,-0.381079,-0.393024,-20496,-658
0.690000,-59.359638,-137.443000,585.856191,-23.309692,-396.057129,-455.669101,-36.049946,318.226101,-0.510596,-16.467565,-16.467565,-16.978161,-0.160200,-0.372427,-0.372427,-0.380208,-21217,-607
0.692000,-59.605175,-108.033250,588.279543,-24.039185,-364.746094,-446.576800,-35.565990,338.543550,-0.511562,-15.817328,-15.817328,-16.328889,-0.160200,-0.364311,-0.364311,-0.370596,-21881,-591
0.694000,-59.791771,-78.516750,590.121171,-24.795044,-377.929688,-439.712089,-34.996727,361.195339,-0.512287,-15.074236,-15.074236,-15.586523,-0.160200,-0.355032,-0.355032,-0.366324,-22569,-571
0.696000,-59.919242,-48.922500,591.379254,-25.553101,-379.028320,-433.643712,-34.366141,384.721212,-0.512778,-14.278429,-14.278429,-14.791207,-0.160200,-0.345090,-0.345090,-0.349236,-23259,-541
0.698000,-59.987461,-19.279750,592.052549,-26.284790,-365.844727,-426.863813,-33.702671,407.584063,-0.513039,-13.474106,-13.474106,-13.987146,-0.160200,-0.335039,-0.335039,-0.344964,-23925,-524
0.700000,-59.996361,10.382000,592.140388,-26.914307,-314.758301,-415.653262,-33.082054,426.035262,-0.513073,-12.772959,-12.772959,-13.286032,0.160200,-0.005875,-0.005875,-0.333216,-24498,-517
0.702000,-59.945933,40.033500,591.642687,-27.583374,-334.533691,-407.541305,-32.362559,447.574805,-0.512880,-11.957508,-11.957508,-12.470389,0.160200,0.004320,0.004320,-0.012816,-25107,-430
0.704000,-59.836227,69.645250,590.559936,-28.095337,-255.981445,-392.385319,-31.740890,462.030569,-0.512459,-11.325452,-11.325452,-11.837910,0.160200,0.012226,0.012226,0.004272,-25573,-245
0.706000,-59.667352,99.188000,588.893206,-28.374390,-139.526367,-367.099424,-31.292962,466.287424,-0.511804,-10.977532,-10.977532,-11.489336,0.160200,0.016583,0.016583,0.013884,-25827,-115
0.708000,-59.439475,128.633000,586.644146,-28.502930,-64.270020,-336.816483,-30.936545,465.449483,-0.510911,-10.774434,-10.774434,-11.285346,0.160200,0.019133,0.019133,0.019224,-25944,-50
0.710000,-59.152820,157.950750,583.814980,-28.541382,-19.226074,-305.057443,-30.611438,463.008193,-0.509772,-10.618446,-10.618446,-11.128218,0.160200,0.021097,0.021097,0.020292,-25979,-5
0.712000,-58.807672,187.112000,580.408504,-28.535889,2.746582,-274.277040,-30.271783,461.389040,-0.508377,-10.439222,-10.439222,-10.947599,0.160200,0.023355,0.023355,0.021360,-25974,12
0.714000,-58.404372,216.088500,576.428088,-28.521606,7.141113,-246.135225,-29.882766,462.223725,-0.506714,-10.187017,-10.187017,-10.693731,0.160200,0.026528,0.026528,0.026700,-25961,10
0.716000,-57.943318,244.851250,571.877668,-28.509521,6.042480,-220.917454,-29.433797,465.768704,-0.504770,-9.850886,-9.850886,-10.355656,0.160200,0.030754,0.030754,0.025632,-25950,9
0.718000,-57.424967,273.372000,566.761744,-28.500732,4.394531,-198.386256,-28.924235,471.758256,-0.502530,-9.435075,-9.435075,-9.937605,0.160200,0.035980,0.035980,0.033108,-25942,6
0.720000,-56.849830,301.622500,561.085374,-28.493042,3.845215,-178.163109,-28.356788,479.785609,-0.499978,-8.948337,-8.948337,-9.448316,0.160200,0.042096,0.042096,0.038448,-25935,5
0.722000,-56.218477,329.574500,554.854171,-28.486450,3.295898,-160.017208,-27.732027,489.591708,-0.497096,-8.395544,-8.395544,-8.892640,0.160200,0.049042,0.049042,0.043788,-25929,7
0.724000,-55.531532,357.200500,548.074297,-28.478760,3.845215,-143.630966,-27.052772,500.831466,-0.493866,-7.784440,-7.784440,-8.278306,0.160200,0.056721,0.056721,0.048060,-25922,7
0.726000,-54.789675,384.473250,540.752457,-28.467773,5.493164,-128.718553,-26.321902,513.191803,-0.490266,-7.122248,-7.122248,-7.612514,0.160200,0.065044,0.065044,0.053400,-25912,12
0.728000,-53.993639,411.366250,532.895891,-28.454590,6.591797,-115.187518,-25.539049,526.553768,-0.486278,-6.410820,-6.410820,-6.897098,0.160200,0.073986,0.073986,0.067284,-25900,15
0.730000,-53.144210,437.852250,524.512368,-28.435913,9.338379,-102.734928,-24.708297,540.587178,-0.481879,-5.658414,-5.658414,-6.140293,0.160200,0.083446,0.083446,0.072624,-25883,19
0.732000,-52.242230,463.905250,515.610177,-28.412842,11.535645,-91.307871,-23.829388,555.213121,-0.477049,-4.866248,-4.866248,-5.343297,0.160200,0.093409,0.093409,0.087576,-25862,19
0.734000,-51.288589,489.499500,506.198122,-28.385376,13.732910,-80.803793,-22.903213,570.303293,-0.471765,-4.037106,-4.037106,-4.508872,0.160200,0.103839,0.103839,0.093984,-25837,31
0.736000,-50.284232,514.609750,496.285511,-28.345825,19.775391,-70.745874,-21.938407,585.355624,-0.466007,-3.185027,-3.185027,-3.651034,0.160200,0.114562,0.114562,0.104664,-25801,33
0.738000,-49.230150,539.211000,485.882144,-28.302979,21.423340,-61.528953,-20.927171,600.739953,-0.459753,-2.298791,-2.298791,-2.758545,0.160200,0.125718,0.125718,0.115344,-25762,45
0.740000,-48.127388,563.279000,474.998310,-28.245850,28.564453,-52.519612,-19.881538,615.798612,-0.452983,-1.397227,-1.397227,-1.850210,0.160200,0.137072,0.137072,0.126024,-25710,41
0.742000,-46.977034,586.790500,463.644772,-28.182129,31.860352,-44.081616,-18.794905,630.872116,-0.445677,-0.470359,-0.470359,-0.916035,0.160200,0.148750,0.148750,0.134568,-25652,55
0.744000,-45.780226,609.721250,451.832755,-28.108521,36.804199,-35.993034,-17.671705,645.714284,-0.437817,0.474810,0.474810,0.036993,0.160200,0.160662,0.160662,0.148452,-25585,55
0.746000,-44.538149,632.049000,439.573941,-28.029419,39.550781,-28.438653,-16.508730,660.487653,-0.429385,1.443075,1.443075,1.013690,0.160200,0.172871,0.172871,0.158064,-25513,87
0.748000,-43.252030,653.752250,426.880452,-27.937134,46.142578,-20.980530,-15.314896,674.732780,-0.420367,2.420971,2.420971,2.000604,0.160200,0.185208,0.185208,0.170880,-25429,75
0.750000,-41.923140,674.808750,413.764839,-27.829468,53.833008,-13.499176,-14.093672,688.307926,-0.410748,3.403905,3.403905,2.993157,0.160200,0.197614,0.197614,0.185832,-25331,91
0.752000,-40.552795,695.197750,400.240073,-27.689941,69.763184,-5.172940,-12.862854,700.370690,-0.400517,4.366304,4.366304,3.965787,0.160200,0.209772,0.209772,0.198648,-25204,131
0.754000,-39.142349,714.899500,386.319527,-27.548218,70.861816,2.430536,-11.594131,712.468964,-0.389665,5.352478,5.352478,4.962813,0.160200,0.222235,0.222235,0.206124,-25075,118
0.756000,-37.693197,733.894500,372.016967,-27.387817,80.200195,10.207502,-10.305380,723.686998,-0.378185,6.335523,6.335523,5.957338,0.160200,0.234667,0.234667,0.221076,-24929,148
0.758000,-36.206771,752.163500,357.346536,-27.209839,88.989258,18.085677,-8.996932,734.077823,-0.366073,7.316162,7.316162,6.950089,0.160200,0.247076,0.247076,0.234960,-24767,170
0.760000,-34.684543,769.688750,342.322740,-27.009888,99.975586,26.274668,-7.674655,743.414082,-0.353327,8.286843,8.286843,7.933516,0.160200,0.259369,0.259369,0.240300,-24585,184
0.762000,-33.128016,786.453000,326.960436,-26.790161,109.863281,34.633529,-6.337855,751.819471,-0.339951,9.250150,9.250150,8.910199,0.160200,0.271577,0.271577,0.259524,-24385,171
0.764000,-31.538731,802.439500,311.274816,-26.549561,120.300293,43.200206,-4.989170,759.239294,-0.325948,10.203515,10.203515,9.877567,0.160200,0.283670,0.283670,0.267000,-24166,186
0.766000,-29.918258,817.632750,295.281390,-26.289185,130.187988,51.898984,-3.629073,765.733766,-0.311327,11.147701,11.147701,10.836374,0.160200,0.295655,0.295655,0.281952,-23929,210
0.768000,-28.268200,832.017250,278.995973,-26.003540,142.822266,60.991312,-2.264660,771.025938,-0.296099,12.073539,12.073539,11.777440,0.160200,0.307418,0.307418,0.297972,-23669,270
0.770000,-26.590189,845.578750,262.434670,-25.695923,153.808594,70.273040,-0.894266,775.305710,-0.280279,12.985361,12.985361,12.705082,0.160200,0.319014,0.319014,0.309720,-23389,315
0.772000,-24.885885,858.304250,245.613856,-25.361938,166.992188,79.944955,0.476053,778.359295,-0.263886,13.875737,13.875737,13.611851,0.160200,0.330348,0.330348,0.319332,-23085,263
0.774000,-23.156972,870.181250,228.550165,-25.000488,180.725098,90.022969,1.843516,780.158281,-0.246941,14.742471,14.742471,14.495529,0.160200,0.341394,0.341394,0.327876,-22756,318
0.776000,-21.405160,881.197750,211.260472,-24.612671,193.908691,100.411542,3.207511,780.786208,-0.229469,15.586647,15.586647,15.357178,0.160200,0.352165,0.352165,0.342828,-22403,327
0.778000,-19.632181,891.342750,193.761872,-24.198486,207.092285,111.079616,4.566305,780.263134,-0.211498,16.407558,16.407558,16.196060,0.160200,0.362651,0.362651,0.351372,-22026,336
0.780000,-17.839789,900.606250,176.071670,-23.756836,220.825195,122.054174,5.917047,778.552076,-0.193059,17.202815,17.202815,17.009756,0.160200,0.372822,0.372822,0.363120,-21624,411
0.782000,-16.029756,908.979500,158.207358,-23.287720,234.558105,133.304567,7.257964,775.674933,-0.174187,17.971719,17.971719,17.797532,0.160200,0.382669,0.382669,0.371664,-21197,401
0.784000,-14.203871,916.453500,140.186602,-22.791138,248.291016,144.803212,8.587267,771.650288,-0.154918,18.713501,18.713501,18.558583,0.160200,0.392182,0.392182,0.383412,-20745,427
0.786000,-12.363942,923.021250,122.027222,-22.270386,260.375977,156.360488,9.906444,766.660762,-0.135292,19.432257,19.432257,19.296965,0.160200,0.401412,0.401412,0.385548,-20271,436
0.788000,-10.511786,928.676750,103.747174,-21.725464,272.460938,167.970533,11.213678,760.706217,-0.115351,20.126874,20.126874,20.011524,0.160200,0.410344,0.410344,0.400500,-19775,484
0.790000,-8.649235,933.413500,85.364535,-21.154175,285.644531,179.737933,12.504940,753.675567,-0.095138,20.792953,20.792953,20.697815,0.160200,0.418923,0.418923,0.410112,-19255,505
0.792000,-6.778132,937.227250,66.897484,-20.560913,296.630859,191.427226,13.782781,745.800024,-0.074700,21.436088,21.436088,21.361388,0.160200,0.427217,0.427217,0.420792,-18715,492
0.794000,-4.900326,940.114500,48.364280,-19.864380,348.266602,207.111163,14.964054,733.003337,-0.054084,21.934342,21.934342,21.880258,0.160200,0.433703,0.433703,0.428268,-18081,544
0.796000,-3.017674,942.072000,29.783250,-19.219482,322.448730,218.644920,16.201808,723.427080,-0.033339,22.523306,22.523306,22.489967,0.160200,0.441325,0.441325,0.437880,-17494,551
0.798000,-1.132038,943.097750,11.172770,-18.551514,333.984375,230.178865,17.419476,712.918885,-0.012513,23.083734,23.083734,23.071221,0.160200,0.448590,0.448590,0.444288,-16886,554
0.800000,0.754717,943.191000,-7.448759,-17.859375,346.069336,241.767913,18.614092,701.423087,0.008343,23.612844,23.612844,23.621187,0.160200,0.455465,0.455465,0.449628,-16256,584
0.802000,2.640726,942.351500,-26.062922,-17.147461,355.957031,253.186824,19.788187,689.164676,0.029178,24.116108,24.116108,24.145287,0.160200,0.462016,0.462016,0.452832,-15608,601
0.804000,4.524123,940.580250,-44.651312,-16.303711,421.875000,270.055642,20.827834,670.524608,0.049944,24.425862,24.425862,24.475806,0.160200,0.466148,0.466148,0.461376,-14840,640
0.806000,6.403047,937.879250,-63.195549,-15.470947,416.381836,284.688261,21.873994,653.190989,0.070590,24.762396,24.762396,24.832986,0.160200,0.470612,0.470612,0.468852,-14082,633
0.808000,8.275640,934.250250,-81.677295,-14.650269,410.339355,297.253371,22.925909,636.996879,0.091067,25.122333,25.122333,25.213401,0.160200,0.475368,0.475368,0.466716,-13335,659
0.810000,10.140048,929.697500,-100.078273,-13.824097,413.085938,308.836627,23.964145,620.860873,0.111328,25.474929,25.474929,25.586258,0.160200,0.480028,0.480028,0.473124,-12583,684
0.812000,11.994430,924.225750,-118.380289,-12.997925,413.085938,319.261558,24.992355,604.964192,0.131327,25.825578,25.825578,25.956905,0.160200,0.484661,0.484661,0.480600,-11831,686
0.814000,13.836951,917.839750,-136.565243,-12.151978,422.973633,329.632766,25.988929,588.206984,0.151020,26.141882,26.141882,26.292902,0.160200,0.488861,0.488861,0.483804,-11061,735
0.816000,15.665789,910.546250,-154.615154,-11.292847,429.565430,339.626032,26.958636,570.920218,0.170364,26.432531,26.432531,26.602895,0.160200,0.492736,0.492736,0.491280,-10279,720
0.818000,17.479136,902.352500,-172.512173,-10.415039,438.903809,349.553810,27.894175,552.798690,0.189318,26.687739,26.687739,26.877058,0.160200,0.496163,0.496163,0.492348,-9480,750
0.820000,19.275199,893.266250,-190.238603,-9.358154,528.442383,367.442667,28.633353,525.823583,0.207847,26.668473,26.668473,26.876320,0.160200,0.496154,0.496154,0.500892,-8518,742
0.822000,21.052201,883.296750,-207.776914,-8.440796,458.679199,376.566320,29.492997,506.730430,0.225914,26.860361,26.860361,27.086275,0.160200,0.498778,0.498778,0.490212,-7683,788
0.824000,22.808386,872.453750,-225.109763,-7.442139,499.328613,388.842550,30.250525,483.611200,0.243488,26.919602,26.919602,27.163090,0.160200,0.499739,0.499739,0.498756,-6774,790
0.826000,24.542016,860.748000,-242.220011,-6.427002,507.568359,400.715131,30.969018,460.032869,0.260541,26.946985,26.946985,27.207526,0.160200,0.500294,0.500000,0.498756,-5850,799
0.828000,26.251378,848.191500,-259.090739,-5.417358,504.821777,411.125795,31.668736,437.065705,0.277046,26.973566,26.973566,27.250612,0.160200,0.500833,0.500000,0.500892,-4931,820
0.830000,27.934782,834.795750,-275.705263,-4.443970,486.694336,418.682649,32.378752,416.113101,0.292982,27.041598,27.041598,27.334579,0.160200,0.501882,0.500000,0.497688,-4045,812
0.832000,29.590561,820.574500,-292.047155,-3.461792,491.088867,425.923271,33.052353,394.651229,0.308329,27.078497,27.078497,27.386826,0.160200,0.502535,0.500000,0.501960,-3151,824
0.834000,31.217080,805.542250,-308.100254,-2.473022,494.384766,432.769421,33.690102,372.772829,0.323073,27.086226,27.086226,27.409299,0.160200,0.502816,0.500000,0.506232,-2251,818
0.836000,32.812730,789.713000,-323.848686,-1.476562,498.229980,439.315477,34.289293,350.397523,0.337200,27.061727,27.061727,27.398928,0.160200,0.502687,0.500000,0.494484,-1344,835
0.838000,34.375932,773.103000,-339.276878,-0.496582,489.990234,444.382952,34.872514,328.720048,0.350703,27.039654,27.039654,27.390356,0.160200,0.502579,0.500000,0.498756,-452,857
0.840000,35.905142,755.728750,-354.369575,0.514160,505.371094,450.481767,35.390982,305.246983,0.363574,26.946685,26.946685,27.310260,0.160200,0.501578,0.500000,0.499824,468,850
0.842000,37.398847,737.607000,-369.111851,1.678711,582.275391,463.661129,35.720136,273.945871,0.375813,26.601447,26.601447,26.977260,0.160200,0.497416,0.497416,0.497688,1528,872
0.844000,38.855570,718.755750,-383.489129,2.696045,508.666992,468.161715,36.159525,250.594035,0.387419,26.462288,26.462288,26.849707,0.160200,0.495821,0.495821,0.498756,2454,862
0.846000,40.273870,699.193750,-397.487191,3.721069,512.512207,472.596764,36.552801,226.596986,0.398396,26.283699,26.283699,26.682095,0.160200,0.493726,0.493726,0.496620,3387,853
0.848000,41.652345,678.940500,-411.092196,4.749390,514.160156,476.753104,36.902955,202.187396,0.408751,26.071568,26.071568,26.480319,0.160200,0.491204,0.491204,0.496620,4323,869
0.850000,42.989632,658.015750,-424.290690,5.779907,515.258789,480.603672,37.209725,177.412078,0.418491,25.826552,25.826552,26.245044,0.160200,0.488263,0.488263,0.488076,5261,883
0.852000,44.284408,636.440500,-437.069622,6.808228,514.160156,483.959321,37.476180,152.481179,0.427629,25.554195,25.554195,25.981823,0.160200,0.484973,0.484973,0.484872,6197,865
0.854000,45.535394,614.235750,-449.416355,7.835449,513.610840,486.924472,37.699945,127.311278,0.436177,25.251587,25.251587,25.687763,0.160200,0.481297,0.481297,0.483804,7132,842
0.856000,46.741351,591.423500,-461.318679,8.862671,513.610840,489.593109,37.878680,101.830391,0.444150,24.916045,24.916045,25.360194,0.160200,0.477202,0.477202,0.481668,8067,853
0.858000,47.901088,568.026750,-472.764826,9.885498,511.413574,491.775156,38.015590,76.251594,0.451565,24.553244,24.553244,25.004809,0.160200,0.472760,0.472760,0.476328,8998,847
0.860000,49.013458,544.068250,-483.743477,10.901733,508.117676,493.409408,38.111725,50.658842,0.458441,24.165291,24.165291,24.623732,0.160200,0.467997,0.467997,0.470988,9923,826
0.862000,50.077361,519.571500,-494.243776,11.908081,503.173828,494.385850,38.169280,25.185650,0.464797,23.755859,23.755859,24.220655,0.160200,0.462958,0.462958,0.467784,10839,810
0.864000,51.091744,494.561000,-504.255338,12.957275,524.597168,497.406982,38.134469,-2.845982,0.470652,23.245350,23.245350,23.716002,0.160200,0.456650,0.456650,0.459240,11794,822
0.866000,52.055605,469.061500,-513.768265,13.949341,496.032715,497.269555,38.106264,-28.208055,0.476029,22.785469,22.785469,23.261498,0.160200,0.450969,0.450969,0.453900,12697,820
0.868000,52.967990,443.098250,-522.773149,14.954590,502.624512,497.805051,38.013400,-54.706801,0.480948,22.266251,22.266251,22.747199,0.160200,0.444540,0.444540,0.461376,13612,794
0.870000,53.827998,416.697000,-531.261085,15.920288,482.849121,496.309458,37.907710,-79.612458,0.485432,21.767003,21.767003,22.252434,0.160200,0.438355,0.438355,0.445356,14491,808
0.872000,54.634778,389.883250,-539.223681,16.989258,534.484863,500.126998,37.645520,-110.243748,0.489501,21.072223,21.072223,21.561724,0.160200,0.429722,0.429722,0.436812,15464,804
0.874000,55.387531,362.684250,-546.653063,17.927490,469.116211,497.025919,37.460041,-134.341669,0.493176,20.538332,20.538332,21.031508,0.160200,0.423094,0.423094,0.431472,16318,770
0.876000,56.085515,335.126750,-553.541883,18.848145,460.327148,493.356042,37.237370,-158.229292,0.496479,19.985393,19.985393,20.481872,0.160200,0.416223,0.416223,0.421860,17156,752
0.878000,56.728038,307.237500,-559.883330,19.747925,449.890137,489.009452,36.980113,-181.771952,0.499429,19.417347,19.417347,19.916776,0.160200,0.409160,0.409160,0.415452,17975,742
0.880000,57.314465,279.044500,-565.671134,20.626831,439.453125,484.053819,36.687634,-205.009319,0.502046,18.833113,18.833113,19.335158,0.160200,0.401889,0.401889,0.410112,18775,742
0.882000,57.844216,250.575750,-570.899570,21.484863,429.016113,478.550049,36.359353,-227.974299,0.504346,18.231763,18.231763,18.736109,0.160200,0.394401,0.394401,0.400500,19556,687
0.884000,58.316768,221.859250,-575.563469,22.324219,419.677734,472.662817,35.992549,-250.803567,0.506348,17.609249,17.609249,18.115597,0.160200,0.386645,0.386645,0.390888,20320,711
0.886000,58.731653,192.923000,-579.658219,23.142700,409.240723,466.320608,35.588953,-273.397608,0.508066,16.968366,16.968366,17.476432,0.160200,0.378655,0.378655,0.382344,21065,666
0.888000,59.088460,163.796250,-583.179770,23.937012,397.155762,459.404123,35.151448,-295.607873,0.509514,16.313467,16.313467,16.822981,0.160200,0.370487,0.370487,0.380208,21788,646
0.890000,59.386838,134.507750,-586.124640,24.702759,382.873535,451.751064,34.684079,-317.243314,0.510704,15.650358,15.650358,16.161061,0.160200,0.362213,0.362213,0.368460,22485,618
0.892000,59.626491,105.085750,-588.489918,25.447632,372.436523,443.819610,34.178859,-338.733860,0.511645,14.966656,14.966656,15.478301,0.160200,0.353679,0.353679,0.365256,23163,595
0.894000,59.807181,75.560000,-590.273264,26.168335,360.351562,435.472805,33.638846,-359.912805,0.512346,14.267138,14.267138,14.779485,0.160200,0.344944,0.344944,0.359916,23819,579
0.896000,59.928731,45.960000,-591.472915,26.900024,365.844727,428.509998,33.028707,-382.549998,0.512814,13.499332,13.499332,14.012146,0.160200,0.335352,0.335352,0.340692,24485,573
0.898000,59.991021,16.314000,-592.087684,27.621826,360.900879,421.749086,32.369195,-405.435086,0.513053,12.697039,12.697039,13.210092,0.160200,0.325326,0.325326,0.346032,25142,539
0.900000,59.993987,-13.348000,-592.116964,28.279907,329.040527,412.478230,31.714080,-425.826230,0.513064,11.940959,11.940959,12.454023,-0.160200,-0.004525,-0.004525,0.327876,25741,516
0.902000,59.937629,-42.996750,-591.560726,28.918213,319.152832,403.145690,31.019416,-446.142440,0.512848,11.162028,11.162028,11.674877,-0.160200,-0.014264,-0.014264,-0.002136,26322,422
0.904000,59.822000,-72.603250,-590.419519,29.426880,254.333496,388.264471,30.395120,-460.867721,0.512404,10.523663,10.523663,11.036067,-0.160200,-0.022249,-0.022249,-0.011748,26785,305
0.906000,59.647216,-102.137500,-588.694473,29.705933,139.526367,363.390660,29.941283,-465.528160,0.511726,10.165090,10.165090,10.676816,-0.160200,-0.026740,-0.026740,-0.019224,27039,144
0.908000,59.413450,-131.570750,-586.387293,29.865234,79.650879,335.016682,29.548216,-466.587432,0.510809,9.906491,9.906491,10.417300,-0.160200,-0.029984,-0.029984,-0.024564,27184,49
0.910000,59.120933,-160.874250,-583.500260,29.910278,22.521973,303.767211,29.210655,-464.641461,0.509644,9.734250,9.734250,10.243895,-0.160200,-0.032151,-0.032151,-0.032040,27225,4
0.912000,58.769953,-190.018750,-580.036229,29.900391,-4.943848,272.896105,28.869562,-462.914855,0.508223,9.556024,9.556024,10.064247,-0.160200,-0.034397,-0.034397,-0.030972,27216,-19
0.914000,58.360858,-218.975000,-575.998627,29.879517,-10.437012,244.562794,28.481341,-463.537794,0.506533,9.308001,9.308001,9.814533,-0.160200,-0.037518,-0.037518,-0.036312,27197,-17
0.916000,57.894053,-247.714750,-571.391445,29.860840,-9.338379,219.172676,28.033213,-466.887426,0.504560,8.975793,8.975793,9.480352,-0.160200,-0.041696,-0.041696,-0.037380,27180,-14
0.918000,57.369999,-276.209500,-566.219239,29.848755,-6.042480,196.651161,27.521244,-472.860661,0.502290,8.558796,8.558796,9.061086,-0.160200,-0.046936,-0.046936,-0.039516,27169,-7
0.920000,56.789215,-304.431250,-560.487123,29.838867,-4.943848,176.491660,26.950348,-480.922910,0.499705,8.069342,8.069342,8.569048,-0.160200,-0.053087,-0.053087,-0.043788,27160,-8
0.922000,56.152274,-332.352250,-554.200767,29.830078,-4.394531,158.403041,26.322196,-490.755291,0.496789,7.514019,7.514019,8.010808,-0.160200,-0.060065,-0.060065,-0.057672,27152,-7
0.924000,55.459806,-359.944250,-547.366387,29.819092,-5.493164,142.013420,25.640714,-501.957670,0.493523,6.902207,6.902207,7.395730,-0.160200,-0.067753,-0.067753,-0.066216,27142,-12
0.926000,54.712497,-387.180250,-539.990739,29.805908,-6.591797,127.152899,24.906589,-514.333149,0.489885,6.237762,6.237762,6.727648,-0.160200,-0.076104,-0.076104,-0.070488,27130,-14
0.928000,53.911085,-414.033500,-532.081119,29.788330,-8.789062,113.558702,24.122755,-527.592202,0.485857,5.527531,5.527531,6.013388,-0.160200,-0.085033,-0.085033,-0.072624,27114,-19
0.930000,53.056363,-440.477500,-523.645347,29.767456,-10.437012,101.159131,23.288907,-541.636631,0.481416,4.773041,4.773041,5.254457,-0.160200,-0.094519,-0.094519,-0.082236,27095,-17
0.932000,52.149175,-466.485750,-514.691766,29.737793,-14.831543,89.560064,22.411382,-556.045814,0.476541,3.985504,3.985504,4.462045,-0.160200,-0.104424,-0.104424,-0.097188,27068,-29
0.934000,51.190420,-492.032750,-505.229228,29.702637,-17.578125,78.846245,21.487783,-570.878995,0.471211,3.162422,3.162422,3.633633,-0.160200,-0.114780,-0.114780,-0.104664,27036,-35
0.936000,50.181044,-517.093250,-495.267092,29.659790,-21.423340,68.819286,20.521254,-585.912536,0.465404,2.309618,2.309618,2.775022,-0.160200,-0.125512,-0.125512,-0.113208,26997,-51
0.938000,49.122047,-541.642250,-484.815208,29.608154,-25.817871,59.355571,19.513893,-600.997821,0.459100,1.430968,1.430968,1.890068,-0.160200,-0.136574,-0.136574,-0.122820,26950,-53
0.940000,48.014475,-565.655750,-473.883912,29.548828,-29.663086,50.453705,18.465647,-616.109455,0.452277,0.526883,0.526883,0.979160,-0.160200,-0.147961,-0.147961,-0.134568,26896,-52
0.942000,46.859424,-589.109750,-462.484012,29.477417,-35.705566,41.837778,17.382007,-630.947528,0.444916,-0.394048,-0.394048,0.050868,-0.160200,-0.159564,-0.159564,-0.150588,26831,-62
0.944000,45.658036,-611.981500,-450.626783,29.390625,-43.395996,33.314400,16.267411,-645.295900,0.436999,-1.325342,-1.325342,-0.888343,-0.160200,-0.171304,-0.171304,-0.162336,26752,-75
0.946000,44.411498,-634.248000,-438.323949,29.295044,-47.790527,25.203908,15.116454,-659.451908,0.428510,-2.275491,-2.275491,-1.846981,-0.160200,-0.183287,-0.183287,-0.170880,26665,-84
0.948000,43.121044,-655.887250,-425.587675,29.184082,-55.480957,17.135421,13.936962,-673.022671,0.419432,-3.232856,-3.232856,-2.813424,-0.160200,-0.195368,-0.195368,-0.177288,26564,-112
0.950000,41.787949,-676.878000,-412.430557,29.046753,-68.664551,8.555424,12.741196,-685.433424,0.409752,-4.179916,-4.179916,-3.770164,-0.160200,-0.207327,-0.207327,-0.192240,26439,-131
0.952000,40.413532,-697.199250,-398.865605,28.895142,-75.805664,0.119315,11.518390,-697.318565,0.399460,-5.134321,-5.134321,-4.734861,-0.160200,-0.219386,-0.219386,-0.206124,26301,-134
0.954000,38.999152,-716.831250,-384.906231,28.732544,-81.298828,-8.022499,10.266608,-708.808751,0.388545,-6.099532,-6.099532,-5.710987,-0.160200,-0.231587,-0.231587,-0.218940,26153,-119
0.956000,37.546207,-735.754250,-370.566241,28.536987,-97.778320,-16.998081,9.009220,-718.756169,0.377002,-7.041243,-7.041243,-6.664240,-0.160200,-0.243503,-0.243503,-0.231756,25975,-139
0.958000,36.056135,-753.949750,-355.859815,28.326050,-105.468750,-25.845148,7.730085,-728.104602,0.364827,-7.985782,-7.985782,-7.620956,-0.160200,-0.255462,-0.255462,-0.243504,25783,-209
0.960000,34.530408,-771.399750,-340.801494,28.104126,-110.961914,-34.356825,6.426282,-737.042925,0.352018,-8.938233,-8.938233,-8.586215,-0.160200,-0.267528,-0.267528,-0.253116,25581,-212
0.962000,32.970536,-788.087000,-325.406170,27.860229,-121.948242,-43.115966,5.110307,-744.971034,0.338579,-9.880489,-9.880489,-9.541910,-0.160200,-0.279474,-0.279474,-0.262728,25359,-246
0.964000,31.378060,-803.994750,-309.689066,27.571289,-144.470215,-53.251391,3.806771,-750.743359,0.324513,-10.777519,-10.777519,-10.453006,-0.160200,-0.290863,-0.290863,-0.281952,25096,-209
0.966000,29.754557,-819.107500,-293.665724,27.260376,-155.456543,-63.471906,2.494181,-755.635594,0.309831,-11.664721,-11.664721,-11.354889,-0.160200,-0.302136,-0.302136,-0.288360,24813,-292
0.968000,28.101630,-833.410500,-277.351990,26.935181,-162.597656,-73.384481,1.166449,-760.026019,0.294543,-12.552413,-12.552413,-12.257870,-0.160200,-0.313423,-0.313423,-0.305448,24517,-263
0.970000,26.420915,-846.889250,-260.763994,26.585815,-174.682617,-83.514295,-0.164900,-763.374955,0.278666,-13.424138,-13.424138,-13.145473,-0.160200,-0.324518,-0.324518,-0.313992,24199,-321
0.972000,24.714073,-859.530750,-243.918140,26.212280,-186.767578,-93.839623,-1.498207,-765.691127,0.262216,-14.279034,-14.279034,-14.016818,-0.160200,-0.335410,-0.335410,-0.325740,23859,-284
0.974000,22.982792,-871.322000,-226.831086,25.816772,-197.753906,-104.231052,-2.833980,-767.090948,0.245217,-15.119443,-15.119443,-14.874225,-0.160200,-0.346128,-0.346128,-0.335352,23499,-348
0.976000,21.228785,-882.251500,-209.519729,25.397095,-209.838867,-114.791833,-4.168310,-767.459667,0.227694,-15.940974,-15.940974,-15.713279,-0.160200,-0.356616,-0.356616,-0.348168,23117,-344
0.978000,19.453786,-892.308750,-192.001187,24.952148,-222.473145,-125.559964,-5.498362,-766.748786,0.209675,-16.741049,-16.741049,-16.531374,-0.160200,-0.366842,-0.366842,-0.359916,22712,-421
0.980000,17.659550,-901.483750,-174.292784,24.480835,-235.656738,-136.569642,-6.821285,-764.914108,0.191191,-17.517156,-17.517156,-17.325964,-0.160200,-0.376775,-0.376775,-0.365256,22283,-411
0.982000,15.847851,-909.767250,-156.412030,23.982056,-249.389648,-147.851642,-8.134205,-761.915608,0.172277,-18.266839,-18.266839,-18.094561,-0.160200,-0.386382,-0.386382,-0.377004,21829,-450
0.984000,14.020481,-917.151250,-138.376607,23.458008,-262.023926,-159.268871,-9.437527,-757.882379,0.152971,-18.992600,-18.992600,-18.839629,-0.160200,-0.395695,-0.395695,-0.386616,21352,-463
0.986000,12.179246,-923.628250,-120.204350,22.903198,-277.404785,-171.082462,-10.723952,-752.545788,0.133311,-19.685291,-19.685291,-19.551980,-0.160200,-0.404600,-0.404600,-0.396228,20847,-494
0.988000,10.325968,-929.191750,-101.913228,22.319824,-291.687012,-183.142917,-11.993856,-746.048833,0.113341,-20.347638,-20.347638,-20.234298,-0.160200,-0.413129,-0.413129,-0.404772,20316,-483
0.990000,8.462479,-933.836500,-83.521328,21.708984,-305.419922,-195.370618,-13.246505,-738.465882,0.093104,-20.980491,-20.980491,-20.887387,-0.160200,-0.421292,-0.421292,-0.414384,19760,-507
0.992000,6.590622,-937.557750,-65.046838,21.024536,-342.224121,-210.055968,-14.433914,-727.501782,0.072646,-21.514478,-21.514478,-21.441832,-0.160200,-0.428223,-0.428223,-0.419724,19137,-546
0.994000,4.712248,-940.352000,-46.508026,20.363159,-330.688477,-222.119219,-15.650911,-718.232781,0.052015,-22.096124,-22.096124,-22.044110,-0.160200,-0.435751,-0.435751,-0.425064,18535,-558
0.996000,2.829214,-942.216500,-27.923224,19.676514,-343.322754,-234.239572,-16.847300,-707.976928,0.031259,-22.647958,-22.647958,-22.616699,-0.160200,-0.442909,-0.442909,-0.442152,17910,-587
0.998000,0.943382,-943.149000,-9.310810,18.964600,-355.957031,-246.411318,-18.021218,-696.737682,0.010428,-23.168902,-23.168902,-23.158474,-0.160200,-0.449681,-0.449681,-0.440016,17262,-608
1.000000,-0.943382,-943.149000,9.310810,18.227417,-368.591309,-258.629317,-19.170799,-684.519683,-0.010428,-23.657897,-23.657897,-23.668325,-0.160200,-0.456054,-0.456054,-0.441084,16591,-658
1.002000,-2.829214,-942.216500,27.923224,17.463867,-381.774902,-270.943876,-20.293081,-671.272624,-0.031259,-24.112255,-24.112255,-24.143514,-0.160200,-0.461994,-0.461994,-0.458172,15896,-638
1.004000,-4.712248,-940.352000,46.508026,16.578369,-442.749023,-288.124391,-21.290617,-652.227609,-0.052015,-24.389217,-24.389217,-24.441232,-0.160200,-0.465715,-0.465715,-0.464580,15090,-673
1.006000,-6.590622,-937.557750,65.046838,15.665405,-456.481934,-304.960145,-22.256027,-632.597605,-0.072646,-24.636344,-24.636344,-24.708990,-0.160200,-0.469062,-0.469062,-0.461376,14259,-694
1.008000,-8.462479,-933.836500,83.521328,14.767822,-448.791504,-319.343281,-23.230301,-614.493219,-0.093104,-24.915513,-24.915513,-25.008617,-0.160200,-0.472808,-0.472808,-0.466716,13442,-702
1.010000,-10.325968,-929.191750,101.913228,13.869141,-449.340820,-332.343035,-24.195109,-596.848715,-0.113341,-25.196926,-25.196926,-25.310267,-0.160200,-0.476578,-0.476578,-0.477396,12624,-711
1.012000,-12.179246,-923.628250,120.204350,12.991333,-438.903809,-342.999112,-25.170579,-580.629138,-0.133311,-25.509722,-25.509722,-25.643033,-0.160200,-0.480738,-0.480738,-0.476328,11825,-743
1.014000,-14.020481,-917.151250,138.376607,12.098145,-446.594238,-353.358625,-26.118626,-563.792625,-0.152971,-25.794998,-25.794998,-25.947969,-0.160200,-0.484550,-0.484550,-0.479532,11012,-756
1.016000,-15.847851,-909.767250,156.412030,11.119263,-489.440918,-366.966854,-26.967114,-542.800396,-0.172277,-25.946926,-25.946926,-26.119204,-0.160200,-0.486690,-0.486690,-0.482736,10121,-769
1.018000,-17.659550,-901.483750,174.292784,10.145874,-486.694336,-378.939602,-27.805424,-522.544148,-0.191191,-26.105483,-26.105483,-26.296674,-0.160200,-0.488908,-0.488908,-0.481668,9235,-794
1.020000,-19.453786,-892.308750,192.001187,9.130737,-507.568359,-391.802478,-28.584523,-500.506272,-0.209675,-26.196774,-26.196774,-26.406449,-0.160200,-0.490281,-0.490281,-0.492348,8311,-804
1.022000,-21.228785,-882.251500,209.519729,8.121094,-504.821777,-403.104408,-29.349879,-479.147092,-0.227694,-26.291515,-26.291515,-26.519209,-0.160200,-0.491690,-0.491690,-0.485940,7392,-805
1.024000,-22.982792,-871.322000,226.831086,7.153198,-483.947754,-411.188742,-30.135990,-460.133258,-0.245217,-26.439869,-26.439869,-26.685087,-0.160200,-0.493764,-0.493764,-0.482736,6511,-820
1.026000,-24.714073,-859.530750,243.918140,6.177612,-487.792969,-418.849165,-30.891685,-440.681585,-0.262216,-26.562001,-26.562001,-26.824218,-0.160200,-0.495503,-0.495503,-0.498756,5623,-810
1.028000,-26.420915,-846.889250,260.763994,5.188843,-494.384766,-426.402725,-31.609758,-420.486525,-0.278666,-26.648177,-26.648177,-26.926842,-0.160200,-0.496786,-0.496786,-0.496620,4723,-837
1.030000,-28.101630,-833.410500,277.351990,4.059448,-564.697266,-440.232179,-32.161078,-393.178321,-0.294543,-26.508341,-26.508341,-26.802884,-0.160200,-0.495236,-0.495236,-0.495552,3695,-857
1.032000,-29.754557,-819.107500,293.665724,2.917969,-570.739746,-453.282936,-32.672526,-365.824564,-0.309831,-26.343353,-26.343353,-26.653184,-0.160200,-0.493365,-0.493365,-0.501960,2656,-844
1.034000,-31.378060,-803.994750,309.689066,1.819336,-549.316406,-462.886283,-33.197396,-341.108467,-0.324513,-26.232601,-26.232601,-26.557114,-0.160200,-0.492164,-0.492164,-0.497688,1656,-864
1.036000,-32.970536,-788.087000,325.406170,0.788818,-515.258789,-468.123534,-33.759354,-319.963466,-0.338579,-26.206832,-26.206832,-26.545411,-0.160200,-0.492018,-0.492018,-0.493416,718,-880
1.038000,-34.530408,-771.399750,340.801494,-0.379028,-583.923340,-479.703514,-34.151380,-291.696236,-0.352018,-25.952950,-25.952950,-26.304969,-0.160200,-0.489012,-0.489012,-0.492348,-345,-872
1.040000,-36.056135,-753.949750,355.859815,-1.420532,-520.751953,-483.808358,-34.635603,-270.141392,-0.364827,-25.872542,-25.872542,-26.237369,-0.160200,-0.488167,-0.488167,-0.482736,-1293,-852
1.042000,-37.546207,-735.754250,370.566241,-2.462036,-520.751953,-487.502718,-35.084171,-248.251532,-0.377002,-25.764507,-25.764507,-26.141509,-0.160200,-0.486969,-0.486969,-0.491280,-2241,-862
1.044000,-38.999152,-716.831250,384.906231,-3.633179,-585.571289,-497.309575,-35.365973,-219.521675,-0.388545,-25.435220,-25.435220,-25.823765,-0.160200,-0.482997,-0.482997,-0.488076,-3307,-856
1.046000,-40.413532,-697.199250,398.865605,-4.680176,-523.498535,-499.928471,-35.733356,-197.270779,-0.399460,-25.271290,-25.271290,-25.670750,-0.160200,-0.481084,-0.481084,-0.476328,-4260,-870
1.048000,-41.787949,-676.878000,412.430557,-5.724976,-522.399902,-502.175614,-36.062973,-174.702386,-0.409752,-25.078749,-25.078749,-25.488501,-0.160200,-0.478806,-0.478806,-0.482736,-5211,-864
1.050000,-43.121044,-655.887250,425.587675,-6.767578,-521.301270,-504.088179,-36.353466,-151.799071,-0.419432,-24.856462,-24.856462,-25.275894,-0.160200,-0.476149,-0.476149,-0.479532,-6160,-861
1.052000,-44.411498,-634.248000,438.323949,-7.807983,-520.202637,-505.699625,-36.603515,-128.548375,-0.428510,-24.603407,-24.603407,-25.031917,-0.160200,-0.473099,-0.473099,-0.470988,-7107,-879
1.054000,-45.658036,-611.981500,450.626783,-8.850586,-521.301270,-507.259790,-36.807450,-104.721710,-0.436999,-24.312130,-24.312130,-24.749130,-0.160200,-0.469564,-0.469564,-0.470988,-8056,-875
1.056000,-46.859424,-589.109750,462.484012,-9.889893,-519.653320,-508.499143,-36.969531,-80.610607,-0.444916,-23.990322,-23.990322,-24.435238,-0.160200,-0.465640,-0.465640,-0.469920,-9002,-843
1.058000,-48.014475,-565.655750,473.883912,-10.921509,-515.808105,-509.230039,-37.092966,-56.425711,-0.452277,-23.643618,-23.643618,-24.095895,-0.160200,-0.461399,-0.461399,-0.467784,-9941,-866
1.060000,-49.122047,-541.642250,484.815208,-12.070679,-574.584961,-515.765531,-37.051368,-25.876719,-0.459100,-23.085027,-23.085027,-23.544126,-0.160200,-0.454502,-0.454502,-0.453900,-10987,-846
1.062000,-50.181044,-517.093250,495.267092,-13.086914,-508.117676,-515.000746,-37.094130,-2.092504,-0.465404,-22.696036,-22.696036,-23.161440,-0.160200,-0.449718,-0.449718,-0.456036,-11912,-849
1.064000,-51.190420,-492.032750,505.229228,-14.095459,-504.272461,-513.927917,-37.094961,21.895167,-0.471211,-22.277879,-22.277879,-22.749091,-0.160200,-0.444564,-0.444564,-0.448560,-12830,-856
1.066000,-52.149175,-466.485750,514.691766,-15.088623,-496.582031,-512.193329,-37.060552,45.707579,-0.476541,-21.841255,-21.841255,-22.317797,-0.160200,-0.439172,-0.439172,-0.442152,-13734,-810
1.068000,-53.056363,-440.477500,523.645347,-16.070801,-491.088867,-510.082882,-36.985562,69.605382,-0.481416,-21.378351,-21.378351,-21.859767,-0.160200,-0.433447,-0.433447,-0.444288,-14628,-838
1.070000,-53.911085,-414.033500,532.081119,-17.038696,-483.947754,-507.469370,-36.872389,93.435870,-0.485857,-20.893297,-20.893297,-21.379154,-0.160200,-0.427439,-0.427439,-0.432540,-15509,-812
1.072000,-54.712497,-387.180250,539.990739,-17.996704,-479.003906,-504.622823,-36.715793,117.442573,-0.489885,-20.378642,-20.378642,-20.868527,-0.160200,-0.421057,-0.421057,-0.430404,-16381,-770
