khanfazel/E-wera--maxon_motor/ff+FB/feedforward_pd_log.csv
t_s,q_des_deg,qd_des_deg_s,qdd_des_deg_s2,q_act_joint_deg,qd_act_joint_deg_s,e_pos_deg,e_vel_deg_s,tau_joint_ff_Nm,tau_joint_pd_Nm,tau_joint_total_Nm,tau_dead_motor_Nm,tau_motor_ff_Nm,tau_motor_pd_Nm,tau_motor_cmd_Nm,tau_motor_actual_Nm,motor_pos_counts,motor_pos_deg,motor_vel_native
0.000000,0.000000,943.265500,0.000000,0.008514,0.000000,-0.008514,943.265500,0.000000,0.493774,0.493774,0.050000,0.000000,0.006172,0.056172,0.000000,155,0.681152,0
0.002000,1.886531,942.799250,0.000000,0.008514,0.000000,1.878017,942.799250,0.027289,0.519871,0.547160,0.050000,0.000341,0.006498,0.056839,0.056604,155,0.681152,8
0.004000,3.771197,941.400750,-37.220226,0.009119,0.302124,3.762078,941.098626,0.041649,0.545287,0.586936,0.050000,0.000521,0.006816,0.057337,0.054468,166,0.729492,6
0.006000,5.652134,939.071000,-55.784328,0.009448,0.164795,5.642686,938.906205,0.062349,0.570397,0.632746,0.050000,0.000779,0.007130,0.057909,0.056604,172,0.755859,3
0.008000,7.527481,935.812750,-74.293267,0.009613,0.082397,7.517868,935.730353,0.082899,0.594917,0.677816,0.050000,0.001036,0.007436,0.058473,0.061944,175,0.769043,2
0.010000,9.395385,931.629250,-92.728741,0.009778,0.082397,9.385607,931.546853,0.103253,0.618805,0.722057,0.050000,0.001291,0.007735,0.059026,0.058740,178,0.782227,1
0.012000,11.253998,926.524500,-111.072519,0.009833,0.027466,11.244165,926.497034,0.123362,0.642111,0.765473,0.050000,0.001542,0.008026,0.059568,0.059808,179,0.786621,1
0.014000,13.101483,920.503500,-129.306462,0.009833,0.000000,13.091650,920.503500,0.143183,0.664768,0.807951,0.050000,0.001790,0.008310,0.060099,0.058740,179,0.786621,1
0.016000,14.936012,913.572250,-147.412541,0.009833,0.000000,14.926179,913.572250,0.162671,0.686754,0.849425,0.050000,0.002033,0.008584,0.060618,0.058740,179,0.786621,0
0.018000,16.755772,905.737500,-165.372849,0.009833,0.000000,16.745939,905.737500,0.181786,0.708060,0.889846,0.050000,0.002272,0.008851,0.061123,0.058740,179,0.786621,0
0.020000,18.558962,897.007250,-183.169628,0.009833,0.000000,18.549129,897.007250,0.200489,0.728667,0.929156,0.050000,0.002506,0.009108,0.061614,0.058740,179,0.786621,0
0.022000,20.343801,887.390000,-200.785278,0.009833,0.000000,20.333968,887.390000,0.218745,0.748552,0.967297,0.050000,0.002734,0.009357,0.062091,0.061944,179,0.786621,0
0.024000,22.108522,876.895000,-218.202380,0.009833,0.000000,22.098689,876.895000,0.236520,0.767697,1.004217,0.050000,0.002956,0.009596,0.062553,0.066216,179,0.786621,0
0.026000,23.851381,865.533250,-235.403712,0.009888,0.027466,23.841493,865.505784,0.253784,0.786068,1.039852,0.050000,0.003172,0.009826,0.062998,0.063012,180,0.791016,0
0.028000,25.570655,853.315500,-252.372264,0.009888,0.000000,25.560767,853.315500,0.270511,0.803691,1.074202,0.050000,0.003381,0.010046,0.063428,0.061944,180,0.791016,0
0.030000,27.264643,840.253750,-269.091255,0.009888,0.000000,27.254755,840.253750,0.286677,0.820504,1.107181,0.050000,0.003583,0.010256,0.063840,0.063012,180,0.791016,0
0.032000,28.931670,826.361000,-285.544154,0.009888,0.000000,28.921782,826.361000,0.302262,0.836506,1.138768,0.050000,0.003778,0.010456,0.064235,0.064080,180,0.791016,0
0.034000,30.570087,811.651500,-301.714692,0.009888,0.000000,30.560199,811.651500,0.317249,0.851681,1.168929,0.050000,0.003966,0.010646,0.064612,0.063012,180,0.791016,0
0.036000,32.178276,796.139500,-317.586877,0.009888,0.000000,32.168388,796.139500,0.331624,0.866013,1.197637,0.050000,0.004145,0.010825,0.064970,0.063012,180,0.791016,0
0.038000,33.754645,779.839750,-333.145014,0.009888,0.000000,33.744757,779.839750,0.345377,0.879489,1.224866,0.050000,0.004317,0.010994,0.065311,0.063012,180,0.791016,0
0.040000,35.297635,762.769000,-348.373719,0.009888,0.000000,35.287747,762.769000,0.358502,0.892095,1.250596,0.050000,0.004481,0.011151,0.065632,0.067284,180,0.791016,0
0.042000,36.805721,744.944000,-363.257932,0.009888,0.000000,36.795833,744.944000,0.370994,0.903819,1.274812,0.050000,0.004637,0.011298,0.065935,0.070488,180,0.791016,0
0.044000,38.277411,726.382500,-377.782936,0.009888,0.000000,38.267523,726.382500,0.382852,0.914648,1.297501,0.050000,0.004786,0.011433,0.066219,0.066216,180,0.791016,0
0.046000,39.711251,707.102750,-391.934367,0.009943,0.027466,39.701308,707.075284,0.394081,0.924559,1.318639,0.050000,0.004926,0.011557,0.066483,0.068352,181,0.795410,0
0.048000,41.105822,687.123500,-405.698231,0.009943,0.000000,41.095879,687.123500,0.404683,0.933584,1.338267,0.050000,0.005059,0.011670,0.066728,0.070488,181,0.795410,0
0.050000,42.459745,666.465000,-419.060918,0.009943,0.000000,42.449802,666.465000,0.414668,0.941671,1.356339,0.050000,0.005183,0.011771,0.066954,0.070488,181,0.795410,0
0.052000,43.771682,645.147500,-432.009215,0.009943,0.000000,43.761739,645.147500,0.424045,0.948828,1.372873,0.050000,0.005301,0.011860,0.067161,0.066216,181,0.795410,0
0.054000,45.040335,623.191750,-444.530316,0.009943,0.000000,45.030392,623.191750,0.432827,0.955045,1.387873,0.050000,0.005410,0.011938,0.067348,0.071556,181,0.795410,0
0.056000,46.264449,600.619750,-456.611842,0.009943,0.000000,46.254506,600.619750,0.441028,0.960319,1.401347,0.050000,0.005513,0.012004,0.067517,0.068352,181,0.795410,0
0.058000,47.442814,577.454250,-468.241844,0.009943,0.000000,47.432871,577.454250,0.448665,0.964642,1.413307,0.050000,0.005608,0.012058,0.067666,0.070488,181,0.795410,0
0.060000,48.574266,553.717500,-479.408822,0.009943,0.000000,48.564323,553.717500,0.455754,0.968012,1.423766,0.050000,0.005697,0.012100,0.067797,0.070488,181,0.795410,0
0.062000,49.657684,529.433000,-490.101734,0.009943,0.000000,49.647741,529.433000,0.462316,0.970424,1.432739,0.050000,0.005779,0.012130,0.067909,0.070488,181,0.795410,0
0.064000,50.691998,504.625250,-500.310006,0.009943,0.000000,50.682055,504.625250,0.468369,0.971876,1.440245,0.050000,0.005855,0.012148,0.068003,0.066216,181,0.795410,0
0.066000,51.676185,479.318500,-510.023544,0.009943,0.000000,51.666242,479.318500,0.473935,0.972367,1.446302,0.050000,0.005924,0.012155,0.068079,0.066216,181,0.795410,0
0.068000,52.609272,453.537750,-519.232741,0.009998,0.027466,52.599274,453.510284,0.479034,0.971882,1.450916,0.050000,0.005988,0.012149,0.068136,0.068352,182,0.799805,0
0.070000,53.490336,427.308250,-527.928493,0.009998,0.000000,53.480338,427.308250,0.483689,0.970464,1.454154,0.050000,0.006046,0.012131,0.068177,0.066216,182,0.799805,0
0.072000,54.318505,400.656500,-536.102199,0.009998,0.000000,54.308507,400.656500,0.487921,0.968073,1.455994,0.050000,0.006099,0.012101,0.068200,0.068352,182,0.799805,0
0.074000,55.092962,373.608500,-543.745778,0.009998,0.000000,55.082964,373.608500,0.491752,0.964724,1.456476,0.050000,0.006147,0.012059,0.068206,0.067284,182,0.799805,0
0.076000,55.812939,346.191000,-550.851670,0.009998,0.000000,55.802941,346.191000,0.495201,0.960421,1.455622,0.050000,0.006190,0.012005,0.068195,0.071556,182,0.799805,0
0.078000,56.477726,318.431250,-557.412850,0.009998,0.000000,56.467728,318.431250,0.498290,0.955168,1.453458,0.050000,0.006229,0.011940,0.068168,0.067284,182,0.799805,0
0.080000,57.086664,290.356250,-563.422828,0.010052,0.027466,57.076612,290.328784,0.501038,0.948956,1.449993,0.050000,0.006263,0.011862,0.068125,0.068352,183,0.804199,0
0.082000,57.639151,261.994500,-568.875663,0.010052,0.000000,57.629099,261.994500,0.503463,0.941834,1.445297,0.050000,0.006293,0.011773,0.068066,0.064080,183,0.804199,0
0.084000,58.134642,233.373750,-573.765962,0.010052,0.000000,58.124590,233.373750,0.505582,0.933767,1.439349,0.050000,0.006320,0.011672,0.067992,0.064080,183,0.804199,0
0.086000,58.572646,204.522000,-578.088888,0.010052,0.000000,58.562594,204.522000,0.507412,0.924776,1.432188,0.050000,0.006343,0.011560,0.067902,0.071556,183,0.804199,0
0.088000,58.952730,175.468250,-581.840169,0.010107,0.027466,58.942623,175.440784,0.508967,0.914855,1.423821,0.050000,0.006362,0.011436,0.067798,0.065148,184,0.808594,0
0.090000,59.274519,146.240750,-585.016093,0.010107,0.000000,59.264412,146.240750,0.510258,0.904059,1.414317,0.050000,0.006378,0.011301,0.067679,0.063012,184,0.808594,0
0.092000,59.537693,116.868500,-587.613520,0.010107,0.000000,59.527586,116.868500,0.511298,0.892354,1.403652,0.050000,0.006391,0.011154,0.067546,0.065148,184,0.808594,0
0.094000,59.741993,87.381000,-589.629883,0.010162,0.027466,59.731831,87.353534,0.512094,0.879752,1.391846,0.050000,0.006401,0.010997,0.067398,0.065148,185,0.812988,0
0.096000,59.887217,57.807000,-591.063187,0.010162,0.000000,59.877055,57.807000,0.512655,0.866309,1.378964,0.050000,0.006408,0.010829,0.067237,0.065148,185,0.812988,0
0.098000,59.973221,28.176000,-591.912014,0.010217,0.027466,59.963004,28.148534,0.512985,0.851980,1.364965,0.050000,0.006412,0.010650,0.067062,0.063012,186,0.817383,1
0.100000,59.999921,-1.483000,-592.175526,0.010327,0.054932,59.989594,-1.537932,0.513087,0.836807,1.349894,-0.050000,0.006414,0.010460,-0.033126,0.061944,188,0.826172,2
0.102000,59.967289,-31.140750,-591.853461,0.010492,0.082397,59.956797,-31.223147,0.512962,0.820806,1.333769,-0.050000,0.006412,0.010260,-0.033328,-0.035244,191,0.839355,-9
0.104000,59.875358,-60.767500,-590.946139,0.009503,-0.494385,59.865855,-60.273115,0.512609,0.804326,1.316935,-0.050000,0.006408,0.010054,-0.033538,-0.030972,173,0.760254,-24
0.106000,59.724219,-90.334250,-589.454456,0.007800,-0.851440,59.716419,-89.482810,0.512025,0.786945,1.298971,-0.050000,0.006400,0.009837,-0.033763,-0.030972,142,0.624023,-20
0.108000,59.514021,-119.811500,-587.379888,0.006427,-0.686646,59.507594,-119.124854,0.511205,0.768509,1.279714,-0.050000,0.006390,0.009606,-0.034004,-0.034176,117,0.514160,-16
0.110000,59.244973,-149.170500,-584.724485,0.005603,-0.411987,59.239370,-148.758513,0.510140,0.749248,1.259388,-0.050000,0.006377,0.009366,-0.034258,-0.034176,102,0.448242,-11
0.112000,58.917339,-178.382000,-581.490875,0.005054,-0.274658,58.912285,-178.107342,0.508823,0.729314,1.238137,-0.050000,0.006360,0.009116,-0.034523,-0.030972,92,0.404297,-6
0.114000,58.531445,-207.416750,-577.682254,0.004889,-0.082397,58.526556,-207.334353,0.507242,0.708625,1.215867,-0.050000,0.006341,0.008858,-0.034802,-0.030972,89,0.391113,-2
0.116000,58.087672,-236.246500,-573.302388,0.004779,-0.054932,58.082893,-236.191568,0.505384,0.687321,1.192704,-0.050000,0.006317,0.008592,-0.035091,-0.035244,87,0.382324,-1
0.118000,57.586459,-264.842750,-568.355609,0.004779,0.000000,57.581680,-264.842750,0.503234,0.665321,1.168555,-0.050000,0.006290,0.008317,-0.035393,-0.036312,87,0.382324,-1
0.120000,57.028301,-293.177250,-562.846808,0.004779,0.000000,57.023522,-293.177250,0.500778,0.642691,1.143469,-0.050000,0.006260,0.008034,-0.035707,-0.035244,87,0.382324,0
0.122000,56.413750,-321.221750,-556.781433,0.004779,0.000000,56.408971,-321.221750,0.497997,0.619427,1.117423,-0.050000,0.006225,0.007743,-0.036032,-0.035244,87,0.382324,0
0.124000,55.743414,-348.948750,-550.165481,0.004779,0.000000,55.738635,-348.948750,0.494873,0.595549,1.090422,-0.050000,0.006186,0.007444,-0.036370,-0.034176,87,0.382324,0
0.126000,55.017955,-376.330500,-543.005495,0.004779,0.000000,55.013176,-376.330500,0.491386,0.571083,1.062469,-0.050000,0.006142,0.007139,-0.036719,-0.036312,87,0.382324,0
0.128000,54.238092,-403.339750,-535.308555,0.004779,0.000000,54.233313,-403.339750,0.487517,0.546052,1.033568,-0.050000,0.006094,0.006826,-0.037080,-0.035244,87,0.382324,0
0.130000,53.404596,-429.950500,-527.082272,0.004779,0.000000,53.399817,-429.950500,0.483243,0.520481,1.003724,-0.050000,0.006041,0.006506,-0.037453,-0.037380,87,0.382324,0
0.132000,52.518290,-456.136500,-518.334780,0.004779,0.000000,52.513511,-456.136500,0.478545,0.494394,0.972939,-0.050000,0.005982,0.006180,-0.037838,-0.037380,87,0.382324,0
0.134000,51.580050,-481.871000,-509.074730,0.004779,0.000000,51.575271,-481.871000,0.473399,0.467820,0.941219,-0.050000,0.005917,0.005848,-0.038235,-0.035244,87,0.382324,0
0.136000,50.590806,-507.128750,-499.311279,0.004779,0.000000,50.586027,-507.128750,0.467786,0.440782,0.908568,-0.050000,0.005847,0.005510,-0.038643,-0.038448,87,0.382324,0
0.138000,49.551535,-531.885500,-489.054081,0.004724,-0.027466,49.546811,-531.858034,0.461683,0.413324,0.875006,-0.050000,0.005771,0.005167,-0.039062,-0.038448,86,0.377930,0
0.140000,48.463264,-556.116250,-478.313278,0.004724,0.000000,48.458540,-556.116250,0.455069,0.385427,0.840496,-0.050000,0.005688,0.004818,-0.039494,-0.039516,86,0.377930,0
0.142000,47.327070,-579.796750,-467.099493,0.004724,0.000000,47.322346,-579.796750,0.447926,0.357164,0.805090,-0.050000,0.005599,0.004465,-0.039936,-0.038448,86,0.377930,0
0.144000,46.144077,-602.904250,-455.423814,0.004724,0.000000,46.139353,-602.904250,0.440234,0.328547,0.768781,-0.050000,0.005503,0.004107,-0.040390,-0.039516,86,0.377930,0
0.146000,44.915453,-625.415500,-443.297786,0.004724,0.000000,44.910729,-625.415500,0.431975,0.299605,0.731581,-0.050000,0.005400,0.003745,-0.040855,-0.038448,86,0.377930,0
0.148000,43.642415,-647.308250,-430.733401,0.004724,0.000000,43.637691,-647.308250,0.423135,0.270367,0.693502,-0.050000,0.005289,0.003380,-0.041331,-0.041652,86,0.377930,0
0.150000,42.326220,-668.560750,-417.743082,0.004724,0.000000,42.321496,-668.560750,0.413697,0.240862,0.654559,-0.050000,0.005171,0.003011,-0.041818,-0.041652,86,0.377930,0
0.152000,40.968172,-689.152250,-404.339676,0.004669,-0.027466,40.963503,-689.124784,0.403651,0.211134,0.614785,-0.050000,0.005046,0.002639,-0.042315,-0.041652,85,0.373535,0
0.154000,39.569611,-709.062500,-390.536436,0.004669,0.000000,39.564942,-709.062500,0.392986,0.181167,0.574153,-0.050000,0.004912,0.002265,-0.042823,-0.042720,85,0.373535,0
0.156000,38.131922,-728.271250,-376.347012,0.004669,0.000000,38.127253,-728.271250,0.381695,0.151035,0.532730,-0.050000,0.004771,0.001888,-0.043341,-0.043788,85,0.373535,0
0.158000,36.656526,-746.760000,-361.785435,0.004669,0.000000,36.651857,-746.760000,0.369773,0.120754,0.490527,-0.050000,0.004622,0.001509,-0.043868,-0.043788,85,0.373535,0
0.160000,35.144882,-764.510500,-346.866104,0.004614,-0.027466,35.140268,-764.483034,0.357218,0.090368,0.447586,-0.050000,0.004465,0.001130,-0.044405,-0.041652,84,0.369141,0
0.162000,33.598484,-781.504750,-331.603773,0.004614,0.000000,33.593870,-781.504750,0.344030,0.059864,0.403894,-0.050000,0.004300,0.000748,-0.044951,-0.042720,84,0.369141,0
0.164000,32.018863,-797.726250,-316.013534,0.004559,-0.027466,32.014304,-797.698784,0.330214,0.029330,0.359544,-0.050000,0.004128,0.000367,-0.045506,-0.045924,83,0.364746,0
0.166000,30.407579,-813.159000,-300.110802,0.004504,-0.027466,30.403075,-813.131534,0.315777,-0.001248,0.314530,-0.050000,0.003947,-0.000016,-0.046068,-0.046992,82,0.360352,-1
0.168000,28.766227,-827.787250,-283.911305,0.004449,-0.027466,28.761778,-827.759784,0.300730,-0.031824,0.268906,-0.050000,0.003759,-0.000398,-0.046639,-0.045924,81,0.355957,-1
0.170000,27.096430,-841.597500,-267.431059,0.004340,-0.054932,27.092090,-841.542568,0.285086,-0.062354,0.222733,-0.050000,0.003564,-0.000779,-0.047216,-0.045924,79,0.347168,-1
0.172000,25.399837,-854.575500,-250.686364,0.004285,-0.027466,25.395552,-854.548034,0.268863,-0.092852,0.176012,-0.050000,0.003361,-0.001161,-0.047800,-0.046992,78,0.342773,-1
0.174000,23.678128,-866.708000,-233.693775,0.004230,-0.027466,23.673898,-866.680534,0.252081,-0.123243,0.128838,-0.050000,0.003151,-0.001541,-0.048390,-0.049128,77,0.338379,-1
0.176000,21.933005,-877.983750,-216.470097,0.004175,-0.027466,21.928830,-877.956284,0.234765,-0.153513,0.081252,-0.050000,0.002935,-0.001919,-0.048984,-0.046992,76,0.333984,-1
0.178000,20.166193,-888.391250,-199.032362,0.004065,-0.054932,20.162128,-888.336318,0.216940,-0.183615,0.033325,-0.050000,0.002712,-0.002295,-0.049583,-0.048060,74,0.325195,-1
0.180000,18.379440,-897.920250,-181.397812,0.003955,-0.054932,18.375485,-897.865318,0.198638,-0.213551,-0.014913,-0.050000,0.002483,-0.002669,-0.050186,-0.051264,72,0.316406,-1
0.182000,16.574512,-906.561500,-163.583885,0.003900,-0.027466,16.570612,-906.534034,0.179892,-0.243291,-0.063399,-0.050000,0.002249,-0.003041,-0.050792,-0.050196,71,0.312012,-1
0.184000,14.753194,-914.306250,-145.608198,0.003790,-0.054932,14.749404,-914.251318,0.160738,-0.272760,-0.112022,-0.050000,0.002009,-0.003410,-0.051400,-0.051264,69,0.303223,-1
0.186000,12.917287,-921.146750,-127.488525,0.003625,-0.082397,12.913662,-921.064353,0.141215,-0.301959,-0.160745,-0.050000,0.001765,-0.003774,-0.052009,-0.053400,66,0.290039,-3
0.188000,11.068607,-927.076250,-109.242785,0.003461,-0.082397,11.065146,-926.993853,0.121364,-0.330874,-0.209511,-0.050000,0.001517,-0.004136,-0.052619,-0.052332,63,0.276855,-3
0.190000,9.208982,-932.089000,-90.889019,0.003241,-0.109863,9.205741,-931.979137,0.101228,-0.359447,-0.258219,-0.050000,0.001265,-0.004493,-0.053228,-0.052332,59,0.259277,-3
0.192000,7.340251,-936.180250,-72.445377,0.003076,-0.082397,7.337175,-936.097853,0.080852,-0.387693,-0.306841,-0.050000,0.001011,-0.004846,-0.053836,-0.053400,56,0.246094,-4
0.194000,5.464261,-939.345750,-53.930097,0.002802,-0.137329,5.461459,-939.208421,0.060285,-0.415512,-0.355227,-0.050000,0.000754,-0.005194,-0.054440,-0.052332,51,0.224121,-5
0.196000,3.582868,-941.582500,-35.361488,0.002527,-0.137329,3.580341,-941.445171,0.039573,-0.442949,-0.403376,-0.050000,0.000495,-0.005537,-0.055042,-0.054468,46,0.202148,-5
0.198000,1.697931,-942.888000,-16.757912,0.002252,-0.137329,1.695679,-942.750671,0.018766,-0.469947,-0.451181,-0.050000,0.000235,-0.005874,-0.055640,-0.057672,41,0.180176,-4
0.200000,-0.188684,-943.261000,1.862236,0.001923,-0.164795,-0.190607,-943.096205,-0.002086,-0.496465,-0.498551,-0.050000,-0.000026,-0.006206,-0.056232,-0.054468,35,0.153809,-7
0.202000,-2.075113,-942.701250,20.480542,0.001483,-0.219727,-2.076596,-942.481523,-0.022933,-0.522477,-0.545410,-0.050000,-0.000287,-0.006531,-0.056818,-0.057672,27,0.118652,-7
0.204000,-3.959489,-941.209500,39.078596,0.001044,-0.219727,-3.960533,-940.989773,-0.043725,-0.548001,-0.591725,-0.050000,-0.000547,-0.006850,-0.057397,-0.055536,19,0.083496,-8
0.206000,-5.839951,-938.787000,57.638006,0.000494,-0.274658,-5.840445,-938.512342,-0.064411,-0.572952,-0.637363,-0.050000,-0.000805,-0.007162,-0.057967,-0.057672,9,0.039551,-9
0.208000,-7.714637,-935.436000,76.140422,-0.000055,-0.274658,-7.714582,-935.161342,-0.084944,-0.597365,-0.682310,-0.050000,-0.001062,-0.007467,-0.058529,-0.057672,-1,-0.004395,-9
0.210000,-9.581695,-931.160250,94.567545,-0.000604,-0.274658,-9.581091,-930.885592,-0.105275,-0.621188,-0.726463,-0.050000,-0.001316,-0.007765,-0.059081,-0.060876,-11,-0.048340,-10
0.212000,-11.439278,-925.963500,112.901154,-0.001154,-0.274658,-11.438124,-925.688842,-0.125358,-0.644396,-0.769754,-0.050000,-0.001567,-0.008055,-0.059622,-0.058740,-21,-0.092285,-8
0.214000,-13.285549,-919.851000,131.123121,-0.001648,-0.247192,-13.283901,-919.603808,-0.145147,-0.666982,-0.812129,-0.050000,-0.001814,-0.008337,-0.060152,-0.059808,-30,-0.131836,-11
0.216000,-15.118682,-912.829250,149.215425,-0.002197,-0.274658,-15.116485,-912.554592,-0.164600,-0.688878,-0.853478,-0.050000,-0.002057,-0.008611,-0.060668,-0.061944,-40,-0.175781,-10
0.218000,-16.936866,-904.904750,167.160178,-0.002856,-0.329590,-16.934010,-904.575160,-0.183675,-0.710078,-0.893753,-0.050000,-0.002296,-0.008876,-0.061172,-0.065148,-52,-0.228516,-10
0.220000,-18.738301,-896.085250,184.939632,-0.003516,-0.329590,-18.734785,-895.755660,-0.202335,-0.730604,-0.932939,-0.050000,-0.002529,-0.009133,-0.061662,-0.063012,-64,-0.281250,-11
0.222000,-20.521207,-886.379750,202.536209,-0.004065,-0.274658,-20.517142,-886.105092,-0.220544,-0.750437,-0.970981,-0.050000,-0.002757,-0.009380,-0.062137,-0.061944,-74,-0.325195,-10
0.224000,-22.283820,-875.797750,219.932506,-0.004614,-0.274658,-22.279206,-875.523092,-0.238269,-0.769499,-1.007769,-0.050000,-0.002978,-0.009619,-0.062597,-0.061944,-84,-0.369141,-6
0.226000,-24.024398,-864.349750,237.111321,-0.004889,-0.137329,-24.019509,-864.212421,-0.255481,-0.787876,-1.043358,-0.050000,-0.003194,-0.009848,-0.063042,-0.063012,-89,-0.391113,-4
0.228000,-25.741219,-852.047000,254.055668,-0.005109,-0.109863,-25.736110,-851.937137,-0.272153,-0.805417,-1.077570,-0.050000,-0.003402,-0.010068,-0.063470,-0.061944,-93,-0.408691,-4
0.230000,-27.432586,-838.901750,270.748790,-0.005273,-0.082397,-27.427313,-838.819353,-0.288262,-0.822162,-1.110424,-0.050000,-0.003603,-0.010277,-0.063880,-0.063012,-96,-0.421875,-2
0.232000,-29.096826,-824.926750,287.174181,-0.005328,-0.027466,-29.091498,-824.899284,-0.303788,-0.838110,-1.141898,-0.050000,-0.003797,-0.010476,-0.064274,-0.066216,-97,-0.426270,-1
0.234000,-30.732293,-810.136250,303.315597,-0.005383,-0.027466,-30.726910,-810.108784,-0.318714,-0.853201,-1.171915,-0.050000,-0.003984,-0.010665,-0.064649,-0.060876,-98,-0.430664,-1
0.236000,-32.337371,-794.544500,319.157079,-0.005438,-0.027466,-32.331933,-794.517034,-0.333027,-0.867447,-1.200474,-0.050000,-0.004163,-0.010843,-0.065006,-0.066216,-99,-0.435059,-1
0.238000,-33.910471,-778.167000,334.682960,-0.005438,0.000000,-33.905033,-778.167000,-0.346718,-0.880851,-1.227569,-0.050000,-0.004334,-0.011011,-0.065345,-0.064080,-99,-0.435059,-1
0.240000,-35.450039,-761.020250,349.877888,-0.005493,-0.027466,-35.444546,-760.992784,-0.359779,-0.893354,-1.253133,-0.050000,-0.004497,-0.011167,-0.065664,-0.066216,-100,-0.439453,-1
0.242000,-36.954552,-743.120750,364.726837,-0.005548,-0.027466,-36.949004,-743.093284,-0.372208,-0.904988,-1.277196,-0.050000,-0.004653,-0.011312,-0.065965,-0.066216,-101,-0.443848,-1
0.244000,-38.422522,-724.486500,379.215124,-0.005548,0.000000,-38.416974,-724.486500,-0.384004,-0.915742,-1.299746,-0.050000,-0.004800,-0.011447,-0.066247,-0.066216,-101,-0.443848,-1
0.246000,-39.852498,-705.136000,393.328421,-0.005603,-0.027466,-39.846895,-705.108534,-0.395169,-0.925562,-1.320731,-0.050000,-0.004940,-0.011570,-0.066509,-0.064080,-102,-0.448242,0
0.248000,-41.243066,-685.088000,407.052774,-0.005603,0.000000,-41.237463,-685.088000,-0.405709,-0.934495,-1.340204,-0.050000,-0.005071,-0.011681,-0.066753,-0.067284,-102,-0.448242,0
0.250000,-42.592850,-664.362500,420.374610,-0.005603,0.000000,-42.587247,-664.362500,-0.415633,-0.942490,-1.358123,-0.050000,-0.005195,-0.011781,-0.066977,-0.066216,-102,-0.448242,0
0.252000,-43.900516,-642.980250,433.280756,-0.005658,-0.027466,-43.894858,-642.952784,-0.424950,-0.949537,-1.374487,-0.050000,-0.005312,-0.011869,-0.067181,-0.067284,-103,-0.452637,0
0.254000,-45.164771,-620.962000,445.758450,-0.005658,0.000000,-45.159113,-620.962000,-0.433673,-0.955675,-1.389348,-0.050000,-0.005421,-0.011946,-0.067367,-0.068352,-103,-0.452637,0
0.256000,-46.384364,-598.329500,457.795354,-0.005658,0.000000,-46.378706,-598.329500,-0.441817,-0.960853,-1.402671,-0.050000,-0.005523,-0.012011,-0.067533,-0.067284,-103,-0.452637,0
0.258000,-47.558089,-575.105750,469.379563,-0.005658,0.000000,-47.552431,-575.105750,-0.449398,-0.965082,-1.414480,-0.050000,-0.005617,-0.012064,-0.067681,-0.067284,-103,-0.452637,0
0.260000,-48.684787,-551.313500,480.499624,-0.005713,-0.027466,-48.679074,-551.286034,-0.456434,-0.968341,-1.424775,-0.050000,-0.005705,-0.012104,-0.067810,-0.067284,-104,-0.457031,0
0.262000,-49.763343,-526.975500,491.144540,-0.005713,0.000000,-49.757630,-526.975500,-0.462943,-0.970671,-1.433615,-0.050000,-0.005787,-0.012133,-0.067920,-0.067284,-104,-0.457031,0
0.264000,-50.792689,-502.116500,501.303785,-0.005713,0.000000,-50.786976,-502.116500,-0.468947,-0.972028,-1.440974,-0.050000,-0.005862,-0.012150,-0.068012,-0.067284,-104,-0.457031,0
0.266000,-51.771809,-476.761250,510.967313,-0.005713,0.000000,-51.766096,-476.761250,-0.474465,-0.972423,-1.446888,-0.050000,-0.005931,-0.012155,-0.068086,-0.068352,-104,-0.457031,0
0.268000,-52.699734,-450.934500,520.125568,-0.005713,0.000000,-52.694021,-450.934500,-0.479519,-0.971856,-1.451376,-0.050000,-0.005994,-0.012148,-0.068142,-0.068352,-104,-0.457031,0
0.270000,-53.575547,-424.661750,528.769493,-0.005713,0.000000,-53.569834,-424.661750,-0.484131,-0.970328,-1.454460,-0.050000,-0.006052,-0.012129,-0.068181,-0.070488,-104,-0.457031,0
0.272000,-54.398381,-397.969000,536.890542,-0.005713,0.000000,-54.392668,-397.969000,-0.488322,-0.967841,-1.456163,-0.050000,-0.006104,-0.012098,-0.068202,-0.069420,-104,-0.457031,0
0.274000,-55.167423,-370.883000,544.480683,-0.005713,0.000000,-55.161710,-370.883000,-0.492113,-0.964397,-1.456510,-0.050000,-0.006151,-0.012055,-0.068206,-0.067284,-104,-0.457031,0
0.276000,-55.881913,-343.430000,551.532412,-0.005713,0.000000,-55.876200,-343.430000,-0.495526,-0.959998,-1.455524,-0.050000,-0.006194,-0.012000,-0.068194,-0.069420,-104,-0.457031,0
0.278000,-56.541143,-315.637250,558.038754,-0.005713,0.000000,-56.535430,-315.637250,-0.498580,-0.954651,-1.453231,-0.050000,-0.006232,-0.011933,-0.068165,-0.067284,-104,-0.457031,0
0.280000,-57.144462,-287.532750,563.993277,-0.005713,0.000000,-57.138749,-287.532750,-0.501295,-0.948359,-1.449654,-0.050000,-0.006266,-0.011854,-0.068121,-0.066216,-104,-0.457031,0
0.282000,-57.691274,-259.143750,569.390091,-0.005713,0.000000,-57.685561,-259.143750,-0.503688,-0.941130,-1.444818,-0.050000,-0.006296,-0.011764,-0.068060,-0.069420,-104,-0.457031,0
0.284000,-58.181037,-230.498500,574.223861,-0.005713,0.000000,-58.175324,-230.498500,-0.505778,-0.932969,-1.438748,-0.050000,-0.006322,-0.011662,-0.067984,-0.067284,-104,-0.457031,0
0.286000,-58.613268,-201.625250,578.489806,-0.005713,0.000000,-58.607555,-201.625250,-0.507580,-0.923887,-1.431466,-0.050000,-0.006345,-0.011549,-0.067893,-0.067284,-104,-0.457031,0
0.288000,-58.987538,-172.552500,582.183708,-0.005713,0.000000,-58.981825,-172.552500,-0.509107,-0.913890,-1.422997,-0.050000,-0.006364,-0.011424,-0.067787,-0.064080,-104,-0.457031,0
0.290000,-59.303478,-143.309500,585.301915,-0.005713,0.000000,-59.297765,-143.309500,-0.510373,-0.902990,-1.413363,-0.050000,-0.006380,-0.011287,-0.067667,-0.067284,-104,-0.457031,0
0.292000,-59.560776,-113.924750,587.841342,-0.005713,0.000000,-59.555063,-113.924750,-0.511388,-0.891196,-1.402584,-0.050000,-0.006392,-0.011140,-0.067532,-0.067284,-104,-0.457031,0
0.294000,-59.759177,-84.427000,589.799479,-0.005713,0.000000,-59.753464,-84.427000,-0.512161,-0.878522,-1.390682,-0.050000,-0.006402,-0.010982,-0.067384,-0.068352,-104,-0.457031,0
0.296000,-59.898484,-54.846000,591.174389,-0.005713,0.000000,-59.892771,-54.846000,-0.512698,-0.864978,-1.377676,-0.050000,-0.006409,-0.010812,-0.067221,-0.065148,-104,-0.457031,0
0.298000,-59.978561,-25.210750,591.964713,-0.005713,0.000000,-59.972848,-25.210750,-0.513005,-0.850579,-1.363584,-0.050000,-0.006413,-0.010632,-0.067045,-0.067284,-104,-0.457031,0
0.300000,-59.999327,4.449500,592.169669,-0.005713,0.000000,-59.993614,4.449500,-0.513085,-0.835339,-1.348424,0.050000,-0.006414,-0.010442,0.033145,-0.067284,-104,-0.457031,0
0.302000,-59.960763,34.105250,591.789055,-0.005713,0.000000,-59.955050,34.105250,-0.512937,-0.819273,-1.332210,0.050000,-0.006412,-0.010241,0.033347,0.033108,-104,-0.457031,10
0.304000,-59.862906,63.727250,590.823247,-0.004779,0.466919,-59.858127,63.260331,-0.512561,-0.802654,-1.315215,0.050000,-0.006407,-0.010033,0.033560,0.032040,-87,-0.382324,22
0.306000,-59.705854,93.286250,589.273200,-0.003406,0.686646,-59.702448,92.599604,-0.511954,-0.785118,-1.297072,0.050000,-0.006399,-0.009814,0.033787,0.036312,-62,-0.272461,19
0.308000,-59.489761,122.753250,587.140446,-0.002197,0.604248,-59.487564,122.149002,-0.511109,-0.766646,-1.277755,0.050000,-0.006389,-0.009583,0.034028,0.038448,-40,-0.175781,18
0.310000,-59.214841,152.098750,584.427095,-0.001208,0.494385,-59.213633,151.604365,-0.510020,-0.747398,-1.257419,0.050000,-0.006375,-0.009342,0.034282,0.032040,-22,-0.096680,14
0.312000,-58.881366,181.293750,581.135831,-0.000439,0.384521,-58.880927,180.909229,-0.508677,-0.727409,-1.236086,0.050000,-0.006358,-0.009093,0.034549,0.034176,-8,-0.035156,10
0.314000,-58.489666,210.309500,577.269906,0.000110,0.274658,-58.489776,210.034842,-0.507069,-0.706697,-1.213766,0.050000,-0.006338,-0.008834,0.034828,0.033108,2,0.008789,8
0.316000,-58.040128,239.117250,572.833145,0.000494,0.192261,-58.040622,238.924989,-0.505182,-0.685299,-1.190481,0.050000,-0.006315,-0.008566,0.035119,0.034176,9,0.039551,3
0.318000,-57.533197,267.688500,567.829934,0.000659,0.082397,-57.533856,267.606103,-0.503003,-0.663206,-1.166209,0.050000,-0.006288,-0.008290,0.035422,0.036312,12,0.052734,3
0.320000,-56.969374,295.995250,562.265222,0.000769,0.054932,-56.970143,295.940318,-0.500515,-0.640499,-1.141014,0.050000,-0.006256,-0.008006,0.035737,0.033108,14,0.061523,2
0.322000,-56.349216,324.009250,556.144510,0.000879,0.054932,-56.350095,323.954318,-0.497700,-0.617174,-1.114874,0.050000,-0.006221,-0.007715,0.036064,0.032040,16,0.070312,1
0.324000,-55.673337,351.702750,549.473852,0.000879,0.000000,-55.674216,351.702750,-0.494541,-0.593208,-1.087748,0.050000,-0.006182,-0.007415,0.036403,0.036312,16,0.070312,1
0.326000,-54.942405,379.048500,542.259843,0.000934,0.027466,-54.943339,379.021034,-0.491017,-0.568699,-1.059716,0.050000,-0.006138,-0.007109,0.036754,0.037380,17,0.074707,1
0.328000,-54.157143,406.019250,534.509617,0.000934,0.000000,-54.158077,406.019250,-0.487108,-0.543598,-1.030706,0.050000,-0.006089,-0.006795,0.037116,0.036312,17,0.074707,0
0.330000,-53.318328,432.588750,526.230838,0.000934,0.000000,-53.319262,432.588750,-0.482793,-0.517974,-1.000767,0.050000,-0.006035,-0.006475,0.037490,0.038448,17,0.074707,0
0.332000,-52.426788,458.730500,517.431693,0.000989,0.027466,-52.427777,458.703034,-0.478051,-0.491854,-0.969904,0.050000,-0.005976,-0.006148,0.037876,0.034176,18,0.079102,0
0.334000,-51.483406,484.418500,508.120883,0.000989,0.000000,-51.484395,484.418500,-0.472859,-0.465217,-0.938076,0.050000,-0.005911,-0.005815,0.038274,0.038448,18,0.079102,0
0.336000,-50.489114,509.627750,498.307614,0.000989,0.000000,-50.490103,509.627750,-0.467198,-0.438134,-0.905332,0.050000,-0.005840,-0.005477,0.038683,0.040584,18,0.079102,0
0.338000,-49.444895,534.332750,488.001591,0.001044,0.027466,-49.445939,534.305284,-0.461045,-0.410634,-0.871679,0.050000,-0.005763,-0.005133,0.039104,0.041652,19,0.083496,0
0.340000,-48.351783,558.509250,477.213005,0.001044,0.000000,-48.352827,558.509250,-0.454379,-0.382698,-0.837077,0.050000,-0.005680,-0.004784,0.039537,0.040584,19,0.083496,0
0.342000,-47.210858,582.133750,465.952524,0.001099,0.027466,-47.211957,582.106284,-0.447182,-0.354413,-0.801595,0.050000,-0.005590,-0.004430,0.039980,0.038448,20,0.087891,0
0.344000,-46.023248,605.182500,454.231283,0.001099,0.000000,-46.024347,605.182500,-0.439434,-0.325748,-0.765182,0.050000,-0.005493,-0.004072,0.040435,0.038448,20,0.087891,1
0.346000,-44.790128,627.633000,442.060872,0.001154,0.027466,-44.791282,627.605534,-0.431118,-0.296791,-0.727909,0.050000,-0.005389,-0.003710,0.040901,0.039516,21,0.092285,1
0.348000,-43.512716,649.462750,429.453327,0.001154,0.000000,-43.513870,649.462750,-0.422218,-0.267510,-0.689728,0.050000,-0.005278,-0.003344,0.041378,0.043788,21,0.092285,0
0.350000,-42.192277,670.650000,416.421115,0.001208,0.027466,-42.193485,670.622534,-0.412720,-0.237995,-0.650715,0.050000,-0.005159,-0.002975,0.041866,0.040584,22,0.096680,0
0.352000,-40.830116,691.174250,402.977123,0.001208,0.000000,-40.831324,691.174250,-0.402613,-0.208215,-0.610827,0.050000,-0.005033,-0.002603,0.042365,0.039516,22,0.096680,0
0.354000,-39.427580,711.015250,389.134644,0.001263,0.027466,-39.428843,710.987784,-0.391885,-0.178258,-0.570144,0.050000,-0.004899,-0.002228,0.042873,0.042720,23,0.101074,0
0.356000,-37.986055,730.153000,374.907367,0.001263,0.000000,-37.987318,730.153000,-0.380531,-0.148096,-0.528627,0.050000,-0.004757,-0.001851,0.043392,0.040584,23,0.101074,1
0.358000,-36.506968,748.568500,360.309360,0.001318,0.027466,-36.508286,748.541034,-0.368546,-0.117817,-0.486362,0.050000,-0.004607,-0.001473,0.043920,0.042720,24,0.105469,1
0.360000,-34.991781,766.244000,345.355060,0.001373,0.027466,-34.993154,766.216534,-0.355927,-0.087407,-0.443334,0.050000,-0.004449,-0.001093,0.044458,0.043788,25,0.109863,1
0.362000,-33.441992,783.162000,330.059253,0.001428,0.027466,-33.443420,783.134534,-0.342677,-0.056910,-0.399586,0.050000,-0.004283,-0.000711,0.045005,0.051264,26,0.114258,1
0.364000,-31.859133,799.305250,314.437066,0.001538,0.054932,-31.860671,799.250318,-0.328798,-0.026372,-0.355171,0.050000,-0.004110,-0.000330,0.045560,0.045924,28,0.123047,1
0.366000,-30.244771,814.658000,298.503945,0.001593,0.027466,-30.246364,814.630534,-0.314300,0.004221,-0.310079,0.050000,-0.003929,0.000053,0.046124,0.042720,29,0.127441,1
0.368000,-28.600501,829.205500,282.275647,0.001648,0.027466,-28.602149,829.178034,-0.299192,0.034795,-0.264397,0.050000,-0.003740,0.000435,0.046695,0.046992,30,0.131836,1
0.370000,-26.927949,842.933000,265.768219,0.001703,0.027466,-26.929652,842.905534,-0.283490,0.065335,-0.218154,0.050000,-0.003544,0.000817,0.047273,0.040584,31,0.136230,1
0.372000,-25.228769,855.827000,248.997985,0.001758,0.027466,-25.230527,855.799534,-0.267210,0.095811,-0.171399,0.050000,-0.003340,0.001198,0.047858,0.046992,32,0.140625,2
0.374000,-23.504641,867.874500,231.981527,0.001923,0.082397,-23.506564,867.792103,-0.250373,0.126161,-0.124212,0.050000,-0.003130,0.001577,0.048447,0.049128,35,0.153809,3
0.376000,-21.757271,879.063750,214.735673,0.002142,0.109863,-21.759413,878.953887,-0.233005,0.156400,-0.076604,0.050000,-0.002913,0.001955,0.049042,0.045924,39,0.171387,4
0.378000,-19.988386,889.384000,197.277477,0.002472,0.164795,-19.990858,889.219205,-0.215131,0.186469,-0.028662,0.050000,-0.002689,0.002331,0.049642,0.049128,45,0.197754,7
0.380000,-18.199735,898.824500,179.624202,0.002856,0.192261,-18.202591,898.632239,-0.196783,0.216367,0.019584,0.050000,-0.002460,0.002705,0.050245,0.051264,52,0.228516,6
0.382000,-16.393088,907.376250,161.793304,0.003296,0.219727,-16.396384,907.156523,-0.177994,0.246049,0.068055,0.050000,-0.002225,0.003076,0.050851,0.051264,60,0.263672,9
0.384000,-14.570230,915.031000,143.802416,0.003845,0.274658,-14.574075,914.756342,-0.158802,0.275473,0.116671,0.050000,-0.001985,0.003443,0.051458,0.054468,70,0.307617,8
0.386000,-12.732964,921.780750,125.669328,0.004504,0.329590,-12.737468,921.451160,-0.139244,0.304622,0.165378,0.050000,-0.001741,0.003808,0.052067,0.052332,82,0.360352,12
0.388000,-10.883107,927.618750,107.411971,0.005109,0.302124,-10.888216,927.316626,-0.119362,0.333514,0.214152,0.050000,-0.001492,0.004169,0.052677,0.051264,93,0.408691,10
0.390000,-9.022489,932.539750,89.048399,0.005768,0.329590,-9.028257,932.210160,-0.099200,0.362046,0.262846,0.050000,-0.001240,0.004526,0.053286,0.052332,105,0.461426,13
0.392000,-7.152948,936.538750,70.596771,0.006537,0.384521,-7.159485,936.154229,-0.078804,0.390204,0.311400,0.050000,-0.000985,0.004878,0.053893,0.049128,119,0.522949,12
0.394000,-5.276334,939.611250,52.075334,0.007416,0.439453,-5.283750,939.171797,-0.058219,0.417974,0.359755,0.050000,-0.000728,0.005225,0.054497,0.054468,135,0.593262,11
0.396000,-3.394503,941.754750,33.502401,0.008075,0.329590,-3.402578,941.425160,-0.037496,0.445420,0.407924,0.050000,-0.000469,0.005568,0.055099,0.052332,147,0.645996,9
0.398000,-1.509315,942.967250,14.896339,0.008624,0.274658,-1.517939,942.692592,-0.016682,0.472398,0.455716,0.050000,-0.000209,0.005905,0.055696,0.053400,157,0.689941,8
0.400000,0.377366,943.247000,-3.724453,0.009064,0.219727,0.368302,943.027273,0.004172,0.498910,0.503082,0.050000,0.000052,0.006236,0.056289,0.055536,165,0.725098,5
0.402000,2.263673,942.594000,-22.341562,0.009338,0.137329,2.254335,942.456671,0.025015,0.524946,0.549961,0.050000,0.000313,0.006562,0.056875,0.053400,170,0.747070,3
0.404000,4.147742,941.009250,-40.936579,0.009393,0.027466,4.138349,940.981784,0.045799,0.550479,0.596278,0.050000,0.000572,0.006881,0.057453,0.051264,171,0.751465,1
0.406000,6.027710,938.493750,-59.491115,0.009448,0.027466,6.018262,938.466284,0.066472,0.575411,0.641883,0.050000,0.000831,0.007193,0.058024,0.054468,172,0.755859,1
0.408000,7.901717,935.050000,-77.986823,0.009503,0.027466,7.892214,935.022534,0.086987,0.599773,0.686760,0.050000,0.001087,0.007497,0.058585,0.053400,173,0.760254,1
0.410000,9.767910,930.681750,-96.405414,0.009558,0.027466,9.758352,930.654284,0.107296,0.623542,0.730837,0.050000,0.001341,0.007794,0.059135,0.055536,174,0.764648,1
0.412000,11.624444,925.393250,-114.728673,0.009613,0.027466,11.614831,925.365784,0.127351,0.646694,0.774045,0.050000,0.001592,0.008084,0.059676,0.058740,175,0.769043,1
0.414000,13.469483,919.189750,-132.938482,0.009668,0.027466,13.459815,919.162284,0.147108,0.669207,0.816315,0.050000,0.001839,0.008365,0.060204,0.063012,176,0.773438,1
0.416000,15.301203,912.077500,-151.016834,0.009668,0.000000,15.291535,912.077500,0.166525,0.691073,0.857598,0.050000,0.002082,0.008638,0.060720,0.059808,176,0.773438,1
0.418000,17.117793,904.063000,-168.945853,0.009723,0.027466,17.108070,904.035534,0.185560,0.712226,0.897786,0.050000,0.002320,0.008903,0.061222,0.061944,177,0.777832,0
0.420000,18.917455,895.154250,-186.707808,0.009723,0.000000,18.907732,895.154250,0.204177,0.732703,0.936880,0.050000,0.002552,0.009159,0.061711,0.059808,177,0.777832,0
0.422000,20.698410,885.360750,-204.285136,0.009723,0.000000,20.688687,885.360750,0.222339,0.752442,0.974781,0.050000,0.002779,0.009406,0.062185,0.058740,177,0.777832,0
0.424000,22.458898,874.691750,-221.660456,0.009778,0.027466,22.449120,874.664284,0.240014,0.771422,1.011436,0.050000,0.003000,0.009643,0.062643,0.059808,178,0.782227,0
0.426000,24.197177,863.157750,-238.816585,0.009778,0.000000,24.187399,863.157750,0.257173,0.789668,1.046841,0.050000,0.003215,0.009871,0.063086,0.061944,178,0.782227,0
0.428000,25.911529,850.770250,-255.736559,0.009778,0.000000,25.901751,850.770250,0.273790,0.807119,1.080909,0.050000,0.003422,0.010089,0.063511,0.064080,178,0.782227,0
0.430000,27.600258,837.541250,-272.403647,0.009833,0.027466,27.590425,837.513784,0.289841,0.823756,1.113597,0.050000,0.003623,0.010297,0.063920,0.059808,179,0.786621,0
0.432000,29.261694,823.484250,-288.801367,0.009833,0.000000,29.251861,823.484250,0.305308,0.839608,1.144916,0.050000,0.003816,0.010495,0.064311,0.066216,179,0.786621,0
0.434000,30.894195,808.613000,-304.913503,0.009833,0.000000,30.884362,808.613000,0.320173,0.854616,1.174789,0.050000,0.004002,0.010683,0.064685,0.063012,179,0.786621,0
0.436000,32.496146,792.941750,-320.724125,0.009833,0.000000,32.486313,792.941750,0.334424,0.868778,1.203202,0.050000,0.004180,0.010860,0.065040,0.066216,179,0.786621,0
0.438000,34.065962,776.486750,-336.217596,0.009833,0.000000,34.056129,776.486750,0.348052,0.882081,1.230133,0.050000,0.004351,0.011026,0.065377,0.068352,179,0.786621,0
0.440000,35.602093,759.264000,-351.378597,0.009888,0.027466,35.592205,759.236534,0.361051,0.894496,1.255547,0.050000,0.004513,0.011181,0.065694,0.067284,180,0.791016,0
0.442000,37.103018,741.290000,-366.192135,0.009888,0.000000,37.093130,741.290000,0.373416,0.906056,1.279472,0.050000,0.004668,0.011326,0.065993,0.067284,180,0.791016,0
0.444000,38.567253,722.583250,-380.643561,0.009888,0.000000,38.557365,722.583250,0.385148,0.916706,1.301855,0.050000,0.004814,0.011459,0.066273,0.068352,180,0.791016,0
0.446000,39.993351,703.162250,-394.718586,0.009888,0.000000,39.983463,703.162250,0.396251,0.926449,1.322700,0.050000,0.004953,0.011581,0.066534,0.066216,180,0.791016,0
0.448000,41.379902,683.045750,-408.403291,0.009888,0.000000,41.370014,683.045750,0.406729,0.935276,1.342006,0.050000,0.005084,0.011691,0.066775,0.063012,180,0.791016,0
0.450000,42.725534,662.253500,-421.684145,0.009888,0.000000,42.715646,662.253500,0.416592,0.943178,1.359770,0.050000,0.005207,0.011790,0.066997,0.064080,180,0.791016,0
0.452000,44.028916,640.806500,-434.548013,0.009888,0.000000,44.019028,640.806500,0.425849,0.950147,1.375996,0.050000,0.005323,0.011877,0.067200,0.063012,180,0.791016,0
0.454000,45.288760,618.726000,-446.982176,0.009888,0.000000,45.278872,618.726000,0.434513,0.956176,1.390690,0.050000,0.005431,0.011952,0.067384,0.067284,180,0.791016,0
0.456000,46.503820,596.033500,-458.974338,0.009888,0.000000,46.493932,596.033500,0.442600,0.961260,1.403860,0.050000,0.005533,0.012016,0.067548,0.067284,180,0.791016,0
0.458000,47.672894,572.751750,-470.512641,0.009888,0.000000,47.663006,572.751750,0.450126,0.965393,1.415519,0.050000,0.005627,0.012067,0.067694,0.068352,180,0.791016,0
0.460000,48.794827,548.903750,-481.585675,0.009943,0.027466,48.784884,548.876284,0.457108,0.968556,1.425665,0.050000,0.005714,0.012107,0.067821,0.063012,181,0.795410,0
0.462000,49.868509,524.512750,-492.182489,0.009943,0.000000,49.858566,524.512750,0.463566,0.970791,1.434357,0.050000,0.005795,0.012135,0.067929,0.068352,181,0.795410,0
0.464000,50.892878,499.603000,-502.292607,0.009943,0.000000,50.882935,499.603000,0.469520,0.972051,1.441572,0.050000,0.005869,0.012151,0.068020,0.070488,181,0.795410,0
0.466000,51.866921,474.199250,-511.906029,0.009943,0.000000,51.856978,474.199250,0.474991,0.972350,1.447341,0.050000,0.005937,0.012154,0.068092,0.071556,181,0.795410,0
0.468000,52.789675,448.326750,-521.013250,0.009943,0.000000,52.779732,448.326750,0.480000,0.971687,1.451688,0.050000,0.006000,0.012146,0.068146,0.067284,181,0.795410,0
0.470000,53.660228,422.011000,-529.605264,0.009943,0.000000,53.650285,422.011000,0.484569,0.970064,1.454633,0.050000,0.006057,0.012126,0.068183,0.068352,181,0.795410,0
0.472000,54.477719,395.277750,-537.673575,0.009943,0.000000,54.467776,395.277750,0.488719,0.967481,1.456199,0.050000,0.006109,0.012094,0.068202,0.064080,181,0.795410,0
0.474000,55.241339,368.153750,-545.210204,0.009943,0.000000,55.231396,368.153750,0.492471,0.963941,1.456412,0.050000,0.006156,0.012049,0.068205,0.067284,181,0.795410,0
0.476000,55.950334,340.665500,-552.207699,0.009943,0.000000,55.940391,340.665500,0.495847,0.959447,1.455294,0.050000,0.006198,0.011993,0.068191,0.066216,181,0.795410,0
0.478000,56.604001,312.840500,-558.659140,0.009943,0.000000,56.594058,312.840500,0.498866,0.954005,1.452871,0.050000,0.006236,0.011925,0.068161,0.070488,181,0.795410,0
0.480000,57.201696,284.706250,-564.558147,0.009943,0.000000,57.191753,284.706250,0.501548,0.947619,1.449167,0.050000,0.006269,0.011845,0.068115,0.070488,181,0.795410,0
0.482000,57.742826,256.290250,-569.898888,0.009943,0.000000,57.732883,256.290250,0.503911,0.940296,1.444207,0.050000,0.006299,0.011754,0.068053,0.071556,181,0.795410,0
0.484000,58.226857,227.620750,-574.676082,0.009943,0.000000,58.216914,227.620750,0.505971,0.932043,1.438014,0.050000,0.006325,0.011651,0.067975,0.066216,181,0.795410,0
0.486000,58.653309,198.726500,-578.885003,0.009943,0.000000,58.643366,198.726500,0.507745,0.922869,1.430613,0.050000,0.006347,0.011536,0.067883,0.067284,181,0.795410,0
0.488000,59.021763,169.635750,-582.521491,0.009943,0.000000,59.011820,169.635750,0.509245,0.912782,1.422027,0.050000,0.006366,0.011410,0.067775,0.066216,181,0.795410,0
0.490000,59.331852,140.376750,-585.581948,0.009943,0.000000,59.321909,140.376750,0.510486,0.901791,1.412277,0.050000,0.006381,0.011272,0.067653,0.068352,181,0.795410,0
0.492000,59.583270,110.979500,-588.063350,0.009943,0.000000,59.573327,110.979500,0.511476,0.889909,1.401385,0.050000,0.006393,0.011124,0.067517,0.067284,181,0.795410,0
0.494000,59.775770,81.472250,-589.963242,0.009943,0.000000,59.765827,81.472250,0.512225,0.877147,1.389372,0.050000,0.006403,0.010964,0.067367,0.064080,181,0.795410,0
0.496000,59.909159,51.884250,-591.279745,0.009943,0.000000,59.899216,51.884250,0.512739,0.863517,1.376257,0.050000,0.006409,0.010794,0.067203,0.067284,181,0.795410,0
0.498000,59.983307,22.245500,-592.011558,0.009943,0.000000,59.973364,22.245500,0.513023,0.849034,1.362057,0.050000,0.006413,0.010613,0.067026,0.071556,181,0.795410,0
0.500000,59.998141,-7.415500,-592.157957,0.009943,0.000000,59.988198,-7.415500,0.513080,0.833711,1.346791,-0.050000,0.006414,0.010421,-0.033165,0.067284,181,0.795410,0
0.502000,59.953645,-37.069500,-591.718797,0.009943,0.000000,59.943702,-37.069500,0.512910,0.817562,1.330472,-0.050000,0.006411,0.010220,-0.033369,-0.034176,181,0.795410,-14
0.504000,59.849863,-66.686750,-590.694512,0.008734,-0.604248,59.841129,-66.082502,0.512511,0.800939,1.313450,-0.050000,0.006406,0.010012,-0.033582,-0.034176,159,0.698730,-20
0.506000,59.686898,-96.237750,-589.086116,0.006976,-0.878906,59.679922,-95.358844,0.511880,0.783359,1.295239,-0.050000,0.006399,0.009792,-0.033810,-0.030972,127,0.558105,-18
0.508000,59.464912,-125.693750,-586.895198,0.005768,-0.604248,59.459144,-125.089502,0.511012,0.764710,1.275721,-0.050000,0.006388,0.009559,-0.034053,-0.034176,105,0.461426,-12
0.510000,59.184123,-155.025500,-584.123926,0.004944,-0.411987,59.179179,-154.613513,0.509897,0.745342,1.255239,-0.050000,0.006374,0.009317,-0.034310,-0.035244,90,0.395508,-7
0.512000,58.844810,-184.203750,-580.775039,0.004449,-0.247192,58.840361,-183.956558,0.508528,0.725247,1.233775,-0.050000,0.006357,0.009066,-0.034578,-0.036312,81,0.355957,-4
0.514000,58.447308,-213.200000,-576.851850,0.004285,-0.082397,58.443023,-213.117603,0.506893,0.704430,1.211323,-0.050000,0.006336,0.008805,-0.034858,-0.035244,78,0.342773,-1
0.516000,57.992010,-241.985500,-572.358237,0.004230,-0.027466,57.987780,-241.958034,0.504978,0.682973,1.187951,-0.050000,0.006312,0.008537,-0.035151,-0.035244,77,0.338379,-1
0.518000,57.479366,-270.531750,-567.298644,0.004230,0.000000,57.475136,-270.531750,0.502768,0.660854,1.163622,-0.050000,0.006285,0.008261,-0.035455,-0.036312,77,0.338379,0
0.520000,56.909883,-298.810250,-561.678075,0.004230,0.000000,56.905653,-298.810250,0.500248,0.638096,1.138344,-0.050000,0.006253,0.007976,-0.035771,-0.034176,77,0.338379,0
0.522000,56.284125,-326.793250,-555.502087,0.004230,0.000000,56.279895,-326.793250,0.497400,0.614707,1.112107,-0.050000,0.006218,0.007684,-0.036099,-0.033108,77,0.338379,0
0.524000,55.602710,-354.453500,-548.776788,0.004230,0.000000,55.598480,-354.453500,0.494205,0.590710,1.084915,-0.050000,0.006178,0.007384,-0.036439,-0.035244,77,0.338379,0
0.526000,54.866311,-381.763000,-541.508828,0.004230,0.000000,54.862081,-381.763000,0.490644,0.566129,1.056772,-0.050000,0.006133,0.007077,-0.036790,-0.036312,77,0.338379,0
0.528000,54.075658,-408.694750,-533.705393,0.004230,0.000000,54.071428,-408.694750,0.486695,0.540987,1.027682,-0.050000,0.006084,0.006762,-0.037154,-0.035244,77,0.338379,0
0.530000,53.231532,-435.222750,-525.374201,0.004230,0.000000,53.227302,-435.222750,0.482338,0.515311,0.997650,-0.050000,0.006029,0.006441,-0.037529,-0.039516,77,0.338379,0
0.532000,52.334767,-461.320250,-516.523489,0.004230,0.000000,52.330537,-461.320250,0.477552,0.489125,0.966677,-0.050000,0.005969,0.006114,-0.037917,-0.035244,77,0.338379,0
0.534000,51.386251,-486.961250,-507.162010,0.004230,0.000000,51.382021,-486.961250,0.472315,0.462456,0.934771,-0.050000,0.005904,0.005781,-0.038315,-0.038448,77,0.338379,0
0.536000,50.386922,-512.121000,-497.299021,0.004230,0.000000,50.382692,-512.121000,0.466605,0.435329,0.901934,-0.050000,0.005833,0.005442,-0.038726,-0.037380,77,0.338379,0
0.538000,49.337767,-536.774500,-486.944275,0.004230,0.000000,49.333537,-536.774500,0.460401,0.407772,0.868173,-0.050000,0.005755,0.005097,-0.039148,-0.037380,77,0.338379,0
0.540000,48.239824,-560.897000,-476.108012,0.004230,0.000000,48.235594,-560.897000,0.453684,0.379811,0.833495,-0.050000,0.005671,0.004748,-0.039581,-0.041652,77,0.338379,0
0.542000,47.094179,-584.465000,-464.800946,0.004230,0.000000,47.089949,-584.465000,0.446432,0.351475,0.797907,-0.050000,0.005580,0.004393,-0.040026,-0.041652,77,0.338379,0
0.544000,45.901964,-607.455000,-453.034259,0.004175,-0.027466,45.897789,-607.427534,0.438628,0.322806,0.761434,-0.050000,0.005483,0.004035,-0.040482,-0.040584,76,0.333984,0
0.546000,44.664359,-629.844250,-440.819586,0.004175,0.000000,44.660184,-629.844250,0.430254,0.293788,0.724042,-0.050000,0.005378,0.003672,-0.040949,-0.039516,76,0.333984,0
0.548000,43.382587,-651.610500,-428.169007,0.004175,0.000000,43.378412,-651.610500,0.421295,0.264494,0.685790,-0.050000,0.005266,0.003306,-0.041428,-0.041652,76,0.333984,0
0.550000,42.057917,-672.732500,-415.095030,0.004120,-0.027466,42.053797,-672.705034,0.411737,0.234954,0.646691,-0.050000,0.005147,0.002937,-0.041916,-0.042720,75,0.329590,0
0.552000,40.691657,-693.189500,-401.610584,0.004120,0.000000,40.687537,-693.189500,0.401568,0.205152,0.606720,-0.050000,0.005020,0.002564,-0.042416,-0.040584,75,0.329590,0
0.554000,39.285159,-712.961000,-387.729003,0.004065,-0.027466,39.281094,-712.933534,0.390778,0.175176,0.565955,-0.050000,0.004885,0.002190,-0.042926,-0.042720,74,0.325195,0
0.556000,37.839813,-732.027250,-373.464013,0.004065,0.000000,37.835748,-732.027250,0.379361,0.144998,0.524359,-0.050000,0.004742,0.001812,-0.043446,-0.043788,74,0.325195,-1
0.558000,36.357050,-750.369750,-358.829722,0.004010,-0.027466,36.353040,-750.342284,0.367312,0.114706,0.482018,-0.050000,0.004591,0.001434,-0.043975,-0.044856,73,0.320801,-1
0.560000,34.838334,-767.970500,-343.840600,0.003955,-0.027466,34.834379,-767.943034,0.354630,0.084286,0.438916,-0.050000,0.004433,0.001054,-0.044514,-0.045924,72,0.316406,-1
0.562000,33.285168,-784.811250,-328.511469,0.003955,0.000000,33.281213,-784.811250,0.341317,0.053767,0.395084,-0.050000,0.004266,0.000672,-0.045061,-0.045924,72,0.316406,0
0.564000,31.699089,-800.876250,-312.857488,0.003955,0.000000,31.695134,-800.876250,0.327376,0.023210,0.350586,-0.050000,0.004092,0.000290,-0.045618,-0.042720,72,0.316406,0
0.566000,30.081663,-816.149500,-296.894136,0.003900,-0.027466,30.077763,-816.122034,0.312816,-0.007356,0.305461,-0.050000,0.003910,-0.000092,-0.046182,-0.048060,71,0.312012,0
0.568000,28.434491,-830.615500,-280.637198,0.003900,0.000000,28.430591,-830.615500,0.297649,-0.037943,0.259705,-0.050000,0.003721,-0.000474,-0.046754,-0.042720,71,0.312012,0
0.570000,26.759201,-844.260000,-264.102750,0.003845,-0.027466,26.755356,-844.232534,0.281888,-0.068464,0.213424,-0.050000,0.003524,-0.000856,-0.047332,-0.046992,70,0.307617,0
0.572000,25.057451,-857.069750,-247.307143,0.003845,0.000000,25.053606,-857.069750,0.265551,-0.098946,0.166605,-0.050000,0.003319,-0.001237,-0.047917,-0.046992,70,0.307617,-1
0.574000,23.330922,-869.032250,-230.266985,0.003790,-0.027466,23.327132,-869.004784,0.248660,-0.129302,0.119358,-0.050000,0.003108,-0.001616,-0.048508,-0.049128,69,0.303223,-1
0.576000,21.581322,-880.135250,-212.999126,0.003625,-0.082397,21.577697,-880.052853,0.231239,-0.159513,0.071726,-0.050000,0.002890,-0.001994,-0.049103,-0.046992,66,0.290039,-3
0.578000,19.810381,-890.367750,-195.520641,0.003461,-0.082397,19.806920,-890.285353,0.213317,-0.189596,0.023721,-0.050000,0.002666,-0.002370,-0.049703,-0.048060,63,0.276855,-3
0.580000,18.019851,-899.719750,-177.848815,0.003296,-0.082397,18.016555,-899.637353,0.194923,-0.219490,-0.024567,-0.050000,0.002437,-0.002744,-0.050307,-0.046992,60,0.263672,-3
0.582000,16.211502,-908.182250,-160.001122,0.003131,-0.082397,16.208371,-908.099853,0.176093,-0.249168,-0.073076,-0.050000,0.002201,-0.003115,-0.050913,-0.050196,57,0.250488,-3
0.584000,14.387122,-915.746750,-141.995211,0.002856,-0.137329,14.384266,-915.609421,0.156862,-0.278570,-0.121708,-0.050000,0.001961,-0.003482,-0.051521,-0.052332,52,0.228516,-5
0.586000,12.548515,-922.405750,-123.848887,0.002582,-0.137329,12.545933,-922.268421,0.137269,-0.307724,-0.170455,-0.050000,0.001716,-0.003847,-0.052131,-0.052332,47,0.206543,-5
0.588000,10.697499,-928.152250,-105.580095,0.002307,-0.137329,10.695192,-928.014921,0.117358,-0.336574,-0.219217,-0.050000,0.001467,-0.004207,-0.052740,-0.051264,42,0.184570,-4
0.590000,8.835906,-932.981250,-87.206899,0.002032,-0.137329,8.833874,-932.843921,0.097170,-0.365092,-0.267922,-0.050000,0.001215,-0.004564,-0.053349,-0.053400,37,0.162598,-6
0.592000,6.965574,-936.887750,-68.747467,0.001703,-0.164795,6.963871,-936.722955,0.076753,-0.393233,-0.316480,-0.050000,0.000959,-0.004915,-0.053956,-0.055536,31,0.136230,-7
0.594000,5.088355,-939.867500,-50.220055,0.001263,-0.219727,5.087092,-939.647773,0.056152,-0.420969,-0.364817,-0.050000,0.000702,-0.005262,-0.054560,-0.053400,23,0.101074,-7
0.596000,3.206104,-941.918000,-31.642982,0.000769,-0.247192,3.205335,-941.670808,0.035418,-0.448303,-0.412885,-0.050000,0.000443,-0.005604,-0.055161,-0.054468,14,0.061523,-8
0.598000,1.320683,-943.037000,-13.034619,0.000275,-0.247192,1.320408,-942.789808,0.014598,-0.475207,-0.460609,-0.050000,0.000182,-0.005940,-0.055758,-0.051264,5,0.021973,-10
0.600000,-0.566044,-943.223750,5.586634,-0.000275,-0.274658,-0.565769,-942.949092,-0.006257,-0.501627,-0.507884,-0.050000,-0.000078,-0.006270,-0.056349,-0.053400,-5,-0.021973,-8
0.602000,-2.452212,-942.477500,24.202362,-0.000769,-0.247192,-2.451443,-942.230308,-0.027097,-0.527579,-0.554676,-0.050000,-0.000339,-0.006595,-0.056933,-0.052332,-14,-0.061523,-7
0.604000,-4.335954,-940.799250,42.794157,-0.001263,-0.247192,-4.334691,-940.552058,-0.047872,-0.552996,-0.600867,-0.050000,-0.000598,-0.006912,-0.057511,-0.055536,-23,-0.101074,-7
0.606000,-6.215409,-938.191000,61.343636,-0.001868,-0.302124,-6.213541,-937.888876,-0.068532,-0.577835,-0.646367,-0.050000,-0.000857,-0.007223,-0.058080,-0.063012,-34,-0.149414,-9
0.608000,-8.088718,-934.654750,79.832454,-0.002527,-0.329590,-8.086191,-934.325160,-0.089028,-0.602116,-0.691144,-0.050000,-0.001113,-0.007526,-0.058639,-0.061944,-46,-0.202148,-11
0.610000,-9.954028,-930.194250,98.242329,-0.003131,-0.302124,-9.950897,-929.892126,-0.109313,-0.625831,-0.735144,-0.050000,-0.001366,-0.007823,-0.059189,-0.059808,-57,-0.250488,-10
0.612000,-11.809495,-924.814250,116.555057,-0.003845,-0.357056,-11.805650,-924.457194,-0.129341,-0.648883,-0.778223,-0.050000,-0.001617,-0.008111,-0.059728,-0.055536,-70,-0.307617,-7
0.614000,-13.653285,-918.519500,134.752529,-0.004340,-0.247192,-13.648945,-918.272308,-0.149066,-0.671381,-0.820447,-0.050000,-0.001863,-0.008392,-0.060256,-0.060876,-79,-0.347168,-8
0.616000,-15.483573,-911.316250,152.816750,-0.004779,-0.219727,-15.478794,-911.096523,-0.168446,-0.693174,-0.861620,-0.050000,-0.002106,-0.008665,-0.060770,-0.060876,-87,-0.382324,-4
0.618000,-17.298550,-903.212000,170.729857,-0.004944,-0.082397,-17.293606,-903.129603,-0.187442,-0.714342,-0.901783,-0.050000,-0.002343,-0.008929,-0.061272,-0.061944,-90,-0.395508,-3
0.620000,-19.096421,-894.214750,188.474137,-0.005109,-0.082397,-19.091312,-894.132353,-0.206014,-0.734732,-0.940746,-0.050000,-0.002575,-0.009184,-0.061759,-0.059808,-93,-0.408691,-2
0.622000,-20.875409,-884.333250,206.032044,-0.005219,-0.054932,-20.870190,-884.278318,-0.224129,-0.754410,-0.978539,-0.050000,-0.002802,-0.009430,-0.062232,-0.063012,-95,-0.417480,-1
0.624000,-22.633754,-873.577000,223.386214,-0.005273,-0.027466,-22.628481,-873.549534,-0.241754,-0.773343,-1.015096,-0.050000,-0.003022,-0.009667,-0.062689,-0.060876,-96,-0.421875,-1
0.626000,-24.369717,-861.957250,240.519488,-0.005328,-0.027466,-24.364389,-861.929784,-0.258860,-0.791496,-1.050356,-0.050000,-0.003236,-0.009894,-0.063129,-0.063012,-97,-0.426270,-1
0.628000,-26.081583,-849.485000,257.414922,-0.005328,0.000000,-26.076255,-849.485000,-0.275421,-0.808883,-1.084303,-0.050000,-0.003443,-0.010111,-0.063554,-0.060876,-97,-0.426270,0
0.630000,-27.767657,-836.172500,274.055810,-0.005383,-0.027466,-27.762274,-836.145034,-0.291415,-0.825439,-1.116853,-0.050000,-0.003643,-0.010318,-0.063961,-0.064080,-98,-0.430664,0
0.632000,-29.426273,-822.033500,290.425697,-0.005383,0.000000,-29.420890,-822.033500,-0.306822,-0.841209,-1.148030,-0.050000,-0.003835,-0.010515,-0.064350,-0.063012,-98,-0.430664,0
0.634000,-31.055791,-807.081500,306.508394,-0.005383,0.000000,-31.050408,-807.081500,-0.321626,-0.856132,-1.177758,-0.050000,-0.004020,-0.010702,-0.064722,-0.065148,-98,-0.430664,0
0.636000,-32.654599,-791.331500,322.287999,-0.005438,-0.027466,-32.649161,-791.304034,-0.335815,-0.870194,-1.206010,-0.050000,-0.004198,-0.010877,-0.065075,-0.066216,-99,-0.435059,0
0.638000,-34.221117,-774.798750,337.748907,-0.005438,0.000000,-34.215679,-774.798750,-0.349381,-0.883425,-1.232805,-0.050000,-0.004367,-0.011043,-0.065410,-0.065148,-99,-0.435059,0
0.640000,-35.753794,-757.500000,352.875831,-0.005438,0.000000,-35.748356,-757.500000,-0.362316,-0.895767,-1.258083,-0.050000,-0.004529,-0.011197,-0.065726,-0.066216,-99,-0.435059,0
0.642000,-37.251117,-739.452250,367.653811,-0.005493,-0.027466,-37.245624,-739.424784,-0.374618,-0.907209,-1.281827,-0.050000,-0.004683,-0.011340,-0.066023,-0.064080,-100,-0.439453,0
0.644000,-38.711603,-720.673000,382.068234,-0.005493,0.000000,-38.706110,-720.673000,-0.386287,-0.917783,-1.304070,-0.050000,-0.004829,-0.011472,-0.066301,-0.066216,-100,-0.439453,0
0.646000,-40.133809,-701.181500,396.104847,-0.005548,-0.027466,-40.128261,-701.154034,-0.397327,-0.927420,-1.324747,-0.050000,-0.004967,-0.011593,-0.066559,-0.068352,-101,-0.443848,0
0.648000,-41.516329,-680.996500,409.749770,-0.005548,0.000000,-41.510781,-680.996500,-0.407743,-0.936169,-1.343912,-0.050000,-0.005097,-0.011702,-0.066799,-0.065148,-101,-0.443848,0
0.650000,-42.857795,-660.137750,422.989509,-0.005548,0.000000,-42.852247,-660.137750,-0.417545,-0.943978,-1.361522,-0.050000,-0.005219,-0.011800,-0.067019,-0.069420,-101,-0.443848,0
0.652000,-44.156880,-638.626500,435.810972,-0.005603,-0.027466,-44.151277,-638.599034,-0.426742,-0.950838,-1.377580,-0.050000,-0.005334,-0.011885,-0.067220,-0.067284,-102,-0.448242,0
0.654000,-45.412301,-616.484000,448.201482,-0.005603,0.000000,-45.406698,-616.484000,-0.435348,-0.956787,-1.392135,-0.050000,-0.005442,-0.011960,-0.067402,-0.066216,-102,-0.448242,0
0.656000,-46.622816,-593.731750,460.148784,-0.005603,0.000000,-46.617213,-593.731750,-0.443378,-0.961776,-1.405154,-0.050000,-0.005542,-0.012022,-0.067564,-0.069420,-102,-0.448242,0
0.658000,-47.787228,-570.392000,471.641066,-0.005658,-0.027466,-47.781570,-570.364534,-0.450848,-0.965799,-1.416647,-0.050000,-0.005636,-0.012072,-0.067708,-0.065148,-103,-0.452637,0
0.660000,-48.904384,-546.488500,482.666963,-0.005658,0.000000,-48.898726,-546.488500,-0.457777,-0.968896,-1.426673,-0.050000,-0.005722,-0.012111,-0.067833,-0.065148,-103,-0.452637,0
0.662000,-49.973182,-522.044750,493.215571,-0.005658,0.000000,-49.967524,-522.044750,-0.464184,-0.971020,-1.435204,-0.050000,-0.005802,-0.012138,-0.067940,-0.070488,-103,-0.452637,0
0.664000,-50.992563,-497.084500,503.276461,-0.005658,0.000000,-50.986905,-497.084500,-0.470089,-0.972184,-1.442273,-0.050000,-0.005876,-0.012152,-0.068028,-0.067284,-103,-0.452637,0
0.666000,-51.961520,-471.632750,512.839683,-0.005713,-0.027466,-51.955807,-471.605284,-0.475512,-0.972372,-1.447884,-0.050000,-0.005944,-0.012155,-0.068099,-0.069420,-104,-0.457031,0
0.668000,-52.879094,-445.714750,521.895780,-0.005713,0.000000,-52.873381,-445.714750,-0.480477,-0.971627,-1.452104,-0.050000,-0.006006,-0.012145,-0.068151,-0.067284,-104,-0.457031,0
0.670000,-53.744379,-419.356000,530.435797,-0.005713,0.000000,-53.738666,-419.356000,-0.485002,-0.969908,-1.454910,-0.050000,-0.006063,-0.012124,-0.068186,-0.067284,-104,-0.457031,0
0.672000,-54.556518,-392.582500,538.451290,-0.005713,0.000000,-54.550805,-392.582500,-0.489112,-0.967229,-1.456340,-0.050000,-0.006114,-0.012090,-0.068204,-0.068352,-104,-0.457031,0
0.674000,-55.314709,-365.420750,545.934333,-0.005713,0.000000,-55.308996,-365.420750,-0.492826,-0.963593,-1.456419,-0.050000,-0.006160,-0.012045,-0.068205,-0.067284,-104,-0.457031,0
0.676000,-56.018201,-337.897750,552.877525,-0.005713,0.000000,-56.012488,-337.897750,-0.496165,-0.959005,-1.455169,-0.050000,-0.006202,-0.011988,-0.068190,-0.068352,-104,-0.457031,0
0.678000,-56.666300,-310.040500,559.274000,-0.005713,0.000000,-56.660587,-310.040500,-0.499149,-0.953468,-1.452617,-0.050000,-0.006239,-0.011918,-0.068158,-0.066216,-104,-0.457031,0
0.680000,-57.258363,-281.876750,565.117435,-0.005713,0.000000,-57.252650,-281.876750,-0.501798,-0.946988,-1.448787,-0.050000,-0.006272,-0.011837,-0.068110,-0.066216,-104,-0.457031,0
0.682000,-57.793807,-253.434250,570.402050,-0.005713,0.000000,-57.788094,-253.434250,-0.504130,-0.939572,-1.443702,-0.050000,-0.006302,-0.011745,-0.068046,-0.068352,-104,-0.457031,0
0.684000,-58.272100,-224.741000,575.122619,-0.005713,0.000000,-58.266387,-224.741000,-0.506161,-0.931226,-1.437387,-0.050000,-0.006327,-0.011640,-0.067967,-0.070488,-104,-0.457031,0
0.686000,-58.692771,-195.825750,579.274475,-0.005713,0.000000,-58.687058,-195.825750,-0.507907,-0.921960,-1.429867,-0.050000,-0.006349,-0.011525,-0.067873,-0.067284,-104,-0.457031,0
0.688000,-59.055403,-166.716750,582.853512,-0.005713,0.000000,-59.049690,-166.716750,-0.509381,-0.911782,-1.421163,-0.050000,-0.006367,-0.011397,-0.067765,-0.070488,-104,-0.457031,0
0.690000,-59.359638,-137.443000,585.856191,-0.005713,0.000000,-59.353925,-137.443000,-0.510596,-0.900702,-1.411298,-0.050000,-0.006382,-0.011259,-0.067641,-0.067284,-104,-0.457031,0
0.692000,-59.605175,-108.033250,588.279543,-0.005768,-0.027466,-59.599407,-108.005784,-0.511562,-0.888716,-1.400278,-0.050000,-0.006395,-0.011109,-0.067503,-0.066216,-105,-0.461426,0
0.694000,-59.791771,-78.516750,590.121171,-0.005768,0.000000,-59.786003,-78.516750,-0.512287,-0.875881,-1.388168,-0.050000,-0.006404,-0.010949,-0.067352,-0.067284,-105,-0.461426,0
0.696000,-59.919242,-48.922500,591.379254,-0.005768,0.000000,-59.913474,-48.922500,-0.512778,-0.862166,-1.374944,-0.050000,-0.006410,-0.010777,-0.067187,-0.065148,-105,-0.461426,0
0.698000,-59.987461,-19.279750,592.052549,-0.005768,0.000000,-59.981693,-19.279750,-0.513039,-0.847597,-1.360637,-0.050000,-0.006413,-0.010595,-0.067008,-0.067284,-105,-0.461426,0
0.700000,-59.996361,10.382000,592.140388,-0.005768,0.000000,-59.990593,10.382000,-0.513073,-0.832191,-1.345264,0.050000,-0.006413,-0.010402,0.033184,-0.066216,-105,-0.461426,0
0.702000,-59.945933,40.033500,591.642687,-0.005713,0.027466,-59.940220,40.006034,-0.512880,-0.815976,-1.328857,0.050000,-0.006411,-0.010200,0.033389,0.030972,-104,-0.457031,12
0.704000,-59.836227,69.645250,590.559936,-0.004614,0.549316,-59.831613,69.095934,-0.512459,-0.799228,-1.311687,0.050000,-0.006406,-0.009990,0.033604,0.029904,-84,-0.369141,25
0.706000,-59.667352,99.188000,588.893206,-0.003241,0.686646,-59.664111,98.501354,-0.511804,-0.781493,-1.293297,0.050000,-0.006398,-0.009769,0.033834,0.032040,-59,-0.259277,20
0.708000,-59.439475,128.633000,586.644146,-0.002032,0.604248,-59.437443,128.028752,-0.510911,-0.762868,-1.273779,0.050000,-0.006386,-0.009536,0.034078,0.030972,-37,-0.162598,18
0.710000,-59.152820,157.950750,583.814980,-0.001099,0.466919,-59.151721,157.483831,-0.509772,-0.743455,-1.253228,0.050000,-0.006372,-0.009293,0.034335,0.030972,-20,-0.087891,13
0.712000,-58.807672,187.112000,580.408504,-0.000330,0.384521,-58.807342,186.727479,-0.508377,-0.723335,-1.231712,0.050000,-0.006355,-0.009042,0.034604,0.038448,-6,-0.026367,11
0.714000,-58.404372,216.088500,576.428088,0.000220,0.274658,-58.404592,215.813842,-0.506714,-0.702482,-1.209196,0.050000,-0.006334,-0.008781,0.034885,0.037380,4,0.017578,6
0.716000,-57.943318,244.851250,571.877668,0.000494,0.137329,-57.943812,244.713921,-0.504770,-0.680916,-1.185687,0.050000,-0.006310,-0.008511,0.035179,0.037380,9,0.039551,3
0.718000,-57.424967,273.372000,566.761744,0.000659,0.082397,-57.425626,273.289603,-0.502530,-0.658719,-1.161249,0.050000,-0.006282,-0.008234,0.035484,0.033108,12,0.052734,3
0.720000,-56.849830,301.622500,561.085374,0.000824,0.082397,-56.850654,301.540103,-0.499978,-0.635899,-1.135877,0.050000,-0.006250,-0.007949,0.035802,0.037380,15,0.065918,2
0.722000,-56.218477,329.574500,554.854171,0.000879,0.027466,-56.219356,329.547034,-0.497096,-0.612420,-1.109516,0.050000,-0.006214,-0.007655,0.036131,0.038448,16,0.070312,1
0.724000,-55.531532,357.200500,548.074297,0.000934,0.027466,-55.532466,357.173034,-0.493866,-0.588364,-1.082230,0.050000,-0.006173,-0.007355,0.036472,0.032040,17,0.074707,1
0.726000,-54.789675,384.473250,540.752457,0.000934,0.000000,-54.790609,384.473250,-0.490266,-0.563711,-1.053978,0.050000,-0.006128,-0.007046,0.036825,0.033108,17,0.074707,1
0.728000,-53.993639,411.366250,532.895891,0.000934,0.000000,-53.994573,411.366250,-0.486278,-0.538516,-1.024794,0.050000,-0.006078,-0.006731,0.037190,0.035244,17,0.074707,0
0.730000,-53.144210,437.852250,524.512368,0.000934,0.000000,-53.145144,437.852250,-0.481879,-0.512787,-0.994667,0.050000,-0.006023,-0.006410,0.037567,0.033108,17,0.074707,0
0.732000,-52.242230,463.905250,515.610177,0.000934,0.000000,-52.243164,463.905250,-0.477049,-0.486552,-0.963601,0.050000,-0.005963,-0.006082,0.037955,0.036312,17,0.074707,0
0.734000,-51.288589,489.499500,506.198122,0.000934,0.000000,-51.289523,489.499500,-0.471765,-0.459835,-0.931601,0.050000,-0.005897,-0.005748,0.038355,0.039516,17,0.074707,0
0.736000,-50.284232,514.609750,496.285511,0.000989,0.027466,-50.285221,514.582284,-0.466007,-0.432679,-0.898687,0.050000,-0.005825,-0.005408,0.038766,0.037380,18,0.079102,0
0.738000,-49.230150,539.211000,485.882144,0.000989,0.000000,-49.231139,539.211000,-0.459753,-0.405066,-0.864819,0.050000,-0.005747,-0.005063,0.039190,0.037380,18,0.079102,0
0.740000,-48.127388,563.279000,474.998310,0.000989,0.000000,-48.128377,563.279000,-0.452983,-0.377067,-0.830050,0.050000,-0.005662,-0.004713,0.039624,0.041652,18,0.079102,0
0.742000,-46.977034,586.790500,463.644772,0.001044,0.027466,-46.978078,586.763034,-0.445677,-0.348709,-0.794386,0.050000,-0.005571,-0.004359,0.040070,0.036312,19,0.083496,0
0.744000,-45.780226,609.721250,451.832755,0.001044,0.000000,-45.781270,609.721250,-0.437817,-0.319978,-0.757794,0.050000,-0.005473,-0.004000,0.040528,0.044856,19,0.083496,0
0.746000,-44.538149,632.049000,439.573941,0.001099,0.027466,-44.539248,632.021534,-0.429385,-0.290960,-0.720345,0.050000,-0.005367,-0.003637,0.040996,0.041652,20,0.087891,0
0.748000,-43.252030,653.752250,426.880452,0.001099,0.000000,-43.253129,653.752250,-0.420367,-0.261624,-0.681990,0.050000,-0.005255,-0.003270,0.041475,0.038448,20,0.087891,0
0.750000,-41.923140,674.808750,413.764839,0.001154,0.027466,-41.924294,674.781284,-0.410748,-0.232059,-0.642807,0.050000,-0.005134,-0.002901,0.041965,0.041652,21,0.092285,0
0.752000,-40.552795,695.197750,400.240073,0.001154,0.000000,-40.553949,695.197750,-0.400517,-0.202235,-0.602752,0.050000,-0.005006,-0.002528,0.042466,0.041652,21,0.092285,0
0.754000,-39.142349,714.899500,386.319527,0.001208,0.027466,-39.143557,714.872034,-0.389665,-0.172241,-0.561906,0.050000,-0.004871,-0.002153,0.042976,0.041652,22,0.096680,0
0.756000,-37.693197,733.894500,372.016967,0.001208,0.000000,-37.694405,733.894500,-0.378185,-0.142047,-0.520232,0.050000,-0.004727,-0.001776,0.043497,0.044856,22,0.096680,0
0.758000,-36.206771,752.163500,357.346536,0.001263,0.027466,-36.208034,752.136034,-0.366073,-0.111742,-0.477815,0.050000,-0.004576,-0.001397,0.044027,0.040584,23,0.101074,1
0.760000,-34.684543,769.688750,342.322740,0.001318,0.027466,-34.685861,769.661284,-0.353327,-0.081312,-0.434640,0.050000,-0.004417,-0.001016,0.044567,0.044856,24,0.105469,1
0.762000,-33.128016,786.453000,326.960436,0.001428,0.054932,-33.129444,786.398068,-0.339951,-0.050817,-0.390768,0.050000,-0.004249,-0.000635,0.045115,0.046992,26,0.114258,1
0.764000,-31.538731,802.439500,311.274816,0.001483,0.027466,-31.540214,802.412034,-0.325948,-0.020243,-0.346190,0.050000,-0.004074,-0.000253,0.045673,0.050196,27,0.118652,1
0.766000,-29.918258,817.632750,295.281390,0.001538,0.027466,-29.919796,817.605284,-0.311327,0.010338,-0.300989,0.050000,-0.003892,0.000129,0.046238,0.045924,28,0.123047,1
0.768000,-28.268200,832.017250,278.995973,0.001593,0.027466,-28.269793,831.989784,-0.296099,0.040908,-0.255191,0.050000,-0.003701,0.000511,0.046810,0.046992,29,0.127441,1
0.770000,-26.590189,845.578750,262.434670,0.001648,0.027466,-26.591837,845.551284,-0.280279,0.071438,-0.208842,0.050000,-0.003503,0.000893,0.047389,0.044856,30,0.131836,1
0.772000,-24.885885,858.304250,245.613856,0.001703,0.027466,-24.887588,858.276784,-0.263886,0.101896,-0.161990,0.050000,-0.003299,0.001274,0.047975,0.046992,31,0.136230,1
0.774000,-23.156972,870.181250,228.550165,0.001813,0.054932,-23.158785,870.126318,-0.246941,0.132239,-0.114702,0.050000,-0.003087,0.001653,0.048566,0.048060,33,0.145020,2
0.776000,-21.405160,881.197750,211.260472,0.002032,0.109863,-21.407192,881.087887,-0.229469,0.162436,-0.067034,0.050000,-0.002868,0.002030,0.049162,0.048060,37,0.162598,4
0.778000,-19.632181,891.342750,193.761872,0.002307,0.137329,-19.634488,891.205421,-0.211498,0.192485,-0.019013,0.050000,-0.002644,0.002406,0.049762,0.051264,42,0.184570,6
0.780000,-17.839789,900.606250,176.071670,0.002747,0.219727,-17.842536,900.386523,-0.193059,0.222312,0.029253,0.050000,-0.002413,0.002779,0.050366,0.051264,50,0.219727,7
0.782000,-16.029756,908.979500,158.207358,0.003186,0.219727,-16.032942,908.759773,-0.174187,0.251963,0.077776,0.050000,-0.002177,0.003150,0.050972,0.051264,58,0.254883,8
0.784000,-14.203871,916.453500,140.186602,0.003735,0.274658,-14.207606,916.178842,-0.154918,0.281335,0.126416,0.050000,-0.001936,0.003517,0.051580,0.051264,68,0.298828,8
0.786000,-12.363942,923.021250,122.027222,0.004395,0.329590,-12.368337,922.691660,-0.135292,0.310426,0.175134,0.050000,-0.001691,0.003880,0.052189,0.049128,80,0.351562,12
0.788000,-10.511786,928.676750,103.747174,0.005164,0.384521,-10.516950,928.292229,-0.115351,0.339208,0.223858,0.050000,-0.001442,0.004240,0.052798,0.050196,94,0.413086,12
0.790000,-8.649235,933.413500,85.364535,0.005768,0.302124,-8.655003,933.111376,-0.095138,0.367729,0.272591,0.050000,-0.001189,0.004597,0.053407,0.052332,105,0.461426,12
0.792000,-6.778132,937.227250,66.897484,0.006482,0.357056,-6.784614,936.870194,-0.074700,0.395813,0.321113,0.050000,-0.000934,0.004948,0.054014,0.054468,118,0.518555,12
0.794000,-4.900326,940.114500,48.364280,0.007416,0.466919,-4.907742,939.647581,-0.054084,0.423473,0.369389,0.050000,-0.000676,0.005293,0.054617,0.053400,135,0.593262,11
0.796000,-3.017674,942.072000,29.783250,0.008130,0.357056,-3.025804,941.714944,-0.033339,0.450833,0.417494,0.050000,-0.000417,0.005635,0.055219,0.064080,148,0.650391,10
0.798000,-1.132038,943.097750,11.172770,0.008679,0.274658,-1.140717,942.823092,-0.012513,0.477734,0.465221,0.050000,-0.000156,0.005972,0.055815,0.056604,158,0.694336,8
0.800000,0.754717,943.191000,-7.448759,0.009174,0.247192,0.745543,942.943808,0.008343,0.504134,0.512477,0.050000,0.000104,0.006302,0.056406,0.053400,167,0.733887,4
0.802000,2.640726,942.351500,-26.062922,0.009393,0.109863,2.631333,942.241637,0.029178,0.530097,0.559275,0.050000,0.000365,0.006626,0.056991,0.054468,171,0.751465,2
0.804000,4.524123,940.580250,-44.651312,0.009503,0.054932,4.514620,940.525318,0.049944,0.555494,0.605438,0.050000,0.000624,0.006944,0.057568,0.057672,173,0.760254,1
0.806000,6.403047,937.879250,-63.195549,0.009558,0.027466,6.393489,937.851784,0.070590,0.580328,0.650918,0.050000,0.000882,0.007254,0.058136,0.057672,174,0.764648,1
0.808000,8.275640,934.250250,-81.677295,0.009613,0.027466,8.266027,934.222784,0.091067,0.604573,0.695640,0.050000,0.001138,0.007557,0.058696,0.057672,175,0.769043,1
0.810000,10.140048,929.697500,-100.078273,0.009668,0.027466,10.130380,929.670034,0.111328,0.628221,0.739549,0.050000,0.001392,0.007853,0.059244,0.058740,176,0.773438,1
0.812000,11.994430,924.225750,-118.380289,0.009723,0.027466,11.984707,924.198284,0.131327,0.651247,0.782575,0.050000,0.001642,0.008141,0.059782,0.063012,177,0.777832,1
0.814000,13.836951,917.839750,-136.565243,0.009723,0.000000,13.827228,917.839750,0.151020,0.673644,0.824664,0.050000,0.001888,0.008421,0.060308,0.059808,177,0.777832,0
0.816000,15.665789,910.546250,-154.615154,0.009723,0.000000,15.656066,910.546250,0.170364,0.695361,0.865725,0.050000,0.002130,0.008692,0.060822,0.058740,177,0.777832,0
0.818000,17.479136,902.352500,-172.512173,0.009778,0.027466,17.469358,902.325034,0.189318,0.716375,0.905693,0.050000,0.002366,0.008955,0.061321,0.059808,178,0.782227,0
0.820000,19.275199,893.266250,-190.238603,0.009778,0.000000,19.265421,893.266250,0.207847,0.736709,0.944556,0.050000,0.002598,0.009209,0.061807,0.064080,178,0.782227,0
0.822000,21.052201,883.296750,-207.776914,0.009778,0.000000,21.042423,883.296750,0.225914,0.756301,0.982215,0.050000,0.002824,0.009454,0.062278,0.058740,178,0.782227,0
0.824000,22.808386,872.453750,-225.109763,0.009833,0.027466,22.798553,872.426284,0.243488,0.775129,1.018617,0.050000,0.003044,0.009689,0.062733,0.066216,179,0.786621,0
0.826000,24.542016,860.748000,-242.220011,0.009833,0.000000,24.532183,860.748000,0.260541,0.793220,1.053761,0.050000,0.003257,0.009915,0.063172,0.064080,179,0.786621,0
0.828000,26.251378,848.191500,-259.090739,0.009833,0.000000,26.241545,848.191500,0.277046,0.810513,1.087559,0.050000,0.003463,0.010131,0.063594,0.061944,179,0.786621,0
0.830000,27.934782,834.795750,-275.705263,0.009833,0.000000,27.924949,834.795750,0.292982,0.827004,1.119986,0.050000,0.003662,0.010338,0.064000,0.063012,179,0.786621,0
0.832000,29.590561,820.574500,-292.047155,0.009833,0.000000,29.580728,820.574500,0.308329,0.842677,1.151006,0.050000,0.003854,0.010533,0.064388,0.063012,179,0.786621,0
0.834000,31.217080,805.542250,-308.100254,0.009833,0.000000,31.207247,805.542250,0.323073,0.857516,1.180589,0.050000,0.004038,0.010719,0.064757,0.064080,179,0.786621,0
0.836000,32.812730,789.713000,-323.848686,0.009833,0.000000,32.802897,789.713000,0.337200,0.871508,1.208708,0.050000,0.004215,0.010894,0.065109,0.063012,179,0.786621,0
0.838000,34.375932,773.103000,-339.276878,0.009888,0.027466,34.366044,773.075534,0.350703,0.884622,1.235324,0.050000,0.004384,0.011058,0.065442,0.058740,180,0.791016,0
0.840000,35.905142,755.728750,-354.369575,0.009888,0.000000,35.895254,755.728750,0.363574,0.896891,1.260465,0.050000,0.004545,0.011211,0.065756,0.066216,180,0.791016,0
0.842000,37.398847,737.607000,-369.111851,0.009888,0.000000,37.388959,737.607000,0.375813,0.908258,1.284072,0.050000,0.004698,0.011353,0.066051,0.063012,180,0.791016,0
0.844000,38.855570,718.755750,-383.489129,0.009888,0.000000,38.845682,718.755750,0.387419,0.918728,1.306147,0.050000,0.004843,0.011484,0.066327,0.067284,180,0.791016,0
0.846000,40.273870,699.193750,-397.487191,0.009888,0.000000,40.263982,699.193750,0.398396,0.928288,1.326685,0.050000,0.004980,0.011604,0.066584,0.067284,180,0.791016,0
0.848000,41.652345,678.940500,-411.092196,0.009888,0.000000,41.642457,678.940500,0.408751,0.936931,1.345682,0.050000,0.005109,0.011712,0.066821,0.061944,180,0.791016,0
0.850000,42.989632,658.015750,-424.290690,0.009888,0.000000,42.979744,658.015750,0.418491,0.944647,1.363138,0.050000,0.005231,0.011808,0.067039,0.064080,180,0.791016,0
0.852000,44.284408,636.440500,-437.069622,0.009888,0.000000,44.274520,636.440500,0.427629,0.951428,1.379057,0.050000,0.005345,0.011893,0.067238,0.058740,180,0.791016,0
0.854000,45.535394,614.235750,-449.416355,0.009888,0.000000,45.525506,614.235750,0.436177,0.957269,1.393446,0.050000,0.005452,0.011966,0.067418,0.066216,180,0.791016,0
0.856000,46.741351,591.423500,-461.318679,0.009888,0.000000,46.731463,591.423500,0.444150,0.962163,1.406313,0.050000,0.005552,0.012027,0.067579,0.058740,180,0.791016,0
0.858000,47.901088,568.026750,-472.764826,0.009888,0.000000,47.891200,568.026750,0.451565,0.966105,1.417671,0.050000,0.005645,0.012076,0.067721,0.070488,180,0.791016,0
0.860000,49.013458,544.068250,-483.743477,0.009943,0.027466,49.003515,544.040784,0.458441,0.969077,1.427518,0.050000,0.005731,0.012113,0.067844,0.066216,181,0.795410,0
0.862000,50.077361,519.571500,-494.243776,0.009943,0.000000,50.067418,519.571500,0.464797,0.971120,1.435917,0.050000,0.005810,0.012139,0.067949,0.068352,181,0.795410,0
0.864000,51.091744,494.561000,-504.255338,0.009943,0.000000,51.081801,494.561000,0.470652,0.972188,1.442840,0.050000,0.005883,0.012152,0.068036,0.068352,181,0.795410,0
0.866000,52.055605,469.061500,-513.768265,0.009943,0.000000,52.045662,469.061500,0.476029,0.972295,1.448324,0.050000,0.005950,0.012154,0.068104,0.068352,181,0.795410,0
0.868000,52.967990,443.098250,-522.773149,0.009943,0.000000,52.958047,443.098250,0.480948,0.971440,1.452388,0.050000,0.006012,0.012143,0.068155,0.063012,181,0.795410,0
0.870000,53.827998,416.697000,-531.261085,0.009943,0.000000,53.818055,416.697000,0.485432,0.969624,1.455056,0.050000,0.006068,0.012120,0.068188,0.067284,181,0.795410,0
0.872000,54.634778,389.883250,-539.223681,0.009943,0.000000,54.624835,389.883250,0.489501,0.966849,1.456350,0.050000,0.006119,0.012086,0.068204,0.071556,181,0.795410,0
0.874000,55.387531,362.684250,-546.653063,0.009943,0.000000,55.377588,362.684250,0.493176,0.963118,1.456294,0.050000,0.006165,0.012039,0.068204,0.064080,181,0.795410,0
0.876000,56.085515,335.126750,-553.541883,0.009943,0.000000,56.075572,335.126750,0.496479,0.958435,1.454913,0.050000,0.006206,0.011980,0.068186,0.067284,181,0.795410,0
0.878000,56.728038,307.237500,-559.883330,0.009943,0.000000,56.718095,307.237500,0.499429,0.952803,1.452232,0.050000,0.006243,0.011910,0.068153,0.070488,181,0.795410,0
0.880000,57.314465,279.044500,-565.671134,0.009943,0.000000,57.304522,279.044500,0.502046,0.946229,1.448275,0.050000,0.006276,0.011828,0.068103,0.070488,181,0.795410,0
0.882000,57.844216,250.575750,-570.899570,0.009943,0.000000,57.834273,250.575750,0.504346,0.938720,1.443066,0.050000,0.006304,0.011734,0.068038,0.070488,181,0.795410,0
0.884000,58.316768,221.859250,-575.563469,0.009943,0.000000,58.306825,221.859250,0.506348,0.930282,1.436630,0.050000,0.006329,0.011629,0.067958,0.066216,181,0.795410,0
0.886000,58.731653,192.923000,-579.658219,0.009943,0.000000,58.721710,192.923000,0.508066,0.920924,1.428990,0.050000,0.006351,0.011512,0.067862,0.066216,181,0.795410,0
0.888000,59.088460,163.796250,-583.179770,0.009943,0.000000,59.078517,163.796250,0.509514,0.910655,1.420169,0.050000,0.006369,0.011383,0.067752,0.068352,181,0.795410,0
0.890000,59.386838,134.507750,-586.124640,0.009943,0.000000,59.376895,134.507750,0.510704,0.899486,1.410189,0.050000,0.006384,0.011244,0.067627,0.070488,181,0.795410,0
0.892000,59.626491,105.085750,-588.489918,0.009943,0.000000,59.616548,105.085750,0.511645,0.887427,1.399072,0.050000,0.006396,0.011093,0.067488,0.063012,181,0.795410,0
0.894000,59.807181,75.560000,-590.273264,0.009943,0.000000,59.797238,75.560000,0.512346,0.874490,1.386837,0.050000,0.006404,0.010931,0.067335,0.058740,181,0.795410,0
0.896000,59.928731,45.960000,-591.472915,0.009943,0.000000,59.918788,45.960000,0.512814,0.860689,1.373503,0.050000,0.006410,0.010759,0.067169,0.070488,181,0.795410,0
0.898000,59.991021,16.314000,-592.087684,0.009943,0.000000,59.981078,16.314000,0.513053,0.846036,1.359089,0.050000,0.006413,0.010575,0.066989,0.066216,181,0.795410,0
0.900000,59.993987,-13.348000,-592.116964,0.009943,0.000000,59.984044,-13.348000,0.513064,0.830546,1.343610,-0.050000,0.006413,0.010382,-0.033205,0.068352,181,0.795410,0
0.902000,59.937629,-42.996750,-591.560726,0.009943,0.000000,59.927686,-42.996750,0.512848,0.814235,1.327084,-0.050000,0.006411,0.010178,-0.033411,-0.029904,181,0.795410,-12
0.904000,59.822000,-72.603250,-590.419519,0.008899,-0.521851,59.813101,-72.081399,0.512404,0.797407,1.309810,-0.050000,0.006405,0.009968,-0.033627,-0.032040,162,0.711914,-24
0.906000,59.647216,-102.137500,-588.694473,0.007306,-0.796509,59.639910,-101.340991,0.511726,0.779668,1.291394,-0.050000,0.006397,0.009746,-0.033858,-0.032040,133,0.584473,-24
0.908000,59.413450,-131.570750,-586.387293,0.006097,-0.604248,59.407353,-130.966502,0.510809,0.760909,1.271718,-0.050000,0.006385,0.009511,-0.034104,-0.037380,111,0.487793,-14
0.910000,59.120933,-160.874250,-583.500260,0.005273,-0.411987,59.115660,-160.462263,0.509644,0.741392,1.251037,-0.050000,0.006371,0.009267,-0.034362,-0.032040,96,0.421875,-10
0.912000,58.769953,-190.018750,-580.036229,0.004669,-0.302124,58.765284,-189.716626,0.508223,0.721183,1.229406,-0.050000,0.006353,0.009015,-0.034632,-0.035244,85,0.373535,-6
0.914000,58.360858,-218.975000,-575.998627,0.004395,-0.137329,58.356463,-218.837671,0.506533,0.700227,1.206759,-0.050000,0.006332,0.008753,-0.034916,-0.036312,80,0.351562,-3
0.916000,57.894053,-247.714750,-571.391445,0.004285,-0.054932,57.889768,-247.659818,0.504560,0.678619,1.183179,-0.050000,0.006307,0.008483,-0.035210,-0.034176,78,0.342773,-1
0.918000,57.369999,-276.209500,-566.219239,0.004285,0.000000,57.365714,-276.209500,0.502290,0.656354,1.158643,-0.050000,0.006279,0.008204,-0.035517,-0.033108,78,0.342773,0
0.920000,56.789215,-304.431250,-560.487123,0.004285,0.000000,56.784930,-304.431250,0.499705,0.633467,1.133173,-0.050000,0.006246,0.007918,-0.035835,-0.038448,78,0.342773,0
0.922000,56.152274,-332.352250,-554.200767,0.004285,0.000000,56.147989,-332.352250,0.496789,0.609955,1.106744,-0.050000,0.006210,0.007624,-0.036166,-0.038448,78,0.342773,0
0.924000,55.459806,-359.944250,-547.366387,0.004285,0.000000,55.455521,-359.944250,0.493523,0.585839,1.079361,-0.050000,0.006169,0.007323,-0.036508,-0.035244,78,0.342773,0
0.926000,54.712497,-387.180250,-539.990739,0.004285,0.000000,54.708212,-387.180250,0.489885,0.561144,1.051029,-0.050000,0.006124,0.007014,-0.036862,-0.035244,78,0.342773,0
0.928000,53.911085,-414.033500,-532.081119,0.004285,0.000000,53.906800,-414.033500,0.485857,0.535893,1.021750,-0.050000,0.006073,0.006699,-0.037228,-0.036312,78,0.342773,0
0.930000,53.056363,-440.477500,-523.645347,0.004285,0.000000,53.052078,-440.477500,0.481416,0.510113,0.991529,-0.050000,0.006018,0.006376,-0.037606,-0.037380,78,0.342773,0
0.932000,52.149175,-466.485750,-514.691766,0.004285,0.000000,52.144890,-466.485750,0.476541,0.483829,0.960370,-0.050000,0.005957,0.006048,-0.037995,-0.036312,78,0.342773,0
0.934000,51.190420,-492.032750,-505.229228,0.004285,0.000000,51.186135,-492.032750,0.471211,0.457066,0.928277,-0.050000,0.005890,0.005713,-0.038397,-0.040584,78,0.342773,0
0.936000,50.181044,-517.093250,-495.267092,0.004230,-0.027466,50.176814,-517.065784,0.465404,0.429865,0.895270,-0.050000,0.005818,0.005373,-0.038809,-0.038448,77,0.338379,0
0.938000,49.122047,-541.642250,-484.815208,0.004230,0.000000,49.117817,-541.642250,0.459100,0.402211,0.861311,-0.050000,0.005739,0.005028,-0.039234,-0.039516,77,0.338379,0
0.940000,48.014475,-565.655750,-473.883912,0.004230,0.000000,48.010245,-565.655750,0.452277,0.374173,0.826450,-0.050000,0.005653,0.004677,-0.039669,-0.040584,77,0.338379,0
0.942000,46.859424,-589.109750,-462.484012,0.004230,0.000000,46.855194,-589.109750,0.444916,0.345765,0.790681,-0.050000,0.005561,0.004322,-0.040116,-0.042720,77,0.338379,0
0.944000,45.658036,-611.981500,-450.626783,0.004230,0.000000,45.653806,-611.981500,0.436999,0.317015,0.754014,-0.050000,0.005462,0.003963,-0.040575,-0.040584,77,0.338379,0
0.946000,44.411498,-634.248000,-438.323949,0.004230,0.000000,44.407268,-634.248000,0.428510,0.287951,0.716461,-0.050000,0.005356,0.003599,-0.041044,-0.038448,77,0.338379,0
0.948000,43.121044,-655.887250,-425.587675,0.004175,-0.027466,43.116869,-655.859784,0.419432,0.258618,0.678050,-0.050000,0.005243,0.003233,-0.041524,-0.041652,76,0.333984,0
0.950000,41.787949,-676.878000,-412.430557,0.004175,0.000000,41.783774,-676.878000,0.409752,0.228999,0.638751,-0.050000,0.005122,0.002862,-0.042016,-0.039516,76,0.333984,0
0.952000,40.413532,-697.199250,-398.865605,0.004175,0.000000,40.409357,-697.199250,0.399460,0.199168,0.598628,-0.050000,0.004993,0.002490,-0.042517,-0.041652,76,0.333984,0
0.954000,38.999152,-716.831250,-384.906231,0.004120,-0.027466,38.995032,-716.803784,0.388545,0.169156,0.557701,-0.050000,0.004857,0.002114,-0.043029,-0.041652,75,0.329590,0
0.956000,37.546207,-735.754250,-370.566241,0.004065,-0.027466,37.542142,-735.726784,0.377002,0.138962,0.515964,-0.050000,0.004713,0.001737,-0.043550,-0.043788,74,0.325195,0
0.958000,36.056135,-753.949750,-355.859815,0.004065,0.000000,36.052070,-753.949750,0.364827,0.108615,0.473441,-0.050000,0.004560,0.001358,-0.044082,-0.043788,74,0.325195,-1
0.960000,34.530408,-771.399750,-340.801494,0.004010,-0.027466,34.526398,-771.372284,0.352018,0.078190,0.430208,-0.050000,0.004400,0.000977,-0.044622,-0.045924,73,0.320801,-1
0.962000,32.970536,-788.087000,-325.406170,0.003955,-0.027466,32.966581,-788.059534,0.338579,0.047673,0.386252,-0.050000,0.004232,0.000596,-0.045172,-0.045924,72,0.316406,-1
0.964000,31.378060,-803.994750,-309.689066,0.003900,-0.027466,31.374160,-803.967284,0.324513,0.017110,0.341623,-0.050000,0.004056,0.000214,-0.045730,-0.044856,71,0.312012,0
0.966000,29.754557,-819.107500,-293.665724,0.003900,0.000000,29.750657,-819.107500,0.309831,-0.013486,0.296345,-0.050000,0.003873,-0.000169,-0.046296,-0.045924,71,0.312012,0
0.968000,28.101630,-833.410500,-277.351990,0.003845,-0.027466,28.097785,-833.383034,0.294543,-0.044039,0.250504,-0.050000,0.003682,-0.000550,-0.046869,-0.048060,70,0.307617,0
0.970000,26.420915,-846.889250,-260.763994,0.003845,0.000000,26.417070,-846.889250,0.278666,-0.074578,0.204087,-0.050000,0.003483,-0.000932,-0.047449,-0.045924,70,0.307617,-1
0.972000,24.714073,-859.530750,-243.918140,0.003735,-0.054932,24.710338,-859.475818,0.262216,-0.104999,0.157217,-0.050000,0.003278,-0.001312,-0.048035,-0.048060,68,0.298828,-1
0.974000,22.982792,-871.322000,-226.831086,0.003625,-0.054932,22.979167,-871.267068,0.245217,-0.135345,0.109873,-0.050000,0.003065,-0.001692,-0.048627,-0.048060,66,0.290039,-3
0.976000,21.228785,-882.251500,-209.519729,0.003461,-0.082397,21.225324,-882.169103,0.227694,-0.165541,0.062153,-0.050000,0.002846,-0.002069,-0.049223,-0.049128,63,0.276855,-3
0.978000,19.453786,-892.308750,-192.001187,0.003241,-0.109863,19.450545,-892.198887,0.209675,-0.195573,0.014101,-0.050000,0.002621,-0.002445,-0.049824,-0.050196,59,0.259277,-3
0.980000,17.659550,-901.483750,-174.292784,0.003021,-0.109863,17.656529,-901.373887,0.191191,-0.225427,-0.034236,-0.050000,0.002390,-0.002818,-0.050428,-0.048060,55,0.241699,-4
0.982000,15.847851,-909.767250,-156.412030,0.002747,-0.137329,15.845104,-909.629921,0.172277,-0.255042,-0.082764,-0.050000,0.002153,-0.003188,-0.051035,-0.051264,50,0.219727,-4
0.984000,14.020481,-917.151250,-138.376607,0.002417,-0.164795,14.018064,-916.986455,0.152971,-0.284404,-0.131433,-0.050000,0.001912,-0.003555,-0.051643,-0.053400,44,0.193359,-5
0.986000,12.179246,-923.628250,-120.204350,0.002197,-0.109863,12.177049,-923.518387,0.133311,-0.313529,-0.180218,-0.050000,0.001666,-0.003919,-0.052253,-0.053400,40,0.175781,-4
0.988000,10.325968,-929.191750,-101.913228,0.001868,-0.164795,10.324100,-929.026955,0.113341,-0.342286,-0.228945,-0.050000,0.001417,-0.004279,-0.052862,-0.052332,34,0.149414,-6
0.990000,8.462479,-933.836500,-83.521328,0.001428,-0.219727,8.461051,-933.616773,0.093104,-0.370702,-0.277598,-0.050000,0.001164,-0.004634,-0.053470,-0.053400,26,0.114258,-6
0.992000,6.590622,-937.557750,-65.046838,0.000989,-0.219727,6.589633,-937.338023,0.072646,-0.398780,-0.326135,-0.050000,0.000908,-0.004985,-0.054077,-0.049128,18,0.079102,-9
0.994000,4.712248,-940.352000,-46.508026,0.000494,-0.247192,4.711754,-940.104808,0.052015,-0.426449,-0.374435,-0.050000,0.000650,-0.005331,-0.054680,-0.053400,9,0.039551,-7
0.996000,2.829214,-942.216500,-27.923224,-0.000055,-0.274658,2.829269,-941.941842,0.031259,-0.453696,-0.422437,-0.050000,0.000391,-0.005671,-0.055280,-0.054468,-1,-0.004395,-8
0.998000,0.943382,-943.149000,-9.310810,-0.000604,-0.274658,0.943986,-942.874342,0.010428,-0.480507,-0.470079,-0.050000,0.000130,-0.006006,-0.055876,-0.053400,-11,-0.048340,-7
1.000000,-0.943382,-943.149000,9.310810,-0.001044,-0.219727,-0.942338,-942.929273,-0.010428,-0.506874,-0.517302,-0.050000,-0.000130,-0.006336,-0.056466,-0.059808,-19,-0.083496,-7
1.002000,-2.829214,-942.216500,27.923224,-0.001428,-0.192261,-2.827786,-942.024239,-0.031259,-0.532726,-0.563985,-0.050000,-0.000391,-0.006659,-0.057050,-0.059808,-26,-0.114258,-9
1.004000,-4.712248,-940.352000,46.508026,-0.001923,-0.247192,-4.710325,-940.104808,-0.052015,-0.558006,-0.610021,-0.050000,-0.000650,-0.006975,-0.057625,-0.055536,-35,-0.153809,-7
1.006000,-6.590622,-937.557750,65.046838,-0.002472,-0.274658,-6.588150,-937.283092,-0.072646,-0.582748,-0.655394,-0.050000,-0.000908,-0.007284,-0.058192,-0.059808,-45,-0.197754,-9
1.008000,-8.462479,-933.836500,83.521328,-0.003076,-0.302124,-8.459403,-933.534376,-0.093104,-0.606913,-0.700017,-0.050000,-0.001164,-0.007586,-0.058750,-0.056604,-56,-0.246094,-9
1.010000,-10.325968,-929.191750,101.913228,-0.003735,-0.329590,-10.322233,-928.862160,-0.113341,-0.630477,-0.743817,-0.050000,-0.001417,-0.007881,-0.059298,-0.058740,-68,-0.298828,-9
1.012000,-12.179246,-923.628250,120.204350,-0.004230,-0.247192,-12.175016,-923.381058,-0.133311,-0.653476,-0.786788,-0.050000,-0.001666,-0.008168,-0.059835,-0.060876,-77,-0.338379,-8
1.014000,-14.020481,-917.151250,138.376607,-0.004724,-0.247192,-14.015757,-916.904058,-0.152971,-0.675787,-0.828758,-0.050000,-0.001912,-0.008447,-0.060359,-0.058740,-86,-0.377930,-5
1.016000,-15.847851,-909.767250,156.412030,-0.004889,-0.082397,-15.842962,-909.684853,-0.172277,-0.697519,-0.869797,-0.050000,-0.002153,-0.008719,-0.060872,-0.060876,-89,-0.391113,-2
1.018000,-17.659550,-901.483750,174.292784,-0.004999,-0.054932,-17.654551,-901.428818,-0.191191,-0.718491,-0.909682,-0.050000,-0.002390,-0.008981,-0.061371,-0.058740,-91,-0.399902,-2
1.020000,-19.453786,-892.308750,192.001187,-0.005109,-0.054932,-19.448677,-892.253818,-0.209675,-0.738738,-0.948413,-0.050000,-0.002621,-0.009234,-0.061855,-0.059808,-93,-0.408691,-1
1.022000,-21.228785,-882.251500,209.519729,-0.005164,-0.027466,-21.223621,-882.224034,-0.227694,-0.758269,-0.985963,-0.050000,-0.002846,-0.009478,-0.062325,-0.064080,-94,-0.413086,-1
1.024000,-22.982792,-871.322000,226.831086,-0.005219,-0.027466,-22.977573,-871.294534,-0.245217,-0.777036,-1.022254,-0.050000,-0.003065,-0.009713,-0.062778,-0.061944,-95,-0.417480,-1
1.026000,-24.714073,-859.530750,243.918140,-0.005273,-0.027466,-24.708800,-859.503284,-0.262216,-0.795035,-1.057251,-0.050000,-0.003278,-0.009938,-0.063216,-0.059808,-96,-0.421875,-1
1.028000,-26.420915,-846.889250,260.763994,-0.005273,0.000000,-26.415642,-846.889250,-0.278666,-0.812262,-1.090928,-0.050000,-0.003483,-0.010153,-0.063637,-0.063012,-96,-0.421875,-1
1.030000,-28.101630,-833.410500,277.351990,-0.005328,-0.027466,-28.096302,-833.383034,-0.294543,-0.828657,-1.123200,-0.050000,-0.003682,-0.010358,-0.064040,-0.066216,-97,-0.426270,0
1.032000,-29.754557,-819.107500,293.665724,-0.005328,0.000000,-29.749229,-819.107500,-0.309831,-0.844261,-1.154092,-0.050000,-0.003873,-0.010553,-0.064426,-0.063012,-97,-0.426270,0
1.034000,-31.378060,-803.994750,309.689066,-0.005328,0.000000,-31.372732,-803.994750,-0.324513,-0.859017,-1.183530,-0.050000,-0.004056,-0.010738,-0.064794,-0.065148,-97,-0.426270,0
1.036000,-32.970536,-788.087000,325.406170,-0.005383,-0.027466,-32.965153,-788.059534,-0.338579,-0.872907,-1.211486,-0.050000,-0.004232,-0.010911,-0.065144,-0.067284,-98,-0.430664,0
1.038000,-34.530408,-771.399750,340.801494,-0.005383,0.000000,-34.525025,-771.399750,-0.352018,-0.885964,-1.237982,-0.050000,-0.004400,-0.011075,-0.065475,-0.066216,-98,-0.430664,0
1.040000,-36.056135,-753.949750,355.859815,-0.005438,-0.027466,-36.050697,-753.922284,-0.364827,-0.898115,-1.262942,-0.050000,-0.004560,-0.011226,-0.065787,-0.064080,-99,-0.435059,0
1.042000,-37.546207,-735.754250,370.566241,-0.005438,0.000000,-37.540769,-735.754250,-0.377002,-0.909408,-1.286410,-0.050000,-0.004713,-0.011368,-0.066080,-0.066216,-99,-0.435059,0
1.044000,-38.999152,-716.831250,384.906231,-0.005493,-0.027466,-38.993659,-716.803784,-0.388545,-0.919772,-1.308317,-0.050000,-0.004857,-0.011497,-0.066354,-0.067284,-100,-0.439453,0
1.046000,-40.413532,-697.199250,398.865605,-0.005493,0.000000,-40.408039,-697.199250,-0.399460,-0.929255,-1.328715,-0.050000,-0.004993,-0.011616,-0.066609,-0.067284,-100,-0.439453,0
1.048000,-41.787949,-676.878000,412.430557,-0.005548,-0.027466,-41.782401,-676.850534,-0.409752,-0.937790,-1.347543,-0.050000,-0.005122,-0.011722,-0.066844,-0.066216,-101,-0.443848,0
1.050000,-43.121044,-655.887250,425.587675,-0.005548,0.000000,-43.115496,-655.887250,-0.419432,-0.945428,-1.364860,-0.050000,-0.005243,-0.011818,-0.067061,-0.067284,-101,-0.443848,0
1.052000,-44.411498,-634.248000,438.323949,-0.005603,-0.027466,-44.405895,-634.220534,-0.428510,-0.952100,-1.380610,-0.050000,-0.005356,-0.011901,-0.067258,-0.065148,-102,-0.448242,0
1.054000,-45.658036,-611.981500,450.626783,-0.005603,0.000000,-45.652433,-611.981500,-0.436999,-0.957861,-1.394860,-0.050000,-0.005462,-0.011973,-0.067436,-0.066216,-102,-0.448242,0
1.056000,-46.859424,-589.109750,462.484012,-0.005658,-0.027466,-46.853766,-589.082284,-0.444916,-0.962645,-1.407561,-0.050000,-0.005561,-0.012033,-0.067595,-0.064080,-103,-0.452637,0
1.058000,-48.014475,-565.655750,473.883912,-0.005658,0.000000,-48.008817,-565.655750,-0.452277,-0.966506,-1.418783,-0.050000,-0.005653,-0.012081,-0.067735,-0.065148,-103,-0.452637,0
1.060000,-49.122047,-541.642250,484.815208,-0.005658,0.000000,-49.116389,-541.642250,-0.459100,-0.969397,-1.428497,-0.050000,-0.005739,-0.012117,-0.067856,-0.067284,-103,-0.452637,0
1.062000,-50.181044,-517.093250,495.267092,-0.005658,0.000000,-50.175386,-517.093250,-0.465404,-0.971330,-1.436734,-0.050000,-0.005818,-0.012142,-0.067959,-0.068352,-103,-0.452637,0
1.064000,-51.190420,-492.032750,505.229228,-0.005713,-0.027466,-51.184707,-492.005284,-0.471211,-0.972287,-1.443498,-0.050000,-0.005890,-0.012154,-0.068044,-0.069420,-104,-0.457031,0
1.066000,-52.149175,-466.485750,514.691766,-0.005713,0.000000,-52.143462,-466.485750,-0.476541,-0.972311,-1.448853,-0.050000,-0.005957,-0.012154,-0.068111,-0.066216,-104,-0.457031,0
1.068000,-53.056363,-440.477500,523.645347,-0.005713,0.000000,-53.050650,-440.477500,-0.481416,-0.971360,-1.452776,-0.050000,-0.006018,-0.012142,-0.068160,-0.070488,-104,-0.457031,0
1.070000,-53.911085,-414.033500,532.081119,-0.005768,-0.027466,-53.905317,-414.006034,-0.485857,-0.969433,-1.455290,-0.050000,-0.006073,-0.012118,-0.068191,-0.069420,-105,-0.461426,0
1.072000,-54.712497,-387.180250,539.990739,-0.005768,0.000000,-54.706729,-387.180250,-0.489885,-0.966577,-1.456463,-0.050000,-0.006124,-0.012082,-0.068206,-0.070488,-105,-0.461426,0
1.074000,-55.459806,-359.944250,547.366387,-0.005768,0.000000,-55.454038,-359.944250,-0.493523,-0.962751,-1.456274,-0.050000,-0.006169,-0.012034,-0.068203,-0.064080,-105,-0.461426,0
1.076000,-56.152274,-332.352250,554.200767,-0.005768,0.000000,-56.146506,-332.352250,-0.496789,-0.957972,-1.454762,-0.050000,-0.006210,-0.011975,-0.068185,-0.070488,-105,-0.461426,0
1.078000,-56.789215,-304.431250,560.487123,-0.005768,0.000000,-56.783447,-304.431250,-0.499705,-0.952246,-1.451952,-0.050000,-0.006246,-0.011903,-0.068149,-0.069420,-105,-0.461426,0
1.080000,-57.369999,-276.209500,566.219239,-0.005768,0.000000,-57.364231,-276.209500,-0.502290,-0.945579,-1.447868,-0.050000,-0.006279,-0.011820,-0.068098,-0.069420,-105,-0.461426,0
1.082000,-57.894053,-247.714750,571.391445,-0.005768,0.000000,-57.888285,-247.714750,-0.504560,-0.937976,-1.442536,-0.050000,-0.006307,-0.011725,-0.068032,-0.069420,-105,-0.461426,0
1.084000,-58.360858,-218.975000,575.998627,-0.005823,-0.027466,-58.355035,-218.947534,-0.506533,-0.929431,-1.435963,-0.050000,-0.006332,-0.011618,-0.067950,-0.068352,-106,-0.465820,0
1.086000,-58.769953,-190.018750,580.036229,-0.005823,0.000000,-58.764130,-190.018750,-0.508223,-0.919996,-1.428219,-0.050000,-0.006353,-0.011500,-0.067853,-0.069420,-106,-0.465820,0
1.088000,-59.120933,-160.874250,583.500260,-0.005823,0.000000,-59.115110,-160.874250,-0.509644,-0.909636,-1.419281,-0.050000,-0.006371,-0.011370,-0.067741,-0.067284,-106,-0.465820,0
1.090000,-59.413450,-131.570750,586.387293,-0.005823,0.000000,-59.407627,-131.570750,-0.510809,-0.898377,-1.409186,-0.050000,-0.006385,-0.011230,-0.067615,-0.066216,-106,-0.465820,0
1.092000,-59.647216,-102.137500,588.694473,-0.005823,0.000000,-59.641393,-102.137500,-0.511726,-0.886230,-1.397956,-0.050000,-0.006397,-0.011078,-0.067474,-0.069420,-106,-0.465820,0
1.094000,-59.822000,-72.603250,590.419519,-0.005823,0.000000,-59.816177,-72.603250,-0.512404,-0.873206,-1.385610,-0.050000,-0.006405,-0.010915,-0.067320,-0.068352,-106,-0.465820,0
1.096000,-59.937629,-42.996750,591.560726,-0.005823,0.000000,-59.931806,-42.996750,-0.512848,-0.859319,-1.372167,-0.050000,-0.006411,-0.010741,-0.067152,-0.066216,-106,-0.465820,0
1.098000,-59.993987,-13.348000,592.116964,-0.005823,0.000000,-59.988164,-13.348000,-0.513064,-0.844582,-1.357646,-0.050000,-0.006413,-0.010557,-0.066971,-0.067284,-106,-0.465820,0
1.100000,-59.991021,16.314000,592.087684,-0.005823,0.000000,-59.985198,16.314000,-0.513053,-0.829009,-1.342062,0.050000,-0.006413,-0.010363,0.033224,-0.067284,-106,-0.465820,0
1.102000,-59.928731,45.960000,591.472915,-0.005823,0.000000,-59.922908,45.960000,-0.512814,-0.812617,-1.325431,0.050000,-0.006410,-0.010158,0.033432,0.035244,-106,-0.465820,8
1.104000,-59.807181,75.560000,590.273264,-0.004834,0.494385,-59.802347,75.065615,-0.512346,-0.795694,-1.308040,0.050000,-0.006404,-0.009946,0.033649,0.033108,-88,-0.386719,23
1.106000,-59.626491,105.085750,588.489918,-0.003351,0.741577,-59.623140,104.344173,-0.511645,-0.777862,-1.289507,0.050000,-0.006396,-0.009723,0.033881,0.036312,-61,-0.268066,22
1.108000,-59.386838,134.507750,586.124640,-0.001978,0.686646,-59.384860,133.821104,-0.510704,-0.759101,-1.269804,0.050000,-0.006384,-0.009489,0.034127,0.034176,-36,-0.158203,19
1.110000,-59.088460,163.796250,583.179770,-0.000989,0.494385,-59.087471,163.301865,-0.509514,-0.739512,-1.249026,0.050000,-0.006369,-0.009244,0.034387,0.033108,-18,-0.079102,15
1.112000,-58.731653,192.923000,579.658219,-0.000220,0.384521,-58.731433,192.538479,-0.508066,-0.719233,-1.227299,0.050000,-0.006351,-0.008990,0.034659,0.037380,-4,-0.017578,11
1.114000,-58.316768,221.859250,575.563469,0.000385,0.302124,-58.317153,221.557126,-0.506348,-0.698254,-1.204602,0.050000,-0.006329,-0.008728,0.034942,0.032040,7,0.030762,5
1.116000,-57.844216,250.575750,570.899570,0.000659,0.137329,-57.844875,250.438421,-0.504346,-0.676538,-1.180884,0.050000,-0.006304,-0.008457,0.035239,0.033108,12,0.052734,4
1.118000,-57.314465,279.044500,565.671134,0.000824,0.082397,-57.315289,278.962103,-0.502046,-0.654208,-1.156254,0.050000,-0.006276,-0.008178,0.035547,0.038448,15,0.065918,2
1.120000,-56.728038,307.237500,559.883330,0.000934,0.054932,-56.728972,307.182568,-0.499429,-0.631245,-1.130674,0.050000,-0.006243,-0.007891,0.035867,0.038448,17,0.074707,0
1.122000,-56.085515,335.126750,553.541883,0.000989,0.027466,-56.086504,335.099284,-0.496479,-0.607658,-1.104137,0.050000,-0.006206,-0.007596,0.036198,0.037380,18,0.079102,1
1.124000,-55.387531,362.684250,546.653063,0.000989,0.000000,-55.388520,362.684250,-0.493176,-0.583469,-1.076645,0.050000,-0.006165,-0.007293,0.036542,0.037380,18,0.079102,0
1.126000,-54.634778,389.883250,539.223681,0.000989,0.000000,-54.635767,389.883250,-0.489501,-0.558717,-1.048217,0.050000,-0.006119,-0.006984,0.036897,0.033108,18,0.079102,0
1.128000,-53.827998,416.697000,531.261085,0.000989,0.000000,-53.828987,416.697000,-0.485432,-0.533412,-1.018844,0.050000,-0.006068,-0.006668,0.037264,0.034176,18,0.079102,0
1.130000,-52.967990,443.098250,522.773149,0.001044,0.027466,-52.969034,443.070784,-0.480948,-0.507596,-0.988544,0.050000,-0.006012,-0.006345,0.037643,0.036312,19,0.083496,0
1.132000,-52.055605,469.061500,513.768265,0.001044,0.000000,-52.056649,469.061500,-0.476029,-0.481248,-0.957277,0.050000,-0.005950,-0.006016,0.038034,0.038448,19,0.083496,0
1.134000,-51.091744,494.561000,504.255338,0.001099,0.027466,-51.092843,494.533534,-0.470652,-0.454454,-0.925106,0.050000,-0.005883,-0.005681,0.038436,0.035244,20,0.087891,0
1.136000,-50.077361,519.571500,494.243776,0.001099,0.000000,-50.078460,519.571500,-0.464797,-0.427180,-0.891977,0.050000,-0.005810,-0.005340,0.038850,0.038448,20,0.087891,0
1.138000,-49.013458,544.068250,483.743477,0.001099,0.000000,-49.014557,544.068250,-0.458441,-0.399499,-0.857940,0.050000,-0.005731,-0.004994,0.039276,0.039516,20,0.087891,0
1.140000,-47.901088,568.026750,472.764826,0.001154,0.027466,-47.902242,567.999284,-0.451565,-0.371438,-0.823003,0.050000,-0.005645,-0.004643,0.039712,0.040584,21,0.092285,0
1.142000,-46.741351,591.423500,461.318679,0.001154,0.000000,-46.742505,591.423500,-0.444150,-0.342980,-0.787130,0.050000,-0.005552,-0.004287,0.040161,0.043788,21,0.092285,0
1.144000,-45.535394,614.235750,449.416355,0.001154,0.000000,-45.536548,614.235750,-0.436177,-0.314197,-0.750374,0.050000,-0.005452,-0.003927,0.040620,0.043788,21,0.092285,0
