khanfazel/E-wera--maxon_motor/ff+FB/pd_feedforward_log.csv
t_s,q_ref_deg,qd_ref_deg_s,qdd_ref_deg_s2,q_link_deg,qd_link_deg_s,pos_error_deg,vel_error_deg_s,tau_joint_ff_Nm,tau_pd_joint_Nm,tau_joint_total_Nm,tau_dead_motor_Nm,tau_motor_cmd_Nm,tau_motor_actual_Nm,motor_pos_counts,motor_vel_native
0.000000,0.000000,943.265500,0.000000,0.000000,0.000000,0.000000,943.265500,0.000000,0.823154,0.823154,0.160200,0.170489,-0.001068,0,0
0.002000,1.886531,942.799250,0.000000,0.001099,0.549316,1.885432,942.249934,0.027289,0.855175,0.882464,0.160200,0.171231,0.173016,1,16
0.004000,3.771197,941.400750,-37.220226,0.032959,15.930176,3.738238,925.470574,0.041649,0.872870,0.914519,0.160200,0.171631,0.174084,30,36
0.006000,5.652134,939.071000,-55.784328,0.083496,25.268555,5.568638,913.802445,0.062349,0.894634,0.956983,0.160200,0.172162,0.171948,76,45
0.008000,7.527481,935.812750,-74.293267,0.146118,31.311035,7.381363,904.501715,0.082899,0.918156,1.001055,0.160200,0.172713,0.170880,133,59
0.010000,9.395385,931.629250,-92.728741,0.225220,39.550781,9.170165,892.078469,0.103253,0.938535,1.041788,0.160200,0.173222,0.176220,205,64
0.012000,11.253998,926.524500,-111.072519,0.314209,44.494629,10.939789,882.029871,0.123362,0.960652,1.084014,0.160200,0.173750,0.176220,286,80
0.014000,13.101483,920.503500,-129.306462,0.405396,45.593262,12.696087,874.910238,0.143183,0.985092,1.128274,0.160200,0.174303,0.170880,369,77
0.016000,14.936012,913.572250,-147.412541,0.499878,47.241211,14.436134,866.331039,0.162671,1.007975,1.170645,0.160200,0.174833,0.174084,455,81
0.018000,16.755772,905.737500,-165.372849,0.616333,58.227539,16.139439,847.509961,0.181786,1.021278,1.203064,0.160200,0.175238,0.179424,561,67
0.020000,18.558962,897.007250,-183.169628,0.715210,49.438477,17.843752,847.568773,0.200489,1.051076,1.251564,0.160200,0.175845,0.178356,651,82
0.022000,20.343801,887.390000,-200.785278,0.821777,53.283691,19.522024,834.106309,0.218745,1.068619,1.287363,0.160200,0.176292,0.173016,748,84
0.024000,22.108522,876.895000,-218.202380,0.938232,58.227539,21.170290,818.667461,0.236520,1.083913,1.320433,0.160200,0.176705,0.174084,854,92
0.026000,23.851381,865.533250,-235.403712,1.054688,58.227539,22.796693,807.305711,0.253784,1.102384,1.356169,0.160200,0.177152,0.176220,960,71
0.028000,25.570655,853.315500,-252.372264,1.170044,57.678223,24.400611,795.637277,0.270511,1.120196,1.390707,0.160200,0.177584,0.171948,1065,82
0.030000,27.264643,840.253750,-269.091255,1.291992,60.974121,25.972651,779.279629,0.286677,1.133358,1.420035,0.160200,0.177950,0.175152,1176,84
0.032000,28.931670,826.361000,-285.544154,1.406250,57.128906,27.525420,769.232094,0.302262,1.151691,1.453953,0.160200,0.178374,0.178356,1280,85
0.034000,30.570087,811.651500,-301.714692,1.526001,59.875488,29.044086,751.776012,0.317249,1.162963,1.480212,0.160200,0.178703,0.179424,1389,77
0.036000,32.178276,796.139500,-317.586877,1.628174,51.086426,30.550102,745.053074,0.331624,1.183381,1.515005,0.160200,0.179138,0.177288,1482,88
0.038000,33.754645,779.839750,-333.145014,1.745728,58.776855,32.008917,721.062895,0.345377,1.187907,1.533284,0.160200,0.179366,0.178356,1589,87
0.040000,35.297635,762.769000,-348.373719,1.848999,51.635742,33.448636,711.133258,0.358502,1.204370,1.562871,0.160200,0.179736,0.178356,1683,78
0.042000,36.805721,744.944000,-363.257932,1.946777,48.889160,34.858944,696.054840,0.370994,1.215826,1.586819,0.160200,0.180035,0.180492,1772,69
0.044000,38.277411,726.382500,-377.782936,2.053345,53.283691,36.224066,673.098809,0.382852,1.219619,1.602471,0.160200,0.180231,0.178356,1869,93
0.046000,39.711251,707.102750,-391.934367,2.151123,48.889160,37.560128,658.213590,0.394081,1.229948,1.624028,0.160200,0.180500,0.179424,1958,87
0.048000,41.105822,687.123500,-405.698231,2.257690,53.283691,38.848132,633.839809,0.404683,1.231157,1.635841,0.160200,0.180648,0.179424,2055,96
0.050000,42.459745,666.465000,-419.060918,2.362061,52.185059,40.097684,614.279941,0.414668,1.235897,1.650565,0.160200,0.180832,0.178356,2150,73
0.052000,43.771682,645.147500,-432.009215,2.459839,48.889160,41.311843,596.258340,0.424045,1.241361,1.665407,0.160200,0.181018,0.181560,2239,91
0.054000,45.040335,623.191750,-444.530316,2.559814,49.987793,42.480521,573.203957,0.432827,1.241640,1.674467,0.160200,0.181131,0.182628,2330,97
0.056000,46.264449,600.619750,-456.611842,2.661987,51.086426,43.602462,549.533324,0.441028,1.240565,1.681593,0.160200,0.181220,0.180492,2423,77
0.058000,47.442814,577.454250,-468.241844,2.774048,56.030273,44.668766,521.423977,0.448665,1.234645,1.683310,0.160200,0.181241,0.183696,2525,78
0.060000,48.574266,553.717500,-479.408822,2.894897,60.424805,45.679369,493.292695,0.455754,1.227734,1.683489,0.160200,0.181244,0.181560,2635,75
0.062000,49.657684,529.433000,-490.101734,3.004761,54.931641,46.652923,474.501359,0.462316,1.228328,1.690643,0.160200,0.181333,0.184764,2735,85
0.064000,50.691998,504.625250,-500.310006,3.112427,53.833008,47.579571,450.792242,0.468369,1.223811,1.692179,0.160200,0.181352,0.180492,2833,107
0.066000,51.676185,479.318500,-510.023544,3.232178,59.875488,48.444007,419.443012,0.473935,1.211541,1.685475,0.160200,0.181268,0.177288,2942,93
0.068000,52.609272,453.537750,-519.232741,3.361816,64.819336,49.247456,388.718414,0.479034,1.198751,1.677785,0.160200,0.181172,0.182628,3060,85
0.070000,53.490336,427.308250,-527.928493,3.480469,59.326172,50.009867,367.982078,0.483689,1.193962,1.677651,0.160200,0.181171,0.182628,3168,88
0.072000,54.318505,400.656500,-536.102199,3.600220,59.875488,50.718285,340.781012,0.487921,1.182589,1.670510,0.160200,0.181081,0.180492,3277,77
0.074000,55.092962,373.608500,-543.745778,3.719971,59.875488,51.372991,313.733012,0.491752,1.170412,1.662163,0.160200,0.180977,0.181560,3386,80
0.076000,55.812939,346.191000,-550.851670,3.855103,67.565918,51.957836,278.625082,0.495201,1.149982,1.645183,0.160200,0.180765,0.178356,3509,92
0.078000,56.477726,318.431250,-557.412850,3.966064,55.480957,52.511662,262.950293,0.498290,1.145969,1.644259,0.160200,0.180753,0.176220,3610,84
0.080000,57.086664,290.356250,-563.422828,4.081421,57.678223,53.005243,232.678027,0.501038,1.128166,1.629204,0.160200,0.180565,0.179424,3715,91
0.082000,57.639151,261.994500,-568.875663,4.187988,53.283691,53.451163,208.710809,0.503463,1.115033,1.618496,0.160200,0.180431,0.183696,3812,88
0.084000,58.134642,233.373750,-573.765962,4.307739,59.875488,53.826903,173.498262,0.505582,1.090862,1.596445,0.160200,0.180156,0.178356,3921,101
0.086000,58.572646,204.522000,-578.088888,4.441772,67.016602,54.130874,137.505398,0.507412,1.064758,1.572170,0.160200,0.179852,0.182628,4043,77
0.088000,58.952730,175.468250,-581.840169,4.565918,62.072754,54.386812,113.395496,0.508967,1.048185,1.557152,0.160200,0.179664,0.180492,4156,78
0.090000,59.274519,146.240750,-585.016093,4.682373,58.227539,54.592146,88.013211,0.510258,1.029619,1.539877,0.160200,0.179448,0.183696,4262,89
0.092000,59.537693,116.868500,-587.613520,4.793335,55.480957,54.744358,61.387543,0.511298,1.009040,1.520338,0.160200,0.179204,0.178356,4363,74
0.094000,59.741993,87.381000,-589.629883,4.916382,61.523438,54.825611,25.857563,0.512094,0.979452,1.491547,0.160200,0.178844,0.182628,4475,95
0.096000,59.887217,57.807000,-591.063187,5.035034,59.326172,54.852183,-1.519172,0.512655,0.956025,1.468680,0.160200,0.178559,0.181560,4583,96
0.098000,59.973221,28.176000,-591.912014,5.153687,59.326172,54.819534,-31.150172,0.512985,0.929598,1.442583,0.160200,0.178232,0.179424,4691,77
0.100000,59.999921,-1.483000,-592.175526,5.264648,55.480957,54.735273,-56.963957,0.513087,0.905600,1.418687,-0.160200,-0.142466,0.175152,4792,79
0.102000,59.967289,-31.140750,-591.853461,5.383301,59.326172,54.583988,-90.466922,0.512962,0.873723,1.386685,-0.160200,-0.142866,-0.140976,4900,25
0.104000,59.875358,-60.767500,-590.946139,5.384399,0.549316,54.490959,-61.316816,0.512609,0.897538,1.410147,-0.160200,-0.142573,-0.140976,4901,-43
0.106000,59.724219,-90.334250,-589.454456,5.312988,-35.705566,54.411231,-54.628684,0.512025,0.901983,1.414008,-0.160200,-0.142525,-0.142044,4836,-76
0.108000,59.514021,-119.811500,-587.379888,5.225098,-43.945312,54.288923,-75.866187,0.511205,0.881315,1.392519,-0.160200,-0.142794,-0.142044,4756,-83
0.110000,59.244973,-149.170500,-584.724485,5.130615,-47.241211,54.114358,-101.929289,0.510140,0.855524,1.365664,-0.160200,-0.143129,-0.143112,4670,-69
0.112000,58.917339,-178.382000,-581.490875,5.037231,-46.691895,53.880108,-131.690105,0.508823,0.825464,1.334287,-0.160200,-0.143521,-0.144180,4585,-70
0.114000,58.531445,-207.416750,-577.682254,4.951538,-42.846680,53.579907,-164.570070,0.507242,0.791531,1.298773,-0.160200,-0.143965,-0.145248,4507,-59
0.116000,58.087672,-236.246500,-573.302388,4.873535,-39.001465,53.214137,-197.245035,0.505384,0.756633,1.262017,-0.160200,-0.144425,-0.142044,4436,-59
0.118000,57.586459,-264.842750,-568.355609,4.798828,-37.353516,52.787631,-227.489234,0.503234,0.722796,1.226031,-0.160200,-0.144875,-0.148452,4368,-67
0.120000,57.028301,-293.177250,-562.846808,4.717529,-40.649414,52.310772,-252.527836,0.500778,0.692623,1.193401,-0.160200,-0.145282,-0.146316,4294,-72
0.122000,56.413750,-321.221750,-556.781433,4.631836,-42.846680,51.781914,-278.375070,0.497997,0.660837,1.158834,-0.160200,-0.145715,-0.144180,4216,-49
0.124000,55.743414,-348.948750,-550.165481,4.557129,-37.353516,51.186285,-311.595234,0.494873,0.621451,1.116324,-0.160200,-0.146246,-0.145248,4148,-56
0.126000,55.017955,-376.330500,-543.005495,4.469238,-43.945312,50.548717,-332.385187,0.491386,0.592181,1.083567,-0.160200,-0.146655,-0.145248,4068,-68
0.128000,54.238092,-403.339750,-535.308555,4.385742,-41.748047,49.852350,-361.591703,0.487517,0.554539,1.042056,-0.160200,-0.147174,-0.147384,3992,-57
0.130000,53.404596,-429.950500,-527.082272,4.302246,-41.748047,49.102350,-388.202453,0.483243,0.518227,1.001470,-0.160200,-0.147682,-0.150588,3916,-57
0.132000,52.518290,-456.136500,-518.334780,4.219849,-41.198730,48.298441,-414.937770,0.478545,0.480865,0.959410,-0.160200,-0.148207,-0.149520,3841,-69
0.134000,51.580050,-481.871000,-509.074730,4.136353,-41.748047,47.443697,-440.122953,0.473399,0.443969,0.917368,-0.160200,-0.148733,-0.145248,3765,-56
0.136000,50.590806,-507.128750,-499.311279,4.058350,-39.001465,46.532456,-468.127285,0.467786,0.403626,0.871412,-0.160200,-0.149307,-0.149520,3694,-73
0.138000,49.551535,-531.885500,-489.054081,3.974854,-41.748047,45.576681,-490.137453,0.461683,0.367738,0.829420,-0.160200,-0.149832,-0.148452,3618,-72
0.140000,48.463264,-556.116250,-478.313278,3.884766,-45.043945,44.578498,-511.072305,0.455069,0.332047,0.787116,-0.160200,-0.150361,-0.150588,3536,-60
0.142000,47.327070,-579.796750,-467.099493,3.789185,-47.790527,43.537885,-532.006223,0.447926,0.295616,0.743542,-0.160200,-0.150906,-0.150588,3449,-61
0.144000,46.144077,-602.904250,-455.423814,3.703491,-42.846680,42.440586,-560.057570,0.440234,0.251986,0.692219,-0.160200,-0.151547,-0.151656,3371,-52
0.146000,44.915453,-625.415500,-443.297786,3.611206,-46.142578,41.304247,-579.272922,0.431975,0.215384,0.647360,-0.160200,-0.152108,-0.151656,3287,-71
0.148000,43.642415,-647.308250,-430.733401,3.526611,-42.297363,40.115804,-605.010887,0.423135,0.172181,0.595316,-0.160200,-0.152759,-0.151656,3210,-60
0.150000,42.326220,-668.560750,-417.743082,3.442017,-42.297363,38.884203,-626.263387,0.413697,0.132139,0.545837,-0.160200,-0.153377,-0.154860,3133,-70
0.152000,40.968172,-689.152250,-404.339676,3.357422,-42.297363,37.610750,-646.854887,0.403651,0.091944,0.495595,-0.160200,-0.154005,-0.154860,3056,-72
0.154000,39.569611,-709.062500,-390.536436,3.280518,-38.452148,36.289093,-670.610352,0.392986,0.048146,0.441132,-0.160200,-0.154686,-0.153792,2986,-59
0.156000,38.131922,-728.271250,-376.347012,3.193726,-43.395996,34.938196,-684.875254,0.381695,0.012120,0.393815,-0.160200,-0.155277,-0.153792,2907,-60
0.158000,36.656526,-746.760000,-361.785435,3.098145,-47.790527,33.558381,-698.969473,0.369773,-0.024262,0.345511,-0.160200,-0.155881,-0.156996,2820,-73
0.160000,35.144882,-764.510500,-346.866104,3.004761,-46.691895,32.140121,-717.818605,0.357218,-0.065464,0.291754,-0.160200,-0.156553,-0.156996,2735,-71
0.162000,33.598484,-781.504750,-331.603773,2.917969,-43.395996,30.680515,-738.108754,0.344030,-0.108645,0.235385,-0.160200,-0.157258,-0.158064,2656,-68
0.164000,32.018863,-797.726250,-316.013534,2.825684,-46.142578,29.193179,-751.583672,0.330214,-0.146363,0.183851,-0.160200,-0.157902,-0.158064,2572,-61
0.166000,30.407579,-813.159000,-300.110802,2.730103,-47.790527,27.677476,-765.368473,0.315777,-0.184847,0.130931,-0.160200,-0.158563,-0.159132,2485,-78
0.168000,28.766227,-827.787250,-283.911305,2.641113,-44.494629,26.125114,-783.292621,0.300730,-0.227583,0.073148,-0.160200,-0.159286,-0.159132,2404,-77
0.170000,27.096430,-841.597500,-267.431059,2.558716,-41.198730,24.537714,-800.398770,0.285086,-0.270216,0.014871,-0.160200,-0.160014,-0.156996,2329,-57
0.172000,25.399837,-854.575500,-250.686364,2.477417,-40.649414,22.922420,-813.926086,0.268863,-0.310213,-0.041350,-0.160200,-0.160717,-0.158064,2255,-62
0.174000,23.678128,-866.708000,-233.693775,2.390625,-43.395996,21.287503,-823.312004,0.252081,-0.346938,-0.094857,-0.160200,-0.161386,-0.158064,2176,-58
0.176000,21.933005,-877.983750,-216.470097,2.291748,-49.438477,19.641257,-828.545273,0.234765,-0.380238,-0.145473,-0.160200,-0.162018,-0.164472,2086,-78
0.178000,20.166193,-888.391250,-199.032362,2.195068,-48.339844,17.971125,-840.051406,0.216940,-0.419428,-0.202488,-0.160200,-0.162731,-0.162336,1998,-73
0.180000,18.379440,-897.920250,-181.397812,2.100586,-47.241211,16.278854,-850.679039,0.198638,-0.458238,-0.259600,-0.160200,-0.163445,-0.168744,1912,-78
0.182000,16.574512,-906.561500,-163.583885,2.000610,-49.987793,14.573902,-856.573707,0.179892,-0.493139,-0.313247,-0.160200,-0.164116,-0.162336,1821,-60
0.184000,14.753194,-914.306250,-145.608198,1.901733,-49.438477,12.851461,-864.867773,0.160738,-0.530439,-0.369701,-0.160200,-0.164821,-0.168744,1731,-75
0.186000,12.917287,-921.146750,-127.488525,1.799561,-51.086426,11.117726,-870.060324,0.141215,-0.565230,-0.424015,-0.160200,-0.165500,-0.166608,1638,-87
0.188000,11.068607,-927.076250,-109.242785,1.695190,-52.185059,9.373417,-874.891191,0.121364,-0.599890,-0.478526,-0.160200,-0.166182,-0.163404,1543,-85
0.190000,9.208982,-932.089000,-90.889019,1.587524,-53.833008,7.621458,-878.255992,0.101228,-0.633403,-0.532176,-0.160200,-0.166852,-0.166608,1445,-73
0.192000,7.340251,-936.180250,-72.445377,1.476562,-55.480957,5.863689,-880.699293,0.080852,-0.666214,-0.585362,-0.160200,-0.167517,-0.168744,1344,-66
0.194000,5.464261,-939.345750,-53.930097,1.365601,-55.480957,4.098660,-883.864793,0.060285,-0.699782,-0.639498,-0.160200,-0.168194,-0.167676,1243,-79
0.196000,3.582868,-941.582500,-35.361488,1.260132,-52.734375,2.322736,-888.848125,0.039573,-0.735127,-0.695554,-0.160200,-0.168894,-0.170880,1147,-80
0.198000,1.697931,-942.888000,-16.757912,1.151367,-54.382324,0.546564,-888.505676,0.018766,-0.765828,-0.747062,-0.160200,-0.169538,-0.170880,1048,-82
0.200000,-0.188684,-943.261000,1.862236,1.031616,-59.875488,-1.220300,-883.385512,-0.002086,-0.792198,-0.794283,-0.160200,-0.170129,-0.166608,939,-89
0.202000,-2.075113,-942.701250,20.480542,0.829468,-101.074219,-2.904581,-841.627031,-0.022933,-0.785153,-0.808085,-0.160200,-0.170301,-0.169812,755,-80
0.204000,-3.959489,-941.209500,39.078596,0.696533,-66.467285,-4.656022,-874.742215,-0.043725,-0.844620,-0.888344,-0.160200,-0.171304,-0.170880,634,-88
0.206000,-5.839951,-938.787000,57.638006,0.577881,-59.326172,-6.417832,-879.460828,-0.064411,-0.879487,-0.943898,-0.160200,-0.171999,-0.169812,526,-74
0.208000,-7.714637,-935.436000,76.140422,0.463623,-57.128906,-8.178260,-878.307094,-0.084944,-0.909205,-0.994149,-0.160200,-0.172627,-0.176220,422,-77
0.210000,-9.581695,-931.160250,94.567545,0.341675,-60.974121,-9.923370,-870.186129,-0.105275,-0.932576,-1.037852,-0.160200,-0.173173,-0.173016,311,-84
0.212000,-11.439278,-925.963500,112.901154,0.224121,-58.776855,-11.663399,-867.186645,-0.125358,-0.960328,-1.085686,-0.160200,-0.173771,-0.168744,204,-87
0.214000,-13.285549,-919.851000,131.123121,0.110962,-56.579590,-13.396511,-863.271410,-0.145147,-0.987160,-1.132307,-0.160200,-0.174354,-0.176220,101,-93
0.216000,-15.118682,-912.829250,149.215425,-0.008789,-59.875488,-15.109893,-852.953762,-0.164600,-1.008060,-1.172660,-0.160200,-0.174858,-0.174084,-8,-91
0.218000,-16.936866,-904.904750,167.160178,-0.118652,-54.931641,-16.818214,-849.973109,-0.183675,-1.035275,-1.218950,-0.160200,-0.175437,-0.171948,-108,-96
0.220000,-18.738301,-896.085250,184.939632,-0.219727,-50.537109,-18.518574,-845.548141,-0.202335,-1.061090,-1.263425,-0.160200,-0.175993,-0.174084,-200,-75
0.222000,-20.521207,-886.379750,202.536209,-0.320801,-50.537109,-20.200406,-835.842641,-0.220544,-1.081974,-1.302518,-0.160200,-0.176481,-0.176220,-292,-73
0.224000,-22.283820,-875.797750,219.932506,-0.421875,-50.537109,-21.861945,-825.260641,-0.238269,-1.101739,-1.340008,-0.160200,-0.176950,-0.174084,-384,-76
0.226000,-24.024398,-864.349750,237.111321,-0.525146,-51.635742,-23.499252,-812.714008,-0.255481,-1.119366,-1.374847,-0.160200,-0.177386,-0.177288,-478,-80
0.228000,-25.741219,-852.047000,254.055668,-0.650391,-62.622070,-25.090828,-789.424930,-0.272153,-1.126821,-1.398974,-0.160200,-0.177687,-0.178356,-592,-79
0.230000,-27.432586,-838.901750,270.748790,-0.780029,-64.819336,-26.652557,-774.082414,-0.288262,-1.140689,-1.428951,-0.160200,-0.178062,-0.177288,-710,-93
0.232000,-29.096826,-824.926750,287.174181,-0.894287,-57.128906,-28.202539,-767.797844,-0.303788,-1.162257,-1.466045,-0.160200,-0.178526,-0.177288,-814,-77
0.234000,-30.732293,-810.136250,303.315597,-1.009644,-57.678223,-29.722649,-752.458027,-0.318714,-1.175402,-1.494116,-0.160200,-0.178876,-0.180492,-919,-95
0.236000,-32.337371,-794.544500,319.157079,-1.130493,-60.424805,-31.206878,-734.119695,-0.333027,-1.185303,-1.518330,-0.160200,-0.179179,-0.180492,-1029,-94
0.238000,-33.910471,-778.167000,334.682960,-1.257935,-63.720703,-32.652536,-714.446297,-0.346718,-1.193366,-1.540084,-0.160200,-0.179451,-0.179424,-1145,-96
0.240000,-35.450039,-761.020250,349.877888,-1.372192,-57.128906,-34.077847,-703.891344,-0.359779,-1.209032,-1.568811,-0.160200,-0.179810,-0.179424,-1249,-74
0.242000,-36.954552,-743.120750,364.726837,-1.487549,-57.678223,-35.467003,-685.442527,-0.372208,-1.217177,-1.589385,-0.160200,-0.180067,-0.180492,-1354,-87
0.244000,-38.422522,-724.486500,379.215124,-1.602905,-57.678223,-36.819617,-666.808277,-0.384004,-1.224524,-1.608527,-0.160200,-0.180307,-0.180492,-1459,-71
0.246000,-39.852498,-705.136000,393.328421,-1.717163,-57.128906,-38.135335,-648.007094,-0.395169,-1.231080,-1.626249,-0.160200,-0.180528,-0.182628,-1563,-68
0.248000,-41.243066,-685.088000,407.052774,-1.834717,-58.776855,-39.408349,-626.311145,-0.405709,-1.234365,-1.640075,-0.160200,-0.180701,-0.178356,-1670,-77
0.250000,-42.592850,-664.362500,420.374610,-1.952271,-58.776855,-40.640579,-605.585645,-0.415633,-1.237785,-1.653418,-0.160200,-0.180868,-0.177288,-1777,-100
0.252000,-43.900516,-642.980250,433.280756,-2.067627,-57.678223,-41.832889,-585.302027,-0.424950,-1.240894,-1.665844,-0.160200,-0.181023,-0.184764,-1882,-100
0.254000,-45.164771,-620.962000,445.758450,-2.173096,-52.734375,-42.991675,-568.227625,-0.433673,-1.246218,-1.679892,-0.160200,-0.181199,-0.181560,-1978,-104
0.256000,-46.384364,-598.329500,457.795354,-2.287354,-57.128906,-44.097010,-541.200594,-0.441817,-1.241925,-1.683742,-0.160200,-0.181247,-0.182628,-2082,-102
0.258000,-47.558089,-575.105750,469.379563,-2.421387,-67.016602,-45.136702,-508.089148,-0.449398,-1.231175,-1.680574,-0.160200,-0.181207,-0.183696,-2204,-74
0.260000,-48.684787,-551.313500,480.499624,-2.541138,-59.875488,-46.143649,-491.438012,-0.456434,-1.234219,-1.690653,-0.160200,-0.181333,-0.182628,-2313,-99
0.262000,-49.763343,-526.975500,491.144540,-2.654297,-56.579590,-47.109046,-470.395910,-0.462943,-1.232706,-1.695649,-0.160200,-0.181396,-0.183696,-2416,-107
0.264000,-50.792689,-502.116500,501.303785,-2.785034,-65.368652,-48.007655,-436.747848,-0.468947,-1.219026,-1.687973,-0.160200,-0.181300,-0.177288,-2535,-100
0.266000,-51.771809,-476.761250,510.967313,-2.892700,-53.833008,-48.879109,-422.928242,-0.474465,-1.222176,-1.696641,-0.160200,-0.181408,-0.183696,-2633,-101
0.268000,-52.699734,-450.934500,520.125568,-3.004761,-56.030273,-49.694973,-394.904227,-0.479519,-1.211960,-1.691479,-0.160200,-0.181343,-0.184764,-2735,-82
0.270000,-53.575547,-424.661750,528.769493,-3.125610,-60.424805,-50.449937,-364.236945,-0.484131,-1.198374,-1.682505,-0.160200,-0.181231,-0.179424,-2845,-80
0.272000,-54.398381,-397.969000,536.890542,-3.240967,-57.678223,-51.157414,-340.290777,-0.488322,-1.189825,-1.678147,-0.160200,-0.181177,-0.181560,-2950,-85
0.274000,-55.167423,-370.883000,544.480683,-3.346436,-52.734375,-51.820987,-318.148625,-0.492113,-1.182084,-1.674197,-0.160200,-0.181127,-0.181560,-3046,-97
0.276000,-55.881913,-343.430000,551.532412,-3.457397,-55.480957,-52.424516,-287.949043,-0.495526,-1.166263,-1.661789,-0.160200,-0.180972,-0.179424,-3147,-88
0.278000,-56.541143,-315.637250,558.038754,-3.591431,-67.016602,-52.949712,-248.620648,-0.498580,-1.141109,-1.639689,-0.160200,-0.180696,-0.179424,-3269,-89
0.280000,-57.144462,-287.532750,563.993277,-3.718872,-63.720703,-53.425590,-223.812047,-0.501295,-1.127765,-1.629060,-0.160200,-0.180563,-0.179424,-3385,-103
0.282000,-57.691274,-259.143750,569.390091,-3.824341,-52.734375,-53.866933,-206.409375,-0.503688,-1.120282,-1.623970,-0.160200,-0.180500,-0.177288,-3481,-86
0.284000,-58.181037,-230.498500,574.223861,-3.960571,-68.115234,-54.220466,-162.383266,-0.505778,-1.088032,-1.593810,-0.160200,-0.180123,-0.178356,-3605,-100
0.286000,-58.613268,-201.625250,578.489806,-4.095703,-67.565918,-54.517565,-134.059332,-0.507580,-1.068500,-1.576080,-0.160200,-0.179901,-0.178356,-3728,-84
0.288000,-58.987538,-172.552500,582.183708,-4.208862,-56.579590,-54.778676,-115.972910,-0.509107,-1.057274,-1.566381,-0.160200,-0.179780,-0.179424,-3831,-106
0.290000,-59.303478,-143.309500,585.301915,-4.329712,-60.424805,-54.973766,-82.884695,-0.510373,-1.031804,-1.542177,-0.160200,-0.179477,-0.179424,-3941,-86
0.292000,-59.560776,-113.924750,587.841342,-4.458252,-64.270020,-55.102524,-49.654730,-0.511388,-1.005052,-1.516440,-0.160200,-0.179156,-0.176220,-4058,-103
0.294000,-59.759177,-84.427000,589.799479,-4.573608,-57.678223,-55.185569,-26.748777,-0.512161,-0.986513,-1.498673,-0.160200,-0.178933,-0.181560,-4163,-90
0.296000,-59.898484,-54.846000,591.174389,-4.712036,-69.213867,-55.186448,14.367867,-0.512698,-0.950647,-1.463345,-0.160200,-0.178492,-0.177288,-4289,-92
0.298000,-59.978561,-25.210750,591.964713,-4.828491,-58.227539,-55.150070,33.016789,-0.513005,-0.933738,-1.446743,-0.160200,-0.178284,-0.174084,-4395,-83
0.300000,-59.999327,4.449500,592.169669,-4.950439,-60.974121,-55.048888,65.423621,-0.513085,-0.903691,-1.416776,0.160200,0.142490,-0.176220,-4506,-79
0.302000,-59.960763,34.105250,591.789055,-5.069092,-59.326172,-54.891671,93.431422,-0.512937,-0.876506,-1.389443,0.160200,0.142832,0.138840,-4614,-28
0.304000,-59.862906,63.727250,590.823247,-5.071289,-1.098633,-54.791617,64.825883,-0.512561,-0.899723,-1.412284,0.160200,0.142546,0.140976,-4616,44
0.306000,-59.705854,93.286250,589.273200,-5.008667,31.311035,-54.697187,61.975215,-0.511954,-0.900562,-1.412516,0.160200,0.142544,0.143112,-4559,70
0.308000,-59.489761,122.753250,587.140446,-4.919678,44.494629,-54.570083,78.258621,-0.511109,-0.884134,-1.395243,0.160200,0.142759,0.136704,-4478,77
0.310000,-59.214841,152.098750,584.427095,-4.820801,49.438477,-54.394040,102.660273,-0.510020,-0.859767,-1.369787,0.160200,0.143078,0.145248,-4388,93
0.312000,-58.881366,181.293750,581.135831,-4.717529,51.635742,-54.163837,129.658008,-0.508677,-0.832189,-1.340866,0.160200,0.143439,0.146316,-4294,75
0.314000,-58.489666,210.309500,577.269906,-4.634033,41.748047,-53.855633,168.561453,-0.507069,-0.792860,-1.299929,0.160200,0.143951,0.143112,-4218,61
0.316000,-58.040128,239.117250,572.833145,-4.557129,38.452148,-53.482999,200.665102,-0.505182,-0.758341,-1.263523,0.160200,0.144406,0.138840,-4148,62
0.318000,-57.533197,267.688500,567.829934,-4.480225,38.452148,-53.052972,229.236352,-0.503003,-0.725903,-1.228905,0.160200,0.144839,0.143112,-4078,65
0.320000,-56.969374,295.995250,562.265222,-4.397827,41.198730,-52.571547,254.796520,-0.500515,-0.695195,-1.195709,0.160200,0.145254,0.144180,-4003,71
0.322000,-56.349216,324.009250,556.144510,-4.316528,40.649414,-52.032688,283.359836,-0.497700,-0.660864,-1.158564,0.160200,0.145718,0.148452,-3929,56
0.324000,-55.673337,351.702750,549.473852,-4.239624,38.452148,-51.433713,313.250602,-0.494541,-0.624325,-1.118866,0.160200,0.146214,0.146316,-3859,69
0.326000,-54.942405,379.048500,542.259843,-4.166016,36.804199,-50.776389,342.244301,-0.491017,-0.587551,-1.078567,0.160200,0.146718,0.147384,-3792,70
0.328000,-54.157143,406.019250,534.509617,-4.091309,37.353516,-50.065834,368.665734,-0.487108,-0.552092,-1.039200,0.160200,0.147210,0.148452,-3724,64
0.330000,-53.318328,432.588750,526.230838,-4.014404,38.452148,-49.303924,394.136602,-0.482793,-0.516567,-0.999360,0.160200,0.147708,0.144180,-3654,69
0.332000,-52.426788,458.730500,517.431693,-3.930908,41.748047,-48.495880,416.982453,-0.478051,-0.482527,-0.960578,0.160200,0.148193,0.146316,-3578,56
0.334000,-51.483406,484.418500,508.120883,-3.855103,37.902832,-47.628303,446.515668,-0.472859,-0.441612,-0.914472,0.160200,0.148769,0.149520,-3509,67
0.336000,-50.489114,509.627750,498.307614,-3.768311,43.395996,-46.720803,466.231754,-0.467198,-0.408568,-0.875766,0.160200,0.149253,0.146316,-3430,67
0.338000,-49.444895,534.332750,488.001591,-3.690308,39.001465,-45.754587,495.331285,-0.461045,-0.366310,-0.827355,0.160200,0.149858,0.152724,-3359,69
0.340000,-48.351783,558.509250,477.213005,-3.613403,38.452148,-44.738380,520.057102,-0.454379,-0.326997,-0.781376,0.160200,0.150433,0.151656,-3289,60
0.342000,-47.210858,582.133750,465.952524,-3.536499,38.452148,-43.674359,543.681602,-0.447182,-0.287810,-0.734992,0.160200,0.151013,0.149520,-3219,66
0.344000,-46.023248,605.182500,454.231283,-3.458496,39.001465,-42.564752,566.181035,-0.439434,-0.248809,-0.688243,0.160200,0.151597,0.147384,-3148,52
0.346000,-44.790128,627.633000,442.060872,-3.383789,37.353516,-41.406339,590.279484,-0.431118,-0.207561,-0.638679,0.160200,0.152217,0.149520,-3080,51
0.348000,-43.512716,649.462750,429.453327,-3.312378,35.705566,-40.200338,613.757184,-0.422218,-0.166024,-0.588242,0.160200,0.152847,0.155928,-3015,55
0.350000,-42.192277,670.650000,416.421115,-3.238770,36.804199,-38.953507,633.845801,-0.412720,-0.126732,-0.539452,0.160200,0.153457,0.149520,-2948,63
0.352000,-40.830116,691.174250,402.977123,-3.159668,39.550781,-37.670448,651.623469,-0.402613,-0.088825,-0.491437,0.160200,0.154057,0.154860,-2876,57
0.354000,-39.427580,711.015250,389.134644,-3.073975,42.846680,-36.353605,668.168570,-0.391885,-0.051403,-0.443288,0.160200,0.154659,0.153792,-2798,63
0.356000,-37.986055,730.153000,374.907367,-2.986084,43.945312,-34.999971,686.207687,-0.380531,-0.012036,-0.392567,0.160200,0.155293,0.152724,-2718,56
0.358000,-36.506968,748.568500,360.309360,-2.897095,44.494629,-33.609873,704.073871,-0.368546,0.027817,-0.340728,0.160200,0.155941,0.158064,-2637,59
0.360000,-34.991781,766.244000,345.355060,-2.803711,46.691895,-32.188070,719.552105,-0.355927,0.066140,-0.289787,0.160200,0.156578,0.155928,-2552,64
0.362000,-33.441992,783.162000,330.059253,-2.723511,40.100098,-30.718481,743.061902,-0.342677,0.112305,-0.230371,0.160200,0.157320,0.154860,-2479,53
0.364000,-31.859133,799.305250,314.437066,-2.631226,46.142578,-29.227907,753.162672,-0.328798,0.147135,-0.181663,0.160200,0.157929,0.158064,-2395,56
0.366000,-30.244771,814.658000,298.503945,-2.545532,42.846680,-27.699239,771.811320,-0.314300,0.190090,-0.124210,0.160200,0.158647,0.160200,-2317,52
0.368000,-28.600501,829.205500,282.275647,-2.455444,45.043945,-26.145057,784.161555,-0.299192,0.227993,-0.071200,0.160200,0.159310,0.159132,-2235,63
0.370000,-26.927949,842.933000,265.768219,-2.363159,46.142578,-24.564790,796.790422,-0.283490,0.266594,-0.016896,0.160200,0.159989,0.160200,-2151,70
0.372000,-25.228769,855.827000,248.997985,-2.276367,43.395996,-22.952402,812.431004,-0.267210,0.308385,0.041175,0.160200,0.160715,0.161268,-2072,60
0.374000,-23.504641,867.874500,231.981527,-2.184082,46.142578,-21.320559,821.731922,-0.250373,0.344982,0.094609,0.160200,0.161383,0.161268,-1988,74
0.376000,-21.757271,879.063750,214.735673,-2.086304,48.889160,-19.670967,830.174590,-0.233005,0.381141,0.148136,0.160200,0.162052,0.160200,-1899,71
0.378000,-19.988386,889.384000,197.277477,-1.987427,49.438477,-18.000959,839.945523,-0.215131,0.418815,0.203684,0.160200,0.162746,0.162336,-1809,63
0.380000,-18.199735,898.824500,179.624202,-1.892944,47.241211,-16.306791,851.583289,-0.196783,0.458539,0.261756,0.160200,0.163472,0.160200,-1723,78
0.382000,-16.393088,907.376250,161.793304,-1.797363,47.790527,-14.595725,859.585723,-0.177994,0.495387,0.317392,0.160200,0.164167,0.164472,-1636,78
0.384000,-14.570230,915.031000,143.802416,-1.702881,47.241211,-12.867349,867.789789,-0.158802,0.532712,0.373910,0.160200,0.164874,0.162336,-1550,63
0.386000,-12.732964,921.780750,125.669328,-1.605103,48.889160,-11.127861,872.891590,-0.139244,0.567524,0.428280,0.160200,0.165554,0.164472,-1461,74
0.388000,-10.883107,927.618750,107.411971,-1.506226,49.438477,-9.376881,878.180273,-0.119362,0.602699,0.483337,0.160200,0.166242,0.168744,-1371,71
0.390000,-9.022489,932.539750,89.048399,-1.409546,48.339844,-7.612943,884.199906,-0.099200,0.638739,0.539539,0.160200,0.166944,0.165540,-1283,94
0.392000,-7.152948,936.538750,70.596771,-1.311768,48.889160,-5.841180,887.649590,-0.078804,0.672673,0.593869,0.160200,0.167623,0.164472,-1194,82
0.394000,-5.276334,939.611250,52.075334,-1.211792,49.987793,-4.064542,889.623457,-0.058219,0.705403,0.647184,0.160200,0.168290,0.168744,-1103,68
0.396000,-3.394503,941.754750,33.502401,-1.106323,52.734375,-2.288180,889.020375,-0.037496,0.735880,0.698385,0.160200,0.168930,0.170880,-1007,64
0.398000,-1.509315,942.967250,14.896339,-1.010742,47.790527,-0.498573,895.176723,-0.016682,0.772487,0.755805,0.160200,0.169648,0.171948,-920,80
0.400000,0.377366,943.247000,-3.724453,-0.910767,49.987793,1.288133,893.259207,0.004172,0.801998,0.806169,0.160200,0.170277,0.170880,-829,73
0.402000,2.263673,942.594000,-22.341562,-0.800903,54.931641,3.064576,887.662359,0.025015,0.828118,0.853134,0.160200,0.170864,0.167676,-729,89
0.404000,4.147742,941.009250,-40.936579,-0.692139,54.382324,4.839881,886.626926,0.045799,0.858200,0.903999,0.160200,0.171500,0.170880,-630,77
0.406000,6.027710,938.493750,-59.491115,-0.585571,53.283691,6.613281,885.210059,0.066472,0.887915,0.954387,0.160200,0.172130,0.174084,-533,86
0.408000,7.901717,935.050000,-77.986823,-0.483398,51.086426,8.385115,883.963574,0.086987,0.917752,1.004739,0.160200,0.172759,0.171948,-440,85
0.410000,9.767910,930.681750,-96.405414,-0.381226,51.086426,10.149136,879.595324,0.107296,0.944728,1.052023,0.160200,0.173350,0.173016,-347,81
0.412000,11.624444,925.393250,-114.728673,-0.277954,51.635742,11.902398,873.757508,0.127351,0.970233,1.097584,0.160200,0.173920,0.168744,-253,80
0.414000,13.469483,919.189750,-132.938482,-0.172485,52.734375,13.641968,866.455375,0.147108,0.994222,1.141330,0.160200,0.174467,0.174084,-157,74
0.416000,15.301203,912.077500,-151.016834,-0.067017,52.734375,15.368220,859.343125,0.166525,1.018144,1.184669,0.160200,0.175008,0.169812,-61,72
0.418000,17.117793,904.063000,-168.945853,0.030762,48.889160,17.087031,855.173840,0.185560,1.044505,1.230065,0.160200,0.175576,0.173016,28,93
0.420000,18.917455,895.154250,-186.707808,0.130737,49.987793,18.786718,845.166457,0.204177,1.065437,1.269614,0.160200,0.176070,0.170880,119,87
0.422000,20.698410,885.360750,-204.285136,0.230713,49.987793,20.467697,835.372957,0.222339,1.086229,1.308568,0.160200,0.176557,0.170880,210,97
0.424000,22.458898,874.691750,-221.660456,0.343872,56.579590,22.115026,818.112160,0.240014,1.099918,1.339932,0.160200,0.176949,0.174084,313,99
0.426000,24.197177,863.157750,-238.816585,0.447144,51.635742,23.750033,811.522008,0.257173,1.122703,1.379876,0.160200,0.177448,0.177288,407,99
0.428000,25.911529,850.770250,-255.736559,0.564697,58.776855,25.346832,791.993395,0.273790,1.133530,1.407320,0.160200,0.177792,0.176220,514,98
0.430000,27.600258,837.541250,-272.403647,0.689941,62.622070,26.910317,774.919180,0.289841,1.145918,1.435759,0.160200,0.178147,0.176220,628,99
0.432000,29.261694,823.484250,-288.801367,0.804199,57.128906,28.457495,766.355344,0.305308,1.165448,1.470756,0.160200,0.178584,0.180492,732,91
0.434000,30.894195,808.613000,-304.913503,0.918457,57.128906,29.975738,751.484094,0.320173,1.178969,1.499142,0.160200,0.178939,0.177288,836,84
0.436000,32.496146,792.941750,-320.724125,1.023926,52.734375,31.472220,740.207375,0.334424,1.195247,1.529671,0.160200,0.179321,0.178356,932,82
0.438000,34.065962,776.486750,-336.217596,1.132690,54.382324,32.933272,722.104426,0.348052,1.204949,1.553001,0.160200,0.179613,0.178356,1031,93
0.440000,35.602093,759.264000,-351.378597,1.244751,56.030273,34.357342,703.233727,0.361051,1.213336,1.574387,0.160200,0.179880,0.178356,1133,86
0.442000,37.103018,741.290000,-366.192135,1.350220,52.734375,35.752798,688.555625,0.373416,1.224882,1.598298,0.160200,0.180179,0.178356,1229,74
0.444000,38.567253,722.583250,-380.643561,1.471069,60.424805,37.096184,662.158445,0.385148,1.225293,1.610441,0.160200,0.180331,0.181560,1339,97
0.446000,39.993351,703.162250,-394.718586,1.587524,58.227539,38.405827,644.934711,0.396251,1.233120,1.629371,0.160200,0.180567,0.181560,1445,93
0.448000,41.379902,683.045750,-408.403291,1.698486,55.480957,39.681416,627.564793,0.406729,1.240225,1.646954,0.160200,0.180787,0.182628,1546,95
0.450000,42.725534,662.253500,-421.684145,1.801758,51.635742,40.923776,610.617758,0.416592,1.247119,1.663711,0.160200,0.180996,0.183696,1640,99
0.452000,44.028916,640.806500,-434.548013,1.914917,56.579590,42.113999,584.226910,0.425849,1.244862,1.670711,0.160200,0.181084,0.182628,1743,73
0.454000,45.288760,618.726000,-446.982176,2.014893,49.987793,43.273867,568.738207,0.434513,1.251589,1.686103,0.160200,0.181276,0.185832,1834,97
0.456000,46.503820,596.033500,-458.974338,2.115967,50.537109,44.387853,545.496391,0.442600,1.250750,1.693350,0.160200,0.181367,0.183696,1926,88
0.458000,47.672894,572.751750,-470.512641,2.225830,54.931641,45.447064,517.820109,0.450126,1.245084,1.695210,0.160200,0.181390,0.176220,2026,73
0.460000,48.794827,548.903750,-481.585675,2.333496,53.833008,46.461331,495.070742,0.457108,1.242934,1.700042,0.160200,0.181451,0.179424,2124,89
0.462000,49.868509,524.512750,-492.182489,2.435669,51.086426,47.432840,473.426324,0.463566,1.241002,1.704568,0.160200,0.181507,0.178356,2217,94
0.464000,50.892878,499.603000,-502.292607,2.560913,62.622070,48.331965,436.980930,0.469520,1.224890,1.694410,0.160200,0.181380,0.187968,2331,81
0.466000,51.866921,474.199250,-511.906029,2.694946,67.016602,49.171975,407.182648,0.474991,1.213547,1.688538,0.160200,0.181307,0.180492,2453,97
0.468000,52.789675,448.326750,-521.013250,2.828979,67.016602,49.960696,381.310148,0.480000,1.204735,1.684735,0.160200,0.181259,0.177288,2575,102
0.470000,53.660228,422.011000,-529.605264,2.964111,67.565918,50.696117,354.445082,0.484569,1.194126,1.678695,0.160200,0.181184,0.179424,2698,80
0.472000,54.477719,395.277750,-537.673575,3.101440,68.664551,51.376279,326.613199,0.488719,1.181709,1.670428,0.160200,0.181080,0.182628,2823,77
0.474000,55.241339,368.153750,-545.210204,3.239868,69.213867,52.001471,298.939883,0.492471,1.168471,1.660943,0.160200,0.180962,0.184764,2949,93
0.476000,55.950334,340.665500,-552.207699,3.368408,64.270020,52.581926,276.395480,0.495847,1.158928,1.654775,0.160200,0.180885,0.178356,3066,83
0.478000,56.604001,312.840500,-558.659140,3.490356,60.974121,53.113645,251.866379,0.498866,1.146803,1.645669,0.160200,0.180771,0.183696,3177,88
0.480000,57.201696,284.706250,-564.558147,3.609009,59.326172,53.592687,225.380078,0.501548,1.132050,1.633598,0.160200,0.180620,0.180492,3285,82
0.482000,57.742826,256.290250,-569.898888,3.746338,68.664551,53.996488,187.625699,0.503911,1.106151,1.610062,0.160200,0.180326,0.180492,3410,107
0.484000,58.226857,227.620750,-574.676082,3.881470,67.565918,54.345387,160.054832,0.505971,1.088180,1.594151,0.160200,0.180127,0.180492,3533,86
0.486000,58.653309,198.726500,-578.885003,4.013306,65.917969,54.640003,132.808531,0.507745,1.069545,1.577290,0.160200,0.179916,0.178356,3653,95
0.488000,59.021763,169.635750,-582.521491,4.140747,63.720703,54.881016,105.915047,0.509245,1.050283,1.559528,0.160200,0.179694,0.181560,3769,78
0.490000,59.331852,140.376750,-585.581948,4.274780,67.016602,55.057072,73.360148,0.510486,1.024946,1.535432,0.160200,0.179393,0.182628,3891,84
0.492000,59.583270,110.979500,-588.063350,4.402222,63.720703,55.181048,47.258797,0.511476,1.004332,1.515808,0.160200,0.179148,0.180492,4007,84
0.494000,59.775770,81.472250,-589.963242,4.537354,67.565918,55.238416,13.906332,0.512225,0.976228,1.488453,0.160200,0.178806,0.179424,4130,95
0.496000,59.909159,51.884250,-591.279745,4.670288,66.467285,55.238871,-14.583035,0.512739,0.951374,1.464113,0.160200,0.178501,0.179424,4251,82
0.498000,59.983307,22.245500,-592.011558,4.795532,62.622070,55.187775,-40.376570,0.513023,0.927973,1.440997,0.160200,0.178212,0.181560,4365,79
0.500000,59.998141,-7.415500,-592.157957,4.917480,60.974121,55.080661,-68.389621,0.513080,0.901658,1.414738,-0.160200,-0.142516,0.178356,4476,97
0.502000,59.953645,-37.069500,-591.718797,5.039429,60.974121,54.914216,-98.043621,0.512910,0.872875,1.385785,-0.160200,-0.142878,-0.143112,4587,15
0.504000,59.849863,-66.686750,-590.694512,5.033936,-2.746582,54.815927,-63.940168,0.512511,0.900920,1.413431,-0.160200,-0.142532,-0.140976,4582,-51
0.506000,59.686898,-96.237750,-589.086116,4.944946,-44.494629,54.741952,-51.743121,0.511880,0.910273,1.422153,-0.160200,-0.142423,-0.137772,4501,-72
0.508000,59.464912,-125.693750,-586.895198,4.842773,-51.086426,54.622139,-74.607324,0.511012,0.888229,1.399241,-0.160200,-0.142709,-0.144180,4408,-80
0.510000,59.184123,-155.025500,-584.123926,4.736206,-53.283691,54.447917,-101.741809,0.509897,0.861509,1.371406,-0.160200,-0.143057,-0.146316,4311,-80
0.512000,58.844810,-184.203750,-580.775039,4.630737,-52.734375,54.214073,-131.469375,0.508528,0.831485,1.340014,-0.160200,-0.143450,-0.143112,4215,-73
0.514000,58.447308,-213.200000,-576.851850,4.536255,-47.241211,53.911053,-165.958789,0.506893,0.796099,1.302992,-0.160200,-0.143913,-0.140976,4129,-72
0.516000,57.992010,-241.985500,-572.358237,4.451660,-42.297363,53.540350,-199.688137,0.504978,0.760195,1.265172,-0.160200,-0.144385,-0.145248,4052,-68
0.518000,57.479366,-270.531750,-567.298644,4.360474,-45.593262,53.118892,-224.938488,0.502768,0.730804,1.233572,-0.160200,-0.144780,-0.137772,3969,-61
0.520000,56.909883,-298.810250,-561.678075,4.271484,-44.494629,52.638399,-254.315621,0.500248,0.696781,1.197029,-0.160200,-0.145237,-0.144180,3888,-64
0.522000,56.284125,-326.793250,-555.502087,4.194580,-38.452148,52.089545,-288.341102,0.497400,0.657509,1.154909,-0.160200,-0.145764,-0.147384,3818,-64
0.524000,55.602710,-354.453500,-548.776788,4.116577,-39.001465,51.486133,-315.452035,0.494205,0.623319,1.117524,-0.160200,-0.146231,-0.149520,3747,-73
0.526000,54.866311,-381.763000,-541.508828,4.034180,-41.198730,50.832131,-340.564270,0.490644,0.589990,1.080633,-0.160200,-0.146692,-0.145248,3672,-59
0.528000,54.075658,-408.694750,-533.705393,3.957275,-38.452148,50.118383,-370.242602,0.486695,0.551633,1.038328,-0.160200,-0.147221,-0.146316,3602,-66
0.530000,53.231532,-435.222750,-525.374201,3.874878,-41.198730,49.356654,-394.024020,0.482338,0.517585,0.999924,-0.160200,-0.147701,-0.145248,3527,-52
0.532000,52.334767,-461.320250,-516.523489,3.801270,-36.804199,48.533497,-424.516051,0.477552,0.476609,0.954161,-0.160200,-0.148273,-0.146316,3460,-60
0.534000,51.386251,-486.961250,-507.162010,3.727661,-36.804199,47.658590,-450.157051,0.472315,0.438963,0.911278,-0.160200,-0.148809,-0.145248,3393,-62
0.536000,50.386922,-512.121000,-497.299021,3.647461,-40.100098,46.739461,-472.020902,0.466605,0.403842,0.870446,-0.160200,-0.149319,-0.147384,3320,-52
0.538000,49.337767,-536.774500,-486.944275,3.576050,-35.705566,45.761717,-501.068934,0.460401,0.361428,0.821829,-0.160200,-0.149927,-0.150588,3255,-48
0.540000,48.239824,-560.897000,-476.108012,3.504639,-35.705566,44.735185,-525.191434,0.453684,0.322460,0.776144,-0.160200,-0.150498,-0.149520,3190,-64
0.542000,47.094179,-584.465000,-464.800946,3.418945,-42.846680,43.675234,-541.618320,0.446432,0.289625,0.736058,-0.160200,-0.150999,-0.150588,3112,-54
0.544000,45.901964,-607.455000,-453.034259,3.343140,-37.902832,42.558824,-569.552168,0.438628,0.245764,0.684392,-0.160200,-0.151645,-0.153792,3043,-57
0.546000,44.664359,-629.844250,-440.819586,3.264038,-39.550781,41.400321,-590.293469,0.430254,0.207444,0.637698,-0.160200,-0.152229,-0.150588,2971,-62
0.548000,43.382587,-651.610500,-428.169007,3.187134,-38.452148,40.195453,-613.158352,0.421295,0.166461,0.587757,-0.160200,-0.152853,-0.154860,2901,-57
0.550000,42.057917,-672.732500,-415.095030,3.104736,-41.198730,38.953181,-631.533770,0.411737,0.128744,0.540481,-0.160200,-0.153444,-0.152724,2826,-64
0.552000,40.691657,-693.189500,-401.610584,3.025635,-39.550781,37.666022,-653.638719,0.401568,0.086989,0.488557,-0.160200,-0.154093,-0.155928,2754,-73
0.554000,39.285159,-712.961000,-387.729003,2.948730,-38.452148,36.336429,-674.508852,0.390778,0.045570,0.436349,-0.160200,-0.154746,-0.152724,2684,-52
0.556000,37.839813,-732.027250,-373.464013,2.868530,-40.100098,34.971283,-691.927152,0.379361,0.006544,0.385905,-0.160200,-0.155376,-0.155928,2611,-73
0.558000,36.357050,-750.369750,-358.829722,2.786133,-41.198730,33.570917,-709.171020,0.367312,-0.032945,0.334367,-0.160200,-0.156020,-0.154860,2536,-57
0.560000,34.838334,-767.970500,-343.840600,2.707031,-39.550781,32.131303,-728.419719,0.354630,-0.074869,0.279761,-0.160200,-0.156703,-0.159132,2464,-55
0.562000,33.285168,-784.811250,-328.511469,2.616943,-45.043945,30.668225,-739.767305,0.341317,-0.110307,0.231010,-0.160200,-0.157312,-0.155928,2382,-70
0.564000,31.699089,-800.876250,-312.857488,2.536743,-40.100098,29.162346,-760.776152,0.327376,-0.154923,0.172453,-0.160200,-0.158044,-0.158064,2309,-65
0.566000,30.081663,-816.149500,-296.894136,2.456543,-40.100098,27.625120,-776.049402,0.312816,-0.195082,0.117735,-0.160200,-0.158728,-0.156996,2236,-57
0.568000,28.434491,-830.615500,-280.637198,2.360962,-47.790527,26.073529,-782.824973,0.297649,-0.228075,0.069574,-0.160200,-0.159330,-0.160200,2149,-81
0.570000,26.759201,-844.260000,-264.102750,2.266479,-47.241211,24.492722,-797.018789,0.281888,-0.268051,0.013836,-0.160200,-0.160027,-0.162336,2063,-63
0.572000,25.057451,-857.069750,-247.307143,2.166504,-49.987793,22.890947,-807.081957,0.265551,-0.304789,-0.039239,-0.160200,-0.160690,-0.159132,1972,-70
0.574000,23.330922,-869.032250,-230.266985,2.062134,-52.185059,21.268788,-816.847191,0.248660,-0.341623,-0.092963,-0.160200,-0.161362,-0.162336,1877,-81
0.576000,21.581322,-880.135250,-212.999126,1.956665,-52.734375,19.624657,-827.400875,0.231239,-0.379529,-0.148289,-0.160200,-0.162054,-0.156996,1781,-79
0.578000,19.810381,-890.367750,-195.520641,1.853394,-51.635742,17.956987,-838.732008,0.213317,-0.418523,-0.205206,-0.160200,-0.162765,-0.160200,1687,-81
0.580000,18.019851,-899.719750,-177.848815,1.744629,-54.382324,16.275222,-845.337426,0.194923,-0.453640,-0.258716,-0.160200,-0.163434,-0.165540,1588,-82
0.582000,16.211502,-908.182250,-160.001122,1.650146,-47.241211,14.561356,-860.941039,0.176093,-0.497169,-0.321076,-0.160200,-0.164213,-0.162336,1502,-62
0.584000,14.387122,-915.746750,-141.995211,1.551270,-49.438477,12.835852,-866.308273,0.156862,-0.531969,-0.375107,-0.160200,-0.164889,-0.164472,1412,-86
0.586000,12.548515,-922.405750,-123.848887,1.458984,-46.142578,11.089531,-876.263172,0.137269,-0.571135,-0.433866,-0.160200,-0.165623,-0.164472,1328,-66
0.588000,10.697499,-928.152250,-105.580095,1.364502,-47.241211,9.332997,-880.911039,0.117358,-0.605848,-0.488491,-0.160200,-0.166306,-0.164472,1242,-69
0.590000,8.835906,-932.981250,-87.206899,1.274414,-45.043945,7.561492,-887.937305,0.097170,-0.642899,-0.545728,-0.160200,-0.167022,-0.164472,1160,-72
0.592000,6.965574,-936.887750,-68.747467,1.170044,-52.185059,5.795530,-884.702691,0.076753,-0.670898,-0.594145,-0.160200,-0.167627,-0.166608,1065,-79
0.594000,5.088355,-939.867500,-50.220055,1.076660,-46.691895,4.011695,-893.175605,0.056152,-0.709425,-0.653273,-0.160200,-0.168366,-0.161268,980,-82
0.596000,3.206104,-941.918000,-31.642982,0.974487,-51.086426,2.231617,-890.831574,0.035418,-0.738448,-0.703031,-0.160200,-0.168988,-0.168744,887,-86
0.598000,1.320683,-943.037000,-13.034619,0.871216,-51.635742,0.449467,-891.401258,0.014598,-0.770050,-0.755452,-0.160200,-0.169643,-0.164472,793,-70
0.600000,-0.566044,-943.223750,5.586634,0.769043,-51.086426,-1.335087,-892.137324,-0.006257,-0.801838,-0.808096,-0.160200,-0.170301,-0.168744,700,-65
0.602000,-2.452212,-942.477500,24.202362,0.669067,-49.987793,-3.121279,-892.489707,-0.027097,-0.833321,-0.860418,-0.160200,-0.170955,-0.171948,609,-66
0.604000,-4.335954,-940.799250,42.794157,0.571289,-48.889160,-4.907243,-891.910090,-0.047872,-0.863986,-0.911858,-0.160200,-0.171598,-0.171948,520,-81
0.606000,-6.215409,-938.191000,61.343636,0.463623,-53.833008,-6.679032,-884.357992,-0.068532,-0.888319,-0.956851,-0.160200,-0.172161,-0.171948,422,-90
0.608000,-8.088718,-934.654750,79.832454,0.353760,-54.931641,-8.442478,-879.723109,-0.089028,-0.915052,-1.004081,-0.160200,-0.172751,-0.173016,322,-84
0.610000,-9.954028,-930.194250,98.242329,0.253784,-49.987793,-10.207812,-880.206457,-0.109313,-0.946285,-1.055598,-0.160200,-0.173395,-0.177288,231,-99
0.612000,-11.809495,-924.814250,116.555057,0.156006,-48.889160,-11.965501,-875.925090,-0.129341,-0.973226,-1.102567,-0.160200,-0.173982,-0.174084,142,-80
0.614000,-13.653285,-918.519500,134.752529,0.048340,-53.833008,-13.701625,-864.686492,-0.149066,-0.993720,-1.142786,-0.160200,-0.174485,-0.173016,44,-90
0.616000,-15.483573,-911.316250,152.816750,-0.057129,-52.734375,-15.426444,-858.581875,-0.168446,-1.018496,-1.186943,-0.160200,-0.175037,-0.174084,-52,-94
0.618000,-17.298550,-903.212000,170.729857,-0.179077,-60.974121,-17.119473,-842.237879,-0.187442,-1.033782,-1.221224,-0.160200,-0.175465,-0.171948,-163,-73
0.620000,-19.096421,-894.214750,188.474137,-0.287842,-54.382324,-18.808579,-839.832426,-0.206014,-1.061164,-1.267178,-0.160200,-0.176040,-0.175152,-262,-95
0.622000,-20.875409,-884.333250,206.032044,-0.398804,-55.480957,-20.476605,-828.852293,-0.224129,-1.080694,-1.304823,-0.160200,-0.176510,-0.173016,-363,-100
0.624000,-22.633754,-873.577000,223.386214,-0.504272,-52.734375,-22.129482,-820.842625,-0.241754,-1.102553,-1.344306,-0.160200,-0.177004,-0.174084,-459,-95
0.626000,-24.369717,-861.957250,240.519488,-0.616333,-56.030273,-23.753384,-805.926977,-0.258860,-1.117879,-1.376738,-0.160200,-0.177409,-0.176220,-561,-78
0.628000,-26.081583,-849.485000,257.414922,-0.743774,-63.720703,-25.337809,-785.764297,-0.275421,-1.127937,-1.403358,-0.160200,-0.177742,-0.184764,-677,-97
0.630000,-27.767657,-836.172500,274.055810,-0.869019,-62.622070,-26.898638,-773.550430,-0.291415,-1.144520,-1.435934,-0.160200,-0.178149,-0.177288,-791,-102
0.632000,-29.426273,-822.033500,290.425697,-0.976685,-53.833008,-28.449588,-768.200492,-0.306822,-1.166920,-1.473742,-0.160200,-0.178622,-0.181560,-889,-99
0.634000,-31.055791,-807.081500,306.508394,-1.079956,-51.635742,-29.975835,-755.445758,-0.321626,-1.182428,-1.504054,-0.160200,-0.179001,-0.177288,-983,-91
0.636000,-32.654599,-791.331500,322.287999,-1.190918,-55.480957,-31.463681,-735.850543,-0.335815,-1.191296,-1.527111,-0.160200,-0.179289,-0.179424,-1084,-73
0.638000,-34.221117,-774.798750,337.748907,-1.299683,-54.382324,-32.921434,-720.416426,-0.349381,-1.203269,-1.552650,-0.160200,-0.179608,-0.177288,-1183,-86
0.640000,-35.753794,-757.500000,352.875831,-1.402954,-51.635742,-34.350840,-705.864258,-0.362316,-1.215518,-1.577834,-0.160200,-0.179923,-0.177288,-1277,-90
0.642000,-37.251117,-739.452250,367.653811,-1.507324,-52.185059,-35.743793,-687.267191,-0.374618,-1.223601,-1.598218,-0.160200,-0.180178,-0.180492,-1372,-97
0.644000,-38.711603,-720.673000,382.068234,-1.618286,-55.480957,-37.093317,-665.192043,-0.386287,-1.227890,-1.614177,-0.160200,-0.180377,-0.178356,-1473,-76
0.646000,-40.133809,-701.181500,396.104847,-1.728149,-54.931641,-38.405660,-646.249859,-0.397327,-1.234265,-1.631591,-0.160200,-0.180595,-0.179424,-1573,-100
0.648000,-41.516329,-680.996500,409.749770,-1.840210,-56.030273,-39.676119,-624.966227,-0.407743,-1.237865,-1.645608,-0.160200,-0.180770,-0.180492,-1675,-78
0.650000,-42.857795,-660.137750,422.989509,-1.963257,-61.523438,-40.894538,-598.614313,-0.417545,-1.236134,-1.653678,-0.160200,-0.180871,-0.180492,-1787,-97
0.652000,-44.156880,-638.626500,435.810972,-2.067627,-52.185059,-42.089253,-586.441441,-0.426742,-1.246363,-1.673105,-0.160200,-0.181114,-0.179424,-1882,-70
0.654000,-45.412301,-616.484000,448.201482,-2.186279,-59.326172,-43.226022,-557.157828,-0.435348,-1.240648,-1.675996,-0.160200,-0.181150,-0.181560,-1990,-89
0.656000,-46.622816,-593.731750,460.148784,-2.307129,-60.424805,-44.315687,-533.306945,-0.443378,-1.238853,-1.682231,-0.160200,-0.181228,-0.179424,-2100,-85
0.658000,-47.787228,-570.392000,471.641066,-2.422485,-57.678223,-45.364743,-512.713777,-0.450848,-1.239191,-1.690039,-0.160200,-0.181325,-0.184764,-2205,-78
0.660000,-48.904384,-546.488500,482.666963,-2.542236,-59.875488,-46.362148,-486.613012,-0.457777,-1.233822,-1.691599,-0.160200,-0.181345,-0.176220,-2314,-82
0.662000,-49.973182,-522.044750,493.215571,-2.660889,-59.326172,-47.312293,-462.718578,-0.464184,-1.229553,-1.693737,-0.160200,-0.181372,-0.184764,-2422,-102
0.664000,-50.992563,-497.084500,503.276461,-2.778442,-58.776855,-48.214121,-438.307645,-0.470089,-1.223991,-1.694079,-0.160200,-0.181376,-0.176220,-2529,-101
0.666000,-51.961520,-471.632750,512.839683,-2.897095,-59.326172,-49.064425,-412.306578,-0.475512,-1.216141,-1.691654,-0.160200,-0.181346,-0.180492,-2637,-87
0.668000,-52.879094,-445.714750,521.895780,-3.013550,-58.227539,-49.865544,-387.487211,-0.480477,-1.208464,-1.688941,-0.160200,-0.181312,-0.180492,-2743,-88
0.670000,-53.744379,-419.356000,530.435797,-3.136597,-61.523438,-50.607782,-357.832562,-0.485002,-1.195540,-1.680543,-0.160200,-0.181207,-0.182628,-2855,-103
0.672000,-54.556518,-392.582500,538.451290,-3.262939,-63.171387,-51.293579,-329.411113,-0.489112,-1.182707,-1.671819,-0.160200,-0.181098,-0.178356,-2970,-75
0.674000,-55.314709,-365.420750,545.934333,-3.399170,-68.115234,-51.915539,-297.305516,-0.492826,-1.165545,-1.658371,-0.160200,-0.180930,-0.178356,-3094,-99
0.676000,-56.018201,-337.897750,552.877525,-3.513428,-57.128906,-52.504773,-280.768844,-0.496165,-1.161398,-1.657563,-0.160200,-0.180920,-0.178356,-3198,-87
0.678000,-56.666300,-310.040500,559.274000,-3.638672,-62.622070,-53.027628,-247.418430,-0.499149,-1.141420,-1.640569,-0.160200,-0.180707,-0.181560,-3312,-88
0.680000,-57.258363,-281.876750,565.117435,-3.751831,-56.579590,-53.506532,-225.297160,-0.501798,-1.130474,-1.632272,-0.160200,-0.180603,-0.179424,-3415,-94
0.682000,-57.793807,-253.434250,570.402050,-3.880371,-64.270020,-53.913436,-189.164230,-0.504130,-1.106044,-1.610174,-0.160200,-0.180327,-0.177288,-3532,-82
0.684000,-58.272100,-224.741000,575.122619,-4.016602,-68.115234,-54.255498,-156.625766,-0.506161,-1.083619,-1.589780,-0.160200,-0.180072,-0.182628,-3656,-93
0.686000,-58.692771,-195.825750,579.274475,-4.142944,-63.171387,-54.549827,-132.654363,-0.507907,-1.067837,-1.575744,-0.160200,-0.179897,-0.180492,-3771,-100
0.688000,-59.055403,-166.716750,582.853512,-4.264893,-60.974121,-54.790510,-105.742629,-0.509381,-1.048553,-1.557934,-0.160200,-0.179674,-0.175152,-3882,-99
0.690000,-59.359638,-137.443000,585.856191,-4.371460,-53.283691,-54.988178,-84.159309,-0.510596,-1.033168,-1.543764,-0.160200,-0.179497,-0.180492,-3979,-95
0.692000,-59.605175,-108.033250,588.279543,-4.480225,-54.382324,-55.124950,-53.650926,-0.511562,-1.008931,-1.520493,-0.160200,-0.179206,-0.178356,-4078,-87
0.694000,-59.791771,-78.516750,590.121171,-4.588989,-54.382324,-55.202782,-24.134426,-0.512287,-0.984532,-1.496818,-0.160200,-0.178910,-0.183696,-4177,-81
0.696000,-59.919242,-48.922500,591.379254,-4.703247,-57.128906,-55.215995,8.206406,-0.512778,-0.956539,-1.469317,-0.160200,-0.178566,-0.179424,-4281,-107
0.698000,-59.987461,-19.279750,592.052549,-4.820801,-58.776855,-55.166660,39.497105,-0.513039,-0.928372,-1.441411,-0.160200,-0.178218,-0.177288,-4388,-82
0.700000,-59.996361,10.382000,592.140388,-4.929565,-54.382324,-55.066796,64.764324,-0.513073,-0.904579,-1.417653,0.160200,0.142479,-0.177288,-4487,-98
0.702000,-59.945933,40.033500,591.642687,-5.035034,-52.734375,-54.910899,92.767875,-0.512880,-0.877421,-1.390301,0.160200,0.142821,0.142044,-4583,-26
0.704000,-59.836227,69.645250,590.559936,-5.040527,-2.746582,-54.795700,72.391832,-0.512459,-0.893192,-1.405650,0.160200,0.142629,0.142044,-4588,44
0.706000,-59.667352,99.188000,588.893206,-4.968018,36.254883,-54.699334,62.933117,-0.511804,-0.899764,-1.411568,0.160200,0.142555,0.143112,-4522,62
0.708000,-59.439475,128.633000,586.644146,-4.873535,47.241211,-54.565940,81.391789,-0.510911,-0.881328,-1.392239,0.160200,0.142797,0.140976,-4436,68
0.710000,-59.152820,157.950750,583.814980,-4.774658,49.438477,-54.378162,108.512273,-0.509772,-0.854383,-1.364155,0.160200,0.143148,0.144180,-4346,76
0.712000,-58.807672,187.112000,580.408504,-4.672485,51.086426,-54.135187,136.025574,-0.508377,-0.826133,-1.334510,0.160200,0.143519,0.140976,-4253,63
0.714000,-58.404372,216.088500,576.428088,-4.591187,40.649414,-53.813185,175.439086,-0.506714,-0.786118,-1.292832,0.160200,0.144040,0.142044,-4179,74
0.716000,-57.943318,244.851250,571.877668,-4.513184,39.001465,-53.430134,205.849785,-0.504770,-0.752894,-1.257664,0.160200,0.144479,0.143112,-4108,57
0.718000,-57.424967,273.372000,566.761744,-4.425293,43.945312,-52.999674,229.426688,-0.502530,-0.724806,-1.227337,0.160200,0.144858,0.144180,-4028,56
0.720000,-56.849830,301.622500,561.085374,-4.343994,40.649414,-52.505836,260.973086,-0.499978,-0.688658,-1.188636,0.160200,0.145342,0.147384,-3954,59
0.722000,-56.218477,329.574500,554.854171,-4.258301,42.846680,-51.960176,286.727820,-0.497096,-0.656659,-1.153755,0.160200,0.145778,0.146316,-3876,73
0.724000,-55.531532,357.200500,548.074297,-4.173706,42.297363,-51.357826,314.903137,-0.493866,-0.621558,-1.115424,0.160200,0.146257,0.143112,-3799,63
0.726000,-54.789675,384.473250,540.752457,-4.089111,42.297363,-50.700564,342.175887,-0.490266,-0.586287,-1.076553,0.160200,0.146743,0.147384,-3722,56
0.728000,-53.993639,411.366250,532.895891,-4.006714,41.198730,-49.986925,370.167520,-0.486278,-0.549404,-1.035682,0.160200,0.147254,0.147384,-3647,73
0.730000,-53.144210,437.852250,524.512368,-3.929810,38.452148,-49.214400,399.400102,-0.481879,-0.510411,-0.992290,0.160200,0.147796,0.145248,-3577,57
0.732000,-52.242230,463.905250,515.610177,-3.855103,37.353516,-48.387127,426.551734,-0.477049,-0.472278,-0.949327,0.160200,0.148333,0.146316,-3509,60
0.734000,-51.288589,489.499500,506.198122,-3.784790,35.156250,-47.503799,454.343250,-0.471765,-0.432608,-0.904374,0.160200,0.148895,0.147384,-3445,61
0.736000,-50.284232,514.609750,496.285511,-3.705688,39.550781,-46.578544,475.058969,-0.466007,-0.398382,-0.864389,0.160200,0.149395,0.144180,-3373,51
0.738000,-49.230150,539.211000,485.882144,-3.615601,45.043945,-45.614549,494.167055,-0.459753,-0.364882,-0.824635,0.160200,0.149892,0.149520,-3291,58
0.740000,-48.127388,563.279000,474.998310,-3.529907,42.846680,-44.597481,520.432320,-0.452983,-0.324210,-0.777193,0.160200,0.150485,0.152724,-3213,58
0.742000,-46.977034,586.790500,463.644772,-3.444214,42.846680,-43.532820,543.943820,-0.445677,-0.285111,-0.730787,0.160200,0.151065,0.149520,-3135,51
0.744000,-45.780226,609.721250,451.832755,-3.359619,42.297363,-42.420607,567.423887,-0.437817,-0.245209,-0.683025,0.160200,0.151662,0.153792,-3058,61
0.746000,-44.538149,632.049000,439.573941,-3.275024,42.297363,-41.263125,589.751637,-0.429385,-0.205522,-0.634907,0.160200,0.152264,0.146316,-2981,66
0.748000,-43.252030,653.752250,426.880452,-3.192627,41.198730,-40.059403,612.553520,-0.420367,-0.164615,-0.584981,0.160200,0.152888,0.152724,-2906,55
0.750000,-41.923140,674.808750,413.764839,-3.110229,41.198730,-38.812911,633.610020,-0.410748,-0.124484,-0.535232,0.160200,0.153510,0.150588,-2831,59
0.752000,-40.552795,695.197750,400.240073,-3.030029,40.100098,-37.522766,655.097652,-0.400517,-0.083215,-0.483732,0.160200,0.154153,0.151656,-2758,66
0.754000,-39.142349,714.899500,386.319527,-2.943237,43.395996,-36.199112,671.503504,-0.389665,-0.045796,-0.435461,0.160200,0.154757,0.153792,-2679,56
0.756000,-37.693197,733.894500,372.016967,-2.857544,42.846680,-34.835653,691.047820,-0.378185,-0.004944,-0.383129,0.160200,0.155411,0.154860,-2601,58
0.758000,-36.206771,752.163500,357.346536,-2.768555,44.494629,-33.438216,707.668871,-0.366073,0.033951,-0.332122,0.160200,0.156048,0.155928,-2520,58
0.760000,-34.684543,769.688750,342.322740,-2.678467,45.043945,-32.006076,724.644805,-0.353327,0.073760,-0.279567,0.160200,0.156705,0.158064,-2438,78
0.762000,-33.128016,786.453000,326.960436,-2.587280,45.593262,-30.540736,740.859738,-0.339951,0.113486,-0.226465,0.160200,0.157369,0.158064,-2355,66
0.764000,-31.538731,802.439500,311.274816,-2.494995,46.142578,-29.043736,756.296922,-0.325948,0.153085,-0.172863,0.160200,0.158039,0.154860,-2271,60
0.766000,-29.918258,817.632750,295.281390,-2.404907,45.043945,-27.513351,772.588805,-0.311327,0.194012,-0.117314,0.160200,0.158734,0.158064,-2189,54
0.768000,-28.268200,832.017250,278.995973,-2.315918,44.494629,-25.952282,787.522621,-0.296099,0.234290,-0.061809,0.160200,0.159427,0.160200,-2108,62
0.770000,-26.590189,845.578750,262.434670,-2.215942,49.987793,-24.374247,795.590957,-0.280279,0.268873,-0.011406,0.160200,0.160057,0.159132,-2017,57
0.772000,-24.885885,858.304250,245.613856,-2.115967,49.987793,-22.769918,808.316457,-0.263886,0.307979,0.044093,0.160200,0.160751,0.161268,-1926,73
0.774000,-23.156972,870.181250,228.550165,-2.013794,51.086426,-21.143178,819.094824,-0.246941,0.345777,0.098836,0.160200,0.161435,0.159132,-1833,85
0.776000,-21.405160,881.197750,211.260472,-1.908325,52.734375,-19.496835,828.463375,-0.229469,0.382687,0.153217,0.160200,0.162115,0.160200,-1737,88
0.778000,-19.632181,891.342750,193.761872,-1.800659,53.833008,-17.831522,837.509742,-0.211498,0.419646,0.208148,0.160200,0.162802,0.163404,-1639,79
0.780000,-17.839789,900.606250,176.071670,-1.692993,53.833008,-16.146796,846.773242,-0.193059,0.457134,0.264075,0.160200,0.163501,0.165540,-1541,83
0.782000,-16.029756,908.979500,158.207358,-1.588623,52.185059,-14.441133,856.794441,-0.174187,0.495649,0.321462,0.160200,0.164218,0.164472,-1446,83
0.784000,-14.203871,916.453500,140.186602,-1.476562,56.030273,-12.727308,860.423227,-0.154918,0.528727,0.373809,0.160200,0.164873,0.161268,-1344,69
0.786000,-12.363942,923.021250,122.027222,-1.373291,51.635742,-10.990651,871.385508,-0.135292,0.568604,0.433312,0.160200,0.165616,0.165540,-1250,63
0.788000,-10.511786,928.676750,103.747174,-1.272217,50.537109,-9.239569,878.139641,-0.115351,0.605060,0.489710,0.160200,0.166321,0.160200,-1158,74
0.790000,-8.649235,933.413500,85.364535,-1.159058,56.579590,-7.490177,876.833910,-0.095138,0.634454,0.539316,0.160200,0.166941,0.168744,-1055,77
0.792000,-6.778132,937.227250,66.897484,-1.063477,47.790527,-5.714655,889.436723,-0.074700,0.676440,0.601740,0.160200,0.167722,0.162336,-968,90
0.794000,-4.900326,940.114500,48.364280,-0.961304,51.086426,-3.939022,889.028074,-0.054084,0.707074,0.652990,0.160200,0.168362,0.170880,-875,86
0.796000,-3.017674,942.072000,29.783250,-0.847046,57.128906,-2.170628,884.943094,-0.033339,0.734374,0.701035,0.160200,0.168963,0.164472,-771,71
0.798000,-1.132038,943.097750,11.172770,-0.739380,53.833008,-0.392658,889.264742,-0.012513,0.769177,0.756664,0.160200,0.169658,0.169812,-673,80
0.800000,0.754717,943.191000,-7.448759,-0.639404,49.987793,1.394121,893.203207,0.008343,0.803799,0.812142,0.160200,0.170352,0.166608,-582,85
0.802000,2.640726,942.351500,-26.062922,-0.533936,52.734375,3.174662,889.617125,0.029178,0.831746,0.860924,0.160200,0.170962,0.170880,-486,82
0.804000,4.524123,940.580250,-44.651312,-0.414185,59.875488,4.938308,880.704762,0.049944,0.854750,0.904693,0.160200,0.171509,0.168744,-377,90
0.806000,6.403047,937.879250,-63.195549,-0.295532,59.326172,6.698579,878.553078,0.070590,0.883594,0.954184,0.160200,0.172127,0.173016,-269,81
0.808000,8.275640,934.250250,-81.677295,-0.195557,49.987793,8.471197,884.262457,0.091067,0.919515,1.010582,0.160200,0.172832,0.169812,-178,81
0.810000,10.140048,929.697500,-100.078273,-0.093384,51.086426,10.233432,878.611074,0.111328,0.945340,1.056668,0.160200,0.173408,0.173016,-85,73
0.812000,11.994430,924.225750,-118.380289,0.016479,54.931641,11.977951,869.294109,0.131327,0.967657,1.098984,0.160200,0.173937,0.170880,15,71
0.814000,13.836951,917.839750,-136.565243,0.127441,55.480957,13.709510,862.358793,0.151020,0.991826,1.142846,0.160200,0.174486,0.178356,116,70
0.816000,15.665789,910.546250,-154.615154,0.237305,54.931641,15.428484,855.614609,0.170364,1.015942,1.186306,0.160200,0.175029,0.174084,216,88
0.818000,17.479136,902.352500,-172.512173,0.342773,52.734375,17.136363,849.618125,0.189318,1.040518,1.229836,0.160200,0.175573,0.168744,312,92
0.820000,19.275199,893.266250,-190.238603,0.452637,54.931641,18.822562,838.334609,0.207847,1.060101,1.267947,0.160200,0.176049,0.177288,412,95
0.822000,21.052201,883.296750,-207.776914,0.569092,58.227539,20.483109,825.069211,0.225914,1.077506,1.303420,0.160200,0.176493,0.182628,518,89
0.824000,22.808386,872.453750,-225.109763,0.673462,52.185059,22.134924,820.268691,0.243488,1.102147,1.345635,0.160200,0.177020,0.176220,613,90
0.826000,24.542016,860.748000,-242.220011,0.791016,58.776855,23.751000,801.971145,0.260541,1.114385,1.374926,0.160200,0.177387,0.175152,720,74
0.828000,26.251378,848.191500,-259.090739,0.895386,52.185059,25.355992,796.006441,0.277046,1.137192,1.414238,0.160200,0.177878,0.177288,815,76
0.830000,27.934782,834.795750,-275.705263,1.001953,53.283691,26.932829,781.512059,0.292982,1.152064,1.445046,0.160200,0.178263,0.158064,912,78
0.832000,29.590561,820.574500,-292.047155,1.119507,58.776855,28.471054,761.797645,0.308329,1.161707,1.470037,0.160200,0.178575,0.174084,1019,103
0.834000,31.217080,805.542250,-308.100254,1.223877,52.185059,29.993203,753.357191,0.323073,1.180908,1.503981,0.160200,0.179000,0.175152,1114,103
0.836000,32.812730,789.713000,-323.848686,1.334839,55.480957,31.477891,734.232043,0.337200,1.190131,1.527331,0.160200,0.179292,0.180492,1215,91
0.838000,34.375932,773.103000,-339.276878,1.461182,63.171387,32.914750,709.931613,0.350703,1.194003,1.544706,0.160200,0.179509,0.179424,1330,89
0.840000,35.905142,755.728750,-354.369575,1.585327,62.072754,34.319815,693.655996,0.363574,1.204323,1.567897,0.160200,0.179799,0.174084,1443,92
0.842000,37.398847,737.607000,-369.111851,1.714966,64.819336,35.683881,672.787664,0.375813,1.209919,1.585732,0.160200,0.180022,0.176220,1561,82
0.844000,38.855570,718.755750,-383.489129,1.845703,65.368652,37.009867,653.387098,0.387419,1.216132,1.603551,0.160200,0.180244,0.181560,1680,87
0.846000,40.273870,699.193750,-397.487191,1.972046,63.171387,38.301824,636.022363,0.398396,1.223527,1.621924,0.160200,0.180474,0.183696,1795,91
0.848000,41.652345,678.940500,-411.092196,2.090698,59.326172,39.561647,619.614328,0.408751,1.231196,1.639947,0.160200,0.180699,0.181560,1903,73
0.850000,42.989632,658.015750,-424.290690,2.192871,51.086426,40.796761,606.929324,0.418491,1.241684,1.660175,0.160200,0.180952,0.177288,1996,82
0.852000,44.284408,636.440500,-437.069622,2.295044,51.086426,41.989364,585.354074,0.427629,1.243670,1.671299,0.160200,0.181091,0.179424,2089,98
0.854000,45.535394,614.235750,-449.416355,2.409302,57.128906,43.126092,557.106844,0.436177,1.238860,1.675036,0.160200,0.181138,0.179424,2193,81
0.856000,46.741351,591.423500,-461.318679,2.519165,54.931641,44.222186,536.491859,0.444150,1.240000,1.684150,0.160200,0.181252,0.182628,2293,100
0.858000,47.901088,568.026750,-472.764826,2.645508,63.171387,45.255580,504.855363,0.451565,1.230428,1.681993,0.160200,0.181225,0.181560,2408,92
0.860000,49.013458,544.068250,-483.743477,2.769653,62.072754,46.243805,481.995496,0.458441,1.227727,1.686168,0.160200,0.181277,0.175152,2521,80
0.862000,50.077361,519.571500,-494.243776,2.891602,60.974121,47.185759,458.597379,0.464797,1.223749,1.688545,0.160200,0.181307,0.182628,2632,72
0.864000,51.091744,494.561000,-504.255338,3.013550,60.974121,48.078194,433.586879,0.470652,1.217499,1.688151,0.160200,0.181302,0.177288,2743,105
0.866000,52.055605,469.061500,-513.768265,3.143188,64.819336,48.912417,404.242164,0.476029,1.206451,1.682480,0.160200,0.181231,0.182628,2861,97
0.868000,52.967990,443.098250,-522.773149,3.254150,55.480957,49.713840,387.617293,0.480948,1.205930,1.686879,0.160200,0.181286,0.177288,2962,80
0.870000,53.827998,416.697000,-531.261085,3.364014,54.931641,50.463984,361.765359,0.485432,1.196463,1.681894,0.160200,0.181224,0.183696,3062,88
0.872000,54.634778,389.883250,-539.223681,3.472778,54.382324,51.162000,335.500926,0.489501,1.185725,1.675226,0.160200,0.181140,0.177288,3161,103
0.874000,55.387531,362.684250,-546.653063,3.583740,55.480957,51.803791,307.203293,0.493176,1.172232,1.665408,0.160200,0.181018,0.185832,3262,94
0.876000,56.085515,335.126750,-553.541883,3.694702,55.480957,52.390813,279.645793,0.496479,1.158429,1.654908,0.160200,0.180886,0.181560,3363,80
0.878000,56.728038,307.237500,-559.883330,3.818848,62.072754,52.909190,245.164746,0.499429,1.137386,1.636815,0.160200,0.180660,0.183696,3476,81
0.880000,57.314465,279.044500,-565.671134,3.927612,54.382324,53.386853,224.662176,0.502046,1.127831,1.629877,0.160200,0.180573,0.178356,3575,105
0.882000,57.844216,250.575750,-570.899570,4.036377,54.382324,53.807839,196.193426,0.504346,1.110335,1.614681,0.160200,0.180384,0.183696,3674,96
0.884000,58.316768,221.859250,-575.563469,4.145142,54.382324,54.171626,167.476926,0.506348,1.091624,1.597973,0.160200,0.180175,0.183696,3773,91
0.886000,58.731653,192.923000,-579.658219,4.265991,60.424805,54.465662,132.498195,0.508066,1.066232,1.574298,0.160200,0.179879,0.181560,3883,76
0.888000,59.088460,163.796250,-583.179770,4.396729,65.368652,54.691731,98.427598,0.509514,1.040445,1.549959,0.160200,0.179574,0.181560,4002,97
0.890000,59.386838,134.507750,-586.124640,4.523071,63.171387,54.863767,71.336363,0.510704,1.019806,1.530510,0.160200,0.179331,0.177288,4117,95
0.892000,59.626491,105.085750,-588.489918,4.657104,67.016602,54.969387,38.069148,0.511645,0.992618,1.504263,0.160200,0.179003,0.178356,4239,97
0.894000,59.807181,75.560000,-590.273264,4.787842,65.368652,55.019339,10.191348,0.512346,0.969162,1.481509,0.160200,0.178719,0.182628,4358,95
0.896000,59.928731,45.960000,-591.472915,4.902100,57.128906,55.026631,-11.168906,0.512814,0.950649,1.463464,0.160200,0.178493,0.181560,4462,78
0.898000,59.991021,16.314000,-592.087684,5.033936,65.917969,54.957085,-49.603969,0.513053,0.915894,1.428947,0.160200,0.178062,0.177288,4582,99
0.900000,59.993987,-13.348000,-592.116964,5.156982,61.523438,54.837005,-74.871438,0.513064,0.891749,1.404813,-0.160200,-0.142640,0.177288,4694,94
0.902000,59.937629,-42.996750,-591.560726,5.274536,58.776855,54.663093,-101.773605,0.512848,0.865237,1.378085,-0.160200,-0.142974,-0.140976,4801,28
0.904000,59.822000,-72.603250,-590.419519,5.282227,3.845215,54.539773,-76.448465,0.512404,0.885185,1.397588,-0.160200,-0.142730,-0.145248,4808,-46
0.906000,59.647216,-102.137500,-588.694473,5.208618,-36.804199,54.438598,-65.333301,0.511726,0.893119,1.404844,-0.160200,-0.142639,-0.144180,4741,-76
0.908000,59.413450,-131.570750,-586.387293,5.121826,-43.395996,54.291624,-88.174754,0.510809,0.870621,1.381429,-0.160200,-0.142932,-0.136704,4662,-85
0.910000,59.120933,-160.874250,-583.500260,5.005371,-58.227539,54.115562,-102.646711,0.509644,0.854919,1.364563,-0.160200,-0.143143,-0.140976,4556,-85
0.912000,58.769953,-190.018750,-580.036229,4.907593,-48.889160,53.862360,-141.129590,0.508223,0.816917,1.325140,-0.160200,-0.143636,-0.146316,4467,-81
0.914000,58.360858,-218.975000,-575.998627,4.815308,-46.142578,53.545550,-172.832422,0.506533,0.783721,1.290254,-0.160200,-0.144072,-0.144180,4383,-62
0.916000,57.894053,-247.714750,-571.391445,4.732910,-41.198730,53.161143,-206.516020,0.504560,0.747618,1.252178,-0.160200,-0.144548,-0.140976,4308,-54
0.918000,57.369999,-276.209500,-566.219239,4.658203,-37.353516,52.711796,-238.855984,0.502290,0.711553,1.213843,-0.160200,-0.145027,-0.146316,4240,-74
0.920000,56.789215,-304.431250,-560.487123,4.569214,-44.494629,52.220001,-259.936621,0.499705,0.684573,1.184279,-0.160200,-0.145397,-0.142044,4159,-61
0.922000,56.152274,-332.352250,-554.200767,4.485718,-41.748047,51.666556,-290.604203,0.496789,0.648152,1.144941,-0.160200,-0.145888,-0.146316,4083,-67
0.924000,55.459806,-359.944250,-547.366387,4.403320,-41.198730,51.056486,-318.745520,0.493523,0.612946,1.106469,-0.160200,-0.146369,-0.143112,4008,-62
0.926000,54.712497,-387.180250,-539.990739,4.319824,-41.748047,50.392673,-345.432203,0.489885,0.578072,1.067957,-0.160200,-0.146851,-0.150588,3932,-64
0.928000,53.911085,-414.033500,-532.081119,4.239624,-40.100098,49.671461,-373.933402,0.485857,0.540612,1.026469,-0.160200,-0.147369,-0.147384,3859,-66
0.930000,53.056363,-440.477500,-523.645347,4.163818,-37.902832,48.892545,-402.574668,0.481416,0.502023,0.983439,-0.160200,-0.147907,-0.146316,3790,-70
0.932000,52.149175,-466.485750,-514.691766,4.082520,-40.649414,48.066655,-425.836336,0.476541,0.467309,0.943850,-0.160200,-0.148402,-0.150588,3716,-73
0.934000,51.190420,-492.032750,-505.229228,3.993530,-44.494629,47.196890,-447.538121,0.471211,0.433190,0.904402,-0.160200,-0.148895,-0.148452,3635,-70
0.936000,50.181044,-517.093250,-495.267092,3.902344,-45.593262,46.278700,-471.499988,0.465404,0.396254,0.861659,-0.160200,-0.149429,-0.147384,3552,-63
0.938000,49.122047,-541.642250,-484.815208,3.806763,-47.790527,45.315284,-493.851723,0.459100,0.359934,0.819034,-0.160200,-0.149962,-0.147384,3465,-60
0.940000,48.014475,-565.655750,-473.883912,3.721069,-42.846680,44.293406,-522.809070,0.452277,0.316829,0.769105,-0.160200,-0.150586,-0.148452,3387,-52
0.942000,46.859424,-589.109750,-462.484012,3.638672,-41.198730,43.220752,-547.911020,0.444916,0.276202,0.721118,-0.160200,-0.151186,-0.150588,3312,-61
0.944000,45.658036,-611.981500,-450.626783,3.556274,-41.198730,42.101762,-570.782770,0.436999,0.236712,0.673712,-0.160200,-0.151779,-0.150588,3237,-73
0.946000,44.411498,-634.248000,-438.323949,3.471680,-42.297363,40.939818,-591.950637,0.428510,0.197960,0.626470,-0.160200,-0.152369,-0.153792,3160,-54
0.948000,43.121044,-655.887250,-425.587675,3.388184,-41.748047,39.732860,-614.139203,0.419432,0.157532,0.576964,-0.160200,-0.152988,-0.152724,3084,-70
0.950000,41.787949,-676.878000,-412.430557,3.310181,-39.001465,38.477768,-637.876535,0.409752,0.114911,0.524664,-0.160200,-0.153642,-0.150588,3013,-59
0.952000,40.413532,-697.199250,-398.865605,3.227783,-41.198730,37.185749,-656.000520,0.399460,0.076545,0.476005,-0.160200,-0.154250,-0.152724,2938,-55
0.954000,38.999152,-716.831250,-384.906231,3.143188,-42.297363,35.855964,-674.533887,0.388545,0.037163,0.425708,-0.160200,-0.154879,-0.155928,2861,-64
0.956000,37.546207,-735.754250,-370.566241,3.054199,-44.494629,34.492008,-691.259621,0.377002,-0.001239,0.375763,-0.160200,-0.155503,-0.156996,2780,-65
0.958000,36.056135,-753.949750,-355.859815,2.966309,-43.945312,33.089826,-710.004438,0.364827,-0.042069,0.322757,-0.160200,-0.156166,-0.153792,2700,-66
0.960000,34.530408,-771.399750,-340.801494,2.879517,-43.395996,31.650891,-728.003754,0.352018,-0.082891,0.269127,-0.160200,-0.156836,-0.156996,2621,-56
0.962000,32.970536,-788.087000,-325.406170,2.789429,-45.043945,30.181107,-743.043055,0.338579,-0.121668,0.216911,-0.160200,-0.157489,-0.154860,2539,-63
0.964000,31.378060,-803.994750,-309.689066,2.710327,-39.550781,28.667733,-764.443969,0.324513,-0.166757,0.157757,-0.160200,-0.158228,-0.163404,2467,-65
0.966000,29.754557,-819.107500,-293.665724,2.619141,-45.593262,27.135416,-773.514238,0.309831,-0.201416,0.108415,-0.160200,-0.158845,-0.158064,2384,-66
0.968000,28.101630,-833.410500,-277.351990,2.516968,-51.086426,25.584662,-782.324074,0.294543,-0.236170,0.058373,-0.160200,-0.159470,-0.159132,2291,-75
0.970000,26.420915,-846.889250,-260.763994,2.430176,-43.395996,23.990739,-803.493254,0.278666,-0.282463,-0.003797,-0.160200,-0.160247,-0.156996,2212,-80
0.972000,24.714073,-859.530750,-243.918140,2.332397,-48.889160,22.381676,-810.641590,0.262216,-0.316784,-0.054568,-0.160200,-0.160882,-0.162336,2123,-59
0.974000,22.982792,-871.322000,-226.831086,2.248901,-41.748047,20.733891,-829.573953,0.245217,-0.362065,-0.116848,-0.160200,-0.161661,-0.163404,2047,-71
0.976000,21.228785,-882.251500,-209.519729,2.158813,-45.043945,19.069972,-837.207555,0.227694,-0.397768,-0.170074,-0.160200,-0.162326,-0.161268,1965,-71
0.978000,19.453786,-892.308750,-192.001187,2.072021,-43.395996,17.381765,-848.912754,0.209675,-0.437447,-0.227772,-0.160200,-0.163047,-0.164472,1886,-74
0.980000,17.659550,-901.483750,-174.292784,1.983032,-44.494629,15.676518,-856.989121,0.191191,-0.474257,-0.283066,-0.160200,-0.163738,-0.162336,1805,-65
0.982000,15.847851,-909.767250,-156.412030,1.890747,-46.142578,13.957104,-863.624672,0.172277,-0.510057,-0.337780,-0.160200,-0.164422,-0.159132,1721,-71
0.984000,14.020481,-917.151250,-138.376607,1.799561,-45.593262,12.220920,-871.557988,0.152971,-0.547283,-0.394312,-0.160200,-0.165129,-0.162336,1638,-92
0.986000,12.179246,-923.628250,-120.204350,1.705078,-47.241211,10.474168,-876.387039,0.133311,-0.581983,-0.448672,-0.160200,-0.165808,-0.168744,1552,-69
0.988000,10.325968,-929.191750,-101.913228,1.606201,-49.438477,8.719767,-879.753273,0.113341,-0.615541,-0.502200,-0.160200,-0.166478,-0.164472,1462,-83
0.990000,8.462479,-933.836500,-83.521328,1.496338,-54.931641,6.966141,-878.904859,0.093104,-0.645407,-0.552303,-0.160200,-0.167104,-0.164472,1362,-84
0.992000,6.590622,-937.557750,-65.046838,1.402954,-46.691895,5.187668,-890.865855,0.072646,-0.686885,-0.614239,-0.160200,-0.167878,-0.167676,1277,-71
0.994000,4.712248,-940.352000,-46.508026,1.302979,-49.987793,3.409269,-890.364207,0.052015,-0.717486,-0.665472,-0.160200,-0.168518,-0.165540,1186,-74
0.996000,2.829214,-942.216500,-27.923224,1.194214,-54.382324,1.635000,-887.834176,0.031259,-0.746245,-0.714986,-0.160200,-0.169137,-0.168744,1087,-77
0.998000,0.943382,-943.149000,-9.310810,1.095337,-49.438477,-0.151955,-893.710523,0.010428,-0.782562,-0.772134,-0.160200,-0.169852,-0.164472,997,-80
1.000000,-0.943382,-943.149000,9.310810,0.995361,-49.987793,-1.938743,-893.161207,-0.010428,-0.813268,-0.823696,-0.160200,-0.170496,-0.168744,906,-77
1.002000,-2.829214,-942.216500,27.923224,0.901978,-46.691895,-3.731192,-895.524605,-0.031259,-0.846614,-0.877873,-0.160200,-0.171173,-0.169812,821,-84
1.004000,-4.712248,-940.352000,46.508026,0.799805,-51.086426,-5.512053,-889.265574,-0.052015,-0.872234,-0.924249,-0.160200,-0.171753,-0.167676,728,-88
1.006000,-6.590622,-937.557750,65.046838,0.699829,-49.987793,-7.290451,-887.569957,-0.072646,-0.901793,-0.974439,-0.160200,-0.172380,-0.170880,637,-63
1.008000,-8.462479,-933.836500,83.521328,0.593262,-53.283691,-9.055741,-880.552809,-0.093104,-0.926480,-1.019583,-0.160200,-0.172945,-0.173016,540,-68
1.010000,-10.325968,-929.191750,101.913228,0.487793,-52.734375,-10.813761,-876.457375,-0.113341,-0.953589,-1.066930,-0.160200,-0.173537,-0.175152,444,-71
1.012000,-12.179246,-923.628250,120.204350,0.377930,-54.931641,-12.557176,-868.696609,-0.133311,-0.977245,-1.110556,-0.160200,-0.174082,-0.171948,344,-81
1.014000,-14.020481,-917.151250,138.376607,0.268066,-54.931641,-14.288547,-862.219609,-0.152971,-1.001811,-1.154782,-0.160200,-0.174635,-0.169812,244,-89
1.016000,-15.847851,-909.767250,156.412030,0.156006,-56.030273,-16.003857,-853.736977,-0.172277,-1.024346,-1.196623,-0.160200,-0.175158,-0.175152,142,-77
1.018000,-17.659550,-901.483750,174.292784,0.057129,-49.438477,-17.716679,-852.045273,-0.191191,-1.052764,-1.243955,-0.160200,-0.175749,-0.169812,52,-95
1.020000,-19.453786,-892.308750,192.001187,-0.045044,-51.086426,-19.408742,-841.222324,-0.209675,-1.072851,-1.282526,-0.160200,-0.176232,-0.175152,-41,-94
1.022000,-21.228785,-882.251500,209.519729,-0.152710,-53.833008,-21.076075,-828.418492,-0.227694,-1.090778,-1.318473,-0.160200,-0.176681,-0.168744,-139,-88
1.024000,-22.982792,-871.322000,226.831086,-0.273560,-60.424805,-22.709232,-810.897195,-0.245217,-1.103992,-1.349210,-0.160200,-0.177065,-0.174084,-249,-93
1.026000,-24.714073,-859.530750,243.918140,-0.397705,-62.072754,-24.316368,-797.457996,-0.262216,-1.120314,-1.382530,-0.160200,-0.177482,-0.177288,-362,-75
1.028000,-26.420915,-846.889250,260.763994,-0.518555,-60.424805,-25.902360,-786.464445,-0.278666,-1.138401,-1.417067,-0.160200,-0.177913,-0.177288,-472,-96
1.030000,-28.101630,-833.410500,277.351990,-0.639404,-60.424805,-27.462226,-772.985695,-0.294543,-1.153864,-1.448407,-0.160200,-0.178305,-0.178356,-582,-97
1.032000,-29.754557,-819.107500,293.665724,-0.761353,-60.974121,-28.993204,-758.133379,-0.309831,-1.167623,-1.477454,-0.160200,-0.178668,-0.178356,-693,-100
1.034000,-31.378060,-803.994750,309.689066,-0.895386,-67.016602,-30.482674,-736.978148,-0.324513,-1.175158,-1.499671,-0.160200,-0.178946,-0.176220,-815,-79
1.036000,-32.970536,-788.087000,325.406170,-1.016235,-60.424805,-31.954301,-727.662195,-0.338579,-1.192713,-1.531291,-0.160200,-0.179341,-0.176220,-925,-74
1.038000,-34.530408,-771.399750,340.801494,-1.138184,-60.974121,-33.392224,-710.425629,-0.352018,-1.202768,-1.554786,-0.160200,-0.179635,-0.179424,-1036,-75
1.040000,-36.056135,-753.949750,355.859815,-1.271118,-66.467285,-34.785017,-687.482465,-0.364827,-1.207055,-1.571881,-0.160200,-0.179849,-0.178356,-1157,-100
1.042000,-37.546207,-735.754250,370.566241,-1.401855,-65.368652,-36.144352,-670.385598,-0.377002,-1.215860,-1.592862,-0.160200,-0.180111,-0.177288,-1276,-73
1.044000,-38.999152,-716.831250,384.906231,-1.535889,-67.016602,-37.463263,-649.814648,-0.388545,-1.220928,-1.609473,-0.160200,-0.180318,-0.186900,-1398,-99
1.046000,-40.413532,-697.199250,398.865605,-1.660034,-62.072754,-38.753498,-635.126496,-0.399460,-1.230629,-1.630088,-0.160200,-0.180576,-0.180492,-1511,-88
1.048000,-41.787949,-676.878000,412.430557,-1.791870,-65.917969,-39.996079,-610.960031,-0.409752,-1.231226,-1.640979,-0.160200,-0.180712,-0.183696,-1631,-72
1.050000,-43.121044,-655.887250,425.587675,-1.920410,-64.270020,-41.200634,-591.617230,-0.419432,-1.235370,-1.654802,-0.160200,-0.180885,-0.175152,-1748,-97
1.052000,-44.411498,-634.248000,438.323949,-2.051147,-65.368652,-42.360351,-568.879348,-0.428510,-1.235768,-1.664278,-0.160200,-0.181003,-0.182628,-1867,-78
1.054000,-45.658036,-611.981500,450.626783,-2.176392,-62.622070,-43.481644,-549.359430,-0.436999,-1.238304,-1.675304,-0.160200,-0.181141,-0.180492,-1981,-82
1.056000,-46.859424,-589.109750,462.484012,-2.297241,-60.424805,-44.562183,-528.684945,-0.444916,-1.239121,-1.684038,-0.160200,-0.181250,-0.179424,-2091,-79
1.058000,-48.014475,-565.655750,473.883912,-2.427979,-65.368652,-45.586496,-500.287098,-0.452277,-1.232217,-1.684494,-0.160200,-0.181256,-0.181560,-2210,-99
1.060000,-49.122047,-541.642250,484.815208,-2.549927,-60.974121,-46.572120,-480.668129,-0.459100,-1.232299,-1.691399,-0.160200,-0.181342,-0.189036,-2321,-101
1.062000,-50.181044,-517.093250,495.267092,-2.682861,-66.467285,-47.498183,-450.625965,-0.465404,-1.222245,-1.687649,-0.160200,-0.181296,-0.181560,-2442,-83
1.064000,-51.190420,-492.032750,505.229228,-2.821289,-69.213867,-48.369131,-422.818883,-0.471211,-1.213180,-1.684391,-0.160200,-0.181255,-0.181560,-2568,-102
1.066000,-52.149175,-466.485750,514.691766,-2.955322,-67.016602,-49.193853,-399.469148,-0.476541,-1.207197,-1.683739,-0.160200,-0.181247,-0.177288,-2690,-103
1.068000,-53.056363,-440.477500,523.645347,-3.092651,-68.664551,-49.963712,-371.812949,-0.481416,-1.196499,-1.677915,-0.160200,-0.181174,-0.182628,-2815,-94
1.070000,-53.911085,-414.033500,532.081119,-3.217896,-62.622070,-50.693189,-351.411430,-0.485857,-1.191427,-1.677284,-0.160200,-0.181166,-0.181560,-2929,-105
1.072000,-54.712497,-387.180250,539.990739,-3.354126,-68.115234,-51.358371,-319.065016,-0.489885,-1.174809,-1.664695,-0.160200,-0.181009,-0.177288,-3053,-87
1.074000,-55.459806,-359.944250,547.366387,-3.484863,-65.368652,-51.974943,-294.575598,-0.493523,-1.164200,-1.657722,-0.160200,-0.180922,-0.178356,-3172,-96
1.076000,-56.152274,-332.352250,554.200767,-3.622192,-68.664551,-52.530082,-263.687699,-0.496789,-1.146934,-1.643723,-0.160200,-0.180747,-0.181560,-3297,-99
1.078000,-56.789215,-304.431250,560.487123,-3.745239,-61.523438,-53.043976,-242.907813,-0.499705,-1.137769,-1.637474,-0.160200,-0.180668,-0.181560,-3409,-103
1.080000,-57.369999,-276.209500,566.219239,-3.879272,-67.016602,-53.490727,-209.192898,-0.502290,-1.116145,-1.618434,-0.160200,-0.180430,-0.179424,-3531,-87
1.082000,-57.894053,-247.714750,571.391445,-4.011108,-65.917969,-53.882945,-181.796781,-0.504560,-1.099082,-1.603642,-0.160200,-0.180246,-0.176220,-3651,-100
1.084000,-58.360858,-218.975000,575.998627,-4.131958,-60.424805,-54.228900,-158.550195,-0.506533,-1.084834,-1.591367,-0.160200,-0.180092,-0.180492,-3761,-82
1.086000,-58.769953,-190.018750,580.036229,-4.248413,-58.227539,-54.521540,-131.791211,-0.508223,-1.066590,-1.574813,-0.160200,-0.179885,-0.180492,-3867,-78
1.088000,-59.120933,-160.874250,583.500260,-4.380249,-65.917969,-54.740684,-94.956281,-0.509644,-1.038270,-1.547915,-0.160200,-0.179549,-0.180492,-3987,-99
1.090000,-59.413450,-131.570750,586.387293,-4.518677,-69.213867,-54.894773,-62.356883,-0.510809,-1.012511,-1.523320,-0.160200,-0.179241,-0.178356,-4113,-91
1.092000,-59.647216,-102.137500,588.694473,-4.631836,-56.579590,-55.015380,-45.557910,-0.511726,-0.999956,-1.511682,-0.160200,-0.179096,-0.182628,-4216,-105
1.094000,-59.822000,-72.603250,590.419519,-4.754883,-61.523438,-55.067117,-11.079813,-0.512404,-0.970771,-1.483175,-0.160200,-0.178740,-0.179424,-4328,-101
1.096000,-59.937629,-42.996750,591.560726,-4.882324,-63.720703,-55.055305,20.723953,-0.512848,-0.942811,-1.455660,-0.160200,-0.178396,-0.181560,-4444,-84
1.098000,-59.993987,-13.348000,592.116964,-5.015259,-66.467285,-54.978728,53.119285,-0.513064,-0.913205,-1.426269,-0.160200,-0.178028,-0.176220,-4565,-110
1.100000,-59.991021,16.314000,592.087684,-5.137207,-60.974121,-54.853814,77.288121,-0.513053,-0.889933,-1.402986,0.160200,0.142663,-0.180492,-4676,-99
1.102000,-59.928731,45.960000,591.472915,-5.251465,-57.128906,-54.677266,103.088906,-0.512814,-0.864336,-1.377151,0.160200,0.142986,0.144180,-4780,-19
1.104000,-59.807181,75.560000,590.273264,-5.247070,2.197266,-54.560111,73.362734,-0.512346,-0.888233,-1.400579,0.160200,0.142693,0.142044,-4776,52
1.106000,-59.626491,105.085750,588.489918,-5.166870,40.100098,-54.459621,64.985652,-0.511645,-0.893789,-1.405434,0.160200,0.142632,0.142044,-4703,78
1.108000,-59.386838,134.507750,586.124640,-5.066895,49.987793,-54.319943,84.519957,-0.510704,-0.874304,-1.385008,0.160200,0.142887,0.140976,-4612,71
1.110000,-59.088460,163.796250,583.179770,-4.946045,60.424805,-54.142415,103.371445,-0.509514,-0.854755,-1.364269,0.160200,0.143147,0.142044,-4502,90
1.112000,-58.731653,192.923000,579.658219,-4.854858,45.593262,-53.876795,147.329738,-0.508066,-0.811758,-1.319824,0.160200,0.143702,0.143112,-4419,85
1.114000,-58.316768,221.859250,575.563469,-4.770264,42.297363,-53.546504,179.561887,-0.506348,-0.777865,-1.284214,0.160200,0.144147,0.145248,-4342,69
1.116000,-57.844216,250.575750,570.899570,-4.679077,45.593262,-53.165139,204.982488,-0.504346,-0.749026,-1.253372,0.160200,0.144533,0.142044,-4259,63
1.118000,-57.314465,279.044500,565.671134,-4.606567,36.254883,-52.707898,242.789617,-0.502046,-0.708052,-1.210098,0.160200,0.145074,0.145248,-4193,67
1.120000,-56.728038,307.237500,559.883330,-4.534058,36.254883,-52.193980,270.982617,-0.499429,-0.674480,-1.173909,0.160200,0.145526,0.148452,-4127,53
1.122000,-56.085515,335.126750,553.541883,-4.447266,43.395996,-51.638249,291.730754,-0.496479,-0.646674,-1.143153,0.160200,0.145911,0.146316,-4048,62
1.124000,-55.387531,362.684250,546.653063,-4.363770,41.748047,-51.023761,320.936203,-0.493176,-0.610463,-1.103639,0.160200,0.146405,0.148452,-3972,72
1.126000,-54.634778,389.883250,539.223681,-4.275879,43.945312,-50.358899,345.937938,-0.489501,-0.577041,-1.066541,0.160200,0.146868,0.145248,-3892,62
1.128000,-53.827998,416.697000,531.261085,-4.203369,36.254883,-49.624629,380.442117,-0.485432,-0.534115,-1.019547,0.160200,0.147456,0.147384,-3826,61
1.130000,-52.967990,443.098250,522.773149,-4.116577,43.395996,-48.851413,399.702254,-0.480948,-0.503812,-0.984760,0.160200,0.147890,0.144180,-3747,69
1.132000,-52.055605,469.061500,513.768265,-4.029785,43.395996,-48.025820,425.665504,-0.476029,-0.466745,-0.942775,0.160200,0.148415,0.147384,-3668,64
1.134000,-51.091744,494.561000,504.255338,-3.945190,42.297363,-47.146554,452.263637,-0.470652,-0.428188,-0.898841,0.160200,0.148964,0.151656,-3591,53
1.136000,-50.077361,519.571500,494.243776,-3.861694,41.748047,-46.215667,477.823453,-0.464797,-0.389636,-0.854433,0.160200,0.149520,0.147384,-3515,58
1.138000,-49.013458,544.068250,483.743477,-3.779297,41.198730,-45.234161,502.869520,-0.458441,-0.350649,-0.809090,0.160200,0.150086,0.150588,-3440,60
1.140000,-47.901088,568.026750,472.764826,-3.694702,42.297363,-44.206386,525.729387,-0.451565,-0.312762,-0.764327,0.160200,0.150646,0.150588,-3363,64
1.142000,-46.741351,591.423500,461.318679,-3.613403,40.649414,-43.127948,550.774086,-0.444150,-0.272084,-0.716233,0.160200,0.151247,0.151656,-3289,61
1.144000,-45.535394,614.235750,449.416355,-3.533203,40.100098,-42.002191,574.135652,-0.436177,-0.232049,-0.668225,0.160200,0.151847,0.153792,-3216,68
1.146000,-44.284408,636.440500,437.069622,-3.445312,43.945312,-40.839095,592.495187,-0.427629,-0.195727,-0.623356,0.160200,0.152408,0.153792,-3136,64
1.148000,-42.989632,658.015750,424.290690,-3.350830,47.241211,-39.638802,610.774539,-0.418491,-0.158826,-0.577318,0.160200,0.152984,0.154860,-3050,55
1.150000,-41.652345,678.940500,411.092196,-3.271729,39.550781,-38.380616,639.389719,-0.408751,-0.111895,-0.520646,0.160200,0.153692,0.152724,-2978,67
1.152000,-40.273870,699.193750,397.487191,-3.194824,38.452148,-37.079046,660.741602,-0.398396,-0.070546,-0.468942,0.160200,0.154338,0.153792,-2908,57
1.154000,-38.855570,718.755750,383.489129,-3.108032,43.395996,-35.747538,675.359754,-0.387419,-0.034550,-0.421969,0.160200,0.154925,0.153792,-2829,50
1.156000,-37.398847,737.607000,369.111851,-3.021240,43.395996,-34.377607,694.211004,-0.375813,0.005811,-0.370002,0.160200,0.155575,0.154860,-2750,72
1.158000,-35.905142,755.728750,354.369575,-2.942139,39.550781,-32.963003,716.177969,-0.363574,0.049670,-0.313904,0.160200,0.156276,0.151656,-2678,79
1.160000,-34.375932,773.103000,339.276878,-2.845459,48.339844,-31.530473,724.763156,-0.350703,0.082165,-0.268538,0.160200,0.156843,0.155928,-2590,54
1.162000,-32.812730,789.713000,323.848686,-2.752075,46.691895,-30.060655,743.021105,-0.337200,0.123751,-0.213449,0.160200,0.157532,0.162336,-2505,58
1.164000,-31.217080,805.542250,308.100254,-2.663086,44.494629,-28.553994,761.047621,-0.323073,0.165778,-0.157295,0.160200,0.158234,0.152724,-2424,78
1.166000,-29.590561,820.574500,292.047155,-2.560913,51.086426,-27.029648,769.488074,-0.308329,0.199749,-0.108581,0.160200,0.158843,0.158064,-2331,62
1.168000,-27.934782,834.795750,275.705263,-2.462036,49.438477,-25.472746,785.357273,-0.292982,0.240770,-0.052212,0.160200,0.159547,0.159132,-2241,64
1.170000,-26.251378,848.191500,259.090739,-2.362061,49.987793,-23.889317,798.203707,-0.277046,0.279617,0.002571,0.160200,0.160232,0.161268,-2150,78
1.172000,-24.542016,860.748000,242.220011,-2.270874,45.593262,-22.271142,815.154738,-0.260541,0.322652,0.062111,0.160200,0.160976,0.160200,-2067,74
1.174000,-22.808386,872.453750,225.109763,-2.188477,41.198730,-20.619909,831.255020,-0.243488,0.365522,0.122033,0.160200,0.161725,0.161268,-1992,73
1.176000,-21.052201,883.296750,207.776914,-2.085205,51.635742,-18.966996,831.661008,-0.225914,0.394725,0.168811,0.160200,0.162310,0.156996,-1898,57
1.178000,-19.275199,893.266250,190.238603,-1.991821,46.691895,-17.283378,846.574355,-0.207847,0.437124,0.229277,0.160200,0.163066,0.162336,-1813,78
1.180000,-17.479136,902.352500,172.512173,-1.898438,46.691895,-15.580699,855.660605,-0.189318,0.474770,0.285452,0.160200,0.163768,0.169812,-1728,65
1.182000,-15.665789,910.546250,154.615154,-1.795166,51.635742,-13.870623,858.910508,-0.170364,0.507453,0.337089,0.160200,0.164414,0.163404,-1634,89
1.184000,-13.836951,917.839750,136.565243,-1.696289,49.438477,-12.140662,868.401273,-0.151020,0.545929,0.394908,0.160200,0.165136,0.162336,-1544,76
1.186000,-11.994430,924.225750,118.380289,-1.609497,43.395996,-10.384933,880.829754,-0.131327,0.587418,0.456090,0.160200,0.165901,0.166608,-1465,77
1.188000,-10.140048,929.697500,100.078273,-1.519409,45.043945,-8.620639,884.653555,-0.111328,0.621547,0.510219,0.160200,0.166578,0.164472,-1383,93
1.190000,-8.275640,934.250250,81.677295,-1.421631,48.889160,-6.854009,885.361090,-0.091067,0.652998,0.561931,0.160200,0.167224,0.166608,-1294,79
1.192000,-6.403047,937.879250,63.195549,-1.326050,47.790527,-5.076997,890.088723,-0.070590,0.688139,0.617549,0.160200,0.167919,0.162336,-1207,82
1.194000,-4.524123,940.580250,44.651312,-1.218384,53.833008,-3.305739,886.747242,-0.049944,0.716137,0.666193,0.160200,0.168527,0.167676,-1109,75
1.196000,-2.640726,942.351500,26.062922,-1.116211,51.086426,-1.524515,891.265074,-0.029178,0.751168,0.721989,0.160200,0.169225,0.170880,-1016,80
1.198000,-0.754717,943.191000,7.448759,-1.023926,46.142578,0.269209,897.048422,-0.008343,0.787521,0.779178,0.160200,0.169940,0.167676,-932,91
1.200000,1.132038,943.097750,-11.172770,-0.930542,46.691895,2.062580,896.405855,0.012513,0.818260,0.830774,0.160200,0.170585,0.170880,-847,67
1.202000,3.017674,942.072000,-29.783250,-0.822876,53.833008,3.840550,888.238992,0.033339,0.842165,0.875504,0.160200,0.171144,0.173016,-749,78
1.204000,4.900326,940.114500,-48.364280,-0.707520,57.678223,5.607846,882.436277,0.054084,0.867946,0.922030,0.160200,0.171725,0.169812,-644,71
1.206000,6.778132,937.227250,-66.897484,-0.592163,57.678223,7.370295,879.549027,0.074700,0.896187,0.970887,0.160200,0.172336,0.170880,-539,86
1.208000,8.649235,933.413500,-85.364535,-0.483398,54.382324,9.132633,879.031176,0.095138,0.926494,1.021632,0.160200,0.172970,0.177288,-440,92
1.210000,10.511786,928.676750,-103.747174,-0.374634,54.382324,10.886420,874.294426,0.115351,0.952970,1.068320,0.160200,0.173554,0.176220,-341,92
1.212000,12.363942,923.021250,-122.027222,-0.264771,54.931641,12.628713,868.089609,0.135292,0.977964,1.113256,0.160200,0.174116,0.176220,-241,74
1.214000,14.203871,916.453500,-140.186602,-0.161499,51.635742,14.365370,864.817758,0.154918,1.005419,1.160337,0.160200,0.174704,0.174084,-147,83
1.216000,16.029756,908.979500,-158.207358,-0.062622,49.438477,16.092378,859.541023,0.174187,1.030956,1.205143,0.160200,0.175264,0.173016,-57,87
1.218000,17.839789,900.606250,-176.071670,0.038452,50.537109,17.801337,850.069141,0.193059,1.052517,1.245577,0.160200,0.175770,0.174084,35,96
1.220000,19.632181,891.342750,-193.761872,0.159302,60.424805,19.472879,830.917945,0.211498,1.064979,1.276477,0.160200,0.176156,0.177288,145,82
1.222000,21.405160,881.197750,-211.260472,0.286743,63.720703,21.118417,817.477047,0.229469,1.081969,1.311438,0.160200,0.176593,0.181560,261,93
1.224000,23.156972,870.181250,-228.550165,0.395508,54.382324,22.761464,815.798926,0.246941,1.109181,1.356123,0.160200,0.177152,0.178356,360,95
1.226000,24.885885,858.304250,-245.613856,0.498779,51.635742,24.387106,806.668508,0.263886,1.129586,1.393473,0.160200,0.177618,0.176220,454,91
1.228000,26.590189,845.578750,-262.434670,0.617432,59.326172,25.972757,786.252578,0.280279,1.139445,1.419724,0.160200,0.177947,0.178356,562,79
1.230000,28.268200,832.017250,-278.995973,0.725098,53.833008,27.543102,778.184242,0.296099,1.159812,1.455911,0.160200,0.178399,0.179424,660,102
1.232000,29.918258,817.632750,-295.281390,0.836060,55.480957,29.082198,762.151793,0.311327,1.172683,1.484010,0.160200,0.178750,0.174084,761,96
1.234000,31.538731,802.439500,-311.274816,0.941528,52.734375,30.597203,749.705125,0.325948,1.188263,1.514211,0.160200,0.179128,0.175152,857,104
1.236000,33.128016,786.453000,-326.960436,1.048096,53.283691,32.079920,733.169309,0.339951,1.199711,1.539662,0.160200,0.179446,0.179424,954,96
1.238000,34.684543,769.688750,-342.322740,1.153564,52.734375,33.530979,716.954375,0.353327,1.210887,1.564214,0.160200,0.179753,0.181560,1050,103
1.240000,36.206771,752.163500,-357.346536,1.259033,52.734375,34.947738,699.429125,0.366073,1.220320,1.586393,0.160200,0.180030,0.180492,1146,105
1.242000,37.693197,733.894500,-372.016967,1.371094,56.030273,36.322103,677.864227,0.378185,1.225488,1.603673,0.160200,0.180246,0.178356,1248,79
1.244000,39.142349,714.899500,-386.319527,1.484253,56.579590,37.658096,658.319910,0.389665,1.231750,1.621415,0.160200,0.180468,0.178356,1351,95
1.246000,40.552795,695.197750,-400.240073,1.589722,52.734375,38.963073,642.463375,0.400517,1.240689,1.641206,0.160200,0.180715,0.177288,1447,94
1.248000,41.923140,674.808750,-413.764839,1.695190,52.734375,40.227950,622.074375,0.410748,1.244972,1.655720,0.160200,0.180897,0.179424,1543,96
1.250000,43.252030,653.752250,-426.880452,1.800659,52.734375,41.451371,601.017875,0.420367,1.247950,1.668317,0.160200,0.181054,0.174084,1639,94
1.252000,44.538149,632.049000,-439.573941,1.905029,52.185059,42.633120,579.863941,0.429385,1.250115,1.679500,0.160200,0.181194,0.181560,1734,87
1.254000,45.780226,609.721250,-451.832755,2.008301,51.635742,43.771925,558.085508,0.437817,1.250986,1.688802,0.160200,0.181310,0.180492,1828,76
1.256000,46.977034,586.790500,-463.644772,2.115967,53.833008,44.861067,532.957492,0.445677,1.248066,1.693743,0.160200,0.181372,0.179424,1926,95
1.258000,48.127388,563.279000,-474.998310,2.220337,52.185059,45.907051,511.093941,0.452983,1.247243,1.700226,0.160200,0.181453,0.184764,2021,86
1.260000,49.230150,539.211000,-485.882144,2.324707,52.185059,46.905443,487.025941,0.459753,1.243665,1.703418,0.160200,0.181493,0.181560,2116,84
1.262000,50.284232,514.609750,-496.285511,2.435669,55.480957,47.848563,459.128793,0.466007,1.235780,1.701788,0.160200,0.181472,0.179424,2217,99
1.264000,51.288589,489.499500,-506.198122,2.542236,53.283691,48.746353,436.215809,0.471765,1.231454,1.703220,0.160200,0.181490,0.183696,2314,92
1.266000,52.242230,463.905250,-515.610177,2.656494,57.128906,49.585736,406.776344,0.477049,1.220414,1.697463,0.160200,0.181418,0.183696,2418,102
1.268000,53.144210,437.852250,-524.512368,2.781738,62.622070,50.362472,375.230180,0.481879,1.206441,1.688320,0.160200,0.181304,0.180492,2532,106
1.270000,53.993639,411.366250,-532.895891,2.904785,61.523438,51.088854,349.842813,0.486278,1.196964,1.683242,0.160200,0.181241,0.182628,2644,103
1.272000,54.789675,384.473250,-540.752457,3.041016,68.115234,51.748659,316.358016,0.490266,1.179259,1.669525,0.160200,0.181069,0.181560,2768,96
1.274000,55.531532,357.200500,-548.074297,3.156372,57.678223,52.375160,299.522277,0.493866,1.175501,1.669367,0.160200,0.181067,0.183696,2873,108
1.276000,56.218477,329.574500,-554.854171,3.267334,55.480957,52.951143,274.093543,0.497096,1.163364,1.660460,0.160200,0.180956,0.179424,2974,77
1.278000,56.849830,301.622500,-561.085374,3.372803,52.734375,53.477027,248.888125,0.499978,1.150546,1.650524,0.160200,0.180832,0.178356,3070,78
1.280000,57.424967,273.372000,-566.761744,3.479370,53.283691,53.945597,220.088309,0.502530,1.133592,1.636122,0.160200,0.180652,0.179424,3167,83
1.282000,57.943318,244.851250,-571.877668,3.601318,60.974121,54.342000,183.877129,0.504770,1.108910,1.613680,0.160200,0.180371,0.179424,3278,81
1.284000,58.404372,216.088500,-576.428088,3.718872,58.776855,54.685500,157.311645,0.506714,1.091722,1.598436,0.160200,0.180180,0.181560,3385,105
1.286000,58.807672,187.112000,-580.408504,3.827637,54.382324,54.980035,132.729676,0.508377,1.075411,1.583788,0.160200,0.179997,0.179424,3484,88
1.288000,59.152820,157.950750,-583.814980,3.937500,54.931641,55.215320,103.019109,0.509772,1.053590,1.563362,0.160200,0.179742,0.180492,3584,79
1.290000,59.439475,128.633000,-586.644146,4.046265,54.382324,55.393210,74.250676,0.510911,1.031590,1.542501,0.160200,0.179481,0.181560,3683,90
1.292000,59.667352,99.188000,-588.893206,4.158325,56.030273,55.509027,43.157727,0.511804,1.006478,1.518282,0.160200,0.179179,0.180492,3785,99
1.294000,59.836227,69.645250,-590.559936,4.265991,53.833008,55.570236,15.812242,0.512459,0.983682,1.496141,0.160200,0.178902,0.181560,3883,90
1.296000,59.945933,40.033500,-591.642687,4.373657,53.833008,55.572276,-13.799508,0.512880,0.957877,1.470757,0.160200,0.178584,0.181560,3981,80
1.298000,59.996361,10.382000,-592.140388,4.481323,53.833008,55.515038,-43.451008,0.513073,0.931002,1.444075,0.160200,0.178251,0.175152,4079,78
1.300000,59.987461,-19.279750,-592.052549,4.601074,59.875488,55.386387,-79.155238,0.513039,0.897599,1.410638,-0.160200,-0.142567,0.179424,4188,80
1.302000,59.919242,-48.922500,-591.379254,4.714233,56.579590,55.205009,-105.502090,0.512778,0.871441,1.384219,-0.160200,-0.142897,-0.143112,4291,29
1.304000,59.791771,-78.516750,-590.121171,4.720825,3.295898,55.070946,-81.812648,0.512287,0.889774,1.402061,-0.160200,-0.142674,-0.137772,4297,-44
1.306000,59.605175,-108.033250,-588.279543,4.664795,-28.015137,54.940380,-80.018113,0.511562,0.889062,1.400623,-0.160200,-0.142692,-0.142044,4246,-60
1.308000,59.359638,-137.443000,-585.856191,4.579102,-42.846680,54.780536,-94.596320,0.510596,0.873550,1.384146,-0.160200,-0.142898,-0.140976,4168,-73
1.310000,59.055403,-166.716750,-582.853512,4.484619,-47.241211,54.570784,-119.475539,0.509381,0.848178,1.357559,-0.160200,-0.143231,-0.139908,4082,-85
1.312000,58.692771,-195.825750,-579.274475,4.385742,-49.438477,54.307029,-146.387273,0.507907,0.820089,1.327996,-0.160200,-0.143600,-0.143112,3992,-88
1.314000,58.272100,-224.741000,-575.122619,4.285767,-49.987793,53.986333,-174.753207,0.506161,0.789738,1.295899,-0.160200,-0.144001,-0.140976,3901,-64
1.316000,57.793807,-253.434250,-570.402050,4.187988,-48.889160,53.605819,-204.545090,0.504130,0.757099,1.261229,-0.160200,-0.144435,-0.143112,3812,-68
1.318000,57.258363,-281.876750,-565.117435,4.109985,-39.001465,53.148378,-242.875285,0.501798,0.715666,1.217464,-0.160200,-0.144982,-0.140976,3741,-66
1.320000,56.666300,-310.040500,-559.274000,4.033081,-38.452148,52.633219,-271.588352,0.499149,0.681617,1.180767,-0.160200,-0.145440,-0.144180,3671,-58
1.322000,56.018201,-337.897750,-552.877525,3.956177,-38.452148,52.062024,-299.445602,0.496165,0.647338,1.143503,-0.160200,-0.145906,-0.145248,3601,-69
1.324000,55.314709,-365.420750,-545.934333,3.879272,-38.452148,51.435437,-326.968602,0.492826,0.612384,1.105209,-0.160200,-0.146385,-0.143112,3531,-64
1.326000,54.556518,-392.582500,-538.451290,3.804565,-37.353516,50.751953,-355.228984,0.489112,0.575793,1.064905,-0.160200,-0.146889,-0.145248,3463,-60
1.328000,53.744379,-419.356000,-530.435797,3.728760,-37.902832,50.015619,-381.453168,0.485002,0.540057,1.025059,-0.160200,-0.147387,-0.151656,3394,-73
1.330000,52.879094,-445.714750,-521.895780,3.654053,-37.353516,49.225041,-408.361234,0.480477,0.502777,0.983253,-0.160200,-0.147909,-0.148452,3326,-71
1.332000,51.961520,-471.632750,-512.839683,3.580444,-36.804199,48.381076,-434.828551,0.475512,0.464950,0.940462,-0.160200,-0.148444,-0.147384,3259,-60
1.334000,50.992563,-497.084500,-503.276461,3.506836,-36.804199,47.485727,-460.280301,0.470089,0.427112,0.897201,-0.160200,-0.148985,-0.151656,3192,-49
